(Exported by FreeCAD)
(Post Processor: grbl_post)
(Output Time:2020-02-17 21:50:51.080320)
(begin preamble)
G17 G90
G21
(begin operation: Default Tool)
(Path: Default Tool)
(Default Tool)
(begin toolchange)
; M6 T1
M3 S800.0000
(finish operation: Default Tool)
(begin operation: TagDressup)
(Path: TagDressup)
G0 Z5.0000
G0 X11.2652 Y-15.2348 Z5.0000
G0 X11.2652 Y-15.2348 Z3.0000
G1 X11.2652 Y-15.2348 Z-1.0000 F240.00
G2 X11.3000 Y-15.3674 Z-1.0000 I-0.0961 J-0.0961 F240.00
G1 X11.3000 Y-36.6326 Z-1.0000 F240.00
G2 X11.1326 Y-36.8000 Z-1.0000 I-0.1309 J-0.0365 F240.00
G1 X-11.1326 Y-36.8000 Z-1.0000 F240.00
G2 X-11.3000 Y-36.6326 Z-1.0000 I-0.0365 J0.1309 F240.00
G1 X-11.3000 Y-15.3674 Z-1.0000 F240.00
G2 X-11.1326 Y-15.2000 Z-1.0000 I0.1309 J0.0365 F240.00
G1 X11.1326 Y-15.2000 Z-1.0000 F240.00
G2 X11.2652 Y-15.2348 Z-1.0000 I0.0365 J-0.1309 F240.00
G1 X11.2652 Y-15.2348 Z-2.0000 F240.00
G2 X11.3000 Y-15.3674 Z-2.0000 I-0.0961 J-0.0961 F240.00
G1 X11.3000 Y-36.6326 Z-2.0000 F240.00
G2 X11.1326 Y-36.8000 Z-2.0000 I-0.1309 J-0.0365 F240.00
G1 X-11.1326 Y-36.8000 Z-2.0000 F240.00
G2 X-11.3000 Y-36.6326 Z-2.0000 I-0.0365 J0.1309 F240.00
G1 X-11.3000 Y-15.3674 Z-2.0000 F240.00
G2 X-11.1326 Y-15.2000 Z-2.0000 I0.1309 J0.0365 F240.00
G1 X11.1326 Y-15.2000 Z-2.0000 F240.00
G2 X11.2652 Y-15.2348 Z-2.0000 I0.0365 J-0.1309 F240.00
G1 X11.2652 Y-15.2348 Z-3.0000 F240.00
G2 X11.3000 Y-15.3674 Z-3.0000 I-0.0961 J-0.0961 F240.00
G1 X11.3000 Y-36.6326 Z-3.0000 F240.00
G2 X11.1326 Y-36.8000 Z-3.0000 I-0.1309 J-0.0365 F240.00
G1 X-11.1326 Y-36.8000 Z-3.0000 F240.00
G2 X-11.3000 Y-36.6326 Z-3.0000 I-0.0365 J0.1309 F240.00
G1 X-11.3000 Y-15.3674 Z-3.0000 F240.00
G2 X-11.1326 Y-15.2000 Z-3.0000 I0.1309 J0.0365 F240.00
G1 X11.1326 Y-15.2000 Z-3.0000 F240.00
G2 X11.2652 Y-15.2348 Z-3.0000 I0.0365 J-0.1309 F240.00
G1 X11.2652 Y-15.2348 Z-4.0000 F240.00
G2 X11.3000 Y-15.3674 Z-4.0000 I-0.0961 J-0.0961 F240.00
G1 X11.3000 Y-36.6326 Z-4.0000 F240.00
G2 X11.1326 Y-36.8000 Z-4.0000 I-0.1309 J-0.0365 F240.00
G1 X-11.1326 Y-36.8000 Z-4.0000 F240.00
G2 X-11.3000 Y-36.6326 Z-4.0000 I-0.0365 J0.1309 F240.00
G1 X-11.3000 Y-15.3674 Z-4.0000 F240.00
G2 X-11.1326 Y-15.2000 Z-4.0000 I0.1309 J0.0365 F240.00
G1 X11.1326 Y-15.2000 Z-4.0000 F240.00
G2 X11.2652 Y-15.2348 Z-4.0000 I0.0365 J-0.1309 F240.00
G1 X11.2652 Y-15.2348 Z-5.0000 F240.00
G2 X11.3000 Y-15.3674 Z-5.0000 I-0.0961 J-0.0961 F240.00
G1 X11.3000 Y-36.6326 Z-5.0000 F240.00
G2 X11.1326 Y-36.8000 Z-5.0000 I-0.1309 J-0.0365 F240.00
G1 X-11.1326 Y-36.8000 Z-5.0000 F240.00
G2 X-11.3000 Y-36.6326 Z-5.0000 I-0.0365 J0.1309 F240.00
G1 X-11.3000 Y-15.3674 Z-5.0000 F240.00
G2 X-11.1326 Y-15.2000 Z-5.0000 I0.1309 J0.0365 F240.00
G1 X11.1326 Y-15.2000 Z-5.0000 F240.00
G2 X11.2652 Y-15.2348 Z-5.0000 I0.0365 J-0.1309 F240.00
G1 X11.2652 Y-15.2348 Z-6.0000 F240.00
G2 X11.3000 Y-15.3674 Z-6.0000 I-0.0961 J-0.0961 F240.00
G1 X11.3000 Y-36.6326 Z-6.0000 F240.00
G2 X11.1326 Y-36.8000 Z-6.0000 I-0.1309 J-0.0365 F240.00
G1 X-11.1326 Y-36.8000 Z-6.0000 F240.00
G2 X-11.3000 Y-36.6326 Z-6.0000 I-0.0365 J0.1309 F240.00
G1 X-11.3000 Y-15.3674 Z-6.0000 F240.00
G2 X-11.1326 Y-15.2000 Z-6.0000 I0.1309 J0.0365 F240.00
G1 X11.1326 Y-15.2000 Z-6.0000 F240.00
G2 X11.2652 Y-15.2348 Z-6.0000 I0.0365 J-0.1309 F240.00
G1 X11.2652 Y-15.2348 Z-7.0000 F240.00
G2 X11.3000 Y-15.3674 Z-7.0000 I-0.0961 J-0.0961 F240.00
G1 X11.3000 Y-36.6326 Z-7.0000 F240.00
G2 X11.1326 Y-36.8000 Z-7.0000 I-0.1309 J-0.0365 F240.00
G1 X-11.1326 Y-36.8000 Z-7.0000 F240.00
G2 X-11.3000 Y-36.6326 Z-7.0000 I-0.0365 J0.1309 F240.00
G1 X-11.3000 Y-15.3674 Z-7.0000 F240.00
G2 X-11.1326 Y-15.2000 Z-7.0000 I0.1309 J0.0365 F240.00
G1 X11.1326 Y-15.2000 Z-7.0000 F240.00
G2 X11.2652 Y-15.2348 Z-7.0000 I0.0365 J-0.1309 F240.00
G1 X11.2652 Y-15.2348 Z-8.0000 F240.00
G2 X11.3000 Y-15.3674 Z-8.0000 I-0.0961 J-0.0961 F240.00
G1 X11.3000 Y-36.6326 Z-8.0000 F240.00
G2 X11.1326 Y-36.8000 Z-8.0000 I-0.1309 J-0.0365 F240.00
G1 X-11.1326 Y-36.8000 Z-8.0000 F240.00
G2 X-11.3000 Y-36.6326 Z-8.0000 I-0.0365 J0.1309 F240.00
G1 X-11.3000 Y-15.3674 Z-8.0000 F240.00
G2 X-11.1326 Y-15.2000 Z-8.0000 I0.1309 J0.0365 F240.00
G1 X11.1326 Y-15.2000 Z-8.0000 F240.00
G2 X11.2652 Y-15.2348 Z-8.0000 I0.0365 J-0.1309 F240.00
G1 X11.2652 Y-15.2348 Z-9.0000 F240.00
G2 X11.3000 Y-15.3674 Z-9.0000 I-0.0961 J-0.0961 F240.00
G1 X11.3000 Y-36.6326 Z-9.0000 F240.00
G2 X11.1326 Y-36.8000 Z-9.0000 I-0.1309 J-0.0365 F240.00
G1 X0.8067 Y-36.8000 Z-9.0000 F240.00
G1 X-0.0000 Y-36.8000 Z-8.1853 F240.00
G1 X-0.8067 Y-36.8000 Z-9.0000 F240.00
G1 X-11.1326 Y-36.8000 Z-9.0000 F240.00
G2 X-11.3000 Y-36.6326 Z-9.0000 I-0.0365 J0.1309 F240.00
G1 X-11.3000 Y-15.3674 Z-9.0000 F240.00
G2 X-11.1326 Y-15.2000 Z-9.0000 I0.1309 J0.0365 F240.00
G1 X-0.8067 Y-15.2000 Z-9.0000 F240.00
G1 X0.0000 Y-15.2000 Z-8.1853 F240.00
G1 X0.8067 Y-15.2000 Z-9.0000 F240.00
G1 X11.1326 Y-15.2000 Z-9.0000 F240.00
G2 X11.2652 Y-15.2348 Z-9.0000 I0.0365 J-0.1309 F240.00
G1 X11.2652 Y-15.2348 Z-10.0000 F240.00
G2 X11.3000 Y-15.3674 Z-10.0000 I-0.0961 J-0.0961 F240.00
G1 X11.3000 Y-36.6326 Z-10.0000 F240.00
G2 X11.1326 Y-36.8000 Z-10.0000 I-0.1309 J-0.0365 F240.00
G1 X1.7968 Y-36.8000 Z-10.0000 F240.00
G1 X-0.0000 Y-36.8000 Z-8.1853 F240.00
G1 X-1.7968 Y-36.8000 Z-10.0000 F240.00
G1 X-11.1326 Y-36.8000 Z-10.0000 F240.00
G2 X-11.3000 Y-36.6326 Z-10.0000 I-0.0365 J0.1309 F240.00
G1 X-11.3000 Y-15.3674 Z-10.0000 F240.00
G2 X-11.1326 Y-15.2000 Z-10.0000 I0.1309 J0.0365 F240.00
G1 X-1.7968 Y-15.2000 Z-10.0000 F240.00
G1 X0.0000 Y-15.2000 Z-8.1853 F240.00
G1 X1.7968 Y-15.2000 Z-10.0000 F240.00
G1 X11.1326 Y-15.2000 Z-10.0000 F240.00
G2 X11.2652 Y-15.2348 Z-10.0000 I0.0365 J-0.1309 F240.00
G1 X11.2652 Y-15.2348 Z-11.0000 F240.00
G2 X11.3000 Y-15.3674 Z-11.0000 I-0.0961 J-0.0961 F240.00
G1 X11.3000 Y-36.6326 Z-11.0000 F240.00
G2 X11.1326 Y-36.8000 Z-11.0000 I-0.1309 J-0.0365 F240.00
G1 X2.7868 Y-36.8000 Z-11.0000 F240.00
G1 X-0.0000 Y-36.8000 Z-8.1853 F240.00
G1 X-2.7869 Y-36.8000 Z-11.0000 F240.00
G1 X-11.1326 Y-36.8000 Z-11.0000 F240.00
G2 X-11.3000 Y-36.6326 Z-11.0000 I-0.0365 J0.1309 F240.00
G1 X-11.3000 Y-15.3674 Z-11.0000 F240.00
G2 X-11.1326 Y-15.2000 Z-11.0000 I0.1309 J0.0365 F240.00
G1 X-2.7868 Y-15.2000 Z-11.0000 F240.00
G1 X0.0000 Y-15.2000 Z-8.1853 F240.00
G1 X2.7869 Y-15.2000 Z-11.0000 F240.00
G1 X11.1326 Y-15.2000 Z-11.0000 F240.00
G2 X11.2652 Y-15.2348 Z-11.0000 I0.0365 J-0.1309 F240.00
G0 X11.2652 Y-15.2348 Z5.0000
(finish operation: TagDressup)
(begin postamble)
M5
G17 G90
; M2
