(Exported by FreeCAD)
(Post Processor: grbl_post)
(Output Time:2020-02-10 20:29:36.461221)
(begin preamble)
G17 G90
G21
(begin operation: Default Tool)
(Path: Default Tool)
(Default Tool)
(begin toolchange)
; M6 T1
M3 S800.0000
(finish operation: Default Tool)
(begin operation: Pocket_Shape)
(Path: Pocket_Shape)
(Pocket_Shape)
G0 Z5.0000
G0 X13.8000 Y-1.2000
G0 Z3.0000
G1 X13.8000 Y-1.2000 Z-1.0000 F240.00
G1 X13.8000 Y-40.8000 Z-1.0000 F240.00
G1 X1.2000 Y-40.8000 Z-1.0000 F240.00
G1 X1.2000 Y-1.2000 Z-1.0000 F240.00
G1 X13.8000 Y-1.2000 Z-1.0000 F240.00
G0 X13.8000 Y-1.2000 Z5.0000
G0 X2.4883 Y-1.2000 Z5.0000
G0 X2.4883 Y-1.2000 Z2.0000
G1 X2.4883 Y-1.2000 Z-1.0000 F240.00
G1 X1.2000 Y-2.4883 Z-1.0000 F240.00
G1 X1.2000 Y-1.2000 Z-1.0000 F240.00
G1 X2.4883 Y-1.2000 Z-1.0000 F240.00
G1 X5.8824 Y-1.2000 Z-1.0000 F240.00
G1 X1.2000 Y-5.8824 Z-1.0000 F240.00
G1 X1.2000 Y-9.2765 Z-1.0000 F240.00
G1 X9.2765 Y-1.2000 Z-1.0000 F240.00
G1 X12.6706 Y-1.2000 Z-1.0000 F240.00
G1 X1.2000 Y-12.6706 Z-1.0000 F240.00
G1 X1.2000 Y-16.0648 Z-1.0000 F240.00
G1 X13.8000 Y-3.4648 Z-1.0000 F240.00
G1 X13.8000 Y-6.8589 Z-1.0000 F240.00
G1 X1.2000 Y-19.4589 Z-1.0000 F240.00
G1 X1.2000 Y-22.8530 Z-1.0000 F240.00
G1 X13.8000 Y-10.2530 Z-1.0000 F240.00
G1 X13.8000 Y-13.6471 Z-1.0000 F240.00
G1 X1.2000 Y-26.2471 Z-1.0000 F240.00
G1 X1.2000 Y-29.6412 Z-1.0000 F240.00
G1 X13.8000 Y-17.0412 Z-1.0000 F240.00
G1 X13.8000 Y-20.4353 Z-1.0000 F240.00
G1 X1.2000 Y-33.0353 Z-1.0000 F240.00
G1 X1.2000 Y-36.4294 Z-1.0000 F240.00
G1 X13.8000 Y-23.8294 Z-1.0000 F240.00
G1 X13.8000 Y-27.2235 Z-1.0000 F240.00
G1 X1.2000 Y-39.8235 Z-1.0000 F240.00
G1 X1.2000 Y-40.8000 Z-1.0000 F240.00
G1 X3.6177 Y-40.8000 Z-1.0000 F240.00
G1 X13.8000 Y-30.6177 Z-1.0000 F240.00
G1 X13.8000 Y-34.0118 Z-1.0000 F240.00
G1 X7.0118 Y-40.8000 Z-1.0000 F240.00
G1 X10.4059 Y-40.8000 Z-1.0000 F240.00
G1 X13.8000 Y-37.4059 Z-1.0000 F240.00
G1 X13.8000 Y-40.8000 Z-1.0000 F240.00
G1 X13.8000 Y-40.8000 Z-2.0000 F240.00
G1 X13.8000 Y-37.4059 Z-2.0000 F240.00
G1 X10.4059 Y-40.8000 Z-2.0000 F240.00
G1 X7.0118 Y-40.8000 Z-2.0000 F240.00
G1 X13.8000 Y-34.0118 Z-2.0000 F240.00
G1 X13.8000 Y-30.6177 Z-2.0000 F240.00
G1 X3.6177 Y-40.8000 Z-2.0000 F240.00
G1 X1.2000 Y-40.8000 Z-2.0000 F240.00
G1 X1.2000 Y-39.8235 Z-2.0000 F240.00
G1 X13.8000 Y-27.2235 Z-2.0000 F240.00
G1 X13.8000 Y-23.8294 Z-2.0000 F240.00
G1 X1.2000 Y-36.4294 Z-2.0000 F240.00
G1 X1.2000 Y-33.0353 Z-2.0000 F240.00
G1 X13.8000 Y-20.4353 Z-2.0000 F240.00
G1 X13.8000 Y-17.0412 Z-2.0000 F240.00
G1 X1.2000 Y-29.6412 Z-2.0000 F240.00
G1 X1.2000 Y-26.2471 Z-2.0000 F240.00
G1 X13.8000 Y-13.6471 Z-2.0000 F240.00
G1 X13.8000 Y-10.2530 Z-2.0000 F240.00
G1 X1.2000 Y-22.8530 Z-2.0000 F240.00
G1 X1.2000 Y-19.4589 Z-2.0000 F240.00
G1 X13.8000 Y-6.8589 Z-2.0000 F240.00
G1 X13.8000 Y-3.4648 Z-2.0000 F240.00
G1 X1.2000 Y-16.0648 Z-2.0000 F240.00
G1 X1.2000 Y-12.6706 Z-2.0000 F240.00
G1 X12.6706 Y-1.2000 Z-2.0000 F240.00
G1 X9.2765 Y-1.2000 Z-2.0000 F240.00
G1 X1.2000 Y-9.2765 Z-2.0000 F240.00
G1 X1.2000 Y-5.8824 Z-2.0000 F240.00
G1 X5.8824 Y-1.2000 Z-2.0000 F240.00
G1 X2.4883 Y-1.2000 Z-2.0000 F240.00
G1 X1.2000 Y-1.2000 Z-2.0000 F240.00
G1 X1.2000 Y-2.4883 Z-2.0000 F240.00
G1 X2.4883 Y-1.2000 Z-2.0000 F240.00
G1 X2.4883 Y-1.2000 Z-2.0000 F240.00
G1 X13.8000 Y-1.2000 Z-2.0000 F240.00
G1 X13.8000 Y-40.8000 Z-2.0000 F240.00
G1 X1.2000 Y-40.8000 Z-2.0000 F240.00
G1 X1.2000 Y-1.2000 Z-2.0000 F240.00
G1 X2.4883 Y-1.2000 Z-2.0000 F240.00
G1 X2.4883 Y-1.2000 Z-3.0000 F240.00
G1 X13.8000 Y-1.2000 Z-3.0000 F240.00
G1 X13.8000 Y-40.8000 Z-3.0000 F240.00
G1 X1.2000 Y-40.8000 Z-3.0000 F240.00
G1 X1.2000 Y-1.2000 Z-3.0000 F240.00
G1 X2.4883 Y-1.2000 Z-3.0000 F240.00
G1 X2.4883 Y-1.2000 Z-3.0000 F240.00
G1 X1.2000 Y-2.4883 Z-3.0000 F240.00
G1 X1.2000 Y-1.2000 Z-3.0000 F240.00
G1 X2.4883 Y-1.2000 Z-3.0000 F240.00
G1 X5.8824 Y-1.2000 Z-3.0000 F240.00
G1 X1.2000 Y-5.8824 Z-3.0000 F240.00
G1 X1.2000 Y-9.2765 Z-3.0000 F240.00
G1 X9.2765 Y-1.2000 Z-3.0000 F240.00
G1 X12.6706 Y-1.2000 Z-3.0000 F240.00
G1 X1.2000 Y-12.6706 Z-3.0000 F240.00
G1 X1.2000 Y-16.0648 Z-3.0000 F240.00
G1 X13.8000 Y-3.4648 Z-3.0000 F240.00
G1 X13.8000 Y-6.8589 Z-3.0000 F240.00
G1 X1.2000 Y-19.4589 Z-3.0000 F240.00
G1 X1.2000 Y-22.8530 Z-3.0000 F240.00
G1 X13.8000 Y-10.2530 Z-3.0000 F240.00
G1 X13.8000 Y-13.6471 Z-3.0000 F240.00
G1 X1.2000 Y-26.2471 Z-3.0000 F240.00
G1 X1.2000 Y-29.6412 Z-3.0000 F240.00
G1 X13.8000 Y-17.0412 Z-3.0000 F240.00
G1 X13.8000 Y-20.4353 Z-3.0000 F240.00
G1 X1.2000 Y-33.0353 Z-3.0000 F240.00
G1 X1.2000 Y-36.4294 Z-3.0000 F240.00
G1 X13.8000 Y-23.8294 Z-3.0000 F240.00
G1 X13.8000 Y-27.2235 Z-3.0000 F240.00
G1 X1.2000 Y-39.8235 Z-3.0000 F240.00
G1 X1.2000 Y-40.8000 Z-3.0000 F240.00
G1 X3.6177 Y-40.8000 Z-3.0000 F240.00
G1 X13.8000 Y-30.6177 Z-3.0000 F240.00
G1 X13.8000 Y-34.0118 Z-3.0000 F240.00
G1 X7.0118 Y-40.8000 Z-3.0000 F240.00
G1 X10.4059 Y-40.8000 Z-3.0000 F240.00
G1 X13.8000 Y-37.4059 Z-3.0000 F240.00
G1 X13.8000 Y-40.8000 Z-3.0000 F240.00
G1 X13.8000 Y-40.8000 Z-4.0000 F240.00
G1 X13.8000 Y-37.4059 Z-4.0000 F240.00
G1 X10.4059 Y-40.8000 Z-4.0000 F240.00
G1 X7.0118 Y-40.8000 Z-4.0000 F240.00
G1 X13.8000 Y-34.0118 Z-4.0000 F240.00
G1 X13.8000 Y-30.6177 Z-4.0000 F240.00
G1 X3.6177 Y-40.8000 Z-4.0000 F240.00
G1 X1.2000 Y-40.8000 Z-4.0000 F240.00
G1 X1.2000 Y-39.8235 Z-4.0000 F240.00
G1 X13.8000 Y-27.2235 Z-4.0000 F240.00
G1 X13.8000 Y-23.8294 Z-4.0000 F240.00
G1 X1.2000 Y-36.4294 Z-4.0000 F240.00
G1 X1.2000 Y-33.0353 Z-4.0000 F240.00
G1 X13.8000 Y-20.4353 Z-4.0000 F240.00
G1 X13.8000 Y-17.0412 Z-4.0000 F240.00
G1 X1.2000 Y-29.6412 Z-4.0000 F240.00
G1 X1.2000 Y-26.2471 Z-4.0000 F240.00
G1 X13.8000 Y-13.6471 Z-4.0000 F240.00
G1 X13.8000 Y-10.2530 Z-4.0000 F240.00
G1 X1.2000 Y-22.8530 Z-4.0000 F240.00
G1 X1.2000 Y-19.4589 Z-4.0000 F240.00
G1 X13.8000 Y-6.8589 Z-4.0000 F240.00
G1 X13.8000 Y-3.4648 Z-4.0000 F240.00
G1 X1.2000 Y-16.0648 Z-4.0000 F240.00
G1 X1.2000 Y-12.6706 Z-4.0000 F240.00
G1 X12.6706 Y-1.2000 Z-4.0000 F240.00
G1 X9.2765 Y-1.2000 Z-4.0000 F240.00
G1 X1.2000 Y-9.2765 Z-4.0000 F240.00
G1 X1.2000 Y-5.8824 Z-4.0000 F240.00
G1 X5.8824 Y-1.2000 Z-4.0000 F240.00
G1 X2.4883 Y-1.2000 Z-4.0000 F240.00
G1 X1.2000 Y-1.2000 Z-4.0000 F240.00
G1 X1.2000 Y-2.4883 Z-4.0000 F240.00
G1 X2.4883 Y-1.2000 Z-4.0000 F240.00
G1 X2.4883 Y-1.2000 Z-4.0000 F240.00
G1 X13.8000 Y-1.2000 Z-4.0000 F240.00
G1 X13.8000 Y-40.8000 Z-4.0000 F240.00
G1 X1.2000 Y-40.8000 Z-4.0000 F240.00
G1 X1.2000 Y-1.2000 Z-4.0000 F240.00
G1 X2.4883 Y-1.2000 Z-4.0000 F240.00
G0 Z5.0000
G0 X13.8000 Y-73.2000
G0 Z3.0000
G1 X13.8000 Y-73.2000 Z-1.0000 F240.00
G1 X13.8000 Y-98.8000 Z-1.0000 F240.00
G1 X1.2000 Y-98.8000 Z-1.0000 F240.00
G1 X1.2000 Y-73.2000 Z-1.0000 F240.00
G1 X13.8000 Y-73.2000 Z-1.0000 F240.00
G1 X13.8000 Y-73.2000 Z-1.0000 F240.00
G1 X10.4059 Y-73.2000 Z-1.0000 F240.00
G1 X13.8000 Y-76.5941 Z-1.0000 F240.00
G1 X13.8000 Y-79.9882 Z-1.0000 F240.00
G1 X7.0118 Y-73.2000 Z-1.0000 F240.00
G1 X3.6177 Y-73.2000 Z-1.0000 F240.00
G1 X13.8000 Y-83.3823 Z-1.0000 F240.00
G1 X13.8000 Y-86.7765 Z-1.0000 F240.00
G1 X1.2000 Y-74.1765 Z-1.0000 F240.00
G1 X1.2000 Y-77.5706 Z-1.0000 F240.00
G1 X13.8000 Y-90.1706 Z-1.0000 F240.00
G1 X13.8000 Y-93.5647 Z-1.0000 F240.00
G1 X1.2000 Y-80.9647 Z-1.0000 F240.00
G1 X1.2000 Y-84.3588 Z-1.0000 F240.00
G1 X13.8000 Y-96.9588 Z-1.0000 F240.00
G1 X13.8000 Y-98.8000 Z-1.0000 F240.00
G1 X12.2471 Y-98.8000 Z-1.0000 F240.00
G1 X1.2000 Y-87.7529 Z-1.0000 F240.00
G1 X1.2000 Y-91.1470 Z-1.0000 F240.00
G1 X8.8530 Y-98.8000 Z-1.0000 F240.00
G1 X5.4589 Y-98.8000 Z-1.0000 F240.00
G1 X1.2000 Y-94.5411 Z-1.0000 F240.00
G1 X1.2000 Y-97.9352 Z-1.0000 F240.00
G1 X2.0648 Y-98.8000 Z-1.0000 F240.00
G1 X1.2000 Y-98.8000 Z-1.0000 F240.00
G1 X1.2000 Y-97.9352 Z-1.0000 F240.00
G1 X1.2000 Y-97.9352 Z-2.0000 F240.00
G1 X1.2000 Y-98.8000 Z-2.0000 F240.00
G1 X2.0648 Y-98.8000 Z-2.0000 F240.00
G1 X1.2000 Y-97.9352 Z-2.0000 F240.00
G1 X1.2000 Y-94.5411 Z-2.0000 F240.00
G1 X5.4589 Y-98.8000 Z-2.0000 F240.00
G1 X8.8530 Y-98.8000 Z-2.0000 F240.00
G1 X1.2000 Y-91.1470 Z-2.0000 F240.00
G1 X1.2000 Y-87.7529 Z-2.0000 F240.00
G1 X12.2471 Y-98.8000 Z-2.0000 F240.00
G1 X13.8000 Y-98.8000 Z-2.0000 F240.00
G1 X13.8000 Y-96.9588 Z-2.0000 F240.00
G1 X1.2000 Y-84.3588 Z-2.0000 F240.00
G1 X1.2000 Y-80.9647 Z-2.0000 F240.00
G1 X13.8000 Y-93.5647 Z-2.0000 F240.00
G1 X13.8000 Y-90.1706 Z-2.0000 F240.00
G1 X1.2000 Y-77.5706 Z-2.0000 F240.00
G1 X1.2000 Y-74.1765 Z-2.0000 F240.00
G1 X13.8000 Y-86.7765 Z-2.0000 F240.00
G1 X13.8000 Y-83.3823 Z-2.0000 F240.00
G1 X3.6177 Y-73.2000 Z-2.0000 F240.00
G1 X7.0118 Y-73.2000 Z-2.0000 F240.00
G1 X13.8000 Y-79.9882 Z-2.0000 F240.00
G1 X13.8000 Y-76.5941 Z-2.0000 F240.00
G1 X10.4059 Y-73.2000 Z-2.0000 F240.00
G1 X13.8000 Y-73.2000 Z-2.0000 F240.00
G1 X13.8000 Y-73.2000 Z-2.0000 F240.00
G1 X13.8000 Y-98.8000 Z-2.0000 F240.00
G1 X1.2000 Y-98.8000 Z-2.0000 F240.00
G1 X1.2000 Y-73.2000 Z-2.0000 F240.00
G1 X13.8000 Y-73.2000 Z-2.0000 F240.00
G1 X13.8000 Y-73.2000 Z-3.0000 F240.00
G1 X13.8000 Y-98.8000 Z-3.0000 F240.00
G1 X1.2000 Y-98.8000 Z-3.0000 F240.00
G1 X1.2000 Y-73.2000 Z-3.0000 F240.00
G1 X13.8000 Y-73.2000 Z-3.0000 F240.00
G1 X13.8000 Y-73.2000 Z-3.0000 F240.00
G1 X10.4059 Y-73.2000 Z-3.0000 F240.00
G1 X13.8000 Y-76.5941 Z-3.0000 F240.00
G1 X13.8000 Y-79.9882 Z-3.0000 F240.00
G1 X7.0118 Y-73.2000 Z-3.0000 F240.00
G1 X3.6177 Y-73.2000 Z-3.0000 F240.00
G1 X13.8000 Y-83.3823 Z-3.0000 F240.00
G1 X13.8000 Y-86.7765 Z-3.0000 F240.00
G1 X1.2000 Y-74.1765 Z-3.0000 F240.00
G1 X1.2000 Y-77.5706 Z-3.0000 F240.00
G1 X13.8000 Y-90.1706 Z-3.0000 F240.00
G1 X13.8000 Y-93.5647 Z-3.0000 F240.00
G1 X1.2000 Y-80.9647 Z-3.0000 F240.00
G1 X1.2000 Y-84.3588 Z-3.0000 F240.00
G1 X13.8000 Y-96.9588 Z-3.0000 F240.00
G1 X13.8000 Y-98.8000 Z-3.0000 F240.00
G1 X12.2471 Y-98.8000 Z-3.0000 F240.00
G1 X1.2000 Y-87.7529 Z-3.0000 F240.00
G1 X1.2000 Y-91.1470 Z-3.0000 F240.00
G1 X8.8530 Y-98.8000 Z-3.0000 F240.00
G1 X5.4589 Y-98.8000 Z-3.0000 F240.00
G1 X1.2000 Y-94.5411 Z-3.0000 F240.00
G1 X1.2000 Y-97.9352 Z-3.0000 F240.00
G1 X2.0648 Y-98.8000 Z-3.0000 F240.00
G1 X1.2000 Y-98.8000 Z-3.0000 F240.00
G1 X1.2000 Y-97.9352 Z-3.0000 F240.00
G1 X1.2000 Y-97.9352 Z-4.0000 F240.00
G1 X1.2000 Y-98.8000 Z-4.0000 F240.00
G1 X2.0648 Y-98.8000 Z-4.0000 F240.00
G1 X1.2000 Y-97.9352 Z-4.0000 F240.00
G1 X1.2000 Y-94.5411 Z-4.0000 F240.00
G1 X5.4589 Y-98.8000 Z-4.0000 F240.00
G1 X8.8530 Y-98.8000 Z-4.0000 F240.00
G1 X1.2000 Y-91.1470 Z-4.0000 F240.00
G1 X1.2000 Y-87.7529 Z-4.0000 F240.00
G1 X12.2471 Y-98.8000 Z-4.0000 F240.00
G1 X13.8000 Y-98.8000 Z-4.0000 F240.00
G1 X13.8000 Y-96.9588 Z-4.0000 F240.00
G1 X1.2000 Y-84.3588 Z-4.0000 F240.00
G1 X1.2000 Y-80.9647 Z-4.0000 F240.00
G1 X13.8000 Y-93.5647 Z-4.0000 F240.00
G1 X13.8000 Y-90.1706 Z-4.0000 F240.00
G1 X1.2000 Y-77.5706 Z-4.0000 F240.00
G1 X1.2000 Y-74.1765 Z-4.0000 F240.00
G1 X13.8000 Y-86.7765 Z-4.0000 F240.00
G1 X13.8000 Y-83.3823 Z-4.0000 F240.00
G1 X3.6177 Y-73.2000 Z-4.0000 F240.00
G1 X7.0118 Y-73.2000 Z-4.0000 F240.00
G1 X13.8000 Y-79.9882 Z-4.0000 F240.00
G1 X13.8000 Y-76.5941 Z-4.0000 F240.00
G1 X10.4059 Y-73.2000 Z-4.0000 F240.00
G1 X13.8000 Y-73.2000 Z-4.0000 F240.00
G1 X13.8000 Y-73.2000 Z-4.0000 F240.00
G1 X13.8000 Y-98.8000 Z-4.0000 F240.00
G1 X1.2000 Y-98.8000 Z-4.0000 F240.00
G1 X1.2000 Y-73.2000 Z-4.0000 F240.00
G1 X13.8000 Y-73.2000 Z-4.0000 F240.00
G0 Z5.0000
G0 X228.8000 Y-1.2000
G0 Z3.0000
G1 X228.8000 Y-1.2000 Z-1.0000 F240.00
G1 X228.8000 Y-40.8000 Z-1.0000 F240.00
G1 X216.2000 Y-40.8000 Z-1.0000 F240.00
G1 X216.2000 Y-1.2000 Z-1.0000 F240.00
G1 X228.8000 Y-1.2000 Z-1.0000 F240.00
G0 X228.8000 Y-1.2000 Z5.0000
G0 X217.4883 Y-1.2000 Z5.0000
G0 X217.4883 Y-1.2000 Z2.0000
G1 X217.4883 Y-1.2000 Z-1.0000 F240.00
G1 X216.2000 Y-2.4883 Z-1.0000 F240.00
G1 X216.2000 Y-1.2000 Z-1.0000 F240.00
G1 X217.4883 Y-1.2000 Z-1.0000 F240.00
G1 X220.8824 Y-1.2000 Z-1.0000 F240.00
G1 X216.2000 Y-5.8824 Z-1.0000 F240.00
G1 X216.2000 Y-9.2765 Z-1.0000 F240.00
G1 X224.2765 Y-1.2000 Z-1.0000 F240.00
G1 X227.6706 Y-1.2000 Z-1.0000 F240.00
G1 X216.2000 Y-12.6706 Z-1.0000 F240.00
G1 X216.2000 Y-16.0648 Z-1.0000 F240.00
G1 X228.8000 Y-3.4648 Z-1.0000 F240.00
G1 X228.8000 Y-6.8589 Z-1.0000 F240.00
G1 X216.2000 Y-19.4589 Z-1.0000 F240.00
G1 X216.2000 Y-22.8530 Z-1.0000 F240.00
G1 X228.8000 Y-10.2530 Z-1.0000 F240.00
G1 X228.8000 Y-13.6471 Z-1.0000 F240.00
G1 X216.2000 Y-26.2471 Z-1.0000 F240.00
G1 X216.2000 Y-29.6412 Z-1.0000 F240.00
G1 X228.8000 Y-17.0412 Z-1.0000 F240.00
G1 X228.8000 Y-20.4353 Z-1.0000 F240.00
G1 X216.2000 Y-33.0353 Z-1.0000 F240.00
G1 X216.2000 Y-36.4294 Z-1.0000 F240.00
G1 X228.8000 Y-23.8294 Z-1.0000 F240.00
G1 X228.8000 Y-27.2235 Z-1.0000 F240.00
G1 X216.2000 Y-39.8235 Z-1.0000 F240.00
G1 X216.2000 Y-40.8000 Z-1.0000 F240.00
G1 X218.6177 Y-40.8000 Z-1.0000 F240.00
G1 X228.8000 Y-30.6177 Z-1.0000 F240.00
G1 X228.8000 Y-34.0118 Z-1.0000 F240.00
G1 X222.0118 Y-40.8000 Z-1.0000 F240.00
G1 X225.4059 Y-40.8000 Z-1.0000 F240.00
G1 X228.8000 Y-37.4059 Z-1.0000 F240.00
G1 X228.8000 Y-40.8000 Z-1.0000 F240.00
G1 X228.8000 Y-40.8000 Z-2.0000 F240.00
G1 X228.8000 Y-37.4059 Z-2.0000 F240.00
G1 X225.4059 Y-40.8000 Z-2.0000 F240.00
G1 X222.0118 Y-40.8000 Z-2.0000 F240.00
G1 X228.8000 Y-34.0118 Z-2.0000 F240.00
G1 X228.8000 Y-30.6177 Z-2.0000 F240.00
G1 X218.6177 Y-40.8000 Z-2.0000 F240.00
G1 X216.2000 Y-40.8000 Z-2.0000 F240.00
G1 X216.2000 Y-39.8235 Z-2.0000 F240.00
G1 X228.8000 Y-27.2235 Z-2.0000 F240.00
G1 X228.8000 Y-23.8294 Z-2.0000 F240.00
G1 X216.2000 Y-36.4294 Z-2.0000 F240.00
G1 X216.2000 Y-33.0353 Z-2.0000 F240.00
G1 X228.8000 Y-20.4353 Z-2.0000 F240.00
G1 X228.8000 Y-17.0412 Z-2.0000 F240.00
G1 X216.2000 Y-29.6412 Z-2.0000 F240.00
G1 X216.2000 Y-26.2471 Z-2.0000 F240.00
G1 X228.8000 Y-13.6471 Z-2.0000 F240.00
G1 X228.8000 Y-10.2530 Z-2.0000 F240.00
G1 X216.2000 Y-22.8530 Z-2.0000 F240.00
G1 X216.2000 Y-19.4589 Z-2.0000 F240.00
G1 X228.8000 Y-6.8589 Z-2.0000 F240.00
G1 X228.8000 Y-3.4648 Z-2.0000 F240.00
G1 X216.2000 Y-16.0648 Z-2.0000 F240.00
G1 X216.2000 Y-12.6706 Z-2.0000 F240.00
G1 X227.6706 Y-1.2000 Z-2.0000 F240.00
G1 X224.2765 Y-1.2000 Z-2.0000 F240.00
G1 X216.2000 Y-9.2765 Z-2.0000 F240.00
G1 X216.2000 Y-5.8824 Z-2.0000 F240.00
G1 X220.8824 Y-1.2000 Z-2.0000 F240.00
G1 X217.4883 Y-1.2000 Z-2.0000 F240.00
G1 X216.2000 Y-1.2000 Z-2.0000 F240.00
G1 X216.2000 Y-2.4883 Z-2.0000 F240.00
G1 X217.4883 Y-1.2000 Z-2.0000 F240.00
G1 X217.4883 Y-1.2000 Z-2.0000 F240.00
G1 X228.8000 Y-1.2000 Z-2.0000 F240.00
G1 X228.8000 Y-40.8000 Z-2.0000 F240.00
G1 X216.2000 Y-40.8000 Z-2.0000 F240.00
G1 X216.2000 Y-1.2000 Z-2.0000 F240.00
G1 X217.4883 Y-1.2000 Z-2.0000 F240.00
G1 X217.4883 Y-1.2000 Z-3.0000 F240.00
G1 X228.8000 Y-1.2000 Z-3.0000 F240.00
G1 X228.8000 Y-40.8000 Z-3.0000 F240.00
G1 X216.2000 Y-40.8000 Z-3.0000 F240.00
G1 X216.2000 Y-1.2000 Z-3.0000 F240.00
G1 X217.4883 Y-1.2000 Z-3.0000 F240.00
G1 X217.4883 Y-1.2000 Z-3.0000 F240.00
G1 X216.2000 Y-2.4883 Z-3.0000 F240.00
G1 X216.2000 Y-1.2000 Z-3.0000 F240.00
G1 X217.4883 Y-1.2000 Z-3.0000 F240.00
G1 X220.8824 Y-1.2000 Z-3.0000 F240.00
G1 X216.2000 Y-5.8824 Z-3.0000 F240.00
G1 X216.2000 Y-9.2765 Z-3.0000 F240.00
G1 X224.2765 Y-1.2000 Z-3.0000 F240.00
G1 X227.6706 Y-1.2000 Z-3.0000 F240.00
G1 X216.2000 Y-12.6706 Z-3.0000 F240.00
G1 X216.2000 Y-16.0648 Z-3.0000 F240.00
G1 X228.8000 Y-3.4648 Z-3.0000 F240.00
G1 X228.8000 Y-6.8589 Z-3.0000 F240.00
G1 X216.2000 Y-19.4589 Z-3.0000 F240.00
G1 X216.2000 Y-22.8530 Z-3.0000 F240.00
G1 X228.8000 Y-10.2530 Z-3.0000 F240.00
G1 X228.8000 Y-13.6471 Z-3.0000 F240.00
G1 X216.2000 Y-26.2471 Z-3.0000 F240.00
G1 X216.2000 Y-29.6412 Z-3.0000 F240.00
G1 X228.8000 Y-17.0412 Z-3.0000 F240.00
G1 X228.8000 Y-20.4353 Z-3.0000 F240.00
G1 X216.2000 Y-33.0353 Z-3.0000 F240.00
G1 X216.2000 Y-36.4294 Z-3.0000 F240.00
G1 X228.8000 Y-23.8294 Z-3.0000 F240.00
G1 X228.8000 Y-27.2235 Z-3.0000 F240.00
G1 X216.2000 Y-39.8235 Z-3.0000 F240.00
G1 X216.2000 Y-40.8000 Z-3.0000 F240.00
G1 X218.6177 Y-40.8000 Z-3.0000 F240.00
G1 X228.8000 Y-30.6177 Z-3.0000 F240.00
G1 X228.8000 Y-34.0118 Z-3.0000 F240.00
G1 X222.0118 Y-40.8000 Z-3.0000 F240.00
G1 X225.4059 Y-40.8000 Z-3.0000 F240.00
G1 X228.8000 Y-37.4059 Z-3.0000 F240.00
G1 X228.8000 Y-40.8000 Z-3.0000 F240.00
G1 X228.8000 Y-40.8000 Z-4.0000 F240.00
G1 X228.8000 Y-37.4059 Z-4.0000 F240.00
G1 X225.4059 Y-40.8000 Z-4.0000 F240.00
G1 X222.0118 Y-40.8000 Z-4.0000 F240.00
G1 X228.8000 Y-34.0118 Z-4.0000 F240.00
G1 X228.8000 Y-30.6177 Z-4.0000 F240.00
G1 X218.6177 Y-40.8000 Z-4.0000 F240.00
G1 X216.2000 Y-40.8000 Z-4.0000 F240.00
G1 X216.2000 Y-39.8235 Z-4.0000 F240.00
G1 X228.8000 Y-27.2235 Z-4.0000 F240.00
G1 X228.8000 Y-23.8294 Z-4.0000 F240.00
G1 X216.2000 Y-36.4294 Z-4.0000 F240.00
G1 X216.2000 Y-33.0353 Z-4.0000 F240.00
G1 X228.8000 Y-20.4353 Z-4.0000 F240.00
G1 X228.8000 Y-17.0412 Z-4.0000 F240.00
G1 X216.2000 Y-29.6412 Z-4.0000 F240.00
G1 X216.2000 Y-26.2471 Z-4.0000 F240.00
G1 X228.8000 Y-13.6471 Z-4.0000 F240.00
G1 X228.8000 Y-10.2530 Z-4.0000 F240.00
G1 X216.2000 Y-22.8530 Z-4.0000 F240.00
G1 X216.2000 Y-19.4589 Z-4.0000 F240.00
G1 X228.8000 Y-6.8589 Z-4.0000 F240.00
G1 X228.8000 Y-3.4648 Z-4.0000 F240.00
G1 X216.2000 Y-16.0648 Z-4.0000 F240.00
G1 X216.2000 Y-12.6706 Z-4.0000 F240.00
G1 X227.6706 Y-1.2000 Z-4.0000 F240.00
G1 X224.2765 Y-1.2000 Z-4.0000 F240.00
G1 X216.2000 Y-9.2765 Z-4.0000 F240.00
G1 X216.2000 Y-5.8824 Z-4.0000 F240.00
G1 X220.8824 Y-1.2000 Z-4.0000 F240.00
G1 X217.4883 Y-1.2000 Z-4.0000 F240.00
G1 X216.2000 Y-1.2000 Z-4.0000 F240.00
G1 X216.2000 Y-2.4883 Z-4.0000 F240.00
G1 X217.4883 Y-1.2000 Z-4.0000 F240.00
G1 X217.4883 Y-1.2000 Z-4.0000 F240.00
G1 X228.8000 Y-1.2000 Z-4.0000 F240.00
G1 X228.8000 Y-40.8000 Z-4.0000 F240.00
G1 X216.2000 Y-40.8000 Z-4.0000 F240.00
G1 X216.2000 Y-1.2000 Z-4.0000 F240.00
G1 X217.4883 Y-1.2000 Z-4.0000 F240.00
G0 Z5.0000
G0 X228.8000 Y-73.2000
G0 Z3.0000
G1 X228.8000 Y-73.2000 Z-1.0000 F240.00
G1 X228.8000 Y-98.8000 Z-1.0000 F240.00
G1 X216.2000 Y-98.8000 Z-1.0000 F240.00
G1 X216.2000 Y-73.2000 Z-1.0000 F240.00
G1 X228.8000 Y-73.2000 Z-1.0000 F240.00
G0 X228.8000 Y-73.2000 Z5.0000
G0 X217.0648 Y-73.2000 Z5.0000
G0 X217.0648 Y-73.2000 Z2.0000
G1 X217.0648 Y-73.2000 Z-1.0000 F240.00
G1 X216.2000 Y-73.2000 Z-1.0000 F240.00
G1 X216.2000 Y-74.0648 Z-1.0000 F240.00
G1 X217.0648 Y-73.2000 Z-1.0000 F240.00
G1 X220.4589 Y-73.2000 Z-1.0000 F240.00
G1 X216.2000 Y-77.4589 Z-1.0000 F240.00
G1 X216.2000 Y-80.8530 Z-1.0000 F240.00
G1 X223.8530 Y-73.2000 Z-1.0000 F240.00
G1 X227.2471 Y-73.2000 Z-1.0000 F240.00
G1 X216.2000 Y-84.2471 Z-1.0000 F240.00
G1 X216.2000 Y-87.6412 Z-1.0000 F240.00
G1 X228.8000 Y-75.0412 Z-1.0000 F240.00
G1 X228.8000 Y-78.4353 Z-1.0000 F240.00
G1 X216.2000 Y-91.0353 Z-1.0000 F240.00
G1 X216.2000 Y-94.4294 Z-1.0000 F240.00
G1 X228.8000 Y-81.8294 Z-1.0000 F240.00
G1 X228.8000 Y-85.2235 Z-1.0000 F240.00
G1 X216.2000 Y-97.8235 Z-1.0000 F240.00
G1 X216.2000 Y-98.8000 Z-1.0000 F240.00
G1 X218.6177 Y-98.8000 Z-1.0000 F240.00
G1 X228.8000 Y-88.6177 Z-1.0000 F240.00
G1 X228.8000 Y-92.0118 Z-1.0000 F240.00
G1 X222.0118 Y-98.8000 Z-1.0000 F240.00
G1 X225.4059 Y-98.8000 Z-1.0000 F240.00
G1 X228.8000 Y-95.4059 Z-1.0000 F240.00
G1 X228.8000 Y-98.8000 Z-1.0000 F240.00
G1 X228.8000 Y-98.8000 Z-2.0000 F240.00
G1 X228.8000 Y-95.4059 Z-2.0000 F240.00
G1 X225.4059 Y-98.8000 Z-2.0000 F240.00
G1 X222.0118 Y-98.8000 Z-2.0000 F240.00
G1 X228.8000 Y-92.0118 Z-2.0000 F240.00
G1 X228.8000 Y-88.6177 Z-2.0000 F240.00
G1 X218.6177 Y-98.8000 Z-2.0000 F240.00
G1 X216.2000 Y-98.8000 Z-2.0000 F240.00
G1 X216.2000 Y-97.8235 Z-2.0000 F240.00
G1 X228.8000 Y-85.2235 Z-2.0000 F240.00
G1 X228.8000 Y-81.8294 Z-2.0000 F240.00
G1 X216.2000 Y-94.4294 Z-2.0000 F240.00
G1 X216.2000 Y-91.0353 Z-2.0000 F240.00
G1 X228.8000 Y-78.4353 Z-2.0000 F240.00
G1 X228.8000 Y-75.0412 Z-2.0000 F240.00
G1 X216.2000 Y-87.6412 Z-2.0000 F240.00
G1 X216.2000 Y-84.2471 Z-2.0000 F240.00
G1 X227.2471 Y-73.2000 Z-2.0000 F240.00
G1 X223.8530 Y-73.2000 Z-2.0000 F240.00
G1 X216.2000 Y-80.8530 Z-2.0000 F240.00
G1 X216.2000 Y-77.4589 Z-2.0000 F240.00
G1 X220.4589 Y-73.2000 Z-2.0000 F240.00
G1 X217.0648 Y-73.2000 Z-2.0000 F240.00
G1 X216.2000 Y-74.0648 Z-2.0000 F240.00
G1 X216.2000 Y-73.2000 Z-2.0000 F240.00
G1 X217.0648 Y-73.2000 Z-2.0000 F240.00
G1 X217.0648 Y-73.2000 Z-2.0000 F240.00
G1 X228.8000 Y-73.2000 Z-2.0000 F240.00
G1 X228.8000 Y-98.8000 Z-2.0000 F240.00
G1 X216.2000 Y-98.8000 Z-2.0000 F240.00
G1 X216.2000 Y-73.2000 Z-2.0000 F240.00
G1 X217.0648 Y-73.2000 Z-2.0000 F240.00
G1 X217.0648 Y-73.2000 Z-3.0000 F240.00
G1 X228.8000 Y-73.2000 Z-3.0000 F240.00
G1 X228.8000 Y-98.8000 Z-3.0000 F240.00
G1 X216.2000 Y-98.8000 Z-3.0000 F240.00
G1 X216.2000 Y-73.2000 Z-3.0000 F240.00
G1 X217.0648 Y-73.2000 Z-3.0000 F240.00
G1 X217.0648 Y-73.2000 Z-3.0000 F240.00
G1 X216.2000 Y-73.2000 Z-3.0000 F240.00
G1 X216.2000 Y-74.0648 Z-3.0000 F240.00
G1 X217.0648 Y-73.2000 Z-3.0000 F240.00
G1 X220.4589 Y-73.2000 Z-3.0000 F240.00
G1 X216.2000 Y-77.4589 Z-3.0000 F240.00
G1 X216.2000 Y-80.8530 Z-3.0000 F240.00
G1 X223.8530 Y-73.2000 Z-3.0000 F240.00
G1 X227.2471 Y-73.2000 Z-3.0000 F240.00
G1 X216.2000 Y-84.2471 Z-3.0000 F240.00
G1 X216.2000 Y-87.6412 Z-3.0000 F240.00
G1 X228.8000 Y-75.0412 Z-3.0000 F240.00
G1 X228.8000 Y-78.4353 Z-3.0000 F240.00
G1 X216.2000 Y-91.0353 Z-3.0000 F240.00
G1 X216.2000 Y-94.4294 Z-3.0000 F240.00
G1 X228.8000 Y-81.8294 Z-3.0000 F240.00
G1 X228.8000 Y-85.2235 Z-3.0000 F240.00
G1 X216.2000 Y-97.8235 Z-3.0000 F240.00
G1 X216.2000 Y-98.8000 Z-3.0000 F240.00
G1 X218.6177 Y-98.8000 Z-3.0000 F240.00
G1 X228.8000 Y-88.6177 Z-3.0000 F240.00
G1 X228.8000 Y-92.0118 Z-3.0000 F240.00
G1 X222.0118 Y-98.8000 Z-3.0000 F240.00
G1 X225.4059 Y-98.8000 Z-3.0000 F240.00
G1 X228.8000 Y-95.4059 Z-3.0000 F240.00
G1 X228.8000 Y-98.8000 Z-3.0000 F240.00
G1 X228.8000 Y-98.8000 Z-4.0000 F240.00
G1 X228.8000 Y-95.4059 Z-4.0000 F240.00
G1 X225.4059 Y-98.8000 Z-4.0000 F240.00
G1 X222.0118 Y-98.8000 Z-4.0000 F240.00
G1 X228.8000 Y-92.0118 Z-4.0000 F240.00
G1 X228.8000 Y-88.6177 Z-4.0000 F240.00
G1 X218.6177 Y-98.8000 Z-4.0000 F240.00
G1 X216.2000 Y-98.8000 Z-4.0000 F240.00
G1 X216.2000 Y-97.8235 Z-4.0000 F240.00
G1 X228.8000 Y-85.2235 Z-4.0000 F240.00
G1 X228.8000 Y-81.8294 Z-4.0000 F240.00
G1 X216.2000 Y-94.4294 Z-4.0000 F240.00
G1 X216.2000 Y-91.0353 Z-4.0000 F240.00
G1 X228.8000 Y-78.4353 Z-4.0000 F240.00
G1 X228.8000 Y-75.0412 Z-4.0000 F240.00
G1 X216.2000 Y-87.6412 Z-4.0000 F240.00
G1 X216.2000 Y-84.2471 Z-4.0000 F240.00
G1 X227.2471 Y-73.2000 Z-4.0000 F240.00
G1 X223.8530 Y-73.2000 Z-4.0000 F240.00
G1 X216.2000 Y-80.8530 Z-4.0000 F240.00
G1 X216.2000 Y-77.4589 Z-4.0000 F240.00
G1 X220.4589 Y-73.2000 Z-4.0000 F240.00
G1 X217.0648 Y-73.2000 Z-4.0000 F240.00
G1 X216.2000 Y-74.0648 Z-4.0000 F240.00
G1 X216.2000 Y-73.2000 Z-4.0000 F240.00
G1 X217.0648 Y-73.2000 Z-4.0000 F240.00
G1 X217.0648 Y-73.2000 Z-4.0000 F240.00
G1 X228.8000 Y-73.2000 Z-4.0000 F240.00
G1 X228.8000 Y-98.8000 Z-4.0000 F240.00
G1 X216.2000 Y-98.8000 Z-4.0000 F240.00
G1 X216.2000 Y-73.2000 Z-4.0000 F240.00
G1 X217.0648 Y-73.2000 Z-4.0000 F240.00
G0 Z5.0000
(finish operation: Pocket_Shape)
(begin operation: TagDressup)
(Path: TagDressup)
G0 Z5.0000
G0 X230.8485 Y0.8485 Z5.0000
G0 X230.8485 Y0.8485 Z3.0000
G1 X230.8485 Y0.8485 Z-1.0000 F240.00
G2 X231.2000 Y-0.0000 Z-1.0000 I-0.8485 J-0.8485 F240.00
G1 X231.2000 Y-42.0000 Z-1.0000 F240.00
G2 X230.0000 Y-43.2000 Z-1.0000 I-1.2000 J0.0000 F240.00
G1 X216.2000 Y-43.2000 Z-1.0000 F240.00
G1 X216.2000 Y-70.8000 Z-1.0000 F240.00
G1 X230.0000 Y-70.8000 Z-1.0000 F240.00
G2 X231.2000 Y-72.0000 Z-1.0000 I0.0000 J-1.2000 F240.00
G1 X231.2000 Y-100.0000 Z-1.0000 F240.00
G2 X230.0000 Y-101.2000 Z-1.0000 I-1.2000 J-0.0000 F240.00
G1 X0.0000 Y-101.2000 Z-1.0000 F240.00
G2 X-1.2000 Y-100.0000 Z-1.0000 I-0.0000 J1.2000 F240.00
G1 X-1.2000 Y-72.0000 Z-1.0000 F240.00
G2 X0.0000 Y-70.8000 Z-1.0000 I1.2000 J0.0000 F240.00
G1 X13.8000 Y-70.8000 Z-1.0000 F240.00
G1 X13.8000 Y-43.2000 Z-1.0000 F240.00
G1 X0.0000 Y-43.2000 Z-1.0000 F240.00
G2 X-1.2000 Y-42.0000 Z-1.0000 I-0.0000 J1.2000 F240.00
G1 X-1.2000 Y-0.0000 Z-1.0000 F240.00
G2 X0.0000 Y1.2000 Z-1.0000 I1.2000 J0.0000 F240.00
G1 X23.0000 Y1.2000 Z-1.0000 F240.00
G2 X24.1992 Y0.0436 Z-1.0000 I0.0000 J-1.2000 F240.00
G1 X26.1992 Y-54.9564 Z-1.0000 F240.00
G3 X59.9922 Y-88.7997 Z-1.0000 I33.8006 J-0.0427 F240.00
G3 X93.8003 Y-54.9714 Z-1.0000 I0.0075 J33.8006 F240.00
G1 X95.8273 Y-16.9769 Z-1.0000 F240.00
G2 X134.1700 Y-16.9374 Z-1.0000 I19.1724 J-1.0234 F240.00
G1 X136.1983 Y-54.9361 Z-1.0000 F240.00
G3 X169.9816 Y-88.7997 Z-1.0000 I33.8010 J-0.0625 F240.00
G3 X203.8003 Y-54.9714 Z-1.0000 I0.0177 J33.8011 F240.00
G1 X205.8008 Y0.0436 Z-1.0000 F240.00
G2 X207.0000 Y1.2000 Z-1.0000 I1.1992 J-0.0436 F240.00
G1 X230.0000 Y1.2000 Z-1.0000 F240.00
G2 X230.8485 Y0.8485 Z-1.0000 I0.0000 J-1.2000 F240.00
G1 X230.8485 Y0.8485 Z-2.0000 F240.00
G2 X231.2000 Y-0.0000 Z-2.0000 I-0.8485 J-0.8485 F240.00
G1 X231.2000 Y-42.0000 Z-2.0000 F240.00
G2 X230.0000 Y-43.2000 Z-2.0000 I-1.2000 J0.0000 F240.00
G1 X216.2000 Y-43.2000 Z-2.0000 F240.00
G1 X216.2000 Y-70.8000 Z-2.0000 F240.00
G1 X230.0000 Y-70.8000 Z-2.0000 F240.00
G2 X231.2000 Y-72.0000 Z-2.0000 I0.0000 J-1.2000 F240.00
G1 X231.2000 Y-100.0000 Z-2.0000 F240.00
G2 X230.0000 Y-101.2000 Z-2.0000 I-1.2000 J-0.0000 F240.00
G1 X0.0000 Y-101.2000 Z-2.0000 F240.00
G2 X-1.2000 Y-100.0000 Z-2.0000 I-0.0000 J1.2000 F240.00
G1 X-1.2000 Y-72.0000 Z-2.0000 F240.00
G2 X0.0000 Y-70.8000 Z-2.0000 I1.2000 J0.0000 F240.00
G1 X13.8000 Y-70.8000 Z-2.0000 F240.00
G1 X13.8000 Y-43.2000 Z-2.0000 F240.00
G1 X0.0000 Y-43.2000 Z-2.0000 F240.00
G2 X-1.2000 Y-42.0000 Z-2.0000 I-0.0000 J1.2000 F240.00
G1 X-1.2000 Y-0.0000 Z-2.0000 F240.00
G2 X0.0000 Y1.2000 Z-2.0000 I1.2000 J0.0000 F240.00
G1 X23.0000 Y1.2000 Z-2.0000 F240.00
G2 X24.1992 Y0.0436 Z-2.0000 I0.0000 J-1.2000 F240.00
G1 X26.1992 Y-54.9564 Z-2.0000 F240.00
G3 X59.9922 Y-88.7997 Z-2.0000 I33.8006 J-0.0427 F240.00
G3 X93.8003 Y-54.9714 Z-2.0000 I0.0075 J33.8006 F240.00
G1 X95.8273 Y-16.9769 Z-2.0000 F240.00
G2 X134.1700 Y-16.9374 Z-2.0000 I19.1724 J-1.0234 F240.00
G1 X136.1983 Y-54.9361 Z-2.0000 F240.00
G3 X169.9816 Y-88.7997 Z-2.0000 I33.8010 J-0.0625 F240.00
G3 X203.8003 Y-54.9714 Z-2.0000 I0.0177 J33.8011 F240.00
G1 X205.8008 Y0.0436 Z-2.0000 F240.00
G2 X207.0000 Y1.2000 Z-2.0000 I1.1992 J-0.0436 F240.00
G1 X230.0000 Y1.2000 Z-2.0000 F240.00
G2 X230.8485 Y0.8485 Z-2.0000 I0.0000 J-1.2000 F240.00
G1 X230.8485 Y0.8485 Z-3.0000 F240.00
G2 X231.2000 Y-0.0000 Z-3.0000 I-0.8485 J-0.8485 F240.00
G1 X231.2000 Y-42.0000 Z-3.0000 F240.00
G2 X230.0000 Y-43.2000 Z-3.0000 I-1.2000 J0.0000 F240.00
G1 X216.2000 Y-43.2000 Z-3.0000 F240.00
G1 X216.2000 Y-70.8000 Z-3.0000 F240.00
G1 X230.0000 Y-70.8000 Z-3.0000 F240.00
G2 X231.2000 Y-72.0000 Z-3.0000 I0.0000 J-1.2000 F240.00
G1 X231.2000 Y-100.0000 Z-3.0000 F240.00
G2 X230.0000 Y-101.2000 Z-3.0000 I-1.2000 J-0.0000 F240.00
G1 X0.0000 Y-101.2000 Z-3.0000 F240.00
G2 X-1.2000 Y-100.0000 Z-3.0000 I-0.0000 J1.2000 F240.00
G1 X-1.2000 Y-72.0000 Z-3.0000 F240.00
G2 X0.0000 Y-70.8000 Z-3.0000 I1.2000 J0.0000 F240.00
G1 X13.8000 Y-70.8000 Z-3.0000 F240.00
G1 X13.8000 Y-43.2000 Z-3.0000 F240.00
G1 X0.0000 Y-43.2000 Z-3.0000 F240.00
G2 X-1.2000 Y-42.0000 Z-3.0000 I-0.0000 J1.2000 F240.00
G1 X-1.2000 Y-0.0000 Z-3.0000 F240.00
G2 X0.0000 Y1.2000 Z-3.0000 I1.2000 J0.0000 F240.00
G1 X23.0000 Y1.2000 Z-3.0000 F240.00
G2 X24.1992 Y0.0436 Z-3.0000 I0.0000 J-1.2000 F240.00
G1 X26.1992 Y-54.9564 Z-3.0000 F240.00
G3 X59.9922 Y-88.7997 Z-3.0000 I33.8006 J-0.0427 F240.00
G3 X93.8003 Y-54.9714 Z-3.0000 I0.0075 J33.8006 F240.00
G1 X95.8273 Y-16.9769 Z-3.0000 F240.00
G2 X134.1700 Y-16.9374 Z-3.0000 I19.1724 J-1.0234 F240.00
G1 X136.1983 Y-54.9361 Z-3.0000 F240.00
G3 X169.9816 Y-88.7997 Z-3.0000 I33.8010 J-0.0625 F240.00
G3 X203.8003 Y-54.9714 Z-3.0000 I0.0177 J33.8011 F240.00
G1 X205.8008 Y0.0436 Z-3.0000 F240.00
G2 X207.0000 Y1.2000 Z-3.0000 I1.1992 J-0.0436 F240.00
G1 X230.0000 Y1.2000 Z-3.0000 F240.00
G2 X230.8485 Y0.8485 Z-3.0000 I0.0000 J-1.2000 F240.00
G1 X230.8485 Y0.8485 Z-4.0000 F240.00
G2 X231.2000 Y-0.0000 Z-4.0000 I-0.8485 J-0.8485 F240.00
G1 X231.2000 Y-42.0000 Z-4.0000 F240.00
G2 X230.0000 Y-43.2000 Z-4.0000 I-1.2000 J0.0000 F240.00
G1 X216.2000 Y-43.2000 Z-4.0000 F240.00
G1 X216.2000 Y-70.8000 Z-4.0000 F240.00
G1 X230.0000 Y-70.8000 Z-4.0000 F240.00
G2 X231.2000 Y-72.0000 Z-4.0000 I0.0000 J-1.2000 F240.00
G1 X231.2000 Y-100.0000 Z-4.0000 F240.00
G2 X230.0000 Y-101.2000 Z-4.0000 I-1.2000 J-0.0000 F240.00
G1 X0.0000 Y-101.2000 Z-4.0000 F240.00
G2 X-1.2000 Y-100.0000 Z-4.0000 I-0.0000 J1.2000 F240.00
G1 X-1.2000 Y-72.0000 Z-4.0000 F240.00
G2 X0.0000 Y-70.8000 Z-4.0000 I1.2000 J0.0000 F240.00
G1 X13.8000 Y-70.8000 Z-4.0000 F240.00
G1 X13.8000 Y-43.2000 Z-4.0000 F240.00
G1 X0.0000 Y-43.2000 Z-4.0000 F240.00
G2 X-1.2000 Y-42.0000 Z-4.0000 I-0.0000 J1.2000 F240.00
G1 X-1.2000 Y-0.0000 Z-4.0000 F240.00
G2 X0.0000 Y1.2000 Z-4.0000 I1.2000 J0.0000 F240.00
G1 X23.0000 Y1.2000 Z-4.0000 F240.00
G2 X24.1992 Y0.0436 Z-4.0000 I0.0000 J-1.2000 F240.00
G1 X26.1992 Y-54.9564 Z-4.0000 F240.00
G3 X59.9922 Y-88.7997 Z-4.0000 I33.8006 J-0.0427 F240.00
G3 X93.8003 Y-54.9714 Z-4.0000 I0.0075 J33.8006 F240.00
G1 X95.8273 Y-16.9769 Z-4.0000 F240.00
G2 X134.1700 Y-16.9374 Z-4.0000 I19.1724 J-1.0234 F240.00
G1 X136.1983 Y-54.9361 Z-4.0000 F240.00
G3 X169.9816 Y-88.7997 Z-4.0000 I33.8010 J-0.0625 F240.00
G3 X203.8003 Y-54.9714 Z-4.0000 I0.0177 J33.8011 F240.00
G1 X205.8008 Y0.0436 Z-4.0000 F240.00
G2 X207.0000 Y1.2000 Z-4.0000 I1.1992 J-0.0436 F240.00
G1 X230.0000 Y1.2000 Z-4.0000 F240.00
G2 X230.8485 Y0.8485 Z-4.0000 I0.0000 J-1.2000 F240.00
G1 X230.8485 Y0.8485 Z-5.0000 F240.00
G2 X231.2000 Y-0.0000 Z-5.0000 I-0.8485 J-0.8485 F240.00
G1 X231.2000 Y-42.0000 Z-5.0000 F240.00
G2 X230.0000 Y-43.2000 Z-5.0000 I-1.2000 J0.0000 F240.00
G1 X216.2000 Y-43.2000 Z-5.0000 F240.00
G1 X216.2000 Y-70.8000 Z-5.0000 F240.00
G1 X230.0000 Y-70.8000 Z-5.0000 F240.00
G2 X231.2000 Y-72.0000 Z-5.0000 I0.0000 J-1.2000 F240.00
G1 X231.2000 Y-100.0000 Z-5.0000 F240.00
G2 X230.0000 Y-101.2000 Z-5.0000 I-1.2000 J-0.0000 F240.00
G1 X0.0000 Y-101.2000 Z-5.0000 F240.00
G2 X-1.2000 Y-100.0000 Z-5.0000 I-0.0000 J1.2000 F240.00
G1 X-1.2000 Y-72.0000 Z-5.0000 F240.00
G2 X0.0000 Y-70.8000 Z-5.0000 I1.2000 J0.0000 F240.00
G1 X13.8000 Y-70.8000 Z-5.0000 F240.00
G1 X13.8000 Y-43.2000 Z-5.0000 F240.00
G1 X0.0000 Y-43.2000 Z-5.0000 F240.00
G2 X-1.2000 Y-42.0000 Z-5.0000 I-0.0000 J1.2000 F240.00
G1 X-1.2000 Y-0.0000 Z-5.0000 F240.00
G2 X0.0000 Y1.2000 Z-5.0000 I1.2000 J0.0000 F240.00
G1 X23.0000 Y1.2000 Z-5.0000 F240.00
G2 X24.1992 Y0.0436 Z-5.0000 I0.0000 J-1.2000 F240.00
G1 X26.1992 Y-54.9564 Z-5.0000 F240.00
G3 X59.9922 Y-88.7997 Z-5.0000 I33.8006 J-0.0427 F240.00
G3 X93.8003 Y-54.9714 Z-5.0000 I0.0075 J33.8006 F240.00
G1 X95.8273 Y-16.9769 Z-5.0000 F240.00
G2 X134.1700 Y-16.9374 Z-5.0000 I19.1724 J-1.0234 F240.00
G1 X136.1983 Y-54.9361 Z-5.0000 F240.00
G3 X169.9816 Y-88.7997 Z-5.0000 I33.8010 J-0.0625 F240.00
G3 X203.8003 Y-54.9714 Z-5.0000 I0.0177 J33.8011 F240.00
G1 X205.8008 Y0.0436 Z-5.0000 F240.00
G2 X207.0000 Y1.2000 Z-5.0000 I1.1992 J-0.0436 F240.00
G1 X230.0000 Y1.2000 Z-5.0000 F240.00
G2 X230.8485 Y0.8485 Z-5.0000 I0.0000 J-1.2000 F240.00
G1 X230.8485 Y0.8485 Z-6.0000 F240.00
G2 X231.2000 Y-0.0000 Z-6.0000 I-0.8485 J-0.8485 F240.00
G1 X231.2000 Y-42.0000 Z-6.0000 F240.00
G2 X230.0000 Y-43.2000 Z-6.0000 I-1.2000 J0.0000 F240.00
G1 X216.2000 Y-43.2000 Z-6.0000 F240.00
G1 X216.2000 Y-70.8000 Z-6.0000 F240.00
G1 X230.0000 Y-70.8000 Z-6.0000 F240.00
G2 X231.2000 Y-72.0000 Z-6.0000 I0.0000 J-1.2000 F240.00
G1 X231.2000 Y-100.0000 Z-6.0000 F240.00
G2 X230.0000 Y-101.2000 Z-6.0000 I-1.2000 J-0.0000 F240.00
G1 X173.6450 Y-101.2000 Z-6.0000 F240.00
G1 X173.1450 Y-101.2000 Z-5.5000 F240.00
G1 X171.8550 Y-101.2000 Z-5.5000 F240.00
G1 X171.3550 Y-101.2000 Z-6.0000 F240.00
G1 X58.6450 Y-101.2000 Z-6.0000 F240.00
G1 X58.1450 Y-101.2000 Z-5.5000 F240.00
G1 X56.8550 Y-101.2000 Z-5.5000 F240.00
G1 X56.3550 Y-101.2000 Z-6.0000 F240.00
G1 X0.0000 Y-101.2000 Z-6.0000 F240.00
G2 X-1.2000 Y-100.0000 Z-6.0000 I-0.0000 J1.2000 F240.00
G1 X-1.2000 Y-72.0000 Z-6.0000 F240.00
G2 X0.0000 Y-70.8000 Z-6.0000 I1.2000 J0.0000 F240.00
G1 X13.8000 Y-70.8000 Z-6.0000 F240.00
G1 X13.8000 Y-43.2000 Z-6.0000 F240.00
G1 X0.0000 Y-43.2000 Z-6.0000 F240.00
G2 X-1.2000 Y-42.0000 Z-6.0000 I-0.0000 J1.2000 F240.00
G1 X-1.2000 Y-0.0000 Z-6.0000 F240.00
G2 X0.0000 Y1.2000 Z-6.0000 I1.2000 J0.0000 F240.00
G1 X23.0000 Y1.2000 Z-6.0000 F240.00
G2 X24.1992 Y0.0436 Z-6.0000 I0.0000 J-1.2000 F240.00
G1 X25.1576 Y-26.3121 Z-6.0000 F240.00
G1 X25.1758 Y-26.8118 Z-5.5000 F240.00
G1 X25.2226 Y-28.1010 Z-5.5000 F240.00
G1 X25.2408 Y-28.6006 Z-6.0000 F240.00
G1 X26.1992 Y-54.9564 Z-6.0000 F240.00
G3 X59.9922 Y-88.7997 Z-6.0000 I33.8006 J-0.0427 F240.00
G3 X93.8003 Y-54.9714 Z-6.0000 I0.0075 J33.8006 F240.00
G1 X95.8273 Y-16.9769 Z-6.0000 F240.00
G2 X113.8355 Y1.1641 Z-6.0000 I19.1724 J-1.0234 F240.00
G1 X114.3350 Y1.1879 Z-5.5000 F240.00
G2 X115.6248 Y1.1892 Z-5.5000 I0.6647 J-19.1882 F240.00
G1 X116.1244 Y1.1664 Z-6.0000 F240.00
G2 X134.1700 Y-16.9374 Z-6.0000 I-1.1248 J-19.1667 F240.00
G1 X136.1983 Y-54.9361 Z-6.0000 F240.00
G3 X169.9816 Y-88.7997 Z-6.0000 I33.8010 J-0.0625 F240.00
G3 X203.8003 Y-54.9714 Z-6.0000 I0.0177 J33.8011 F240.00
G1 X204.7590 Y-28.6082 Z-6.0000 F240.00
G1 X204.7771 Y-28.1085 Z-5.5000 F240.00
G1 X204.8240 Y-26.8193 Z-5.5000 F240.00
G1 X204.8422 Y-26.3197 Z-6.0000 F240.00
G1 X205.8008 Y0.0436 Z-6.0000 F240.00
G2 X207.0000 Y1.2000 Z-6.0000 I1.1992 J-0.0436 F240.00
G1 X230.0000 Y1.2000 Z-6.0000 F240.00
G2 X230.8485 Y0.8485 Z-6.0000 I0.0000 J-1.2000 F240.00
G1 X230.8485 Y0.8485 Z-7.0000 F240.00
G2 X231.2000 Y-0.0000 Z-7.0000 I-0.8485 J-0.8485 F240.00
G1 X231.2000 Y-42.0000 Z-7.0000 F240.00
G2 X230.0000 Y-43.2000 Z-7.0000 I-1.2000 J0.0000 F240.00
G1 X216.2000 Y-43.2000 Z-7.0000 F240.00
G1 X216.2000 Y-70.8000 Z-7.0000 F240.00
G1 X230.0000 Y-70.8000 Z-7.0000 F240.00
G2 X231.2000 Y-72.0000 Z-7.0000 I0.0000 J-1.2000 F240.00
G1 X231.2000 Y-100.0000 Z-7.0000 F240.00
G2 X230.0000 Y-101.2000 Z-7.0000 I-1.2000 J-0.0000 F240.00
G1 X174.6450 Y-101.2000 Z-7.0000 F240.00
G1 X173.1450 Y-101.2000 Z-5.5000 F240.00
G1 X171.8550 Y-101.2000 Z-5.5000 F240.00
G1 X170.3550 Y-101.2000 Z-7.0000 F240.00
G1 X59.6450 Y-101.2000 Z-7.0000 F240.00
G1 X58.1450 Y-101.2000 Z-5.5000 F240.00
G1 X56.8550 Y-101.2000 Z-5.5000 F240.00
G1 X55.3550 Y-101.2000 Z-7.0000 F240.00
G1 X0.0000 Y-101.2000 Z-7.0000 F240.00
G2 X-1.2000 Y-100.0000 Z-7.0000 I-0.0000 J1.2000 F240.00
G1 X-1.2000 Y-72.0000 Z-7.0000 F240.00
G2 X0.0000 Y-70.8000 Z-7.0000 I1.2000 J0.0000 F240.00
G1 X13.8000 Y-70.8000 Z-7.0000 F240.00
G1 X13.8000 Y-43.2000 Z-7.0000 F240.00
G1 X0.0000 Y-43.2000 Z-7.0000 F240.00
G2 X-1.2000 Y-42.0000 Z-7.0000 I-0.0000 J1.2000 F240.00
G1 X-1.2000 Y-0.0000 Z-7.0000 F240.00
G2 X0.0000 Y1.2000 Z-7.0000 I1.2000 J0.0000 F240.00
G1 X23.0000 Y1.2000 Z-7.0000 F240.00
G2 X24.1992 Y0.0436 Z-7.0000 I0.0000 J-1.2000 F240.00
G1 X25.1213 Y-25.3128 Z-7.0000 F240.00
G1 X25.1758 Y-26.8118 Z-5.5000 F240.00
G1 X25.2226 Y-28.1010 Z-5.5000 F240.00
G1 X25.2772 Y-29.6000 Z-7.0000 F240.00
G1 X26.1992 Y-54.9564 Z-7.0000 F240.00
G3 X59.9922 Y-88.7997 Z-7.0000 I33.8006 J-0.0427 F240.00
G3 X93.8003 Y-54.9714 Z-7.0000 I0.0075 J33.8006 F240.00
G1 X95.8273 Y-16.9769 Z-7.0000 F240.00
G2 X112.8384 Y1.0774 Z-7.0000 I19.1724 J-1.0234 F240.00
G1 X114.3350 Y1.1879 Z-5.5000 F240.00
G2 X115.6248 Y1.1892 Z-5.5000 I0.6647 J-19.1882 F240.00
G1 X117.1217 Y1.0818 Z-7.0000 F240.00
G2 X134.1700 Y-16.9374 Z-7.0000 I-2.1220 J-19.0821 F240.00
G1 X136.1983 Y-54.9361 Z-7.0000 F240.00
G3 X169.9816 Y-88.7997 Z-7.0000 I33.8010 J-0.0625 F240.00
G3 X203.8003 Y-54.9714 Z-7.0000 I0.0177 J33.8011 F240.00
G1 X204.7226 Y-29.6075 Z-7.0000 F240.00
G1 X204.7771 Y-28.1085 Z-5.5000 F240.00
G1 X204.8240 Y-26.8193 Z-5.5000 F240.00
G1 X204.8785 Y-25.3203 Z-7.0000 F240.00
G1 X205.8008 Y0.0436 Z-7.0000 F240.00
G2 X207.0000 Y1.2000 Z-7.0000 I1.1992 J-0.0436 F240.00
G1 X230.0000 Y1.2000 Z-7.0000 F240.00
G2 X230.8485 Y0.8485 Z-7.0000 I0.0000 J-1.2000 F240.00
G1 X230.8485 Y0.8485 Z-8.0000 F240.00
G2 X231.2000 Y-0.0000 Z-8.0000 I-0.8485 J-0.8485 F240.00
G1 X231.2000 Y-42.0000 Z-8.0000 F240.00
G2 X230.0000 Y-43.2000 Z-8.0000 I-1.2000 J0.0000 F240.00
G1 X216.2000 Y-43.2000 Z-8.0000 F240.00
G1 X216.2000 Y-70.8000 Z-8.0000 F240.00
G1 X230.0000 Y-70.8000 Z-8.0000 F240.00
G2 X231.2000 Y-72.0000 Z-8.0000 I0.0000 J-1.2000 F240.00
G1 X231.2000 Y-100.0000 Z-8.0000 F240.00
G2 X230.0000 Y-101.2000 Z-8.0000 I-1.2000 J-0.0000 F240.00
G1 X175.6450 Y-101.2000 Z-8.0000 F240.00
G1 X173.1450 Y-101.2000 Z-5.5000 F240.00
G1 X171.8550 Y-101.2000 Z-5.5000 F240.00
G1 X169.3550 Y-101.2000 Z-8.0000 F240.00
G1 X60.6450 Y-101.2000 Z-8.0000 F240.00
G1 X58.1450 Y-101.2000 Z-5.5000 F240.00
G1 X56.8550 Y-101.2000 Z-5.5000 F240.00
G1 X54.3550 Y-101.2000 Z-8.0000 F240.00
G1 X0.0000 Y-101.2000 Z-8.0000 F240.00
G2 X-1.2000 Y-100.0000 Z-8.0000 I-0.0000 J1.2000 F240.00
G1 X-1.2000 Y-72.0000 Z-8.0000 F240.00
G2 X0.0000 Y-70.8000 Z-8.0000 I1.2000 J0.0000 F240.00
G1 X13.8000 Y-70.8000 Z-8.0000 F240.00
G1 X13.8000 Y-43.2000 Z-8.0000 F240.00
G1 X0.0000 Y-43.2000 Z-8.0000 F240.00
G2 X-1.2000 Y-42.0000 Z-8.0000 I-0.0000 J1.2000 F240.00
G1 X-1.2000 Y-0.0000 Z-8.0000 F240.00
G2 X0.0000 Y1.2000 Z-8.0000 I1.2000 J0.0000 F240.00
G1 X23.0000 Y1.2000 Z-8.0000 F240.00
G2 X24.1992 Y0.0436 Z-8.0000 I0.0000 J-1.2000 F240.00
G1 X25.0849 Y-24.3135 Z-8.0000 F240.00
G1 X25.1758 Y-26.8118 Z-5.5000 F240.00
G1 X25.2226 Y-28.1010 Z-5.5000 F240.00
G1 X25.3135 Y-30.5993 Z-8.0000 F240.00
G1 X26.1992 Y-54.9564 Z-8.0000 F240.00
G3 X59.9922 Y-88.7997 Z-8.0000 I33.8006 J-0.0427 F240.00
G3 X93.8003 Y-54.9714 Z-8.0000 I0.0075 J33.8006 F240.00
G1 X95.8273 Y-16.9769 Z-8.0000 F240.00
G2 X111.8458 Y0.9386 Z-8.0000 I19.1724 J-1.0234 F240.00
G1 X114.3350 Y1.1879 Z-5.5000 F240.00
G2 X115.6248 Y1.1892 Z-5.5000 I0.6647 J-19.1882 F240.00
G1 X118.1146 Y0.9450 Z-8.0000 F240.00
G2 X134.1700 Y-16.9374 Z-8.0000 I-3.1149 J-18.9453 F240.00
G1 X136.1983 Y-54.9361 Z-8.0000 F240.00
G3 X169.9816 Y-88.7997 Z-8.0000 I33.8010 J-0.0625 F240.00
G3 X203.8003 Y-54.9714 Z-8.0000 I0.0177 J33.8011 F240.00
G1 X204.6863 Y-30.6068 Z-8.0000 F240.00
G1 X204.7771 Y-28.1085 Z-5.5000 F240.00
G1 X204.8240 Y-26.8193 Z-5.5000 F240.00
G1 X204.9148 Y-24.3210 Z-8.0000 F240.00
G1 X205.8008 Y0.0436 Z-8.0000 F240.00
G2 X207.0000 Y1.2000 Z-8.0000 I1.1992 J-0.0436 F240.00
G1 X230.0000 Y1.2000 Z-8.0000 F240.00
G2 X230.8485 Y0.8485 Z-8.0000 I0.0000 J-1.2000 F240.00
G1 X230.8485 Y0.8485 Z-9.0000 F240.00
G2 X231.2000 Y-0.0000 Z-9.0000 I-0.8485 J-0.8485 F240.00
G1 X231.2000 Y-42.0000 Z-9.0000 F240.00
G2 X230.0000 Y-43.2000 Z-9.0000 I-1.2000 J0.0000 F240.00
G1 X216.2000 Y-43.2000 Z-9.0000 F240.00
G1 X216.2000 Y-70.8000 Z-9.0000 F240.00
G1 X230.0000 Y-70.8000 Z-9.0000 F240.00
G2 X231.2000 Y-72.0000 Z-9.0000 I0.0000 J-1.2000 F240.00
G1 X231.2000 Y-100.0000 Z-9.0000 F240.00
G2 X230.0000 Y-101.2000 Z-9.0000 I-1.2000 J-0.0000 F240.00
G1 X176.6450 Y-101.2000 Z-9.0000 F240.00
G1 X173.1450 Y-101.2000 Z-5.5000 F240.00
G1 X171.8550 Y-101.2000 Z-5.5000 F240.00
G1 X168.3550 Y-101.2000 Z-9.0000 F240.00
G1 X61.6450 Y-101.2000 Z-9.0000 F240.00
G1 X58.1450 Y-101.2000 Z-5.5000 F240.00
G1 X56.8550 Y-101.2000 Z-5.5000 F240.00
G1 X53.3550 Y-101.2000 Z-9.0000 F240.00
G1 X0.0000 Y-101.2000 Z-9.0000 F240.00
G2 X-1.2000 Y-100.0000 Z-9.0000 I-0.0000 J1.2000 F240.00
G1 X-1.2000 Y-72.0000 Z-9.0000 F240.00
G2 X0.0000 Y-70.8000 Z-9.0000 I1.2000 J0.0000 F240.00
G1 X13.8000 Y-70.8000 Z-9.0000 F240.00
G1 X13.8000 Y-43.2000 Z-9.0000 F240.00
G1 X0.0000 Y-43.2000 Z-9.0000 F240.00
G2 X-1.2000 Y-42.0000 Z-9.0000 I-0.0000 J1.2000 F240.00
G1 X-1.2000 Y-0.0000 Z-9.0000 F240.00
G2 X0.0000 Y1.2000 Z-9.0000 I1.2000 J0.0000 F240.00
G1 X23.0000 Y1.2000 Z-9.0000 F240.00
G2 X24.1992 Y0.0436 Z-9.0000 I0.0000 J-1.2000 F240.00
G1 X25.0486 Y-23.3141 Z-9.0000 F240.00
G1 X25.1758 Y-26.8118 Z-5.5000 F240.00
G1 X25.2226 Y-28.1010 Z-5.5000 F240.00
G1 X25.3498 Y-31.5987 Z-9.0000 F240.00
G1 X26.1992 Y-54.9564 Z-9.0000 F240.00
G3 X59.9922 Y-88.7997 Z-9.0000 I33.8006 J-0.0427 F240.00
G3 X93.8003 Y-54.9714 Z-9.0000 I0.0075 J33.8006 F240.00
G1 X95.8273 Y-16.9769 Z-9.0000 F240.00
G2 X110.8596 Y0.7477 Z-9.0000 I19.1724 J-1.0234 F240.00
G1 X114.3350 Y1.1879 Z-5.5000 F240.00
G2 X115.6248 Y1.1892 Z-5.5000 I0.6647 J-19.1882 F240.00
G1 X119.1012 Y0.7562 Z-9.0000 F240.00
G2 X134.1700 Y-16.9374 Z-9.0000 I-4.1015 J-18.7565 F240.00
G1 X136.1983 Y-54.9361 Z-9.0000 F240.00
G3 X169.9816 Y-88.7997 Z-9.0000 I33.8010 J-0.0625 F240.00
G3 X203.8003 Y-54.9714 Z-9.0000 I0.0177 J33.8011 F240.00
G1 X204.6499 Y-31.6062 Z-9.0000 F240.00
G1 X204.7771 Y-28.1085 Z-5.5000 F240.00
G1 X204.8240 Y-26.8193 Z-5.5000 F240.00
G1 X204.9512 Y-23.3217 Z-9.0000 F240.00
G1 X205.8008 Y0.0436 Z-9.0000 F240.00
G2 X207.0000 Y1.2000 Z-9.0000 I1.1992 J-0.0436 F240.00
G1 X230.0000 Y1.2000 Z-9.0000 F240.00
G2 X230.8485 Y0.8485 Z-9.0000 I0.0000 J-1.2000 F240.00
G1 X230.8485 Y0.8485 Z-10.0000 F240.00
G2 X231.2000 Y-0.0000 Z-10.0000 I-0.8485 J-0.8485 F240.00
G1 X231.2000 Y-42.0000 Z-10.0000 F240.00
G2 X230.0000 Y-43.2000 Z-10.0000 I-1.2000 J0.0000 F240.00
G1 X216.2000 Y-43.2000 Z-10.0000 F240.00
G1 X216.2000 Y-70.8000 Z-10.0000 F240.00
G1 X230.0000 Y-70.8000 Z-10.0000 F240.00
G2 X231.2000 Y-72.0000 Z-10.0000 I0.0000 J-1.2000 F240.00
G1 X231.2000 Y-100.0000 Z-10.0000 F240.00
G2 X230.0000 Y-101.2000 Z-10.0000 I-1.2000 J-0.0000 F240.00
G1 X177.6450 Y-101.2000 Z-10.0000 F240.00
G1 X173.1450 Y-101.2000 Z-5.5000 F240.00
G1 X171.8550 Y-101.2000 Z-5.5000 F240.00
G1 X167.3550 Y-101.2000 Z-10.0000 F240.00
G1 X62.6450 Y-101.2000 Z-10.0000 F240.00
G1 X58.1450 Y-101.2000 Z-5.5000 F240.00
G1 X56.8550 Y-101.2000 Z-5.5000 F240.00
G1 X52.3550 Y-101.2000 Z-10.0000 F240.00
G1 X0.0000 Y-101.2000 Z-10.0000 F240.00
G2 X-1.2000 Y-100.0000 Z-10.0000 I-0.0000 J1.2000 F240.00
G1 X-1.2000 Y-72.0000 Z-10.0000 F240.00
G2 X0.0000 Y-70.8000 Z-10.0000 I1.2000 J0.0000 F240.00
G1 X13.8000 Y-70.8000 Z-10.0000 F240.00
G1 X13.8000 Y-43.2000 Z-10.0000 F240.00
G1 X0.0000 Y-43.2000 Z-10.0000 F240.00
G2 X-1.2000 Y-42.0000 Z-10.0000 I-0.0000 J1.2000 F240.00
G1 X-1.2000 Y-0.0000 Z-10.0000 F240.00
G2 X0.0000 Y1.2000 Z-10.0000 I1.2000 J0.0000 F240.00
G1 X23.0000 Y1.2000 Z-10.0000 F240.00
G2 X24.1992 Y0.0436 Z-10.0000 I0.0000 J-1.2000 F240.00
G1 X25.0122 Y-22.3148 Z-10.0000 F240.00
G1 X25.1758 Y-26.8118 Z-5.5000 F240.00
G1 X25.2226 Y-28.1010 Z-5.5000 F240.00
G1 X25.3862 Y-32.5980 Z-10.0000 F240.00
G1 X26.1992 Y-54.9564 Z-10.0000 F240.00
G3 X59.9922 Y-88.7997 Z-10.0000 I33.8006 J-0.0427 F240.00
G3 X93.8003 Y-54.9714 Z-10.0000 I0.0075 J33.8006 F240.00
G1 X95.8273 Y-16.9769 Z-10.0000 F240.00
G2 X109.8820 Y0.5048 Z-10.0000 I19.1724 J-1.0234 F240.00
G1 X112.0924 Y0.9780 Z-7.7510 F240.00
G1 X114.3350 Y1.1879 Z-5.5000 F240.00
G2 X115.6248 Y1.1892 Z-5.5000 I0.6647 J-19.1882 F240.00
G1 X117.8679 Y0.9839 Z-7.7510 F240.00
G1 X120.0792 Y0.5153 Z-10.0000 F240.00
G2 X134.1700 Y-16.9374 Z-10.0000 I-5.0795 J-18.5156 F240.00
G1 X136.1983 Y-54.9361 Z-10.0000 F240.00
G3 X169.9816 Y-88.7997 Z-10.0000 I33.8010 J-0.0625 F240.00
G3 X203.8003 Y-54.9714 Z-10.0000 I0.0177 J33.8011 F240.00
G1 X204.6136 Y-32.6055 Z-10.0000 F240.00
G1 X204.7771 Y-28.1085 Z-5.5000 F240.00
G1 X204.8240 Y-26.8193 Z-5.5000 F240.00
G1 X204.9875 Y-22.3223 Z-10.0000 F240.00
G1 X205.8008 Y0.0436 Z-10.0000 F240.00
G2 X207.0000 Y1.2000 Z-10.0000 I1.1992 J-0.0436 F240.00
G1 X230.0000 Y1.2000 Z-10.0000 F240.00
G2 X230.8485 Y0.8485 Z-10.0000 I0.0000 J-1.2000 F240.00
G1 X230.8485 Y0.8485 Z-11.0000 F240.00
G2 X231.2000 Y-0.0000 Z-11.0000 I-0.8485 J-0.8485 F240.00
G1 X231.2000 Y-42.0000 Z-11.0000 F240.00
G2 X230.0000 Y-43.2000 Z-11.0000 I-1.2000 J0.0000 F240.00
G1 X216.2000 Y-43.2000 Z-11.0000 F240.00
G1 X216.2000 Y-70.8000 Z-11.0000 F240.00
G1 X230.0000 Y-70.8000 Z-11.0000 F240.00
G2 X231.2000 Y-72.0000 Z-11.0000 I0.0000 J-1.2000 F240.00
G1 X231.2000 Y-100.0000 Z-11.0000 F240.00
G2 X230.0000 Y-101.2000 Z-11.0000 I-1.2000 J-0.0000 F240.00
G1 X178.6450 Y-101.2000 Z-11.0000 F240.00
G1 X173.1450 Y-101.2000 Z-5.5000 F240.00
G1 X171.8550 Y-101.2000 Z-5.5000 F240.00
G1 X166.3550 Y-101.2000 Z-11.0000 F240.00
G1 X63.6450 Y-101.2000 Z-11.0000 F240.00
G1 X58.1450 Y-101.2000 Z-5.5000 F240.00
G1 X56.8550 Y-101.2000 Z-5.5000 F240.00
G1 X51.3550 Y-101.2000 Z-11.0000 F240.00
G1 X0.0000 Y-101.2000 Z-11.0000 F240.00
G2 X-1.2000 Y-100.0000 Z-11.0000 I-0.0000 J1.2000 F240.00
G1 X-1.2000 Y-72.0000 Z-11.0000 F240.00
G2 X0.0000 Y-70.8000 Z-11.0000 I1.2000 J0.0000 F240.00
G1 X13.8000 Y-70.8000 Z-11.0000 F240.00
G1 X13.8000 Y-43.2000 Z-11.0000 F240.00
G1 X0.0000 Y-43.2000 Z-11.0000 F240.00
G2 X-1.2000 Y-42.0000 Z-11.0000 I-0.0000 J1.2000 F240.00
G1 X-1.2000 Y-0.0000 Z-11.0000 F240.00
G2 X0.0000 Y1.2000 Z-11.0000 I1.2000 J0.0000 F240.00
G1 X23.0000 Y1.2000 Z-11.0000 F240.00
G2 X24.1992 Y0.0436 Z-11.0000 I0.0000 J-1.2000 F240.00
G1 X24.9759 Y-21.3155 Z-11.0000 F240.00
G1 X25.1758 Y-26.8118 Z-5.5000 F240.00
G1 X25.2226 Y-28.1010 Z-5.5000 F240.00
G1 X25.4225 Y-33.5973 Z-11.0000 F240.00
G1 X26.1992 Y-54.9564 Z-11.0000 F240.00
G3 X59.9922 Y-88.7997 Z-11.0000 I33.8006 J-0.0427 F240.00
G3 X93.8003 Y-54.9714 Z-11.0000 I0.0075 J33.8006 F240.00
G1 X95.8273 Y-16.9769 Z-11.0000 F240.00
G2 X108.9151 Y0.2098 Z-11.0000 I19.1724 J-1.0234 F240.00
G1 X111.5968 Y0.8954 Z-8.2518 F240.00
G1 X114.3350 Y1.1879 Z-5.5000 F240.00
G2 X115.6248 Y1.1892 Z-5.5000 I0.6647 J-19.1882 F240.00
G1 X118.3637 Y0.9024 Z-8.2518 F240.00
G1 X121.0467 Y0.2222 Z-11.0000 F240.00
G2 X134.1700 Y-16.9374 Z-11.0000 I-6.0470 J-18.2226 F240.00
G1 X136.1983 Y-54.9361 Z-11.0000 F240.00
G3 X169.9816 Y-88.7997 Z-11.0000 I33.8010 J-0.0625 F240.00
G3 X203.8003 Y-54.9714 Z-11.0000 I0.0177 J33.8011 F240.00
G1 X204.5773 Y-33.6049 Z-11.0000 F240.00
G1 X204.7771 Y-28.1085 Z-5.5000 F240.00
G1 X204.8240 Y-26.8193 Z-5.5000 F240.00
G1 X205.0239 Y-21.3230 Z-11.0000 F240.00
G1 X205.8008 Y0.0436 Z-11.0000 F240.00
G2 X207.0000 Y1.2000 Z-11.0000 I1.1992 J-0.0436 F240.00
G1 X230.0000 Y1.2000 Z-11.0000 F240.00
G2 X230.8485 Y0.8485 Z-11.0000 I0.0000 J-1.2000 F240.00
G0 X230.8485 Y0.8485 Z5.0000
(finish operation: TagDressup)
(begin operation: Pocket_Shape001)
(Path: Pocket_Shape001)
(Pocket_Shape001)
G0 Z5.0000
G0 X115.3135 Y-15.6865
G0 Z3.0000
G1 X115.3135 Y-15.6865 Z-1.0000 F240.00
G2 X115.3587 Y-16.2606 Z-1.0000 I-0.3135 J-0.3135 F240.00
G2 X114.6413 Y-15.7394 Z-1.0000 I-0.3587 J0.2606 F240.00
G2 X115.3135 Y-15.6865 Z-1.0000 I0.3587 J-0.2606 F240.00
G1 X115.3135 Y-15.6865 Z-2.0000 F240.00
G2 X115.3587 Y-16.2606 Z-2.0000 I-0.3135 J-0.3135 F240.00
G2 X114.6413 Y-15.7394 Z-2.0000 I-0.3587 J0.2606 F240.00
G2 X115.3135 Y-15.6865 Z-2.0000 I0.3587 J-0.2606 F240.00
G1 X115.3135 Y-15.6865 Z-3.0000 F240.00
G2 X115.3587 Y-16.2606 Z-3.0000 I-0.3135 J-0.3135 F240.00
G2 X114.6413 Y-15.7394 Z-3.0000 I-0.3587 J0.2606 F240.00
G2 X115.3135 Y-15.6865 Z-3.0000 I0.3587 J-0.2606 F240.00
G1 X115.3135 Y-15.6865 Z-4.0000 F240.00
G2 X115.3587 Y-16.2606 Z-4.0000 I-0.3135 J-0.3135 F240.00
G2 X114.6413 Y-15.7394 Z-4.0000 I-0.3587 J0.2606 F240.00
G2 X115.3135 Y-15.6865 Z-4.0000 I0.3587 J-0.2606 F240.00
G1 X115.3135 Y-15.6865 Z-5.0000 F240.00
G2 X115.3587 Y-16.2606 Z-5.0000 I-0.3135 J-0.3135 F240.00
G2 X114.6413 Y-15.7394 Z-5.0000 I-0.3587 J0.2606 F240.00
G2 X115.3135 Y-15.6865 Z-5.0000 I0.3587 J-0.2606 F240.00
G1 X115.3135 Y-15.6865 Z-6.0000 F240.00
G2 X115.3587 Y-16.2606 Z-6.0000 I-0.3135 J-0.3135 F240.00
G2 X114.6413 Y-15.7394 Z-6.0000 I-0.3587 J0.2606 F240.00
G2 X115.3135 Y-15.6865 Z-6.0000 I0.3587 J-0.2606 F240.00
G1 X115.3135 Y-15.6865 Z-7.0000 F240.00
G2 X115.3587 Y-16.2606 Z-7.0000 I-0.3135 J-0.3135 F240.00
G2 X114.6413 Y-15.7394 Z-7.0000 I-0.3587 J0.2606 F240.00
G2 X115.3135 Y-15.6865 Z-7.0000 I0.3587 J-0.2606 F240.00
G1 X115.3135 Y-15.6865 Z-8.0000 F240.00
G2 X115.3587 Y-16.2606 Z-8.0000 I-0.3135 J-0.3135 F240.00
G2 X114.6413 Y-15.7394 Z-8.0000 I-0.3587 J0.2606 F240.00
G2 X115.3135 Y-15.6865 Z-8.0000 I0.3587 J-0.2606 F240.00
G1 X115.3135 Y-15.6865 Z-9.0000 F240.00
G2 X115.3587 Y-16.2606 Z-9.0000 I-0.3135 J-0.3135 F240.00
G2 X114.6413 Y-15.7394 Z-9.0000 I-0.3587 J0.2606 F240.00
G2 X115.3135 Y-15.6865 Z-9.0000 I0.3587 J-0.2606 F240.00
G1 X115.3135 Y-15.6865 Z-10.0000 F240.00
G2 X115.3587 Y-16.2606 Z-10.0000 I-0.3135 J-0.3135 F240.00
G2 X114.6413 Y-15.7394 Z-10.0000 I-0.3587 J0.2606 F240.00
G2 X115.3135 Y-15.6865 Z-10.0000 I0.3587 J-0.2606 F240.00
G1 X115.3135 Y-15.6865 Z-11.0000 F240.00
G2 X115.3587 Y-16.2606 Z-11.0000 I-0.3135 J-0.3135 F240.00
G2 X114.6413 Y-15.7394 Z-11.0000 I-0.3587 J0.2606 F240.00
G2 X115.3135 Y-15.6865 Z-11.0000 I0.3587 J-0.2606 F240.00
G0 Z5.0000
G0 X115.3135 Y-53.6865
G0 Z3.0000
G1 X115.3135 Y-53.6865 Z-1.0000 F240.00
G2 X115.3587 Y-54.2606 Z-1.0000 I-0.3135 J-0.3135 F240.00
G2 X114.6413 Y-53.7394 Z-1.0000 I-0.3587 J0.2606 F240.00
G2 X115.3135 Y-53.6865 Z-1.0000 I0.3587 J-0.2606 F240.00
G1 X115.3135 Y-53.6865 Z-2.0000 F240.00
G2 X115.3587 Y-54.2606 Z-2.0000 I-0.3135 J-0.3135 F240.00
G2 X114.6413 Y-53.7394 Z-2.0000 I-0.3587 J0.2606 F240.00
G2 X115.3135 Y-53.6865 Z-2.0000 I0.3587 J-0.2606 F240.00
G1 X115.3135 Y-53.6865 Z-3.0000 F240.00
G2 X115.3587 Y-54.2606 Z-3.0000 I-0.3135 J-0.3135 F240.00
G2 X114.6413 Y-53.7394 Z-3.0000 I-0.3587 J0.2606 F240.00
G2 X115.3135 Y-53.6865 Z-3.0000 I0.3587 J-0.2606 F240.00
G1 X115.3135 Y-53.6865 Z-4.0000 F240.00
G2 X115.3587 Y-54.2606 Z-4.0000 I-0.3135 J-0.3135 F240.00
G2 X114.6413 Y-53.7394 Z-4.0000 I-0.3587 J0.2606 F240.00
G2 X115.3135 Y-53.6865 Z-4.0000 I0.3587 J-0.2606 F240.00
G1 X115.3135 Y-53.6865 Z-5.0000 F240.00
G2 X115.3587 Y-54.2606 Z-5.0000 I-0.3135 J-0.3135 F240.00
G2 X114.6413 Y-53.7394 Z-5.0000 I-0.3587 J0.2606 F240.00
G2 X115.3135 Y-53.6865 Z-5.0000 I0.3587 J-0.2606 F240.00
G1 X115.3135 Y-53.6865 Z-6.0000 F240.00
G2 X115.3587 Y-54.2606 Z-6.0000 I-0.3135 J-0.3135 F240.00
G2 X114.6413 Y-53.7394 Z-6.0000 I-0.3587 J0.2606 F240.00
G2 X115.3135 Y-53.6865 Z-6.0000 I0.3587 J-0.2606 F240.00
G1 X115.3135 Y-53.6865 Z-7.0000 F240.00
G2 X115.3587 Y-54.2606 Z-7.0000 I-0.3135 J-0.3135 F240.00
G2 X114.6413 Y-53.7394 Z-7.0000 I-0.3587 J0.2606 F240.00
G2 X115.3135 Y-53.6865 Z-7.0000 I0.3587 J-0.2606 F240.00
G1 X115.3135 Y-53.6865 Z-8.0000 F240.00
G2 X115.3587 Y-54.2606 Z-8.0000 I-0.3135 J-0.3135 F240.00
G2 X114.6413 Y-53.7394 Z-8.0000 I-0.3587 J0.2606 F240.00
G2 X115.3135 Y-53.6865 Z-8.0000 I0.3587 J-0.2606 F240.00
G1 X115.3135 Y-53.6865 Z-9.0000 F240.00
G2 X115.3587 Y-54.2606 Z-9.0000 I-0.3135 J-0.3135 F240.00
G2 X114.6413 Y-53.7394 Z-9.0000 I-0.3587 J0.2606 F240.00
G2 X115.3135 Y-53.6865 Z-9.0000 I0.3587 J-0.2606 F240.00
G1 X115.3135 Y-53.6865 Z-10.0000 F240.00
G2 X115.3587 Y-54.2606 Z-10.0000 I-0.3135 J-0.3135 F240.00
G2 X114.6413 Y-53.7394 Z-10.0000 I-0.3587 J0.2606 F240.00
G2 X115.3135 Y-53.6865 Z-10.0000 I0.3587 J-0.2606 F240.00
G1 X115.3135 Y-53.6865 Z-11.0000 F240.00
G2 X115.3587 Y-54.2606 Z-11.0000 I-0.3135 J-0.3135 F240.00
G2 X114.6413 Y-53.7394 Z-11.0000 I-0.3587 J0.2606 F240.00
G2 X115.3135 Y-53.6865 Z-11.0000 I0.3587 J-0.2606 F240.00
G0 Z5.0000
G0 X5.7035 Y-11.2965
G0 Z3.0000
G1 X5.7035 Y-11.2965 Z-1.0000 F240.00
G2 X4.4005 Y-12.7939 Z-1.0000 I-0.7035 J-0.7035 F240.00
G2 X5.5995 Y-11.2061 Z-1.0000 I0.5995 J0.7939 F240.00
G2 X5.7035 Y-11.2965 Z-1.0000 I-0.5995 J-0.7939 F240.00
G1 X5.7035 Y-11.2965 Z-2.0000 F240.00
G2 X4.4005 Y-12.7939 Z-2.0000 I-0.7035 J-0.7035 F240.00
G2 X5.5995 Y-11.2061 Z-2.0000 I0.5995 J0.7939 F240.00
G2 X5.7035 Y-11.2965 Z-2.0000 I-0.5995 J-0.7939 F240.00
G1 X5.7035 Y-11.2965 Z-3.0000 F240.00
G2 X4.4005 Y-12.7939 Z-3.0000 I-0.7035 J-0.7035 F240.00
G2 X5.5995 Y-11.2061 Z-3.0000 I0.5995 J0.7939 F240.00
G2 X5.7035 Y-11.2965 Z-3.0000 I-0.5995 J-0.7939 F240.00
G1 X5.7035 Y-11.2965 Z-4.0000 F240.00
G2 X4.4005 Y-12.7939 Z-4.0000 I-0.7035 J-0.7035 F240.00
G2 X5.5995 Y-11.2061 Z-4.0000 I0.5995 J0.7939 F240.00
G2 X5.7035 Y-11.2965 Z-4.0000 I-0.5995 J-0.7939 F240.00
G1 X5.7035 Y-11.2965 Z-5.0000 F240.00
G2 X4.4005 Y-12.7939 Z-5.0000 I-0.7035 J-0.7035 F240.00
G2 X5.5995 Y-11.2061 Z-5.0000 I0.5995 J0.7939 F240.00
G2 X5.7035 Y-11.2965 Z-5.0000 I-0.5995 J-0.7939 F240.00
G1 X5.7035 Y-11.2965 Z-6.0000 F240.00
G2 X4.4005 Y-12.7939 Z-6.0000 I-0.7035 J-0.7035 F240.00
G2 X5.5995 Y-11.2061 Z-6.0000 I0.5995 J0.7939 F240.00
G2 X5.7035 Y-11.2965 Z-6.0000 I-0.5995 J-0.7939 F240.00
G1 X5.7035 Y-11.2965 Z-7.0000 F240.00
G2 X4.4005 Y-12.7939 Z-7.0000 I-0.7035 J-0.7035 F240.00
G2 X5.5995 Y-11.2061 Z-7.0000 I0.5995 J0.7939 F240.00
G2 X5.7035 Y-11.2965 Z-7.0000 I-0.5995 J-0.7939 F240.00
G1 X5.7035 Y-11.2965 Z-8.0000 F240.00
G2 X4.4005 Y-12.7939 Z-8.0000 I-0.7035 J-0.7035 F240.00
G2 X5.5995 Y-11.2061 Z-8.0000 I0.5995 J0.7939 F240.00
G2 X5.7035 Y-11.2965 Z-8.0000 I-0.5995 J-0.7939 F240.00
G1 X5.7035 Y-11.2965 Z-9.0000 F240.00
G2 X4.4005 Y-12.7939 Z-9.0000 I-0.7035 J-0.7035 F240.00
G2 X5.5995 Y-11.2061 Z-9.0000 I0.5995 J0.7939 F240.00
G2 X5.7035 Y-11.2965 Z-9.0000 I-0.5995 J-0.7939 F240.00
G1 X5.7035 Y-11.2965 Z-10.0000 F240.00
G2 X4.4005 Y-12.7939 Z-10.0000 I-0.7035 J-0.7035 F240.00
G2 X5.5995 Y-11.2061 Z-10.0000 I0.5995 J0.7939 F240.00
G2 X5.7035 Y-11.2965 Z-10.0000 I-0.5995 J-0.7939 F240.00
G1 X5.7035 Y-11.2965 Z-11.0000 F240.00
G2 X4.4005 Y-12.7939 Z-11.0000 I-0.7035 J-0.7035 F240.00
G2 X5.5995 Y-11.2061 Z-11.0000 I0.5995 J0.7939 F240.00
G2 X5.7035 Y-11.2965 Z-11.0000 I-0.5995 J-0.7939 F240.00
G0 Z5.0000
G0 X5.7035 Y-86.2965
G0 Z3.0000
G1 X5.7035 Y-86.2965 Z-1.0000 F240.00
G2 X5.8458 Y-87.5237 Z-1.0000 I-0.7035 J-0.7035 F240.00
G2 X4.1542 Y-86.4763 Z-1.0000 I-0.8458 J0.5237 F240.00
G2 X5.7035 Y-86.2965 Z-1.0000 I0.8458 J-0.5237 F240.00
G1 X5.7035 Y-86.2965 Z-2.0000 F240.00
G2 X5.8458 Y-87.5237 Z-2.0000 I-0.7035 J-0.7035 F240.00
G2 X4.1542 Y-86.4763 Z-2.0000 I-0.8458 J0.5237 F240.00
G2 X5.7035 Y-86.2965 Z-2.0000 I0.8458 J-0.5237 F240.00
G1 X5.7035 Y-86.2965 Z-3.0000 F240.00
G2 X5.8458 Y-87.5237 Z-3.0000 I-0.7035 J-0.7035 F240.00
G2 X4.1542 Y-86.4763 Z-3.0000 I-0.8458 J0.5237 F240.00
G2 X5.7035 Y-86.2965 Z-3.0000 I0.8458 J-0.5237 F240.00
G1 X5.7035 Y-86.2965 Z-4.0000 F240.00
G2 X5.8458 Y-87.5237 Z-4.0000 I-0.7035 J-0.7035 F240.00
G2 X4.1542 Y-86.4763 Z-4.0000 I-0.8458 J0.5237 F240.00
G2 X5.7035 Y-86.2965 Z-4.0000 I0.8458 J-0.5237 F240.00
G1 X5.7035 Y-86.2965 Z-5.0000 F240.00
G2 X5.8458 Y-87.5237 Z-5.0000 I-0.7035 J-0.7035 F240.00
G2 X4.1542 Y-86.4763 Z-5.0000 I-0.8458 J0.5237 F240.00
G2 X5.7035 Y-86.2965 Z-5.0000 I0.8458 J-0.5237 F240.00
G1 X5.7035 Y-86.2965 Z-6.0000 F240.00
G2 X5.8458 Y-87.5237 Z-6.0000 I-0.7035 J-0.7035 F240.00
G2 X4.1542 Y-86.4763 Z-6.0000 I-0.8458 J0.5237 F240.00
G2 X5.7035 Y-86.2965 Z-6.0000 I0.8458 J-0.5237 F240.00
G1 X5.7035 Y-86.2965 Z-7.0000 F240.00
G2 X5.8458 Y-87.5237 Z-7.0000 I-0.7035 J-0.7035 F240.00
G2 X4.1542 Y-86.4763 Z-7.0000 I-0.8458 J0.5237 F240.00
G2 X5.7035 Y-86.2965 Z-7.0000 I0.8458 J-0.5237 F240.00
G1 X5.7035 Y-86.2965 Z-8.0000 F240.00
G2 X5.8458 Y-87.5237 Z-8.0000 I-0.7035 J-0.7035 F240.00
G2 X4.1542 Y-86.4763 Z-8.0000 I-0.8458 J0.5237 F240.00
G2 X5.7035 Y-86.2965 Z-8.0000 I0.8458 J-0.5237 F240.00
G1 X5.7035 Y-86.2965 Z-9.0000 F240.00
G2 X5.8458 Y-87.5237 Z-9.0000 I-0.7035 J-0.7035 F240.00
G2 X4.1542 Y-86.4763 Z-9.0000 I-0.8458 J0.5237 F240.00
G2 X5.7035 Y-86.2965 Z-9.0000 I0.8458 J-0.5237 F240.00
G1 X5.7035 Y-86.2965 Z-10.0000 F240.00
G2 X5.8458 Y-87.5237 Z-10.0000 I-0.7035 J-0.7035 F240.00
G2 X4.1542 Y-86.4763 Z-10.0000 I-0.8458 J0.5237 F240.00
G2 X5.7035 Y-86.2965 Z-10.0000 I0.8458 J-0.5237 F240.00
G1 X5.7035 Y-86.2965 Z-11.0000 F240.00
G2 X5.8458 Y-87.5237 Z-11.0000 I-0.7035 J-0.7035 F240.00
G2 X4.1542 Y-86.4763 Z-11.0000 I-0.8458 J0.5237 F240.00
G2 X5.7035 Y-86.2965 Z-11.0000 I0.8458 J-0.5237 F240.00
G0 Z5.0000
G0 X225.7035 Y-11.2965
G0 Z3.0000
G1 X225.7035 Y-11.2965 Z-1.0000 F240.00
G2 X225.8458 Y-12.5237 Z-1.0000 I-0.7035 J-0.7035 F240.00
G2 X224.1542 Y-11.4763 Z-1.0000 I-0.8458 J0.5237 F240.00
G2 X225.7035 Y-11.2965 Z-1.0000 I0.8458 J-0.5237 F240.00
G1 X225.7035 Y-11.2965 Z-2.0000 F240.00
G2 X225.8458 Y-12.5237 Z-2.0000 I-0.7035 J-0.7035 F240.00
G2 X224.1542 Y-11.4763 Z-2.0000 I-0.8458 J0.5237 F240.00
G2 X225.7035 Y-11.2965 Z-2.0000 I0.8458 J-0.5237 F240.00
G1 X225.7035 Y-11.2965 Z-3.0000 F240.00
G2 X225.8458 Y-12.5237 Z-3.0000 I-0.7035 J-0.7035 F240.00
G2 X224.1542 Y-11.4763 Z-3.0000 I-0.8458 J0.5237 F240.00
G2 X225.7035 Y-11.2965 Z-3.0000 I0.8458 J-0.5237 F240.00
G1 X225.7035 Y-11.2965 Z-4.0000 F240.00
G2 X225.8458 Y-12.5237 Z-4.0000 I-0.7035 J-0.7035 F240.00
G2 X224.1542 Y-11.4763 Z-4.0000 I-0.8458 J0.5237 F240.00
G2 X225.7035 Y-11.2965 Z-4.0000 I0.8458 J-0.5237 F240.00
G1 X225.7035 Y-11.2965 Z-5.0000 F240.00
G2 X225.8458 Y-12.5237 Z-5.0000 I-0.7035 J-0.7035 F240.00
G2 X224.1542 Y-11.4763 Z-5.0000 I-0.8458 J0.5237 F240.00
G2 X225.7035 Y-11.2965 Z-5.0000 I0.8458 J-0.5237 F240.00
G1 X225.7035 Y-11.2965 Z-6.0000 F240.00
G2 X225.8458 Y-12.5237 Z-6.0000 I-0.7035 J-0.7035 F240.00
G2 X224.1542 Y-11.4763 Z-6.0000 I-0.8458 J0.5237 F240.00
G2 X225.7035 Y-11.2965 Z-6.0000 I0.8458 J-0.5237 F240.00
G1 X225.7035 Y-11.2965 Z-7.0000 F240.00
G2 X225.8458 Y-12.5237 Z-7.0000 I-0.7035 J-0.7035 F240.00
G2 X224.1542 Y-11.4763 Z-7.0000 I-0.8458 J0.5237 F240.00
G2 X225.7035 Y-11.2965 Z-7.0000 I0.8458 J-0.5237 F240.00
G1 X225.7035 Y-11.2965 Z-8.0000 F240.00
G2 X225.8458 Y-12.5237 Z-8.0000 I-0.7035 J-0.7035 F240.00
G2 X224.1542 Y-11.4763 Z-8.0000 I-0.8458 J0.5237 F240.00
G2 X225.7035 Y-11.2965 Z-8.0000 I0.8458 J-0.5237 F240.00
G1 X225.7035 Y-11.2965 Z-9.0000 F240.00
G2 X225.8458 Y-12.5237 Z-9.0000 I-0.7035 J-0.7035 F240.00
G2 X224.1542 Y-11.4763 Z-9.0000 I-0.8458 J0.5237 F240.00
G2 X225.7035 Y-11.2965 Z-9.0000 I0.8458 J-0.5237 F240.00
G1 X225.7035 Y-11.2965 Z-10.0000 F240.00
G2 X225.8458 Y-12.5237 Z-10.0000 I-0.7035 J-0.7035 F240.00
G2 X224.1542 Y-11.4763 Z-10.0000 I-0.8458 J0.5237 F240.00
G2 X225.7035 Y-11.2965 Z-10.0000 I0.8458 J-0.5237 F240.00
G1 X225.7035 Y-11.2965 Z-11.0000 F240.00
G2 X225.8458 Y-12.5237 Z-11.0000 I-0.7035 J-0.7035 F240.00
G2 X224.1542 Y-11.4763 Z-11.0000 I-0.8458 J0.5237 F240.00
G2 X225.7035 Y-11.2965 Z-11.0000 I0.8458 J-0.5237 F240.00
G0 Z5.0000
G0 X225.7035 Y-86.2965
G0 Z3.0000
G1 X225.7035 Y-86.2965 Z-1.0000 F240.00
G2 X224.4005 Y-87.7939 Z-1.0000 I-0.7035 J-0.7035 F240.00
G2 X225.5995 Y-86.2061 Z-1.0000 I0.5995 J0.7939 F240.00
G2 X225.7035 Y-86.2965 Z-1.0000 I-0.5995 J-0.7939 F240.00
G1 X225.7035 Y-86.2965 Z-2.0000 F240.00
G2 X224.4005 Y-87.7939 Z-2.0000 I-0.7035 J-0.7035 F240.00
G2 X225.5995 Y-86.2061 Z-2.0000 I0.5995 J0.7939 F240.00
G2 X225.7035 Y-86.2965 Z-2.0000 I-0.5995 J-0.7939 F240.00
G1 X225.7035 Y-86.2965 Z-3.0000 F240.00
G2 X224.4005 Y-87.7939 Z-3.0000 I-0.7035 J-0.7035 F240.00
G2 X225.5995 Y-86.2061 Z-3.0000 I0.5995 J0.7939 F240.00
G2 X225.7035 Y-86.2965 Z-3.0000 I-0.5995 J-0.7939 F240.00
G1 X225.7035 Y-86.2965 Z-4.0000 F240.00
G2 X224.4005 Y-87.7939 Z-4.0000 I-0.7035 J-0.7035 F240.00
G2 X225.5995 Y-86.2061 Z-4.0000 I0.5995 J0.7939 F240.00
G2 X225.7035 Y-86.2965 Z-4.0000 I-0.5995 J-0.7939 F240.00
G1 X225.7035 Y-86.2965 Z-5.0000 F240.00
G2 X224.4005 Y-87.7939 Z-5.0000 I-0.7035 J-0.7035 F240.00
G2 X225.5995 Y-86.2061 Z-5.0000 I0.5995 J0.7939 F240.00
G2 X225.7035 Y-86.2965 Z-5.0000 I-0.5995 J-0.7939 F240.00
G1 X225.7035 Y-86.2965 Z-6.0000 F240.00
G2 X224.4005 Y-87.7939 Z-6.0000 I-0.7035 J-0.7035 F240.00
G2 X225.5995 Y-86.2061 Z-6.0000 I0.5995 J0.7939 F240.00
G2 X225.7035 Y-86.2965 Z-6.0000 I-0.5995 J-0.7939 F240.00
G1 X225.7035 Y-86.2965 Z-7.0000 F240.00
G2 X224.4005 Y-87.7939 Z-7.0000 I-0.7035 J-0.7035 F240.00
G2 X225.5995 Y-86.2061 Z-7.0000 I0.5995 J0.7939 F240.00
G2 X225.7035 Y-86.2965 Z-7.0000 I-0.5995 J-0.7939 F240.00
G1 X225.7035 Y-86.2965 Z-8.0000 F240.00
G2 X224.4005 Y-87.7939 Z-8.0000 I-0.7035 J-0.7035 F240.00
G2 X225.5995 Y-86.2061 Z-8.0000 I0.5995 J0.7939 F240.00
G2 X225.7035 Y-86.2965 Z-8.0000 I-0.5995 J-0.7939 F240.00
G1 X225.7035 Y-86.2965 Z-9.0000 F240.00
G2 X224.4005 Y-87.7939 Z-9.0000 I-0.7035 J-0.7035 F240.00
G2 X225.5995 Y-86.2061 Z-9.0000 I0.5995 J0.7939 F240.00
G2 X225.7035 Y-86.2965 Z-9.0000 I-0.5995 J-0.7939 F240.00
G1 X225.7035 Y-86.2965 Z-10.0000 F240.00
G2 X224.4005 Y-87.7939 Z-10.0000 I-0.7035 J-0.7035 F240.00
G2 X225.5995 Y-86.2061 Z-10.0000 I0.5995 J0.7939 F240.00
G2 X225.7035 Y-86.2965 Z-10.0000 I-0.5995 J-0.7939 F240.00
G1 X225.7035 Y-86.2965 Z-11.0000 F240.00
G2 X224.4005 Y-87.7939 Z-11.0000 I-0.7035 J-0.7035 F240.00
G2 X225.5995 Y-86.2061 Z-11.0000 I0.5995 J0.7939 F240.00
G2 X225.7035 Y-86.2965 Z-11.0000 I-0.5995 J-0.7939 F240.00
G0 Z5.0000
(finish operation: Pocket_Shape001)
(begin postamble)
M5
G17 G90
; M2
