(G-CODE GENERATED BY FLATCAM v8.96 - www.flatcam.org - Version Date: 2019/08/23)

(Name: carte-radio-B.Cu)
(Type: G-code from Geometry)
(Units: MM)

(Created on mercredi, 11 décembre 2019 at 19:45)

(TOOL DIAMETER: 0.3 mm)
(Feedrate: 79.9998 mm/min)
(Feedrate_Z: 79.9998 mm/min)
(Feedrate rapids 79.9998 mm/min)

(Z_Cut: -0.3732 mm)
(Z_Move: 1.999 mm)
(Z Toolchange: 12.7 mm)
(X,Y Toolchange: 0.0000, 0.0000 mm)
(Z Start: None mm)
(Z End: 12.7 mm)
(Steps per circle: 128)
(Postprocessor Geometry: default)

(X range:   -2.8694 ...   62.8134  mm)
(Y range:   -2.8694 ...   50.1134  mm)

(Spindle Speed: None RPM)

G21
G90
G94

G01 F80.00
G00 Z1.9990

M03
G00 X-1.4576 Y-0.2899
G01 F80.00
G01 Z-0.3732
G01 F80.00
G01 X-1.2357 Y-0.8257
G01 X-0.8257 Y-1.2357
G01 X-0.2899 Y-1.4576
G01 X0.2899 Y-1.4576
G01 X0.8257 Y-1.2357
G01 X1.2357 Y-0.8257
G01 X1.4576 Y-0.2899
G01 X1.4576 Y0.2899
G01 X1.2357 Y0.8257
G01 X0.8257 Y1.2357
G01 X0.2899 Y1.4576
G01 X-0.2899 Y1.4576
G01 X-0.8257 Y1.2357
G01 X-1.2357 Y0.8257
G01 X-1.4576 Y0.2899
G01 X-1.4576 Y-0.2899
G00 Z1.9990
G00 X-2.8694 Y-2.5920
G01 F80.00
G01 Z-0.3732
G01 F80.00
G01 X-2.8677 Y-2.6229
G01 X-2.8641 Y-2.6463
G01 X-2.8585 Y-2.6690
G01 X-2.8490 Y-2.6965
G01 X-2.8384 Y-2.7195
G01 X-2.8247 Y-2.7430
G01 X-2.8087 Y-2.7651
G01 X-2.7882 Y-2.7882
G01 X-2.7651 Y-2.8087
G01 X-2.7430 Y-2.8247
G01 X-2.7195 Y-2.8384
G01 X-2.6965 Y-2.8490
G01 X-2.6690 Y-2.8585
G01 X-2.6463 Y-2.8641
G01 X-2.6220 Y-2.8678
G01 X-2.5920 Y-2.8694
G01 X61.1739 Y-2.8694
G01 X61.1974 Y-2.8684
G01 X61.2183 Y-2.8658
G01 X61.2377 Y-2.8620
G01 X61.2639 Y-2.8544
G01 X61.2835 Y-2.8468
G01 X61.3079 Y-2.8349
G01 X61.3311 Y-2.8206
G01 X61.3470 Y-2.8087
G01 X61.3701 Y-2.7882
G01 X62.7390 Y-1.4189
G01 X62.7527 Y-1.4030
G01 X62.7667 Y-1.3840
G01 X62.7789 Y-1.3639
G01 X62.7868 Y-1.3484
G01 X62.7959 Y-1.3268
G01 X62.8015 Y-1.3105
G01 X62.8060 Y-1.2937
G01 X62.8104 Y-1.2706
G01 X62.8124 Y-1.2534
G01 X62.8134 Y-1.2299
G01 X62.8134 Y6.8333
G01 X62.8124 Y6.8568
G01 X62.8088 Y6.8838
G01 X62.8042 Y6.9042
G01 X62.7959 Y6.9302
G01 X62.7883 Y6.9485
G01 X62.7758 Y6.9727
G01 X62.7646 Y6.9904
G01 X62.7481 Y7.0121
G01 X62.7322 Y7.0294
G01 X62.7141 Y7.0459
G01 X62.6932 Y7.0618
G01 X62.6754 Y7.0731
G01 X62.6513 Y7.0856
G01 X62.6260 Y7.0957
G01 X62.6070 Y7.1014
G01 X62.5803 Y7.1071
G01 X62.5595 Y7.1097
G01 X62.5360 Y7.1107
G01 X62.5125 Y7.1097
G01 X62.4917 Y7.1071
G01 X62.4722 Y7.1032
G01 X62.4590 Y7.0998
G01 X62.4391 Y7.0932
G01 X62.3691 Y7.0644
G01 X60.6024 Y7.0644
G01 X60.6024 Y7.2716
G01 X62.2980 Y7.2716
G01 X62.3120 Y7.2723
G01 X62.3258 Y7.2742
G01 X62.3394 Y7.2775
G01 X62.3526 Y7.2819
G01 X62.3657 Y7.2878
G01 X62.3785 Y7.2950
G01 X62.3962 Y7.3082
G01 X62.4069 Y7.3183
G01 X62.4209 Y7.3354
G01 X62.4288 Y7.3478
G01 X62.4354 Y7.3609
G01 X62.4405 Y7.3740
G01 X62.4443 Y7.3874
G01 X62.4469 Y7.4011
G01 X62.4484 Y7.4220
G01 X62.4482 Y8.7790
G01 X62.4469 Y8.7929
G01 X62.4443 Y8.8066
G01 X62.4405 Y8.8200
G01 X62.4354 Y8.8331
G01 X62.4250 Y8.8525
G01 X62.4165 Y8.8645
G01 X62.4069 Y8.8757
G01 X62.3962 Y8.8858
G01 X62.3846 Y8.8949
G01 X62.3722 Y8.9028
G01 X62.3591 Y8.9094
G01 X62.3460 Y8.9145
G01 X62.3326 Y8.9183
G01 X62.3189 Y8.9209
G01 X62.2980 Y8.9223
G01 X58.0980 Y8.9223
G01 X58.0840 Y8.9217
G01 X58.0634 Y8.9183
G01 X58.0434 Y8.9121
G01 X58.0238 Y8.9028
G01 X58.0055 Y8.8905
G01 X57.9891 Y8.8757
G01 X57.9751 Y8.8586
G01 X57.9638 Y8.8397
G01 X57.9555 Y8.8200
G01 X57.9502 Y8.7998
G01 X57.9478 Y8.7790
G01 X57.9476 Y8.5014
G01 X57.7404 Y8.5014
G01 X57.7404 Y8.8431
G01 X57.7949 Y8.9746
G01 X57.8954 Y9.0751
G01 X58.0698 Y9.1480
G01 X58.0993 Y9.1646
G01 X58.1142 Y9.1750
G01 X58.1271 Y9.1852
G01 X58.1444 Y9.2011
G01 X58.1603 Y9.2185
G01 X58.1733 Y9.2350
G01 X58.1847 Y9.2521
G01 X58.1946 Y9.2698
G01 X58.2053 Y9.2928
G01 X58.2126 Y9.3133
G01 X58.2182 Y9.3335
G01 X58.2232 Y9.3603
G01 X58.2255 Y9.3874
G01 X58.2251 Y9.4146
G01 X58.2221 Y9.4416
G01 X58.2164 Y9.4683
G01 X58.2082 Y9.4942
G01 X58.1976 Y9.5189
G01 X58.1843 Y9.5431
G01 X58.1706 Y9.5632
G01 X58.1513 Y9.5863
G01 X58.1318 Y9.6053
G01 X58.1105 Y9.6223
G01 X58.0877 Y9.6371
G01 X58.0635 Y9.6496
G01 X58.0382 Y9.6597
G01 X58.0121 Y9.6673
G01 X57.9926 Y9.6711
G01 X57.9783 Y9.6731
G01 X57.9483 Y9.6747
G01 X48.2830 Y9.6747
G01 X47.9599 Y9.7390
G01 X47.9104 Y9.7718
G01 X47.8927 Y9.7818
G01 X47.8748 Y9.7903
G01 X47.8552 Y9.7978
G01 X47.8362 Y9.8036
G01 X47.8157 Y9.8082
G01 X47.7952 Y9.8112
G01 X47.7652 Y9.8128
G01 X46.9195 Y9.8128
G01 X46.7527 Y9.8460
G01 X46.6344 Y9.9251
G01 X46.5554 Y10.0433
G01 X46.5222 Y10.2102
G01 X46.5222 Y11.3544
G01 X46.5554 Y11.5213
G01 X46.6278 Y11.6298
G01 X46.6381 Y11.6468
G01 X46.6475 Y11.6656
G01 X46.6595 Y11.6968
G01 X46.6665 Y11.7231
G01 X46.6710 Y11.7509
G01 X46.6726 Y11.7808
G01 X46.6708 Y11.8117
G01 X46.6672 Y11.8351
G01 X46.6617 Y11.8578
G01 X46.6522 Y11.8853
G01 X46.6381 Y11.9149
G01 X46.6238 Y11.9380
G01 X46.6072 Y11.9597
G01 X46.5891 Y11.9793
G01 X46.5346 Y12.1107
G01 X46.5346 Y12.3769
G01 X46.7419 Y12.3769
G01 X46.7420 Y12.1749
G01 X46.7444 Y12.1541
G01 X46.7477 Y12.1405
G01 X46.7521 Y12.1272
G01 X46.7614 Y12.1076
G01 X46.7737 Y12.0893
G01 X46.7885 Y12.0730
G01 X46.7997 Y12.0633
G01 X46.8180 Y12.0511
G01 X46.8376 Y12.0418
G01 X46.8576 Y12.0355
G01 X46.8783 Y12.0321
G01 X46.8922 Y12.0315
G01 X49.8919 Y12.0315
G01 X49.9128 Y12.0329
G01 X49.9333 Y12.0373
G01 X49.9530 Y12.0444
G01 X49.9725 Y12.0549
G01 X49.9902 Y12.0680
G01 X50.0058 Y12.0836
G01 X50.0189 Y12.1013
G01 X50.0293 Y12.1208
G01 X50.0344 Y12.1338
G01 X50.0383 Y12.1472
G01 X50.0408 Y12.1609
G01 X50.0421 Y12.1749
G01 X50.0423 Y12.3769
G01 X50.2495 Y12.3769
G01 X50.2495 Y12.1673
G01 X50.2513 Y12.1364
G01 X50.2556 Y12.1096
G01 X50.2626 Y12.0833
G01 X50.2721 Y12.0577
G01 X50.2841 Y12.0333
G01 X50.2943 Y12.0163
G01 X50.3046 Y12.0014
G01 X50.3149 Y11.9885
G01 X50.3282 Y11.9738
G01 X50.3379 Y11.9643
G01 X50.3538 Y11.9506
G01 X50.3698 Y11.9387
G01 X50.3818 Y11.9309
G01 X50.3995 Y11.9209
G01 X50.4174 Y11.9125
G01 X50.4300 Y11.9074
G01 X50.4500 Y11.9008
G01 X50.4826 Y11.8935
G01 X50.5034 Y11.8909
G01 X50.5233 Y11.8899
G01 X58.4150 Y11.8899
G01 X58.4348 Y11.8909
G01 X58.4618 Y11.8945
G01 X58.6253 Y11.9270
G01 X59.8244 Y11.9270
G01 X59.8479 Y11.9280
G01 X59.8786 Y11.9324
G01 X59.9084 Y11.9401
G01 X59.9396 Y11.9521
G01 X59.9645 Y11.9651
G01 X60.3980 Y12.0513
G01 X60.8315 Y11.9651
G01 X60.8564 Y11.9521
G01 X60.8876 Y11.9401
G01 X60.9174 Y11.9324
G01 X60.9346 Y11.9295
G01 X60.9543 Y11.9276
G01 X60.9716 Y11.9270
G01 X62.1707 Y11.9270
G01 X62.3375 Y11.8938
G01 X62.3966 Y11.8551
G01 X62.4144 Y11.8455
G01 X62.4391 Y11.8350
G01 X62.4590 Y11.8284
G01 X62.4855 Y11.8221
G01 X62.5125 Y11.8185
G01 X62.5360 Y11.8174
G01 X62.5533 Y11.8180
G01 X62.5730 Y11.8200
G01 X62.5903 Y11.8228
G01 X62.6130 Y11.8284
G01 X62.6329 Y11.8350
G01 X62.6513 Y11.8425
G01 X62.6700 Y11.8520
G01 X62.6870 Y11.8622
G01 X62.7019 Y11.8725
G01 X62.7195 Y11.8869
G01 X62.7347 Y11.9013
G01 X62.7487 Y11.9168
G01 X62.7610 Y11.9326
G01 X62.7724 Y11.9497
G01 X62.7824 Y11.9674
G01 X62.7908 Y11.9853
G01 X62.7984 Y12.0049
G01 X62.8060 Y12.0310
G01 X62.8109 Y12.0578
G01 X62.8132 Y12.0849
G01 X62.8134 Y12.4870
G01 X62.8117 Y12.5141
G01 X62.8073 Y12.5410
G01 X62.7984 Y12.5732
G01 X62.7908 Y12.5928
G01 X62.7824 Y12.6108
G01 X62.7758 Y12.6227
G01 X62.7646 Y12.6404
G01 X62.7440 Y12.6668
G01 X62.7322 Y12.6794
G01 X62.7195 Y12.6913
G01 X62.6932 Y12.7118
G01 X62.6812 Y12.7197
G01 X62.6635 Y12.7296
G01 X62.6456 Y12.7381
G01 X62.6260 Y12.7457
G01 X62.5937 Y12.7546
G01 X62.5660 Y12.7590
G01 X62.5360 Y12.7607
G01 X62.5051 Y12.7589
G01 X62.4783 Y12.7546
G01 X62.4520 Y12.7476
G01 X62.4298 Y12.7396
G01 X62.3691 Y12.7144
G01 X60.6024 Y12.7144
G01 X60.6024 Y12.9216
G01 X62.2980 Y12.9217
G01 X62.3120 Y12.9223
G01 X62.3258 Y12.9242
G01 X62.3394 Y12.9275
G01 X62.3526 Y12.9319
G01 X62.3657 Y12.9378
G01 X62.3785 Y12.9450
G01 X62.3905 Y12.9535
G01 X62.4017 Y12.9631
G01 X62.4118 Y12.9738
G01 X62.4209 Y12.9854
G01 X62.4288 Y12.9978
G01 X62.4354 Y13.0109
G01 X62.4405 Y13.0240
G01 X62.4443 Y13.0374
G01 X62.4469 Y13.0511
G01 X62.4482 Y13.0650
G01 X62.4484 Y14.4220
G01 X62.4477 Y14.4360
G01 X62.4458 Y14.4498
G01 X62.4425 Y14.4634
G01 X62.4381 Y14.4766
G01 X62.4322 Y14.4897
G01 X62.4250 Y14.5025
G01 X62.4165 Y14.5145
G01 X62.4069 Y14.5257
G01 X62.3962 Y14.5358
G01 X62.3846 Y14.5449
G01 X62.3657 Y14.5562
G01 X62.3526 Y14.5621
G01 X62.3394 Y14.5665
G01 X62.3258 Y14.5698
G01 X62.3120 Y14.5717
G01 X62.2980 Y14.5723
G01 X60.6024 Y14.5723
G01 X60.6024 Y14.7796
G01 X62.3691 Y14.7796
G01 X62.4391 Y14.7508
G01 X62.4520 Y14.7464
G01 X62.4722 Y14.7408
G01 X62.4917 Y14.7369
G01 X62.5187 Y14.7339
G01 X62.5360 Y14.7333
G01 X62.5595 Y14.7343
G01 X62.5865 Y14.7380
G01 X62.6070 Y14.7426
G01 X62.6329 Y14.7508
G01 X62.6513 Y14.7584
G01 X62.6700 Y14.7679
G01 X62.6932 Y14.7822
G01 X62.7148 Y14.7987
G01 X62.7322 Y14.8146
G01 X62.7487 Y14.8326
G01 X62.7646 Y14.8536
G01 X62.7758 Y14.8713
G01 X62.7883 Y14.8955
G01 X62.7984 Y14.9208
G01 X62.8042 Y14.9398
G01 X62.8098 Y14.9664
G01 X62.8129 Y14.9934
G01 X62.8134 Y15.0107
G01 X62.8134 Y49.8360
G01 X62.8124 Y49.8595
G01 X62.8098 Y49.8803
G01 X62.8060 Y49.8998
G01 X62.7984 Y49.9260
G01 X62.7883 Y49.9513
G01 X62.7789 Y49.9700
G01 X62.7646 Y49.9932
G01 X62.7528 Y50.0091
G01 X62.7322 Y50.0322
G01 X62.7091 Y50.0527
G01 X62.6818 Y50.0720
G01 X62.6576 Y50.0853
G01 X62.6405 Y50.0930
G01 X62.6260 Y50.0984
G01 X62.5998 Y50.1060
G01 X62.5803 Y50.1098
G01 X62.5660 Y50.1118
G01 X62.5360 Y50.1134
G01 X34.5731 Y50.1134
G01 X34.5496 Y50.1124
G01 X34.5288 Y50.1098
G01 X34.5093 Y50.1060
G01 X34.4891 Y50.1004
G01 X34.4687 Y50.0930
G01 X34.4456 Y50.0824
G01 X34.4274 Y50.0720
G01 X34.4109 Y50.0610
G01 X34.3943 Y50.0481
G01 X34.3770 Y50.0322
G01 X34.3651 Y50.0195
G01 X34.3508 Y50.0019
G01 X34.3367 Y49.9812
G01 X34.3268 Y49.9635
G01 X34.3183 Y49.9456
G01 X34.3107 Y49.9260
G01 X34.3050 Y49.9070
G01 X34.3011 Y49.8903
G01 X34.2967 Y49.8595
G01 X34.2959 Y49.8261
G01 X34.2975 Y49.8051
G01 X34.2993 Y49.7917
G01 X34.3066 Y49.7590
G01 X34.3132 Y49.7391
G01 X34.3183 Y49.7264
G01 X34.3333 Y49.6966
G01 X34.3446 Y49.6788
G01 X34.3525 Y49.6678
G01 X34.3651 Y49.6525
G01 X34.3770 Y49.6398
G01 X35.0403 Y48.9768
G01 X35.0634 Y48.9575
G01 X35.0899 Y48.9400
G01 X35.1197 Y48.9250
G01 X35.1393 Y48.9175
G01 X35.1523 Y48.9134
G01 X35.1752 Y48.9078
G01 X35.5037 Y48.8424
G01 X35.8866 Y48.5866
G01 X36.1123 Y48.2488
G01 X36.1262 Y48.2298
G01 X36.1399 Y48.2139
G01 X36.1494 Y48.2042
G01 X36.1648 Y48.1902
G01 X36.1807 Y48.1779
G01 X36.2089 Y48.1600
G01 X36.2277 Y48.1506
G01 X36.2460 Y48.1430
G01 X36.2659 Y48.1364
G01 X36.2791 Y48.1329
G01 X36.2986 Y48.1291
G01 X36.3129 Y48.1271
G01 X36.3466 Y48.1255
G01 X36.3800 Y48.1280
G01 X36.3972 Y48.1308
G01 X36.4139 Y48.1347
G01 X36.4329 Y48.1405
G01 X36.4474 Y48.1459
G01 X36.4769 Y48.1600
G01 X36.5052 Y48.1779
G01 X36.5264 Y48.1949
G01 X36.5459 Y48.2138
G01 X36.5653 Y48.2370
G01 X36.5789 Y48.2571
G01 X36.5937 Y48.2842
G01 X36.6668 Y48.4386
G01 X37.0052 Y48.7451
G01 X37.1876 Y48.8207
G01 X37.1876 Y48.6120
G01 X37.1473 Y48.5918
G01 X37.1066 Y48.5690
G01 X37.0610 Y48.5401
G01 X37.0252 Y48.5148
G01 X36.9863 Y48.4843
G01 X36.9511 Y48.4537
G01 X36.9200 Y48.4240
G01 X36.8903 Y48.3929
G01 X36.8591 Y48.3570
G01 X36.8292 Y48.3188
G01 X36.8039 Y48.2830
G01 X36.7784 Y48.2431
G01 X36.7556 Y48.2032
G01 X36.7314 Y48.1550
G01 X36.7133 Y48.1140
G01 X36.6985 Y48.0756
G01 X36.6815 Y48.0243
G01 X36.6693 Y47.9793
G01 X36.6599 Y47.9376
G01 X36.6525 Y47.8951
G01 X36.6459 Y47.8415
G01 X36.6427 Y47.7949
G01 X36.6416 Y47.7520
G01 X36.6430 Y47.7017
G01 X36.6466 Y47.6552
G01 X36.6514 Y47.6162
G01 X36.6607 Y47.5630
G01 X36.6711 Y47.5175
G01 X36.6815 Y47.4797
G01 X36.6985 Y47.4284
G01 X36.7133 Y47.3900
G01 X36.7343 Y47.3427
G01 X36.7522 Y47.3073
G01 X36.7750 Y47.2666
G01 X36.7998 Y47.2271
G01 X36.8265 Y47.1889
G01 X36.8597 Y47.1463
G01 X36.8903 Y47.1111
G01 X36.9200 Y47.0800
G01 X36.9511 Y47.0503
G01 X36.9863 Y47.0197
G01 X37.0289 Y46.9865
G01 X37.0671 Y46.9598
G01 X37.1009 Y46.9384
G01 X37.1408 Y46.9156
G01 X37.1827 Y46.8943
G01 X37.2300 Y46.8733
G01 X37.2684 Y46.8585
G01 X37.3197 Y46.8415
G01 X37.3647 Y46.8293
G01 X37.4030 Y46.8207
G01 X37.4562 Y46.8114
G01 X37.5025 Y46.8059
G01 X37.5491 Y46.8027
G01 X37.5920 Y46.8016
G01 X37.6349 Y46.8027
G01 X37.6888 Y46.8066
G01 X37.7351 Y46.8125
G01 X37.7738 Y46.8192
G01 X37.8265 Y46.8311
G01 X37.8714 Y46.8437
G01 X37.9087 Y46.8560
G01 X37.9591 Y46.8754
G01 X38.0013 Y46.8943
G01 X38.0432 Y46.9156
G01 X38.0837 Y46.9388
G01 X38.1169 Y46.9598
G01 X38.1611 Y46.9909
G01 X38.1977 Y47.0197
G01 X38.2275 Y47.0454
G01 X38.2640 Y47.0800
G01 X38.2937 Y47.1111
G01 X38.3289 Y47.1520
G01 X38.3548 Y47.1852
G01 X38.3801 Y47.2210
G01 X38.4090 Y47.2666
G01 X38.4318 Y47.3073
G01 X38.4520 Y47.3476
G01 X39.2720 Y47.3476
G01 X39.2956 Y47.3008
G01 X39.3188 Y47.2603
G01 X39.3439 Y47.2210
G01 X39.3665 Y47.1889
G01 X39.3951 Y47.1520
G01 X39.4254 Y47.1165
G01 X39.4626 Y47.0774
G01 X39.4965 Y47.0454
G01 X39.5270 Y47.0191
G01 X39.5629 Y46.9909
G01 X39.6071 Y46.9598
G01 X39.6466 Y46.9350
G01 X39.6873 Y46.9122
G01 X39.7227 Y46.8943
G01 X39.7649 Y46.8754
G01 X39.8153 Y46.8560
G01 X39.8597 Y46.8415
G01 X39.9047 Y46.8293
G01 X39.9502 Y46.8192
G01 X39.9962 Y46.8114
G01 X40.0361 Y46.8065
G01 X40.0817 Y46.8030
G01 X40.1320 Y46.8016
G01 X40.1823 Y46.8030
G01 X40.2288 Y46.8066
G01 X40.2751 Y46.8125
G01 X40.3176 Y46.8199
G01 X40.3593 Y46.8293
G01 X40.4043 Y46.8415
G01 X40.4487 Y46.8560
G01 X40.4940 Y46.8733
G01 X40.5350 Y46.8914
G01 X40.5767 Y46.9122
G01 X40.6174 Y46.9350
G01 X40.6569 Y46.9598
G01 X40.7011 Y46.9909
G01 X40.7377 Y47.0197
G01 X40.7675 Y47.0454
G01 X40.8040 Y47.0800
G01 X40.8386 Y47.1165
G01 X40.8649 Y47.1470
G01 X40.8931 Y47.1829
G01 X40.9201 Y47.2210
G01 X40.9456 Y47.2609
G01 X40.9718 Y47.3073
G01 X40.9897 Y47.3427
G01 X41.0086 Y47.3849
G01 X41.0280 Y47.4353
G01 X41.0425 Y47.4797
G01 X41.0529 Y47.5175
G01 X41.0633 Y47.5630
G01 X41.0726 Y47.6162
G01 X41.0775 Y47.6561
G01 X41.0810 Y47.7017
G01 X41.0824 Y47.7520
G01 X41.0810 Y47.8023
G01 X41.0774 Y47.8488
G01 X41.0726 Y47.8878
G01 X41.0641 Y47.9376
G01 X41.0529 Y47.9865
G01 X41.0403 Y48.0314
G01 X41.0280 Y48.0687
G01 X41.0086 Y48.1191
G01 X40.9897 Y48.1613
G01 X40.9718 Y48.1967
G01 X40.9490 Y48.2374
G01 X40.9201 Y48.2830
G01 X40.8931 Y48.3211
G01 X40.8643 Y48.3577
G01 X40.8386 Y48.3875
G01 X40.8014 Y48.4266
G01 X40.7675 Y48.4586
G01 X40.7377 Y48.4843
G01 X40.6988 Y48.5148
G01 X40.6569 Y48.5442
G01 X40.6231 Y48.5656
G01 X40.5832 Y48.5884
G01 X40.5364 Y48.6120
G01 X40.5364 Y48.8207
G01 X40.7188 Y48.7451
G01 X41.0572 Y48.4386
G01 X41.1303 Y48.2842
G01 X41.1382 Y48.2688
G01 X41.1484 Y48.2518
G01 X41.1587 Y48.2370
G01 X41.1731 Y48.2193
G01 X41.1876 Y48.2041
G01 X41.2030 Y48.1902
G01 X41.2239 Y48.1743
G01 X41.2417 Y48.1631
G01 X41.2658 Y48.1506
G01 X41.2842 Y48.1430
G01 X41.3101 Y48.1347
G01 X41.3367 Y48.1291
G01 X41.3576 Y48.1265
G01 X41.3848 Y48.1255
G01 X41.4119 Y48.1272
G01 X41.4388 Y48.1316
G01 X41.4651 Y48.1385
G01 X41.4906 Y48.1481
G01 X41.5151 Y48.1600
G01 X41.5382 Y48.1743
G01 X41.5599 Y48.1908
G01 X41.5772 Y48.2067
G01 X41.5891 Y48.2194
G01 X41.6096 Y48.2457
G01 X41.8374 Y48.5866
G01 X42.2203 Y48.8424
G01 X42.5580 Y48.9096
G01 X42.7860 Y48.9096
G01 X43.1237 Y48.8424
G01 X43.5066 Y48.5866
G01 X43.7624 Y48.2037
G01 X43.8523 Y47.7520
G01 X43.7624 Y47.3003
G01 X43.5066 Y46.9174
G01 X43.1237 Y46.6616
G01 X42.7860 Y46.5944
G01 X42.5580 Y46.5944
G01 X42.2203 Y46.6616
G01 X41.8003 Y46.9422
G01 X41.7737 Y46.9579
G01 X41.7507 Y46.9685
G01 X41.7303 Y46.9759
G01 X41.7039 Y46.9829
G01 X41.6833 Y46.9865
G01 X41.6561 Y46.9888
G01 X41.6363 Y46.9888
G01 X41.6154 Y46.9872
G01 X41.5919 Y46.9836
G01 X41.5752 Y46.9797
G01 X41.5562 Y46.9739
G01 X41.5417 Y46.9685
G01 X41.5246 Y46.9609
G01 X41.4952 Y46.9442
G01 X41.4803 Y46.9339
G01 X41.4627 Y46.9195
G01 X41.4500 Y46.9077
G01 X41.4382 Y46.8951
G01 X41.4176 Y46.8687
G01 X41.4064 Y46.8510
G01 X41.3970 Y46.8335
G01 X41.3892 Y46.8160
G01 X41.3838 Y46.8015
G01 X41.3780 Y46.7825
G01 X41.3742 Y46.7658
G01 X41.3713 Y46.7486
G01 X41.3694 Y46.7288
G01 X41.3688 Y46.7116
G01 X41.3694 Y46.6943
G01 X41.3713 Y46.6745
G01 X41.3742 Y46.6573
G01 X41.3780 Y46.6406
G01 X41.3838 Y46.6216
G01 X41.3892 Y46.6071
G01 X41.3969 Y46.5900
G01 X41.4135 Y46.5605
G01 X41.4239 Y46.5457
G01 X41.4382 Y46.5280
G01 X41.4500 Y46.5154
G01 X59.4997 Y28.4660
G01 X59.5228 Y28.4467
G01 X59.5493 Y28.4293
G01 X59.5734 Y28.4167
G01 X59.6047 Y28.4047
G01 X59.6344 Y28.3970
G01 X59.6587 Y28.3933
G01 X59.6887 Y28.3916
G01 X59.7196 Y28.3934
G01 X59.7525 Y28.3991
G01 X59.7727 Y28.4047
G01 X59.7914 Y28.4114
G01 X60.2217 Y28.5896
G01 X60.6823 Y28.5896
G01 X61.1077 Y28.4134
G01 X61.4334 Y28.0877
G01 X61.6096 Y27.6623
G01 X61.6096 Y27.2017
G01 X61.4334 Y26.7763
G01 X61.1077 Y26.4506
G01 X60.6823 Y26.2744
G01 X60.2217 Y26.2744
G01 X59.8025 Y26.4481
G01 X59.7803 Y26.4561
G01 X59.7506 Y26.4638
G01 X59.7333 Y26.4667
G01 X59.7136 Y26.4686
G01 X59.6963 Y26.4692
G01 X59.6790 Y26.4686
G01 X59.6592 Y26.4667
G01 X59.6420 Y26.4638
G01 X59.6193 Y26.4583
G01 X59.5918 Y26.4488
G01 X59.5688 Y26.4381
G01 X59.5453 Y26.4245
G01 X59.5232 Y26.4085
G01 X59.5028 Y26.3905
G01 X59.4836 Y26.3699
G01 X59.4677 Y26.3490
G01 X59.4565 Y26.3312
G01 X59.4469 Y26.3134
G01 X59.4364 Y26.2887
G01 X59.4298 Y26.2688
G01 X59.4242 Y26.2459
G01 X59.4082 Y26.1654
G01 X59.4052 Y26.1449
G01 X59.4036 Y26.1186
G01 X59.4036 Y21.2478
G01 X59.4046 Y21.2243
G01 X59.4072 Y21.2034
G01 X59.4204 Y21.1360
G01 X59.4068 Y21.0668
G01 X59.4043 Y21.0460
G01 X59.4032 Y21.0225
G01 X59.4038 Y21.0052
G01 X59.4057 Y20.9854
G01 X59.4086 Y20.9682
G01 X59.4125 Y20.9515
G01 X59.4183 Y20.9325
G01 X59.4283 Y20.9072
G01 X59.4409 Y20.8830
G01 X59.4521 Y20.8653
G01 X59.4639 Y20.8493
G01 X59.4819 Y20.8289
G01 X59.4971 Y20.8145
G01 X59.5148 Y20.8001
G01 X59.5355 Y20.7861
G01 X59.5532 Y20.7761
G01 X59.5762 Y20.7655
G01 X59.5966 Y20.7581
G01 X59.6168 Y20.7525
G01 X59.6363 Y20.7486
G01 X59.6571 Y20.7461
G01 X59.6843 Y20.7451
G01 X59.7115 Y20.7468
G01 X59.7445 Y20.7525
G01 X59.7706 Y20.7601
G01 X59.7851 Y20.7655
G01 X59.8022 Y20.7731
G01 X59.8201 Y20.7827
G01 X59.8348 Y20.7918
G01 X60.0003 Y20.9024
G01 X60.3380 Y20.9696
G01 X60.5660 Y20.9696
G01 X60.9037 Y20.9024
G01 X61.2866 Y20.6466
G01 X61.5424 Y20.2637
G01 X61.6323 Y19.8120
G01 X61.5424 Y19.3603
G01 X61.2866 Y18.9774
G01 X60.9037 Y18.7216
G01 X60.5752 Y18.6562
G01 X60.5583 Y18.6523
G01 X60.5324 Y18.6441
G01 X60.5074 Y18.6333
G01 X60.4835 Y18.6202
G01 X60.4562 Y18.6009
G01 X60.4331 Y18.5803
G01 X58.8515 Y16.9986
G01 X58.8396 Y16.9860
G01 X58.8253 Y16.9684
G01 X58.7843 Y16.9077
G01 X58.5006 Y16.7182
G01 X58.1660 Y16.6516
G01 X58.0986 Y16.6648
G01 X58.0777 Y16.6674
G01 X58.0579 Y16.6684
G01 X57.7160 Y16.6684
G01 X57.6888 Y16.6667
G01 X57.6620 Y16.6623
G01 X57.6427 Y16.6575
G01 X57.6228 Y16.6509
G01 X57.6044 Y16.6433
G01 X57.5857 Y16.6339
G01 X57.5687 Y16.6237
G01 X57.5538 Y16.6133
G01 X57.5362 Y16.5990
G01 X57.5234 Y16.5870
G01 X57.1163 Y16.4184
G01 X56.6757 Y16.4184
G01 X56.2686 Y16.5870
G01 X56.2454 Y16.6077
G01 X56.2233 Y16.6237
G01 X56.1998 Y16.6374
G01 X56.1768 Y16.6480
G01 X56.1493 Y16.6575
G01 X56.1266 Y16.6631
G01 X56.1023 Y16.6668
G01 X56.0723 Y16.6684
G01 X55.2403 Y16.6684
G01 X55.2094 Y16.6667
G01 X55.1860 Y16.6631
G01 X55.1633 Y16.6575
G01 X55.1358 Y16.6480
G01 X55.1128 Y16.6374
G01 X55.0945 Y16.6270
G01 X54.8077 Y16.4356
G01 X54.4700 Y16.3684
G01 X54.2420 Y16.3684
G01 X53.9043 Y16.4356
G01 X53.5214 Y16.6914
G01 X53.2656 Y17.0743
G01 X53.1757 Y17.5260
G01 X53.1836 Y17.5682
G01 X53.1855 Y17.5880
G01 X53.1860 Y17.6089
G01 X53.1850 Y17.6288
G01 X53.1825 Y17.6496
G01 X53.1786 Y17.6691
G01 X53.1730 Y17.6893
G01 X53.1610 Y17.7205
G01 X53.1485 Y17.7447
G01 X53.1310 Y17.7712
G01 X53.1117 Y17.7943
G01 X53.0922 Y17.8133
G01 X53.0658 Y17.8338
G01 X53.0427 Y17.8481
G01 X53.0131 Y17.8622
G01 X52.9927 Y17.8696
G01 X52.9664 Y17.8766
G01 X52.9457 Y17.8802
G01 X52.9186 Y17.8825
G01 X52.8987 Y17.8825
G01 X52.8716 Y17.8802
G01 X52.8448 Y17.8752
G01 X52.8246 Y17.8696
G01 X52.7991 Y17.8601
G01 X52.7746 Y17.8481
G01 X52.7515 Y17.8338
G01 X52.7277 Y17.8155
G01 X52.3003 Y17.6384
G01 X51.8397 Y17.6384
G01 X51.4143 Y17.8146
G01 X51.3591 Y17.8690
G01 X51.3415 Y17.8833
G01 X51.3214 Y17.8970
G01 X51.2975 Y17.9102
G01 X51.2783 Y17.9187
G01 X51.2526 Y17.9275
G01 X51.2261 Y17.9338
G01 X51.1991 Y17.9374
G01 X51.1756 Y17.9384
G01 X50.4588 Y17.9382
G01 X50.4452 Y17.9374
G01 X50.4244 Y17.9348
G01 X50.3977 Y17.9292
G01 X50.3718 Y17.9209
G01 X50.3412 Y17.9074
G01 X50.3293 Y17.9008
G01 X50.3115 Y17.8896
G01 X50.2852 Y17.8690
G01 X50.2726 Y17.8572
G01 X50.2607 Y17.8445
G01 X50.2401 Y17.8182
G01 X50.2323 Y17.8062
G01 X50.2224 Y17.7885
G01 X50.2088 Y17.7579
G01 X50.2044 Y17.7450
G01 X50.1988 Y17.7248
G01 X50.1949 Y17.7053
G01 X50.1929 Y17.6910
G01 X50.1915 Y17.6709
G01 X50.1915 Y17.6511
G01 X50.1930 Y17.6301
G01 X50.1967 Y17.6067
G01 X50.2022 Y17.5840
G01 X50.2088 Y17.5641
G01 X50.2164 Y17.5457
G01 X50.2285 Y17.5223
G01 X50.2620 Y17.3539
G01 X50.2620 Y16.2097
G01 X50.2288 Y16.0428
G01 X50.1548 Y15.9321
G01 X50.1446 Y15.9150
G01 X50.1352 Y15.8963
G01 X50.1251 Y15.8710
G01 X50.1162 Y15.8388
G01 X50.1117 Y15.8110
G01 X50.1101 Y15.7847
G01 X50.1111 Y15.7575
G01 X50.1155 Y15.7267
G01 X50.1232 Y15.6970
G01 X50.1352 Y15.6658
G01 X50.1446 Y15.6470
G01 X50.1548 Y15.6300
G01 X50.2288 Y15.5192
G01 X50.2620 Y15.3524
G01 X50.2620 Y14.2081
G01 X50.2288 Y14.0413
G01 X50.1563 Y13.9327
G01 X50.1461 Y13.9157
G01 X50.1367 Y13.8970
G01 X50.1246 Y13.8658
G01 X50.1177 Y13.8394
G01 X50.1132 Y13.8117
G01 X50.1116 Y13.7817
G01 X50.1133 Y13.7509
G01 X50.1169 Y13.7274
G01 X50.1225 Y13.7047
G01 X50.1320 Y13.6772
G01 X50.1461 Y13.6477
G01 X50.1604 Y13.6245
G01 X50.1769 Y13.6029
G01 X50.1951 Y13.5833
G01 X50.2495 Y13.4518
G01 X50.2495 Y13.1859
G01 X50.0423 Y13.1858
G01 X50.0421 Y13.3877
G01 X50.0397 Y13.4085
G01 X50.0365 Y13.4221
G01 X50.0320 Y13.4353
G01 X50.0227 Y13.4549
G01 X50.0104 Y13.4733
G01 X50.0008 Y13.4844
G01 X49.9845 Y13.4992
G01 X49.9662 Y13.5115
G01 X49.9466 Y13.5208
G01 X49.9266 Y13.5270
G01 X49.9059 Y13.5304
G01 X49.8919 Y13.5311
G01 X46.8922 Y13.5311
G01 X46.8713 Y13.5296
G01 X46.8508 Y13.5253
G01 X46.8311 Y13.5181
G01 X46.8117 Y13.5077
G01 X46.7940 Y13.4945
G01 X46.7784 Y13.4789
G01 X46.7652 Y13.4612
G01 X46.7548 Y13.4418
G01 X46.7497 Y13.4288
G01 X46.7459 Y13.4153
G01 X46.7433 Y13.4016
G01 X46.7420 Y13.3877
G01 X46.7419 Y13.1857
G01 X46.5346 Y13.1857
G01 X46.5346 Y13.4518
G01 X46.5891 Y13.5833
G01 X46.6078 Y13.6036
G01 X46.6238 Y13.6245
G01 X46.6381 Y13.6477
G01 X46.6522 Y13.6772
G01 X46.6617 Y13.7047
G01 X46.6672 Y13.7274
G01 X46.6710 Y13.7517
G01 X46.6726 Y13.7817
G01 X46.6708 Y13.8126
G01 X46.6665 Y13.8394
G01 X46.6595 Y13.8658
G01 X46.6475 Y13.8970
G01 X46.6381 Y13.9157
G01 X46.6278 Y13.9327
G01 X46.5554 Y14.0413
G01 X46.5222 Y14.2081
G01 X46.5222 Y15.3524
G01 X46.5554 Y15.5192
G01 X46.6293 Y15.6300
G01 X46.6395 Y15.6470
G01 X46.6490 Y15.6658
G01 X46.6591 Y15.6911
G01 X46.6680 Y15.7233
G01 X46.6724 Y15.7510
G01 X46.6741 Y15.7810
G01 X46.6723 Y15.8119
G01 X46.6680 Y15.8388
G01 X46.6591 Y15.8710
G01 X46.6490 Y15.8963
G01 X46.6395 Y15.9150
G01 X46.6293 Y15.9321
G01 X46.5554 Y16.0428
G01 X46.5222 Y16.2097
G01 X46.5222 Y17.3539
G01 X46.5554 Y17.5207
G01 X46.6276 Y17.6290
G01 X46.6378 Y17.6460
G01 X46.6473 Y17.6647
G01 X46.6593 Y17.6960
G01 X46.6663 Y17.7223
G01 X46.6707 Y17.7500
G01 X46.6724 Y17.7800
G01 X46.6706 Y17.8109
G01 X46.6663 Y17.8377
G01 X46.6593 Y17.8640
G01 X46.6473 Y17.8953
G01 X46.6378 Y17.9140
G01 X46.6276 Y17.9310
G01 X46.5554 Y18.0393
G01 X46.5222 Y18.2061
G01 X46.5222 Y19.3503
G01 X46.5554 Y19.5172
G01 X46.6293 Y19.6279
G01 X46.6395 Y19.6450
G01 X46.6490 Y19.6637
G01 X46.6591 Y19.6890
G01 X46.6680 Y19.7212
G01 X46.6724 Y19.7490
G01 X46.6741 Y19.7790
G01 X46.6723 Y19.8098
G01 X46.6680 Y19.8367
G01 X46.6591 Y19.8689
G01 X46.6490 Y19.8942
G01 X46.6395 Y19.9130
G01 X46.6293 Y19.9300
G01 X46.5554 Y20.0408
G01 X46.5222 Y20.2076
G01 X46.5222 Y21.3519
G01 X46.5554 Y21.5187
G01 X46.6285 Y21.6282
G01 X46.6387 Y21.6452
G01 X46.6481 Y21.6640
G01 X46.6582 Y21.6893
G01 X46.6671 Y21.7215
G01 X46.6716 Y21.7492
G01 X46.6732 Y21.7792
G01 X46.6715 Y21.8101
G01 X46.6671 Y21.8370
G01 X46.6582 Y21.8692
G01 X46.6481 Y21.8945
G01 X46.6387 Y21.9132
G01 X46.6285 Y21.9303
G01 X46.5554 Y22.0398
G01 X46.5222 Y22.2066
G01 X46.5222 Y23.3508
G01 X46.5554 Y23.5177
G01 X46.6285 Y23.6272
G01 X46.6387 Y23.6442
G01 X46.6481 Y23.6630
G01 X46.6582 Y23.6882
G01 X46.6671 Y23.7205
G01 X46.6716 Y23.7482
G01 X46.6732 Y23.7782
G01 X46.6715 Y23.8091
G01 X46.6671 Y23.8359
G01 X46.6582 Y23.8682
G01 X46.6481 Y23.8935
G01 X46.6387 Y23.9122
G01 X46.6285 Y23.9292
G01 X46.5554 Y24.0387
G01 X46.5222 Y24.2056
G01 X46.5222 Y25.3498
G01 X46.5554 Y25.5167
G01 X46.6344 Y25.6349
G01 X46.7527 Y25.7140
G01 X46.9195 Y25.7472
G01 X49.8646 Y25.7472
G01 X50.0315 Y25.7140
G01 X50.1498 Y25.6349
G01 X50.2288 Y25.5167
G01 X50.2620 Y25.3498
G01 X50.2620 Y24.2056
G01 X50.2288 Y24.0387
G01 X50.1557 Y23.9292
G01 X50.1455 Y23.9122
G01 X50.1360 Y23.8935
G01 X50.1260 Y23.8682
G01 X50.1170 Y23.8359
G01 X50.1126 Y23.8082
G01 X50.1109 Y23.7782
G01 X50.1127 Y23.7474
G01 X50.1170 Y23.7205
G01 X50.1260 Y23.6882
G01 X50.1360 Y23.6630
G01 X50.1455 Y23.6442
G01 X50.1557 Y23.6272
G01 X50.2288 Y23.5177
G01 X50.2620 Y23.3508
G01 X50.2620 Y22.2066
G01 X50.2291 Y22.0402
G01 X50.2271 Y22.0258
G01 X50.2257 Y22.0057
G01 X50.2265 Y21.9723
G01 X50.2301 Y21.9453
G01 X50.2364 Y21.9188
G01 X50.2452 Y21.8931
G01 X50.2537 Y21.8739
G01 X50.2650 Y21.8531
G01 X50.2806 Y21.8299
G01 X50.2999 Y21.8068
G01 X50.3194 Y21.7878
G01 X50.3406 Y21.7708
G01 X50.3635 Y21.7560
G01 X50.3876 Y21.7435
G01 X50.4129 Y21.7334
G01 X50.4391 Y21.7259
G01 X50.4586 Y21.7220
G01 X50.4856 Y21.7190
G01 X50.5128 Y21.7186
G01 X50.5338 Y21.7201
G01 X50.5606 Y21.7245
G01 X50.5869 Y21.7315
G01 X50.6074 Y21.7388
G01 X50.6304 Y21.7495
G01 X50.6539 Y21.7631
G01 X50.6760 Y21.7791
G01 X50.6919 Y21.7928
G01 X51.1312 Y22.2318
G01 X51.1430 Y22.2444
G01 X51.1573 Y22.2620
G01 X51.1677 Y22.2769
G01 X51.1843 Y22.3064
G01 X51.1920 Y22.3235
G01 X51.1974 Y22.3380
G01 X51.2032 Y22.3569
G01 X51.2071 Y22.3736
G01 X51.2108 Y22.3979
G01 X51.2124 Y22.4279
G01 X51.2124 Y25.5317
G01 X51.2114 Y25.5552
G01 X51.2071 Y25.5860
G01 X51.1994 Y25.6158
G01 X51.1873 Y25.6470
G01 X51.1748 Y25.6711
G01 X51.1657 Y25.6858
G01 X50.9796 Y25.9643
G01 X50.8897 Y26.4160
G01 X50.9796 Y26.8677
G01 X51.2354 Y27.2506
G01 X51.6183 Y27.5064
G01 X51.9560 Y27.5736
G01 X52.1840 Y27.5736
G01 X52.5217 Y27.5064
G01 X52.9046 Y27.2506
G01 X53.1604 Y26.8677
G01 X53.2503 Y26.4160
G01 X53.1604 Y25.9643
G01 X52.9743 Y25.6858
G01 X52.9621 Y25.6657
G01 X52.9480 Y25.6362
G01 X52.9426 Y25.6217
G01 X52.9368 Y25.6027
G01 X52.9329 Y25.5860
G01 X52.9301 Y25.5688
G01 X52.9281 Y25.5490
G01 X52.9276 Y25.5317
G01 X52.9276 Y23.0928
G01 X52.9286 Y23.0693
G01 X52.9312 Y23.0484
G01 X52.9350 Y23.0290
G01 X52.9406 Y23.0087
G01 X52.9480 Y22.9883
G01 X52.9586 Y22.9653
G01 X52.9690 Y22.9470
G01 X52.9800 Y22.9305
G01 X52.9929 Y22.9140
G01 X53.0088 Y22.8966
G01 X53.0215 Y22.8848
G01 X53.0391 Y22.8705
G01 X53.0540 Y22.8601
G01 X53.0710 Y22.8499
G01 X53.0897 Y22.8405
G01 X53.1081 Y22.8329
G01 X53.1340 Y22.8246
G01 X53.1507 Y22.8207
G01 X53.1680 Y22.8179
G01 X53.1877 Y22.8159
G01 X53.2050 Y22.8154
G01 X54.0277 Y22.8154
G01 X54.0450 Y22.8159
G01 X54.0647 Y22.8179
G01 X54.0819 Y22.8207
G01 X54.1046 Y22.8263
G01 X54.1246 Y22.8329
G01 X54.1372 Y22.8379
G01 X54.1671 Y22.8530
G01 X54.1936 Y22.8705
G01 X54.2167 Y22.8898
G01 X54.4674 Y23.1405
G01 X54.4771 Y23.1514
G01 X54.4894 Y23.1673
G01 X54.5277 Y23.2243
G01 X54.8114 Y23.4138
G01 X55.1460 Y23.4804
G01 X55.2134 Y23.4672
G01 X55.2343 Y23.4646
G01 X55.2541 Y23.4636
G01 X55.6432 Y23.4636
G01 X55.6704 Y23.4653
G01 X55.7034 Y23.4710
G01 X55.7295 Y23.4786
G01 X55.7548 Y23.4887
G01 X55.7790 Y23.5012
G01 X55.8054 Y23.5187
G01 X55.8285 Y23.5380
G01 X55.8475 Y23.5575
G01 X55.8645 Y23.5787
G01 X55.8882 Y23.6138
G01 X56.0065 Y23.6928
G01 X56.1733 Y23.7260
G01 X57.4110 Y23.7260
G01 X57.4283 Y23.7266
G01 X57.4480 Y23.7285
G01 X57.4653 Y23.7314
G01 X57.4820 Y23.7353
G01 X57.5010 Y23.7410
G01 X57.5155 Y23.7465
G01 X57.5326 Y23.7541
G01 X57.5620 Y23.7708
G01 X57.5769 Y23.7811
G01 X57.5898 Y23.7914
G01 X57.6097 Y23.8099
G01 X57.6237 Y23.8253
G01 X57.6333 Y23.8375
G01 X57.6508 Y23.8640
G01 X57.6658 Y23.8939
G01 X57.6709 Y23.9065
G01 X57.6775 Y23.9265
G01 X57.6838 Y23.9529
G01 X57.6879 Y23.9861
G01 X57.6884 Y24.0034
G01 X57.6884 Y25.7566
G01 X57.6874 Y25.7801
G01 X57.6848 Y25.8009
G01 X57.6810 Y25.8204
G01 X57.6734 Y25.8466
G01 X57.6680 Y25.8610
G01 X57.6603 Y25.8781
G01 X57.6470 Y25.9023
G01 X57.6278 Y25.9297
G01 X57.6072 Y25.9527
G01 X39.8468 Y43.7131
G01 X39.8341 Y43.7250
G01 X39.8188 Y43.7376
G01 X39.8016 Y43.7497
G01 X39.7846 Y43.7599
G01 X39.7602 Y43.7718
G01 X39.7406 Y43.7794
G01 X39.7144 Y43.7869
G01 X39.6949 Y43.7908
G01 X39.6741 Y43.7934
G01 X39.6506 Y43.7944
G01 X36.2839 Y43.7944
G01 X36.2604 Y43.7934
G01 X36.2395 Y43.7908
G01 X36.1721 Y43.7776
G01 X35.8375 Y43.8442
G01 X35.5538 Y44.0337
G01 X35.5128 Y44.0944
G01 X35.4985 Y44.1120
G01 X35.4867 Y44.1246
G01 X34.5057 Y45.1056
G01 X34.4827 Y45.1261
G01 X34.4606 Y45.1421
G01 X34.4371 Y45.1558
G01 X34.4140 Y45.1664
G01 X34.3865 Y45.1759
G01 X34.3601 Y45.1822
G01 X34.3331 Y45.1858
G01 X34.2996 Y45.1866
G01 X34.2725 Y45.1843
G01 X34.2360 Y45.1776
G01 X33.9014 Y45.2442
G01 X33.6177 Y45.4337
G01 X33.5794 Y45.4907
G01 X33.5624 Y45.5120
G01 X33.5505 Y45.5246
G01 X33.3934 Y45.6818
G01 X33.3703 Y45.7024
G01 X33.3483 Y45.7183
G01 X33.3247 Y45.7320
G01 X33.3017 Y45.7426
G01 X33.2813 Y45.7500
G01 X33.2550 Y45.7569
G01 X33.2343 Y45.7605
G01 X33.2072 Y45.7628
G01 X32.9784 Y45.7630
G01 X32.9586 Y45.7620
G01 X32.9378 Y45.7595
G01 X32.9183 Y45.7556
G01 X32.8922 Y45.7480
G01 X32.8726 Y45.7405
G01 X32.8546 Y45.7320
G01 X32.8364 Y45.7216
G01 X32.8162 Y45.7080
G01 X32.7986 Y45.6936
G01 X32.7860 Y45.6818
G01 X30.5188 Y43.4146
G01 X30.5070 Y43.4020
G01 X30.4926 Y43.3844
G01 X30.4517 Y43.3237
G01 X30.1680 Y43.1342
G01 X29.8334 Y43.0676
G01 X29.7659 Y43.0808
G01 X29.7451 Y43.0834
G01 X29.7216 Y43.0844
G01 X18.7135 Y43.0844
G01 X18.6900 Y43.0834
G01 X18.6691 Y43.0808
G01 X18.6425 Y43.0752
G01 X18.6235 Y43.0694
G01 X18.6090 Y43.0640
G01 X18.5919 Y43.0563
G01 X18.5677 Y43.0430
G01 X18.5404 Y43.0237
G01 X18.5173 Y43.0032
G01 X15.4549 Y39.9404
G01 X15.4452 Y39.9296
G01 X15.4329 Y39.9137
G01 X15.4150 Y39.8854
G01 X15.4009 Y39.8559
G01 X15.3955 Y39.8414
G01 X15.3898 Y39.8224
G01 X15.3859 Y39.8057
G01 X15.3830 Y39.7885
G01 X15.3805 Y39.7551
G01 X15.3811 Y39.7341
G01 X15.3822 Y39.7206
G01 X15.3880 Y39.6876
G01 X15.3914 Y39.6745
G01 X15.3980 Y39.6545
G01 X15.4116 Y39.6239
G01 X15.4181 Y39.6120
G01 X15.4293 Y39.5943
G01 X15.4499 Y39.5679
G01 X15.4618 Y39.5553
G01 X15.4744 Y39.5434
G01 X15.5007 Y39.5229
G01 X15.5128 Y39.5150
G01 X15.5304 Y39.5051
G01 X15.5610 Y39.4915
G01 X15.5809 Y39.4849
G01 X15.6036 Y39.4794
G01 X15.6279 Y39.4757
G01 X15.6542 Y39.4741
G01 X16.9787 Y39.4740
G01 X17.1455 Y39.4408
G01 X17.2638 Y39.3618
G01 X17.2786 Y39.3403
G01 X17.2889 Y39.3274
G01 X17.3048 Y39.3101
G01 X17.3174 Y39.2983
G01 X17.3350 Y39.2839
G01 X17.3499 Y39.2736
G01 X17.3669 Y39.2634
G01 X17.3857 Y39.2539
G01 X17.4169 Y39.2419
G01 X17.4467 Y39.2342
G01 X17.4639 Y39.2313
G01 X17.4836 Y39.2294
G01 X17.5009 Y39.2288
G01 X17.5199 Y39.2295
G01 X17.8606 Y39.1618
G01 X18.1443 Y38.9723
G01 X18.1853 Y38.9116
G01 X18.1996 Y38.8940
G01 X18.2115 Y38.8814
G01 X21.3171 Y35.7757
G01 X21.3297 Y35.7639
G01 X21.3510 Y35.7469
G01 X21.3793 Y35.7290
G01 X21.4088 Y35.7149
G01 X21.4363 Y35.7054
G01 X21.4592 Y35.6998
G01 X21.7877 Y35.6344
G01 X22.1706 Y35.3786
G01 X22.4264 Y34.9957
G01 X22.4918 Y34.6672
G01 X22.4957 Y34.6503
G01 X22.5062 Y34.6185
G01 X22.5175 Y34.5938
G01 X22.5240 Y34.5819
G01 X22.5353 Y34.5641
G01 X22.5518 Y34.5425
G01 X22.5677 Y34.5251
G01 X24.6580 Y32.4348
G01 X24.6810 Y32.4143
G01 X24.6970 Y32.4024
G01 X24.7090 Y32.3946
G01 X24.7266 Y32.3846
G01 X24.7446 Y32.3762
G01 X24.7642 Y32.3686
G01 X24.7771 Y32.3645
G01 X24.8098 Y32.3572
G01 X24.8306 Y32.3546
G01 X24.8504 Y32.3536
G01 X26.5376 Y32.3536
G01 X26.5611 Y32.3546
G01 X26.5919 Y32.3589
G01 X26.6217 Y32.3666
G01 X26.6529 Y32.3787
G01 X26.6770 Y32.3912
G01 X26.6999 Y32.4060
G01 X26.7211 Y32.4230
G01 X26.7763 Y32.4774
G01 X27.2017 Y32.6536
G01 X27.6623 Y32.6536
G01 X28.0877 Y32.4774
G01 X28.4134 Y32.1517
G01 X28.5896 Y31.7263
G01 X28.5896 Y31.2657
G01 X28.4134 Y30.8403
G01 X28.0877 Y30.5146
G01 X27.6623 Y30.3384
G01 X27.2017 Y30.3384
G01 X26.7763 Y30.5146
G01 X26.7211 Y30.5690
G01 X26.6999 Y30.5860
G01 X26.6770 Y30.6008
G01 X26.6529 Y30.6133
G01 X26.6217 Y30.6254
G01 X26.5919 Y30.6331
G01 X26.5676 Y30.6368
G01 X26.5376 Y30.6384
G01 X24.4958 Y30.6384
G01 X24.4723 Y30.6374
G01 X24.4514 Y30.6348
G01 X24.3840 Y30.6216
G01 X24.0494 Y30.6882
G01 X23.7657 Y30.8777
G01 X23.7247 Y30.9384
G01 X23.7104 Y30.9560
G01 X23.6986 Y30.9686
G01 X21.3549 Y33.3123
G01 X21.3368 Y33.3288
G01 X21.3246 Y33.3385
G01 X21.3097 Y33.3488
G01 X21.2862 Y33.3625
G01 X21.2556 Y33.3761
G01 X21.2297 Y33.3843
G01 X21.2128 Y33.3882
G01 X20.8843 Y33.4536
G01 X20.5014 Y33.7094
G01 X20.2456 Y34.0923
G01 X20.1802 Y34.4208
G01 X20.1746 Y34.4437
G01 X20.1651 Y34.4712
G01 X20.1510 Y34.5007
G01 X20.1367 Y34.5239
G01 X20.1161 Y34.5503
G01 X20.1043 Y34.5629
G01 X17.4591 Y37.2081
G01 X17.4464 Y37.2200
G01 X17.4311 Y37.2325
G01 X17.4139 Y37.2446
G01 X17.3904 Y37.2583
G01 X17.3725 Y37.2668
G01 X17.3529 Y37.2744
G01 X17.3267 Y37.2819
G01 X17.3073 Y37.2858
G01 X17.2864 Y37.2884
G01 X17.2666 Y37.2893
G01 X17.2394 Y37.2883
G01 X17.2086 Y37.2840
G01 X17.1859 Y37.2784
G01 X17.1626 Y37.2706
G01 X16.9787 Y37.2340
G01 X15.5333 Y37.2340
G01 X15.3665 Y37.2672
G01 X15.2482 Y37.3462
G01 X15.1692 Y37.4645
G01 X15.1395 Y37.6127
G01 X15.1339 Y37.6329
G01 X15.1265 Y37.6533
G01 X15.1124 Y37.6828
G01 X15.0945 Y37.7111
G01 X15.0775 Y37.7324
G01 X15.0657 Y37.7450
G01 X15.0531 Y37.7568
G01 X15.0354 Y37.7712
G01 X15.0206 Y37.7815
G01 X14.9911 Y37.7982
G01 X14.9740 Y37.8058
G01 X14.9536 Y37.8132
G01 X14.9333 Y37.8188
G01 X14.9139 Y37.8227
G01 X14.8930 Y37.8252
G01 X14.8732 Y37.8262
G01 X14.8522 Y37.8257
G01 X14.8325 Y37.8238
G01 X14.8153 Y37.8209
G01 X14.7925 Y37.8153
G01 X14.7726 Y37.8088
G01 X14.7543 Y37.8012
G01 X14.7355 Y37.7917
G01 X14.7238 Y37.7849
G01 X14.7073 Y37.7738
G01 X14.6907 Y37.7609
G01 X14.6760 Y37.7476
G01 X14.6480 Y37.7193
G01 X14.6383 Y37.7084
G01 X14.6260 Y37.6926
G01 X14.6146 Y37.6755
G01 X14.6046 Y37.6578
G01 X14.5911 Y37.6272
G01 X14.5845 Y37.6073
G01 X14.5810 Y37.5941
G01 X14.5772 Y37.5747
G01 X14.5746 Y37.5538
G01 X14.5736 Y37.5303
G01 X14.5738 Y35.4285
G01 X14.5761 Y35.4013
G01 X14.5810 Y35.3746
G01 X14.5886 Y35.3484
G01 X14.5987 Y35.3231
G01 X14.6046 Y35.3109
G01 X14.6150 Y35.2926
G01 X14.6343 Y35.2653
G01 X14.6523 Y35.2449
G01 X14.6974 Y35.1997
G01 X14.8736 Y34.7743
G01 X14.8736 Y34.3137
G01 X14.6974 Y33.8883
G01 X14.6430 Y33.8331
G01 X14.6260 Y33.8119
G01 X14.6112 Y33.7890
G01 X14.5987 Y33.7649
G01 X14.5866 Y33.7337
G01 X14.5789 Y33.7039
G01 X14.5746 Y33.6731
G01 X14.5736 Y33.6496
G01 X14.5736 Y30.7957
G01 X14.5746 Y30.7722
G01 X14.5782 Y30.7452
G01 X14.5828 Y30.7247
G01 X14.5911 Y30.6988
G01 X14.6017 Y30.6741
G01 X14.6150 Y30.6499
G01 X14.6287 Y30.6298
G01 X14.6480 Y30.6067
G01 X14.6805 Y30.5741
G01 X14.7013 Y30.5566
G01 X14.7244 Y30.5408
G01 X14.7543 Y30.5248
G01 X14.7796 Y30.5148
G01 X14.8057 Y30.5072
G01 X14.8325 Y30.5022
G01 X14.8658 Y30.4998
G01 X14.8930 Y30.5008
G01 X14.9238 Y30.5051
G01 X14.9465 Y30.5107
G01 X14.9740 Y30.5202
G01 X14.9970 Y30.5308
G01 X15.0153 Y30.5411
G01 X15.0318 Y30.5522
G01 X15.0483 Y30.5651
G01 X15.0657 Y30.5810
G01 X15.0816 Y30.5983
G01 X15.0945 Y30.6149
G01 X15.1059 Y30.6320
G01 X15.1159 Y30.6497
G01 X15.1244 Y30.6676
G01 X15.1319 Y30.6872
G01 X15.1377 Y30.7062
G01 X15.1692 Y30.8615
G01 X15.2482 Y30.9798
G01 X15.3665 Y31.0588
G01 X15.5333 Y31.0920
G01 X16.9787 Y31.0920
G01 X17.1455 Y31.0588
G01 X17.2638 Y30.9798
G01 X17.3428 Y30.8615
G01 X17.3760 Y30.6947
G01 X17.3760 Y29.2493
G01 X17.3428 Y29.0825
G01 X17.2638 Y28.9642
G01 X17.2287 Y28.9405
G01 X17.2122 Y28.9276
G01 X17.1923 Y28.9091
G01 X17.1743 Y28.8886
G01 X17.1624 Y28.8727
G01 X17.1512 Y28.8550
G01 X17.1417 Y28.8371
G01 X17.1311 Y28.8125
G01 X17.1228 Y28.7865
G01 X17.1182 Y28.7660
G01 X17.1146 Y28.7391
G01 X17.1136 Y28.7155
G01 X17.1138 Y28.6822
G01 X17.1161 Y28.6551
G01 X17.1210 Y28.6283
G01 X17.1286 Y28.6022
G01 X17.1340 Y28.5877
G01 X17.1417 Y28.5706
G01 X17.1550 Y28.5464
G01 X17.1704 Y28.5239
G01 X17.1923 Y28.4986
G01 X18.5900 Y27.1008
G01 X18.6130 Y27.0803
G01 X18.6290 Y27.0684
G01 X18.6467 Y27.0572
G01 X18.6646 Y27.0477
G01 X18.6892 Y27.0371
G01 X18.7091 Y27.0305
G01 X18.7319 Y27.0249
G01 X18.7561 Y27.0212
G01 X18.7762 Y27.0198
G01 X20.4517 Y27.0196
G01 X20.4690 Y27.0201
G01 X20.5022 Y27.0242
G01 X20.5287 Y27.0305
G01 X20.5562 Y27.0400
G01 X20.5857 Y27.0541
G01 X20.6058 Y27.0663
G01 X20.8843 Y27.2524
G01 X21.2220 Y27.3196
G01 X21.4500 Y27.3196
G01 X21.7877 Y27.2524
G01 X22.1706 Y26.9966
G01 X22.4264 Y26.6137
G01 X22.4918 Y26.2852
G01 X22.4974 Y26.2623
G01 X22.5069 Y26.2348
G01 X22.5210 Y26.2053
G01 X22.5389 Y26.1770
G01 X22.5471 Y26.1662
G01 X22.5608 Y26.1503
G01 X24.9959 Y23.7150
G01 X25.0113 Y23.7011
G01 X25.0322 Y23.6851
G01 X25.0500 Y23.6739
G01 X25.0675 Y23.6646
G01 X25.0849 Y23.6567
G01 X25.1054 Y23.6494
G01 X25.1256 Y23.6438
G01 X25.1451 Y23.6399
G01 X25.1659 Y23.6373
G01 X25.1894 Y23.6363
G01 X31.3183 Y23.6363
G01 X31.3356 Y23.6369
G01 X31.3554 Y23.6388
G01 X31.3760 Y23.6424
G01 X31.3953 Y23.6472
G01 X31.4210 Y23.6561
G01 X31.4399 Y23.6644
G01 X31.4577 Y23.6739
G01 X31.4755 Y23.6851
G01 X31.4914 Y23.6970
G01 X31.5073 Y23.7107
G01 X31.5263 Y23.7302
G01 X31.5406 Y23.7478
G01 X31.5510 Y23.7627
G01 X31.5612 Y23.7797
G01 X31.5706 Y23.7985
G01 X31.5807 Y23.8238
G01 X31.5865 Y23.8427
G01 X31.5921 Y23.8694
G01 X31.5941 Y23.8837
G01 X31.5955 Y23.9038
G01 X31.5947 Y23.9372
G01 X31.5911 Y23.9642
G01 X31.5865 Y23.9847
G01 X31.5782 Y24.0106
G01 X31.5385 Y24.1071
G01 X31.5385 Y24.3733
G01 X31.7457 Y24.3733
G01 X31.7459 Y24.1713
G01 X31.7472 Y24.1574
G01 X31.7497 Y24.1436
G01 X31.7560 Y24.1236
G01 X31.7653 Y24.1041
G01 X31.7776 Y24.0857
G01 X31.7872 Y24.0746
G01 X31.8035 Y24.0598
G01 X31.8218 Y24.0475
G01 X31.8414 Y24.0382
G01 X31.8614 Y24.0320
G01 X31.8821 Y24.0286
G01 X31.8961 Y24.0279
G01 X34.8958 Y24.0279
G01 X34.9167 Y24.0294
G01 X34.9372 Y24.0337
G01 X34.9569 Y24.0409
G01 X34.9763 Y24.0513
G01 X34.9940 Y24.0644
G01 X35.0096 Y24.0800
G01 X35.0228 Y24.0977
G01 X35.0332 Y24.1172
G01 X35.0383 Y24.1302
G01 X35.0421 Y24.1436
G01 X35.0447 Y24.1574
G01 X35.0460 Y24.1713
G01 X35.0461 Y24.3733
G01 X35.2534 Y24.3733
G01 X35.2534 Y24.1071
G01 X35.1989 Y23.9757
G01 X35.1802 Y23.9554
G01 X35.1642 Y23.9344
G01 X35.1499 Y23.9113
G01 X35.1358 Y23.8817
G01 X35.1263 Y23.8543
G01 X35.1208 Y23.8315
G01 X35.1170 Y23.8072
G01 X35.1154 Y23.7773
G01 X35.1172 Y23.7464
G01 X35.1215 Y23.7195
G01 X35.1285 Y23.6932
G01 X35.1405 Y23.6620
G01 X35.1499 Y23.6433
G01 X35.1602 Y23.6262
G01 X35.2326 Y23.5177
G01 X35.2658 Y23.3508
G01 X35.2658 Y22.2066
G01 X35.2326 Y22.0398
G01 X35.1595 Y21.9303
G01 X35.1493 Y21.9132
G01 X35.1399 Y21.8945
G01 X35.1298 Y21.8692
G01 X35.1209 Y21.8370
G01 X35.1164 Y21.8092
G01 X35.1148 Y21.7792
G01 X35.1165 Y21.7484
G01 X35.1209 Y21.7215
G01 X35.1298 Y21.6893
G01 X35.1399 Y21.6640
G01 X35.1493 Y21.6452
G01 X35.1595 Y21.6282
G01 X35.2326 Y21.5187
G01 X35.2658 Y21.3519
G01 X35.2658 Y20.2076
G01 X35.2326 Y20.0408
G01 X35.1587 Y19.9300
G01 X35.1485 Y19.9130
G01 X35.1390 Y19.8942
G01 X35.1289 Y19.8689
G01 X35.1200 Y19.8367
G01 X35.1156 Y19.8090
G01 X35.1139 Y19.7790
G01 X35.1157 Y19.7481
G01 X35.1200 Y19.7212
G01 X35.1289 Y19.6890
G01 X35.1390 Y19.6637
G01 X35.1485 Y19.6450
G01 X35.1587 Y19.6279
G01 X35.2326 Y19.5172
G01 X35.2658 Y19.3503
G01 X35.2658 Y18.2061
G01 X35.2326 Y18.0393
G01 X35.1604 Y17.9310
G01 X35.1502 Y17.9140
G01 X35.1407 Y17.8953
G01 X35.1287 Y17.8640
G01 X35.1217 Y17.8377
G01 X35.1173 Y17.8100
G01 X35.1156 Y17.7800
G01 X35.1174 Y17.7491
G01 X35.1217 Y17.7223
G01 X35.1287 Y17.6960
G01 X35.1407 Y17.6647
G01 X35.1502 Y17.6460
G01 X35.1604 Y17.6290
G01 X35.2326 Y17.5207
G01 X35.2658 Y17.3539
G01 X35.2658 Y16.2097
G01 X35.2326 Y16.0428
G01 X35.1587 Y15.9321
G01 X35.1485 Y15.9150
G01 X35.1390 Y15.8963
G01 X35.1289 Y15.8710
G01 X35.1200 Y15.8388
G01 X35.1156 Y15.8110
G01 X35.1139 Y15.7810
G01 X35.1157 Y15.7502
G01 X35.1200 Y15.7233
G01 X35.1289 Y15.6911
G01 X35.1390 Y15.6658
G01 X35.1485 Y15.6470
G01 X35.1587 Y15.6300
G01 X35.2326 Y15.5192
G01 X35.2658 Y15.3524
G01 X35.2658 Y14.2081
G01 X35.2326 Y14.0413
G01 X35.1595 Y13.9318
G01 X35.1493 Y13.9148
G01 X35.1399 Y13.8960
G01 X35.1298 Y13.8707
G01 X35.1209 Y13.8385
G01 X35.1164 Y13.8108
G01 X35.1148 Y13.7808
G01 X35.1165 Y13.7499
G01 X35.1209 Y13.7230
G01 X35.1298 Y13.6908
G01 X35.1399 Y13.6655
G01 X35.1493 Y13.6468
G01 X35.1595 Y13.6297
G01 X35.2326 Y13.5202
G01 X35.2658 Y13.3534
G01 X35.2658 Y12.2092
G01 X35.2326 Y12.0423
G01 X35.1602 Y11.9338
G01 X35.1499 Y11.9167
G01 X35.1405 Y11.8980
G01 X35.1285 Y11.8668
G01 X35.1215 Y11.8405
G01 X35.1170 Y11.8127
G01 X35.1154 Y11.7827
G01 X35.1172 Y11.7519
G01 X35.1208 Y11.7285
G01 X35.1263 Y11.7057
G01 X35.1358 Y11.6783
G01 X35.1499 Y11.6487
G01 X35.1642 Y11.6256
G01 X35.1808 Y11.6039
G01 X35.1989 Y11.5843
G01 X35.2534 Y11.4529
G01 X35.2534 Y11.1867
G01 X35.0461 Y11.1867
G01 X35.0460 Y11.3887
G01 X35.0447 Y11.4026
G01 X35.0421 Y11.4164
G01 X35.0359 Y11.4364
G01 X35.0266 Y11.4559
G01 X35.0143 Y11.4743
G01 X35.0047 Y11.4854
G01 X34.9883 Y11.5002
G01 X34.9700 Y11.5125
G01 X34.9504 Y11.5218
G01 X34.9304 Y11.5281
G01 X34.9097 Y11.5314
G01 X34.8958 Y11.5321
G01 X31.8961 Y11.5321
G01 X31.8752 Y11.5306
G01 X31.8547 Y11.5263
G01 X31.8350 Y11.5191
G01 X31.8155 Y11.5087
G01 X31.7978 Y11.4956
G01 X31.7822 Y11.4800
G01 X31.7691 Y11.4623
G01 X31.7587 Y11.4428
G01 X31.7536 Y11.4298
G01 X31.7497 Y11.4164
G01 X31.7472 Y11.4026
G01 X31.7459 Y11.3887
G01 X31.7457 Y11.1867
G01 X31.5385 Y11.1867
G01 X31.5385 Y11.4529
G01 X31.5929 Y11.5843
G01 X31.6117 Y11.6046
G01 X31.6276 Y11.6256
G01 X31.6419 Y11.6487
G01 X31.6560 Y11.6783
G01 X31.6655 Y11.7057
G01 X31.6711 Y11.7285
G01 X31.6748 Y11.7528
G01 X31.6764 Y11.7827
G01 X31.6747 Y11.8136
G01 X31.6703 Y11.8405
G01 X31.6634 Y11.8668
G01 X31.6513 Y11.8980
G01 X31.6419 Y11.9167
G01 X31.6317 Y11.9338
G01 X31.5592 Y12.0423
G01 X31.5260 Y12.2092
G01 X31.5260 Y13.3534
G01 X31.5592 Y13.5202
G01 X31.6357 Y13.6350
G01 X31.6460 Y13.6533
G01 X31.6545 Y13.6712
G01 X31.6640 Y13.6967
G01 X31.6717 Y13.7265
G01 X31.6760 Y13.7573
G01 X31.6769 Y13.7907
G01 X31.6746 Y13.8178
G01 X31.6696 Y13.8446
G01 X31.6620 Y13.8707
G01 X31.6520 Y13.8960
G01 X31.6425 Y13.9148
G01 X31.6323 Y13.9318
G01 X31.5592 Y14.0413
G01 X31.5260 Y14.2081
G01 X31.5260 Y15.3524
G01 X31.5606 Y15.5262
G01 X31.5678 Y15.5423
G01 X31.5752 Y15.5627
G01 X31.5790 Y15.5758
G01 X31.5836 Y15.5963
G01 X31.5866 Y15.6168
G01 X31.5882 Y15.6431
G01 X31.5877 Y15.6641
G01 X31.5857 Y15.6838
G01 X31.5829 Y15.7011
G01 X31.5790 Y15.7178
G01 X31.5732 Y15.7367
G01 X31.5678 Y15.7512
G01 X31.5601 Y15.7683
G01 X31.5506 Y15.7862
G01 X31.5394 Y15.8039
G01 X31.5314 Y15.8150
G01 X31.5188 Y15.8303
G01 X31.5070 Y15.8429
G01 X31.4943 Y15.8548
G01 X31.4767 Y15.8691
G01 X31.4618 Y15.8795
G01 X31.4448 Y15.8897
G01 X31.4153 Y15.9038
G01 X31.3878 Y15.9133
G01 X31.3651 Y15.9188
G01 X31.3408 Y15.9226
G01 X31.3108 Y15.9242
G01 X23.3479 Y15.9242
G01 X23.3171 Y15.9225
G01 X23.2936 Y15.9188
G01 X23.2769 Y15.9149
G01 X23.2579 Y15.9092
G01 X23.2384 Y15.9016
G01 X23.2204 Y15.8931
G01 X23.2022 Y15.8828
G01 X23.1856 Y15.8718
G01 X23.1691 Y15.8588
G01 X23.1589 Y15.8498
G01 X22.2748 Y14.9660
G01 X22.2583 Y14.9480
G01 X22.2460 Y14.9321
G01 X22.2346 Y14.9150
G01 X22.2217 Y14.8914
G01 X22.2111 Y14.8668
G01 X22.2045 Y14.8469
G01 X22.1989 Y14.8241
G01 X22.1961 Y14.8069
G01 X22.1941 Y14.7872
G01 X22.1936 Y14.7699
G01 X22.1938 Y10.2724
G01 X22.1946 Y10.2588
G01 X22.1972 Y10.2379
G01 X22.2045 Y10.2053
G01 X22.2140 Y10.1778
G01 X22.2281 Y10.1483
G01 X22.2403 Y10.1282
G01 X22.4264 Y9.8497
G01 X22.5163 Y9.3980
G01 X22.4264 Y8.9463
G01 X22.1706 Y8.5634
G01 X21.7877 Y8.3076
G01 X21.4500 Y8.2404
G01 X21.2220 Y8.2404
G01 X20.8843 Y8.3076
G01 X20.5014 Y8.5634
G01 X20.2456 Y8.9463
G01 X20.1557 Y9.3980
G01 X20.2456 Y9.8497
G01 X20.4317 Y10.1282
G01 X20.4439 Y10.1483
G01 X20.4580 Y10.1778
G01 X20.4675 Y10.2053
G01 X20.4738 Y10.2318
G01 X20.4779 Y10.2650
G01 X20.4784 Y10.2823
G01 X20.4784 Y14.7699
G01 X20.4774 Y14.7934
G01 X20.4738 Y14.8204
G01 X20.4692 Y14.8408
G01 X20.4609 Y14.8668
G01 X20.4503 Y14.8914
G01 X20.4370 Y14.9156
G01 X20.4233 Y14.9358
G01 X20.4040 Y14.9589
G01 X19.7920 Y15.5712
G01 X19.7690 Y15.5917
G01 X19.7530 Y15.6036
G01 X19.7410 Y15.6114
G01 X19.7111 Y15.6273
G01 X19.6858 Y15.6374
G01 X19.6597 Y15.6450
G01 X19.6402 Y15.6488
G01 X19.6194 Y15.6514
G01 X19.5959 Y15.6524
G01 X18.2781 Y15.6524
G01 X18.2546 Y15.6514
G01 X18.2338 Y15.6488
G01 X18.2143 Y15.6450
G01 X18.1882 Y15.6374
G01 X18.1686 Y15.6298
G01 X18.1506 Y15.6214
G01 X18.1324 Y15.6110
G01 X18.1122 Y15.5973
G01 X18.0946 Y15.5830
G01 X18.0820 Y15.5712
G01 X17.1880 Y14.6769
G01 X17.1783 Y14.6660
G01 X17.1660 Y14.6501
G01 X17.1481 Y14.6219
G01 X17.1340 Y14.5923
G01 X17.1245 Y14.5649
G01 X17.1189 Y14.5421
G01 X17.1152 Y14.5179
G01 X17.1136 Y14.4916
G01 X17.1138 Y14.4545
G01 X17.1153 Y14.4336
G01 X17.1197 Y14.4067
G01 X17.1266 Y14.3804
G01 X17.1340 Y14.3600
G01 X17.1446 Y14.3370
G01 X17.1550 Y14.3187
G01 X17.1687 Y14.2986
G01 X17.1830 Y14.2809
G01 X17.2020 Y14.2614
G01 X17.2179 Y14.2477
G01 X17.2338 Y14.2359
G01 X17.2638 Y14.2158
G01 X17.3428 Y14.0975
G01 X17.3760 Y13.9307
G01 X17.3760 Y12.4853
G01 X17.3428 Y12.3185
G01 X17.2638 Y12.2002
G01 X17.1455 Y12.1212
G01 X16.9787 Y12.0880
G01 X15.5333 Y12.0880
G01 X15.3665 Y12.1212
G01 X15.2482 Y12.2002
G01 X15.1692 Y12.3185
G01 X15.1377 Y12.4738
G01 X15.1319 Y12.4928
G01 X15.1265 Y12.5073
G01 X15.1189 Y12.5244
G01 X15.1093 Y12.5423
G01 X15.0981 Y12.5600
G01 X15.0863 Y12.5760
G01 X15.0726 Y12.5918
G01 X15.0585 Y12.6059
G01 X15.0426 Y12.6196
G01 X15.0267 Y12.6314
G01 X15.0090 Y12.6426
G01 X14.9848 Y12.6552
G01 X14.9595 Y12.6652
G01 X14.9333 Y12.6728
G01 X14.9066 Y12.6778
G01 X14.8795 Y12.6801
G01 X14.8522 Y12.6797
G01 X14.8252 Y12.6767
G01 X14.7986 Y12.6710
G01 X14.7726 Y12.6628
G01 X14.7480 Y12.6522
G01 X14.7301 Y12.6426
G01 X14.7073 Y12.6278
G01 X14.6860 Y12.6108
G01 X14.6548 Y12.5805
G01 X14.6383 Y12.5624
G01 X14.6224 Y12.5415
G01 X14.6081 Y12.5183
G01 X14.5940 Y12.4888
G01 X14.5886 Y12.4743
G01 X14.5828 Y12.4553
G01 X14.5789 Y12.4386
G01 X14.5761 Y12.4214
G01 X14.5736 Y12.3880
G01 X14.5736 Y10.2924
G01 X14.5746 Y10.2689
G01 X14.5789 Y10.2381
G01 X14.5866 Y10.2083
G01 X14.5987 Y10.1771
G01 X14.6112 Y10.1530
G01 X14.6260 Y10.1301
G01 X14.6430 Y10.1089
G01 X14.6974 Y10.0537
G01 X14.8736 Y9.6283
G01 X14.8736 Y9.1677
G01 X14.6974 Y8.7423
G01 X14.3717 Y8.4166
G01 X14.0471 Y8.2822
G01 X14.0258 Y8.2722
G01 X14.0138 Y8.2657
G01 X13.9961 Y8.2545
G01 X13.9744 Y8.2379
G01 X13.9502 Y8.2149
G01 X13.9309 Y8.1918
G01 X13.9169 Y8.1710
G01 X13.9069 Y8.1534
G01 X13.8984 Y8.1354
G01 X13.8909 Y8.1159
G01 X13.8851 Y8.0969
G01 X13.8805 Y8.0764
G01 X13.8775 Y8.0559
G01 X13.8760 Y8.0358
G01 X13.8760 Y8.0160
G01 X13.8776 Y7.9950
G01 X13.8812 Y7.9716
G01 X13.8851 Y7.9549
G01 X13.8909 Y7.9359
G01 X13.8984 Y7.9163
G01 X13.9069 Y7.8984
G01 X13.9172 Y7.8801
G01 X13.9365 Y7.8528
G01 X13.9571 Y7.8297
G01 X14.2440 Y7.5428
G01 X14.2670 Y7.5223
G01 X14.2830 Y7.5104
G01 X14.3007 Y7.4992
G01 X14.3186 Y7.4897
G01 X14.3432 Y7.4791
G01 X14.3631 Y7.4725
G01 X14.3859 Y7.4669
G01 X14.4102 Y7.4632
G01 X14.4302 Y7.4618
G01 X26.3082 Y7.4616
G01 X26.3317 Y7.4626
G01 X26.3526 Y7.4652
G01 X26.4200 Y7.4784
G01 X26.7546 Y7.4118
G01 X27.0383 Y7.2223
G01 X27.0793 Y7.1616
G01 X27.0936 Y7.1440
G01 X27.1055 Y7.1314
G01 X33.5203 Y0.7168
G01 X33.5434 Y0.6975
G01 X33.5699 Y0.6800
G01 X33.5997 Y0.6650
G01 X33.6193 Y0.6575
G01 X33.6323 Y0.6534
G01 X33.6552 Y0.6478
G01 X33.9837 Y0.5824
G01 X34.3666 Y0.3266
G01 X34.5797 Y0.0083
G01 X34.5940 Y-0.0093
G01 X34.6130 Y-0.0288
G01 X34.6361 Y-0.0481
G01 X34.6568 Y-0.0622
G01 X34.6745 Y-0.0721
G01 X34.6924 Y-0.0806
G01 X34.7120 Y-0.0882
G01 X34.7310 Y-0.0939
G01 X34.7515 Y-0.0985
G01 X34.7720 Y-0.1015
G01 X34.7921 Y-0.1030
G01 X34.8119 Y-0.1030
G01 X34.8329 Y-0.1014
G01 X34.8525 Y-0.0985
G01 X34.8730 Y-0.0939
G01 X34.8920 Y-0.0882
G01 X34.9065 Y-0.0827
G01 X34.9239 Y-0.0749
G01 X34.9414 Y-0.0656
G01 X34.9592 Y-0.0543
G01 X34.9808 Y-0.0378
G01 X34.9955 Y-0.0245
G01 X35.0100 Y-0.0093
G01 X35.0243 Y0.0083
G01 X35.2374 Y0.3266
G01 X35.6203 Y0.5824
G01 X35.9580 Y0.6496
G01 X36.1860 Y0.6496
G01 X36.5237 Y0.5824
G01 X36.9066 Y0.3266
G01 X37.1170 Y0.0120
G01 X37.1299 Y-0.0046
G01 X37.1390 Y-0.0148
G01 X37.1530 Y-0.0288
G01 X37.1689 Y-0.0425
G01 X37.1962 Y-0.0618
G01 X37.2204 Y-0.0751
G01 X37.2375 Y-0.0827
G01 X37.2520 Y-0.0882
G01 X37.2782 Y-0.0957
G01 X37.3050 Y-0.1007
G01 X37.3383 Y-0.1031
G01 X37.3655 Y-0.1022
G01 X37.3925 Y-0.0985
G01 X37.4130 Y-0.0939
G01 X37.4389 Y-0.0857
G01 X37.4636 Y-0.0751
G01 X37.4814 Y-0.0656
G01 X37.4992 Y-0.0543
G01 X37.5208 Y-0.0378
G01 X37.5382 Y-0.0219
G01 X37.5500 Y-0.0093
G01 X37.5626 Y0.0061
G01 X37.5727 Y0.0201
G01 X37.7774 Y0.3266
G01 X38.1603 Y0.5824
G01 X38.4980 Y0.6496
G01 X38.7260 Y0.6496
G01 X39.0637 Y0.5824
G01 X39.4466 Y0.3266
G01 X39.7024 Y-0.0563
G01 X39.7923 Y-0.5080
G01 X39.7024 Y-0.9597
G01 X39.4466 Y-1.3426
G01 X39.0637 Y-1.5984
G01 X38.7260 Y-1.6656
G01 X38.4980 Y-1.6656
G01 X38.1603 Y-1.5984
G01 X37.7774 Y-1.3426
G01 X37.5670 Y-1.0280
G01 X37.5541 Y-1.0114
G01 X37.5450 Y-1.0012
G01 X37.5310 Y-0.9872
G01 X37.5201 Y-0.9776
G01 X37.4992 Y-0.9617
G01 X37.4814 Y-0.9504
G01 X37.4636 Y-0.9409
G01 X37.4389 Y-0.9303
G01 X37.4130 Y-0.9221
G01 X37.3925 Y-0.9175
G01 X37.3655 Y-0.9138
G01 X37.3420 Y-0.9128
G01 X37.3185 Y-0.9138
G01 X37.2915 Y-0.9175
G01 X37.2710 Y-0.9221
G01 X37.2451 Y-0.9303
G01 X37.2204 Y-0.9409
G01 X37.2026 Y-0.9504
G01 X37.1848 Y-0.9617
G01 X37.1632 Y-0.9782
G01 X37.1390 Y-1.0012
G01 X37.1253 Y-1.0171
G01 X37.1134 Y-1.0331
G01 X36.9066 Y-1.3426
G01 X36.5237 Y-1.5984
G01 X36.1860 Y-1.6656
G01 X35.9580 Y-1.6656
G01 X35.6203 Y-1.5984
G01 X35.2374 Y-1.3426
G01 X35.0270 Y-1.0280
G01 X35.0141 Y-1.0114
G01 X35.0050 Y-1.0012
G01 X34.9910 Y-0.9872
G01 X34.9801 Y-0.9776
G01 X34.9592 Y-0.9617
G01 X34.9414 Y-0.9504
G01 X34.9236 Y-0.9409
G01 X34.8989 Y-0.9303
G01 X34.8730 Y-0.9221
G01 X34.8525 Y-0.9175
G01 X34.8255 Y-0.9138
G01 X34.8020 Y-0.9128
G01 X34.7785 Y-0.9138
G01 X34.7515 Y-0.9175
G01 X34.7310 Y-0.9221
G01 X34.7051 Y-0.9303
G01 X34.6804 Y-0.9409
G01 X34.6626 Y-0.9504
G01 X34.6448 Y-0.9617
G01 X34.6232 Y-0.9782
G01 X34.5990 Y-1.0012
G01 X34.5853 Y-1.0171
G01 X34.5734 Y-1.0331
G01 X34.3666 Y-1.3426
G01 X33.9837 Y-1.5984
G01 X33.6460 Y-1.6656
G01 X33.4180 Y-1.6656
G01 X33.0803 Y-1.5984
G01 X32.6974 Y-1.3426
G01 X32.4870 Y-1.0280
G01 X32.4741 Y-1.0114
G01 X32.4650 Y-1.0012
G01 X32.4510 Y-0.9872
G01 X32.4401 Y-0.9776
G01 X32.4192 Y-0.9617
G01 X32.4014 Y-0.9504
G01 X32.3836 Y-0.9409
G01 X32.3589 Y-0.9303
G01 X32.3330 Y-0.9221
G01 X32.3125 Y-0.9175
G01 X32.2855 Y-0.9138
G01 X32.2620 Y-0.9128
G01 X32.2385 Y-0.9138
G01 X32.2115 Y-0.9175
G01 X32.1910 Y-0.9221
G01 X32.1651 Y-0.9303
G01 X32.1404 Y-0.9409
G01 X32.1226 Y-0.9504
G01 X32.1048 Y-0.9617
G01 X32.0832 Y-0.9782
G01 X32.0590 Y-1.0012
G01 X32.0453 Y-1.0171
G01 X32.0334 Y-1.0331
G01 X31.8266 Y-1.3426
G01 X31.4437 Y-1.5984
G01 X31.1060 Y-1.6656
G01 X30.8780 Y-1.6656
G01 X30.5403 Y-1.5984
G01 X30.1574 Y-1.3426
G01 X29.9470 Y-1.0280
G01 X29.9341 Y-1.0114
G01 X29.9250 Y-1.0012
G01 X29.9110 Y-0.9872
G01 X29.9001 Y-0.9776
G01 X29.8792 Y-0.9617
G01 X29.8614 Y-0.9504
G01 X29.8436 Y-0.9409
G01 X29.8189 Y-0.9303
G01 X29.7930 Y-0.9221
G01 X29.7725 Y-0.9175
G01 X29.7455 Y-0.9138
G01 X29.7220 Y-0.9128
G01 X29.6985 Y-0.9138
G01 X29.6715 Y-0.9175
G01 X29.6510 Y-0.9221
G01 X29.6251 Y-0.9303
G01 X29.6004 Y-0.9409
G01 X29.5826 Y-0.9504
G01 X29.5648 Y-0.9617
G01 X29.5432 Y-0.9782
G01 X29.5190 Y-1.0012
G01 X29.5053 Y-1.0171
G01 X29.4934 Y-1.0331
G01 X29.2866 Y-1.3426
G01 X28.9037 Y-1.5984
G01 X28.5660 Y-1.6656
G01 X28.3380 Y-1.6656
G01 X28.0003 Y-1.5984
G01 X27.6174 Y-1.3426
G01 X27.4070 Y-1.0280
G01 X27.3941 Y-1.0114
G01 X27.3850 Y-1.0012
G01 X27.3710 Y-0.9872
G01 X27.3601 Y-0.9776
G01 X27.3392 Y-0.9617
G01 X27.3214 Y-0.9504
G01 X27.3036 Y-0.9409
G01 X27.2789 Y-0.9303
G01 X27.2590 Y-0.9237
G01 X27.2363 Y-0.9182
G01 X27.2120 Y-0.9145
G01 X27.1857 Y-0.9129
G01 X27.1647 Y-0.9134
G01 X27.1377 Y-0.9164
G01 X27.1182 Y-0.9203
G01 X27.0920 Y-0.9278
G01 X27.0667 Y-0.9379
G01 X27.0426 Y-0.9504
G01 X27.0248 Y-0.9617
G01 X27.0032 Y-0.9782
G01 X26.9790 Y-1.0012
G01 X26.9653 Y-1.0171
G01 X26.9534 Y-1.0331
G01 X26.7466 Y-1.3426
G01 X26.3637 Y-1.5984
G01 X26.0260 Y-1.6656
G01 X25.7980 Y-1.6656
G01 X25.4603 Y-1.5984
G01 X25.0774 Y-1.3426
G01 X24.8460 Y-0.9966
G01 X24.8331 Y-0.9801
G01 X24.8198 Y-0.9654
G01 X24.8101 Y-0.9559
G01 X24.7942 Y-0.9421
G01 X24.7668 Y-0.9229
G01 X24.7426 Y-0.9096
G01 X24.7255 Y-0.9019
G01 X24.7110 Y-0.8965
G01 X24.6849 Y-0.8889
G01 X24.6519 Y-0.8832
G01 X24.6248 Y-0.8815
G01 X24.5976 Y-0.8825
G01 X24.5668 Y-0.8868
G01 X24.5441 Y-0.8924
G01 X24.5242 Y-0.8990
G01 X24.5058 Y-0.9066
G01 X24.4871 Y-0.9160
G01 X24.4701 Y-0.9262
G01 X24.4552 Y-0.9365
G01 X24.4376 Y-0.9509
G01 X24.4249 Y-0.9627
G01 X24.4131 Y-0.9753
G01 X24.3987 Y-0.9930
G01 X24.3884 Y-1.0078
G01 X24.3782 Y-1.0248
G01 X24.3703 Y-1.0402
G01 X24.2972 Y-1.1946
G01 X23.9588 Y-1.5011
G01 X23.7764 Y-1.5767
G01 X23.7764 Y-1.3680
G01 X23.8167 Y-1.3478
G01 X23.8574 Y-1.3250
G01 X23.8969 Y-1.3002
G01 X23.9351 Y-1.2735
G01 X23.9720 Y-1.2449
G01 X24.0075 Y-1.2146
G01 X24.0466 Y-1.1774
G01 X24.0786 Y-1.1435
G01 X24.1089 Y-1.1080
G01 X24.1348 Y-1.0748
G01 X24.1642 Y-1.0329
G01 X24.1890 Y-0.9934
G01 X24.2118 Y-0.9527
G01 X24.2326 Y-0.9110
G01 X24.2507 Y-0.8700
G01 X24.2655 Y-0.8316
G01 X24.2803 Y-0.7874
G01 X24.2947 Y-0.7353
G01 X24.3041 Y-0.6936
G01 X24.3115 Y-0.6511
G01 X24.3181 Y-0.5975
G01 X24.3213 Y-0.5509
G01 X24.3223 Y-0.5117
G01 X24.3210 Y-0.4577
G01 X24.3174 Y-0.4112
G01 X24.3126 Y-0.3722
G01 X24.3033 Y-0.3190
G01 X24.2929 Y-0.2735
G01 X24.2803 Y-0.2286
G01 X24.2655 Y-0.1844
G01 X24.2514 Y-0.1477
G01 X24.2326 Y-0.1050
G01 X24.2118 Y-0.0633
G01 X24.1852 Y-0.0163
G01 X24.1601 Y0.0230
G01 X24.1348 Y0.0588
G01 X24.1089 Y0.0920
G01 X24.0786 Y0.1275
G01 X24.0440 Y0.1640
G01 X24.0129 Y0.1937
G01 X23.9770 Y0.2249
G01 X23.9411 Y0.2531
G01 X23.9030 Y0.2801
G01 X23.8637 Y0.3052
G01 X23.8167 Y0.3318
G01 X23.7750 Y0.3526
G01 X23.7340 Y0.3707
G01 X23.6956 Y0.3855
G01 X23.6514 Y0.4003
G01 X23.5993 Y0.4147
G01 X23.5576 Y0.4241
G01 X23.5078 Y0.4326
G01 X23.4615 Y0.4381
G01 X23.4149 Y0.4413
G01 X23.3720 Y0.4424
G01 X23.3291 Y0.4413
G01 X23.2825 Y0.4381
G01 X23.2362 Y0.4326
G01 X23.1830 Y0.4233
G01 X23.1375 Y0.4129
G01 X23.0926 Y0.4003
G01 X23.0484 Y0.3855
G01 X23.0100 Y0.3707
G01 X22.9690 Y0.3526
G01 X22.9273 Y0.3318
G01 X22.8803 Y0.3052
G01 X22.8410 Y0.2801
G01 X22.8052 Y0.2548
G01 X22.7720 Y0.2289
G01 X22.7365 Y0.1986
G01 X22.7000 Y0.1640
G01 X22.6703 Y0.1329
G01 X22.6351 Y0.0920
G01 X22.6092 Y0.0588
G01 X22.5839 Y0.0230
G01 X22.5584 Y-0.0169
G01 X22.5356 Y-0.0568
G01 X22.5143 Y-0.0987
G01 X22.4954 Y-0.1409
G01 X22.4760 Y-0.1913
G01 X22.4615 Y-0.2357
G01 X22.4511 Y-0.2735
G01 X22.4392 Y-0.3262
G01 X22.4314 Y-0.3722
G01 X22.4265 Y-0.4121
G01 X22.4227 Y-0.4651
G01 X22.4216 Y-0.5080
G01 X22.4227 Y-0.5509
G01 X22.4266 Y-0.6048
G01 X22.4325 Y-0.6511
G01 X22.4392 Y-0.6898
G01 X22.4511 Y-0.7425
G01 X22.4637 Y-0.7874
G01 X22.4760 Y-0.8247
G01 X22.4954 Y-0.8751
G01 X22.5143 Y-0.9173
G01 X22.5356 Y-0.9592
G01 X22.5588 Y-0.9997
G01 X22.5839 Y-1.0390
G01 X22.6092 Y-1.0748
G01 X22.6397 Y-1.1137
G01 X22.6703 Y-1.1489
G01 X22.6974 Y-1.1774
G01 X22.7365 Y-1.2146
G01 X22.7720 Y-1.2449
G01 X22.8089 Y-1.2735
G01 X22.8471 Y-1.3002
G01 X22.8866 Y-1.3250
G01 X22.9273 Y-1.3478
G01 X22.9676 Y-1.3680
G01 X22.9676 Y-1.5767
G01 X22.7852 Y-1.5011
G01 X22.4468 Y-1.1946
G01 X22.3737 Y-1.0402
G01 X22.3658 Y-1.0248
G01 X22.3556 Y-1.0078
G01 X22.3453 Y-0.9930
G01 X22.3309 Y-0.9753
G01 X22.3191 Y-0.9627
G01 X22.3064 Y-0.9509
G01 X22.2888 Y-0.9365
G01 X22.2739 Y-0.9262
G01 X22.2569 Y-0.9160
G01 X22.2382 Y-0.9066
G01 X22.2198 Y-0.8990
G01 X22.1999 Y-0.8924
G01 X22.1772 Y-0.8868
G01 X22.1464 Y-0.8825
G01 X22.1192 Y-0.8815
G01 X22.0921 Y-0.8832
G01 X22.0591 Y-0.8889
G01 X22.0330 Y-0.8965
G01 X22.0185 Y-0.9019
G01 X22.0014 Y-0.9096
G01 X21.9772 Y-0.9229
G01 X21.9498 Y-0.9421
G01 X21.9339 Y-0.9559
G01 X21.9242 Y-0.9654
G01 X21.9103 Y-0.9808
G01 X21.8980 Y-0.9966
G01 X21.6666 Y-1.3426
G01 X21.2837 Y-1.5984
G01 X20.9460 Y-1.6656
G01 X20.7180 Y-1.6656
G01 X20.3803 Y-1.5984
G01 X19.9974 Y-1.3426
G01 X19.7870 Y-1.0280
G01 X19.7741 Y-1.0114
G01 X19.7650 Y-1.0012
G01 X19.7510 Y-0.9872
G01 X19.7401 Y-0.9776
G01 X19.7192 Y-0.9617
G01 X19.6960 Y-0.9474
G01 X19.6716 Y-0.9354
G01 X19.6520 Y-0.9278
G01 X19.6258 Y-0.9203
G01 X19.6063 Y-0.9164
G01 X19.5793 Y-0.9134
G01 X19.5583 Y-0.9129
G01 X19.5311 Y-0.9146
G01 X19.5077 Y-0.9182
G01 X19.4850 Y-0.9237
G01 X19.4651 Y-0.9303
G01 X19.4404 Y-0.9409
G01 X19.4226 Y-0.9504
G01 X19.4048 Y-0.9617
G01 X19.3832 Y-0.9782
G01 X19.3590 Y-1.0012
G01 X19.3453 Y-1.0171
G01 X19.3334 Y-1.0331
G01 X19.1266 Y-1.3426
G01 X18.7437 Y-1.5984
G01 X18.4060 Y-1.6656
G01 X18.1780 Y-1.6656
G01 X17.8403 Y-1.5984
G01 X17.4574 Y-1.3426
G01 X17.2470 Y-1.0280
G01 X17.2341 Y-1.0114
G01 X17.2250 Y-1.0012
G01 X17.2110 Y-0.9872
G01 X17.2001 Y-0.9776
G01 X17.1792 Y-0.9617
G01 X17.1614 Y-0.9504
G01 X17.1436 Y-0.9409
G01 X17.1189 Y-0.9303
G01 X17.0930 Y-0.9221
G01 X17.0725 Y-0.9175
G01 X17.0455 Y-0.9138
G01 X17.0220 Y-0.9128
G01 X16.9985 Y-0.9138
G01 X16.9715 Y-0.9175
G01 X16.9510 Y-0.9221
G01 X16.9251 Y-0.9303
G01 X16.9004 Y-0.9409
G01 X16.8826 Y-0.9504
G01 X16.8648 Y-0.9617
G01 X16.8432 Y-0.9782
G01 X16.8190 Y-1.0012
G01 X16.8053 Y-1.0171
G01 X16.7934 Y-1.0331
G01 X16.5866 Y-1.3426
G01 X16.2037 Y-1.5984
G01 X15.8660 Y-1.6656
G01 X15.6380 Y-1.6656
G01 X15.3003 Y-1.5984
G01 X14.9174 Y-1.3426
G01 X14.6616 Y-0.9597
G01 X14.5717 Y-0.5080
G01 X14.6616 Y-0.0563
G01 X14.9174 Y0.3266
G01 X15.3003 Y0.5824
G01 X15.5176 Y0.6257
G01 X15.5439 Y0.6326
G01 X15.5643 Y0.6400
G01 X15.5814 Y0.6477
G01 X15.5993 Y0.6572
G01 X15.6170 Y0.6684
G01 X15.6330 Y0.6803
G01 X15.6489 Y0.6940
G01 X15.6629 Y0.7080
G01 X15.6766 Y0.7239
G01 X15.6884 Y0.7398
G01 X15.6997 Y0.7576
G01 X15.7122 Y0.7817
G01 X15.7222 Y0.8070
G01 X15.7298 Y0.8332
G01 X15.7337 Y0.8527
G01 X15.7367 Y0.8797
G01 X15.7372 Y0.9007
G01 X15.7355 Y0.9279
G01 X15.7319 Y0.9513
G01 X15.7263 Y0.9740
G01 X15.7175 Y0.9997
G01 X15.7090 Y1.0189
G01 X15.6959 Y1.0428
G01 X15.6822 Y1.0629
G01 X15.6678 Y1.0805
G01 X15.6489 Y1.1000
G01 X15.6330 Y1.1137
G01 X15.6109 Y1.1297
G01 X15.5873 Y1.1434
G01 X15.5643 Y1.1540
G01 X15.5439 Y1.1614
G01 X15.5176 Y1.1683
G01 X15.4969 Y1.1719
G01 X15.4698 Y1.1742
G01 X12.1780 Y1.1744
G01 X12.1544 Y1.1734
G01 X12.1336 Y1.1708
G01 X12.0662 Y1.1576
G01 X11.7316 Y1.2242
G01 X11.4479 Y1.4137
G01 X11.4069 Y1.4744
G01 X11.3926 Y1.4920
G01 X11.3807 Y1.5046
G01 X6.0766 Y6.8087
G01 X6.0640 Y6.8206
G01 X6.0464 Y6.8349
G01 X5.9857 Y6.8759
G01 X5.7962 Y7.1596
G01 X5.7296 Y7.4942
G01 X5.7428 Y7.5616
G01 X5.7454 Y7.5824
G01 X5.7464 Y7.6060
G01 X5.7464 Y16.0921
G01 X5.7454 Y16.1156
G01 X5.7428 Y16.1365
G01 X5.7296 Y16.2039
G01 X5.7962 Y16.5385
G01 X5.9857 Y16.8222
G01 X6.0464 Y16.8632
G01 X6.0593 Y16.8735
G01 X6.0740 Y16.8868
G01 X6.9420 Y17.7550
G01 X6.9558 Y17.7709
G01 X6.9676 Y17.7869
G01 X6.9788 Y17.8046
G01 X6.9883 Y17.8225
G01 X6.9989 Y17.8471
G01 X7.0055 Y17.8671
G01 X7.0111 Y17.8898
G01 X7.0139 Y17.9070
G01 X7.0159 Y17.9267
G01 X7.0164 Y17.9440
G01 X7.0164 Y25.2642
G01 X7.0154 Y25.2877
G01 X7.0128 Y25.3086
G01 X6.9996 Y25.3760
G01 X7.0662 Y25.7106
G01 X7.2557 Y25.9943
G01 X7.3164 Y26.0353
G01 X7.3340 Y26.0496
G01 X7.3466 Y26.0615
G01 X8.5872 Y27.3020
G01 X8.5990 Y27.3146
G01 X8.6116 Y27.3299
G01 X8.6196 Y27.3410
G01 X8.6308 Y27.3587
G01 X8.6403 Y27.3766
G01 X8.6480 Y27.3937
G01 X8.6534 Y27.4082
G01 X8.6592 Y27.4272
G01 X8.6631 Y27.4439
G01 X8.6659 Y27.4611
G01 X8.6679 Y27.4808
G01 X8.6684 Y27.4981
G01 X8.6684 Y31.6508
G01 X8.6674 Y31.6744
G01 X8.6648 Y31.6952
G01 X8.6516 Y31.7626
G01 X8.7182 Y32.0972
G01 X8.9077 Y32.3809
G01 X8.9684 Y32.4219
G01 X8.9860 Y32.4362
G01 X8.9986 Y32.4481
G01 X10.1504 Y33.5999
G01 X10.1643 Y33.6153
G01 X10.1740 Y33.6275
G01 X10.1843 Y33.6424
G01 X10.1945 Y33.6594
G01 X10.2010 Y33.6719
G01 X10.2093 Y33.6907
G01 X10.2160 Y33.7094
G01 X10.2216 Y33.7296
G01 X10.2255 Y33.7491
G01 X10.2274 Y33.7634
G01 X10.2290 Y33.7971
G01 X10.2281 Y33.8169
G01 X10.2255 Y33.8378
G01 X10.2182 Y33.8704
G01 X10.2116 Y33.8903
G01 X10.2065 Y33.9030
G01 X10.1915 Y33.9329
G01 X10.1823 Y33.9475
G01 X10.0856 Y34.0923
G01 X9.9957 Y34.5440
G01 X10.0856 Y34.9957
G01 X10.2717 Y35.2742
G01 X10.2808 Y35.2889
G01 X10.2933 Y35.3130
G01 X10.3054 Y35.3442
G01 X10.3131 Y35.3740
G01 X10.3168 Y35.3983
G01 X10.3184 Y35.4283
G01 X10.3182 Y37.5402
G01 X10.3167 Y37.5612
G01 X10.3123 Y37.5880
G01 X10.3054 Y37.6144
G01 X10.2980 Y37.6348
G01 X10.2874 Y37.6578
G01 X10.2737 Y37.6813
G01 X10.2578 Y37.7034
G01 X10.2370 Y37.7266
G01 X10.0684 Y38.1337
G01 X10.0684 Y38.5743
G01 X10.2370 Y38.9814
G01 X10.5486 Y39.2930
G01 X10.9557 Y39.4616
G01 X11.3963 Y39.4616
G01 X11.8034 Y39.2930
G01 X12.1150 Y38.9814
G01 X12.1897 Y38.8010
G01 X12.2031 Y38.7731
G01 X12.2210 Y38.7449
G01 X12.2380 Y38.7236
G01 X12.2570 Y38.7041
G01 X12.2801 Y38.6848
G01 X12.3008 Y38.6707
G01 X12.3185 Y38.6608
G01 X12.3415 Y38.6501
G01 X12.3620 Y38.6428
G01 X12.3822 Y38.6372
G01 X12.4017 Y38.6333
G01 X12.4287 Y38.6303
G01 X12.4497 Y38.6298
G01 X12.4695 Y38.6307
G01 X12.4965 Y38.6344
G01 X12.5170 Y38.6390
G01 X12.5360 Y38.6447
G01 X12.5613 Y38.6548
G01 X12.5800 Y38.6643
G01 X12.6032 Y38.6786
G01 X12.6191 Y38.6904
G01 X12.6422 Y38.7110
G01 X12.6587 Y38.7290
G01 X12.6746 Y38.7500
G01 X12.6889 Y38.7731
G01 X12.7023 Y38.8010
G01 X12.7770 Y38.9814
G01 X12.7890 Y38.9942
G01 X12.8016 Y39.0095
G01 X12.8137 Y39.0267
G01 X12.8208 Y39.0383
G01 X12.8303 Y39.0561
G01 X12.8380 Y39.0732
G01 X12.8434 Y39.0877
G01 X12.8492 Y39.1067
G01 X12.8548 Y39.1333
G01 X12.8568 Y39.1477
G01 X12.8582 Y39.1678
G01 X12.8584 Y39.3066
G01 X12.8574 Y39.3264
G01 X12.8548 Y39.3472
G01 X12.8416 Y39.4147
G01 X12.9082 Y39.7493
G01 X13.0977 Y40.0329
G01 X13.1584 Y40.0739
G01 X13.1760 Y40.0883
G01 X13.1886 Y40.1001
G01 X17.5579 Y44.4694
G01 X17.5697 Y44.4820
G01 X17.5841 Y44.4996
G01 X17.6251 Y44.5603
G01 X17.9087 Y44.7498
G01 X18.2433 Y44.8164
G01 X18.3108 Y44.8032
G01 X18.3316 Y44.8006
G01 X18.3551 Y44.7996
G01 X29.3632 Y44.7996
G01 X29.3868 Y44.8006
G01 X29.4076 Y44.8032
G01 X29.4271 Y44.8070
G01 X29.4473 Y44.8126
G01 X29.4677 Y44.8200
G01 X29.4852 Y44.8278
G01 X29.5027 Y44.8372
G01 X29.5255 Y44.8520
G01 X29.5421 Y44.8649
G01 X29.5568 Y44.8783
G01 X31.2008 Y46.5225
G01 X31.2145 Y46.5384
G01 X31.2264 Y46.5544
G01 X31.2342 Y46.5664
G01 X31.2441 Y46.5841
G01 X31.2577 Y46.6146
G01 X31.2643 Y46.6346
G01 X31.2691 Y46.6538
G01 X31.2716 Y46.6672
G01 X31.2742 Y46.6880
G01 X31.2752 Y46.7116
G01 X31.2746 Y46.7288
G01 X31.2727 Y46.7486
G01 X31.2698 Y46.7658
G01 X31.2659 Y46.7825
G01 X31.2602 Y46.8015
G01 X31.2526 Y46.8211
G01 X31.2441 Y46.8390
G01 X31.2305 Y46.8626
G01 X31.2184 Y46.8797
G01 X31.2058 Y46.8951
G01 X31.1868 Y46.9146
G01 X31.1709 Y46.9283
G01 X31.1488 Y46.9442
G01 X31.1318 Y46.9544
G01 X31.1073 Y46.9664
G01 X31.0878 Y46.9739
G01 X31.0616 Y46.9815
G01 X31.0421 Y46.9854
G01 X31.0213 Y46.9879
G01 X30.9978 Y46.9890
G01 X30.9743 Y46.9879
G01 X30.9435 Y46.9836
G01 X30.9137 Y46.9759
G01 X30.8882 Y46.9664
G01 X30.8584 Y46.9514
G01 X30.8437 Y46.9422
G01 X30.4237 Y46.6616
G01 X30.0860 Y46.5944
G01 X29.8580 Y46.5944
G01 X29.5203 Y46.6616
G01 X29.1374 Y46.9174
G01 X28.9270 Y47.2320
G01 X28.9141 Y47.2486
G01 X28.9050 Y47.2588
G01 X28.8910 Y47.2728
G01 X28.8801 Y47.2824
G01 X28.8592 Y47.2983
G01 X28.8360 Y47.3126
G01 X28.8116 Y47.3246
G01 X28.7920 Y47.3322
G01 X28.7658 Y47.3397
G01 X28.7463 Y47.3436
G01 X28.7193 Y47.3466
G01 X28.6921 Y47.3470
G01 X28.6711 Y47.3454
G01 X28.6477 Y47.3418
G01 X28.6250 Y47.3363
G01 X28.6051 Y47.3297
G01 X28.5804 Y47.3191
G01 X28.5626 Y47.3096
G01 X28.5448 Y47.2983
G01 X28.5232 Y47.2818
G01 X28.4990 Y47.2588
G01 X28.4853 Y47.2429
G01 X28.4734 Y47.2269
G01 X28.2666 Y46.9174
G01 X27.8837 Y46.6616
G01 X27.5460 Y46.5944
G01 X27.3180 Y46.5944
G01 X26.9803 Y46.6616
G01 X26.5974 Y46.9174
G01 X26.5454 Y46.9953
G01 X26.5289 Y47.0169
G01 X26.5058 Y47.0411
G01 X26.4899 Y47.0549
G01 X26.4740 Y47.0667
G01 X26.4562 Y47.0779
G01 X26.4384 Y47.0874
G01 X26.4212 Y47.0951
G01 X26.4008 Y47.1025
G01 X26.3806 Y47.1081
G01 X26.3611 Y47.1119
G01 X26.3403 Y47.1145
G01 X26.3168 Y47.1155
G01 X26.2859 Y47.1138
G01 X26.2625 Y47.1102
G01 X26.2327 Y47.1025
G01 X26.2072 Y47.0929
G01 X26.1828 Y47.0810
G01 X26.1596 Y47.0667
G01 X26.1380 Y47.0502
G01 X26.1180 Y47.0316
G01 X26.1000 Y47.0112
G01 X26.0841 Y46.9891
G01 X26.0704 Y46.9656
G01 X26.0598 Y46.9426
G01 X26.0524 Y46.9222
G01 X26.0468 Y46.9019
G01 X26.0288 Y46.8125
G01 X25.9498 Y46.6942
G01 X25.8315 Y46.6152
G01 X25.6647 Y46.5820
G01 X24.1193 Y46.5820
G01 X23.9525 Y46.6152
G01 X23.8342 Y46.6942
G01 X23.7552 Y46.8125
G01 X23.7220 Y46.9793
G01 X23.7220 Y48.3170
G01 X23.7214 Y48.3343
G01 X23.7195 Y48.3540
G01 X23.7166 Y48.3713
G01 X23.7111 Y48.3940
G01 X23.7045 Y48.4139
G01 X23.6969 Y48.4323
G01 X23.6909 Y48.4445
G01 X23.6806 Y48.4628
G01 X23.6695 Y48.4793
G01 X23.6566 Y48.4958
G01 X23.6336 Y48.5200
G01 X23.6177 Y48.5338
G01 X23.6017 Y48.5456
G01 X23.5840 Y48.5568
G01 X23.5661 Y48.5663
G01 X23.5490 Y48.5740
G01 X23.5286 Y48.5814
G01 X23.5084 Y48.5870
G01 X23.4889 Y48.5908
G01 X23.4681 Y48.5934
G01 X23.4446 Y48.5944
G01 X17.8028 Y48.5944
G01 X17.7719 Y48.5927
G01 X17.7485 Y48.5891
G01 X17.7187 Y48.5814
G01 X17.6932 Y48.5718
G01 X17.6688 Y48.5599
G01 X17.6456 Y48.5456
G01 X17.6240 Y48.5291
G01 X17.6066 Y48.5132
G01 X4.5969 Y35.5035
G01 X4.5804 Y35.4854
G01 X4.5681 Y35.4696
G01 X4.5533 Y35.4467
G01 X4.5407 Y35.4226
G01 X4.5307 Y35.3973
G01 X4.5231 Y35.3711
G01 X4.5192 Y35.3517
G01 X4.5162 Y35.3246
G01 X4.5158 Y35.2974
G01 X4.5182 Y35.2703
G01 X4.5210 Y35.2530
G01 X4.5249 Y35.2363
G01 X4.5354 Y35.2046
G01 X4.7136 Y34.7743
G01 X4.7136 Y34.3137
G01 X4.5374 Y33.8883
G01 X4.4923 Y33.8431
G01 X4.4743 Y33.8227
G01 X4.4624 Y33.8068
G01 X4.4546 Y33.7948
G01 X4.4387 Y33.7649
G01 X4.4286 Y33.7396
G01 X4.4210 Y33.7134
G01 X4.4161 Y33.6867
G01 X4.4138 Y33.6595
G01 X4.4136 Y27.0527
G01 X4.4153 Y27.0255
G01 X4.4210 Y26.9926
G01 X4.4286 Y26.9664
G01 X4.4387 Y26.9411
G01 X4.4446 Y26.9289
G01 X4.4550 Y26.9106
G01 X4.4743 Y26.8833
G01 X4.4923 Y26.8629
G01 X4.5374 Y26.8177
G01 X4.7136 Y26.3923
G01 X4.7136 Y25.9317
G01 X4.5374 Y25.5063
G01 X4.4923 Y25.4611
G01 X4.4743 Y25.4407
G01 X4.4624 Y25.4248
G01 X4.4546 Y25.4128
G01 X4.4387 Y25.3829
G01 X4.4286 Y25.3576
G01 X4.4210 Y25.3314
G01 X4.4161 Y25.3047
G01 X4.4138 Y25.2775
G01 X4.4136 Y18.6744
G01 X4.4153 Y18.6435
G01 X4.4197 Y18.6167
G01 X4.4266 Y18.5903
G01 X4.4387 Y18.5591
G01 X4.4446 Y18.5469
G01 X4.4550 Y18.5286
G01 X4.4743 Y18.5013
G01 X4.4923 Y18.4809
G01 X4.5374 Y18.4357
G01 X4.7136 Y18.0103
G01 X4.7136 Y17.5497
G01 X4.5374 Y17.1243
G01 X4.4923 Y17.0791
G01 X4.4743 Y17.0587
G01 X4.4624 Y17.0428
G01 X4.4546 Y17.0308
G01 X4.4387 Y17.0009
G01 X4.4286 Y16.9756
G01 X4.4210 Y16.9494
G01 X4.4161 Y16.9227
G01 X4.4138 Y16.8955
G01 X4.4136 Y10.2924
G01 X4.4153 Y10.2615
G01 X4.4197 Y10.2347
G01 X4.4266 Y10.2083
G01 X4.4387 Y10.1771
G01 X4.4446 Y10.1649
G01 X4.4550 Y10.1466
G01 X4.4743 Y10.1193
G01 X4.4923 Y10.0989
G01 X4.5374 Y10.0537
G01 X4.7136 Y9.6283
G01 X4.7136 Y9.1677
G01 X4.5374 Y8.7423
G01 X4.2117 Y8.4166
G01 X3.7863 Y8.2404
G01 X3.3257 Y8.2404
G01 X2.9003 Y8.4166
G01 X2.5746 Y8.7423
G01 X2.3984 Y9.1677
G01 X2.3984 Y9.6283
G01 X2.5746 Y10.0537
G01 X2.6197 Y10.0989
G01 X2.6377 Y10.1193
G01 X2.6496 Y10.1352
G01 X2.6574 Y10.1472
G01 X2.6733 Y10.1771
G01 X2.6854 Y10.2083
G01 X2.6923 Y10.2347
G01 X2.6968 Y10.2624
G01 X2.6984 Y10.2924
G01 X2.6982 Y16.8955
G01 X2.6959 Y16.9227
G01 X2.6910 Y16.9494
G01 X2.6834 Y16.9756
G01 X2.6733 Y17.0009
G01 X2.6674 Y17.0131
G01 X2.6570 Y17.0314
G01 X2.6378 Y17.0587
G01 X2.6197 Y17.0791
G01 X2.5746 Y17.1243
G01 X2.3984 Y17.5497
G01 X2.3984 Y18.0103
G01 X2.5746 Y18.4357
G01 X2.6197 Y18.4809
G01 X2.6377 Y18.5013
G01 X2.6496 Y18.5172
G01 X2.6574 Y18.5292
G01 X2.6733 Y18.5591
G01 X2.6834 Y18.5844
G01 X2.6910 Y18.6106
G01 X2.6959 Y18.6373
G01 X2.6982 Y18.6645
G01 X2.6984 Y25.2713
G01 X2.6967 Y25.2985
G01 X2.6923 Y25.3253
G01 X2.6834 Y25.3576
G01 X2.6733 Y25.3829
G01 X2.6674 Y25.3951
G01 X2.6570 Y25.4134
G01 X2.6378 Y25.4407
G01 X2.6197 Y25.4611
G01 X2.5746 Y25.5063
G01 X2.3984 Y25.9317
G01 X2.3984 Y26.3923
G01 X2.5746 Y26.8177
G01 X2.6197 Y26.8629
G01 X2.6377 Y26.8833
G01 X2.6496 Y26.8992
G01 X2.6574 Y26.9112
G01 X2.6733 Y26.9411
G01 X2.6834 Y26.9664
G01 X2.6910 Y26.9926
G01 X2.6959 Y27.0193
G01 X2.6982 Y27.0465
G01 X2.6984 Y33.6496
G01 X2.6967 Y33.6805
G01 X2.6923 Y33.7073
G01 X2.6834 Y33.7396
G01 X2.6733 Y33.7649
G01 X2.6674 Y33.7771
G01 X2.6570 Y33.7954
G01 X2.6378 Y33.8227
G01 X2.6197 Y33.8431
G01 X2.5746 Y33.8883
G01 X2.3984 Y34.3137
G01 X2.3984 Y34.7743
G01 X2.5746 Y35.1997
G01 X2.6240 Y35.2494
G01 X2.6377 Y35.2653
G01 X2.6496 Y35.2812
G01 X2.6608 Y35.2990
G01 X2.6703 Y35.3168
G01 X2.6809 Y35.3415
G01 X2.6875 Y35.3614
G01 X2.6938 Y35.3879
G01 X2.6979 Y35.4211
G01 X2.6984 Y35.5673
G01 X2.6974 Y35.5871
G01 X2.6948 Y35.6079
G01 X2.6816 Y35.6754
G01 X2.7482 Y36.0100
G01 X2.9377 Y36.2937
G01 X2.9984 Y36.3346
G01 X3.0160 Y36.3490
G01 X3.0286 Y36.3608
G01 X16.3077 Y49.6398
G01 X16.3282 Y49.6629
G01 X16.3401 Y49.6788
G01 X16.3479 Y49.6908
G01 X16.3638 Y49.7207
G01 X16.3739 Y49.7460
G01 X16.3828 Y49.7783
G01 X16.3873 Y49.8060
G01 X16.3889 Y49.8397
G01 X16.3864 Y49.8730
G01 X16.3828 Y49.8937
G01 X16.3759 Y49.9200
G01 X16.3663 Y49.9456
G01 X16.3544 Y49.9700
G01 X16.3401 Y49.9932
G01 X16.3282 Y50.0091
G01 X16.3102 Y50.0295
G01 X16.2950 Y50.0440
G01 X16.2774 Y50.0583
G01 X16.2566 Y50.0724
G01 X16.2331 Y50.0853
G01 X16.2084 Y50.0959
G01 X16.1825 Y50.1042
G01 X16.1620 Y50.1088
G01 X16.1350 Y50.1124
G01 X16.1115 Y50.1134
G01 X-2.5920 Y50.1134
G01 X-2.6155 Y50.1124
G01 X-2.6363 Y50.1098
G01 X-2.6558 Y50.1060
G01 X-2.6820 Y50.0984
G01 X-2.7073 Y50.0883
G01 X-2.7260 Y50.0789
G01 X-2.7492 Y50.0646
G01 X-2.7651 Y50.0527
G01 X-2.7882 Y50.0322
G01 X-2.8087 Y50.0091
G01 X-2.8280 Y49.9818
G01 X-2.8413 Y49.9576
G01 X-2.8490 Y49.9405
G01 X-2.8544 Y49.9260
G01 X-2.8620 Y49.8998
G01 X-2.8658 Y49.8803
G01 X-2.8678 Y49.8660
G01 X-2.8694 Y49.8360
G01 X-2.8694 Y-2.5920
G00 Z1.9990
G00 X10.2267 Y9.3551
G01 F80.00
G01 Z-0.3732
G01 F80.00
G01 X10.2299 Y9.3085
G01 X10.2354 Y9.2622
G01 X10.2439 Y9.2124
G01 X10.2533 Y9.1707
G01 X10.2655 Y9.1257
G01 X10.2800 Y9.0813
G01 X10.2973 Y9.0360
G01 X10.3154 Y8.9950
G01 X10.3362 Y8.9533
G01 X10.3590 Y8.9126
G01 X10.3838 Y8.8731
G01 X10.4132 Y8.8312
G01 X10.4391 Y8.7980
G01 X10.4694 Y8.7625
G01 X10.5040 Y8.7260
G01 X10.5351 Y8.6963
G01 X10.5710 Y8.6651
G01 X10.6092 Y8.6352
G01 X10.6450 Y8.6099
G01 X10.6849 Y8.5844
G01 X10.7248 Y8.5616
G01 X10.7667 Y8.5403
G01 X10.8140 Y8.5193
G01 X10.8524 Y8.5045
G01 X10.8966 Y8.4897
G01 X10.9415 Y8.4771
G01 X10.9904 Y8.4659
G01 X11.0329 Y8.4585
G01 X11.0801 Y8.4525
G01 X11.1257 Y8.4490
G01 X11.1760 Y8.4477
G01 X11.2056 Y8.4483
G01 X13.5100 Y6.1440
G01 X13.5304 Y6.1244
G01 X13.5551 Y6.1029
G01 X13.5854 Y6.0793
G01 X13.6116 Y6.0610
G01 X13.6330 Y6.0475
G01 X13.6666 Y6.0285
G01 X13.6889 Y6.0173
G01 X13.7176 Y6.0044
G01 X13.7543 Y5.9902
G01 X13.7847 Y5.9804
G01 X13.8155 Y5.9720
G01 X13.8395 Y5.9667
G01 X13.8709 Y5.9610
G01 X13.9034 Y5.9568
G01 X13.9344 Y5.9544
G01 X13.9700 Y5.9534
G01 X26.1505 Y5.9534
G01 X32.5823 Y-0.4784
G01 X32.5816 Y-0.5080
G01 X32.5827 Y-0.5509
G01 X32.5859 Y-0.5975
G01 X32.5914 Y-0.6438
G01 X32.5999 Y-0.6936
G01 X32.6111 Y-0.7425
G01 X32.6237 Y-0.7874
G01 X32.6385 Y-0.8316
G01 X32.6526 Y-0.8683
G01 X32.6714 Y-0.9110
G01 X32.6922 Y-0.9527
G01 X32.7150 Y-0.9934
G01 X32.7439 Y-1.0390
G01 X32.7709 Y-1.0771
G01 X32.7997 Y-1.1137
G01 X32.8254 Y-1.1435
G01 X32.8574 Y-1.1774
G01 X32.8911 Y-1.2097
G01 X32.9270 Y-1.2409
G01 X32.9652 Y-1.2708
G01 X33.0071 Y-1.3002
G01 X33.0409 Y-1.3216
G01 X33.0808 Y-1.3444
G01 X33.1224 Y-1.3655
G01 X33.1700 Y-1.3867
G01 X33.2153 Y-1.4040
G01 X33.2597 Y-1.4185
G01 X33.3047 Y-1.4307
G01 X33.3464 Y-1.4401
G01 X33.3889 Y-1.4475
G01 X33.4352 Y-1.4534
G01 X33.4817 Y-1.4570
G01 X33.5320 Y-1.4584
G01 X33.5823 Y-1.4570
G01 X33.6288 Y-1.4534
G01 X33.6751 Y-1.4475
G01 X33.7176 Y-1.4401
G01 X33.7593 Y-1.4307
G01 X33.8114 Y-1.4163
G01 X33.8556 Y-1.4015
G01 X33.8991 Y-1.3846
G01 X33.9413 Y-1.3657
G01 X33.9767 Y-1.3478
G01 X34.0174 Y-1.3250
G01 X34.0630 Y-1.2961
G01 X34.0988 Y-1.2708
G01 X34.1377 Y-1.2403
G01 X34.1729 Y-1.2097
G01 X34.2040 Y-1.1800
G01 X34.2337 Y-1.1489
G01 X34.2649 Y-1.1130
G01 X34.2948 Y-1.0748
G01 X34.3242 Y-1.0329
G01 X34.3490 Y-0.9934
G01 X34.3718 Y-0.9527
G01 X34.3897 Y-0.9173
G01 X34.4086 Y-0.8751
G01 X34.4280 Y-0.8247
G01 X34.4425 Y-0.7803
G01 X34.4529 Y-0.7425
G01 X34.4648 Y-0.6898
G01 X34.4726 Y-0.6438
G01 X34.4775 Y-0.6039
G01 X34.4813 Y-0.5509
G01 X34.4824 Y-0.5080
G01 X34.4813 Y-0.4651
G01 X34.4774 Y-0.4112
G01 X34.4715 Y-0.3649
G01 X34.4641 Y-0.3224
G01 X34.4529 Y-0.2735
G01 X34.4403 Y-0.2286
G01 X34.4280 Y-0.1913
G01 X34.4086 Y-0.1409
G01 X34.3897 Y-0.0987
G01 X34.3718 Y-0.0633
G01 X34.3452 Y-0.0163
G01 X34.3201 Y0.0230
G01 X34.2948 Y0.0588
G01 X34.2643 Y0.0977
G01 X34.2337 Y0.1329
G01 X34.2066 Y0.1614
G01 X34.1729 Y0.1937
G01 X34.1370 Y0.2249
G01 X34.0988 Y0.2548
G01 X34.0630 Y0.2801
G01 X34.0231 Y0.3056
G01 X33.9832 Y0.3284
G01 X33.9413 Y0.3497
G01 X33.8940 Y0.3707
G01 X33.8487 Y0.3880
G01 X33.8043 Y0.4025
G01 X33.7593 Y0.4147
G01 X33.7138 Y0.4248
G01 X33.6678 Y0.4326
G01 X33.6215 Y0.4381
G01 X33.5749 Y0.4413
G01 X33.5320 Y0.4424
G01 X33.5024 Y0.4417
G01 X26.8800 Y7.0640
G01 X26.8542 Y7.0885
G01 X26.8299 Y7.1092
G01 X26.8082 Y7.1261
G01 X26.7784 Y7.1470
G01 X26.7513 Y7.1639
G01 X26.7234 Y7.1795
G01 X26.6948 Y7.1937
G01 X26.6673 Y7.2058
G01 X26.6357 Y7.2178
G01 X26.6053 Y7.2276
G01 X26.5745 Y7.2360
G01 X26.5471 Y7.2421
G01 X26.5191 Y7.2470
G01 X26.4866 Y7.2512
G01 X26.4556 Y7.2536
G01 X26.4200 Y7.2546
G01 X14.2395 Y7.2546
G01 X12.1257 Y9.3684
G01 X12.1263 Y9.3980
G01 X12.1253 Y9.4409
G01 X12.1221 Y9.4875
G01 X12.1166 Y9.5338
G01 X12.1088 Y9.5798
G01 X12.0987 Y9.6253
G01 X12.0865 Y9.6703
G01 X12.0720 Y9.7147
G01 X12.0547 Y9.7600
G01 X12.0337 Y9.8073
G01 X12.0124 Y9.8492
G01 X11.9892 Y9.8897
G01 X11.9641 Y9.9290
G01 X11.9388 Y9.9648
G01 X11.9083 Y10.0037
G01 X11.8777 Y10.0389
G01 X11.8480 Y10.0700
G01 X11.8266 Y10.0904
G01 X11.8266 Y12.5859
G01 X11.8456 Y12.6061
G01 X11.8702 Y12.6347
G01 X11.8987 Y12.6710
G01 X11.9266 Y12.7109
G01 X11.9501 Y12.7483
G01 X11.9717 Y12.7869
G01 X11.9885 Y12.8201
G01 X12.0064 Y12.8601
G01 X12.0224 Y12.9012
G01 X12.0365 Y12.9431
G01 X12.0502 Y12.9928
G01 X12.0597 Y13.0360
G01 X12.0671 Y13.0795
G01 X12.0717 Y13.1170
G01 X12.0750 Y13.1601
G01 X12.0763 Y13.2080
G01 X12.0750 Y13.2559
G01 X12.0716 Y13.2999
G01 X12.0660 Y13.3438
G01 X12.0590 Y13.3838
G01 X12.0502 Y13.4232
G01 X12.0365 Y13.4729
G01 X12.0224 Y13.5148
G01 X12.0092 Y13.5491
G01 X11.9885 Y13.5959
G01 X11.9717 Y13.6291
G01 X11.9501 Y13.6677
G01 X11.9225 Y13.7113
G01 X11.8987 Y13.7450
G01 X11.8743 Y13.7763
G01 X11.8406 Y13.8153
G01 X11.8126 Y13.8446
G01 X11.7833 Y13.8726
G01 X11.7443 Y13.9063
G01 X11.7130 Y13.9307
G01 X11.6793 Y13.9545
G01 X11.6357 Y13.9821
G01 X11.5971 Y14.0037
G01 X11.5639 Y14.0205
G01 X11.5189 Y14.0405
G01 X11.4828 Y14.0544
G01 X11.4409 Y14.0685
G01 X11.3912 Y14.0822
G01 X11.3518 Y14.0910
G01 X11.3045 Y14.0991
G01 X11.2606 Y14.1043
G01 X11.2165 Y14.1074
G01 X11.1760 Y14.1083
G01 X11.1281 Y14.1070
G01 X11.0841 Y14.1036
G01 X11.0402 Y14.0980
G01 X11.0002 Y14.0910
G01 X10.9537 Y14.0804
G01 X10.9111 Y14.0685
G01 X10.8692 Y14.0544
G01 X10.8331 Y14.0405
G01 X10.7881 Y14.0205
G01 X10.7483 Y14.0003
G01 X10.7100 Y13.9783
G01 X10.6727 Y13.9545
G01 X10.6390 Y13.9307
G01 X10.6020 Y13.9016
G01 X10.5687 Y13.8726
G01 X10.5394 Y13.8446
G01 X10.5064 Y13.8099
G01 X10.4818 Y13.7813
G01 X10.4533 Y13.7450
G01 X10.4295 Y13.7113
G01 X10.4053 Y13.6734
G01 X10.3803 Y13.6291
G01 X10.3606 Y13.5896
G01 X10.3435 Y13.5509
G01 X10.3271 Y13.5078
G01 X10.3134 Y13.4658
G01 X10.3018 Y13.4232
G01 X10.2930 Y13.3838
G01 X10.2860 Y13.3438
G01 X10.2804 Y13.2999
G01 X10.2770 Y13.2559
G01 X10.2757 Y13.2080
G01 X10.2770 Y13.1601
G01 X10.2804 Y13.1161
G01 X10.2849 Y13.0795
G01 X10.2930 Y13.0322
G01 X10.3036 Y12.9857
G01 X10.3155 Y12.9431
G01 X10.3271 Y12.9082
G01 X10.3428 Y12.8669
G01 X10.3635 Y12.8201
G01 X10.3837 Y12.7803
G01 X10.4057 Y12.7420
G01 X10.4254 Y12.7109
G01 X10.4533 Y12.6710
G01 X10.4824 Y12.6340
G01 X10.5064 Y12.6061
G01 X10.5254 Y12.5859
G01 X10.5254 Y10.0904
G01 X10.5040 Y10.0700
G01 X10.4743 Y10.0389
G01 X10.4431 Y10.0030
G01 X10.4132 Y9.9648
G01 X10.3879 Y9.9290
G01 X10.3624 Y9.8891
G01 X10.3396 Y9.8492
G01 X10.3183 Y9.8073
G01 X10.2973 Y9.7600
G01 X10.2800 Y9.7147
G01 X10.2655 Y9.6703
G01 X10.2533 Y9.6253
G01 X10.2432 Y9.5798
G01 X10.2354 Y9.5338
G01 X10.2305 Y9.4939
G01 X10.2270 Y9.4483
G01 X10.2257 Y9.3980
G01 X10.2267 Y9.3551
G00 Z1.9990
G00 X8.8254 Y14.9523
G01 F80.00
G01 Z-0.3732
G01 F80.00
G01 X8.8254 Y8.5820
G01 X8.8260 Y8.5538
G01 X8.8282 Y8.5219
G01 X8.8319 Y8.4902
G01 X8.8372 Y8.4587
G01 X8.8458 Y8.4203
G01 X8.8545 Y8.3896
G01 X8.8647 Y8.3594
G01 X8.8764 Y8.3296
G01 X8.8893 Y8.3009
G01 X8.9005 Y8.2786
G01 X8.9161 Y8.2507
G01 X8.9330 Y8.2236
G01 X8.9539 Y8.1938
G01 X8.9708 Y8.1721
G01 X8.9915 Y8.1478
G01 X9.0160 Y8.1220
G01 X12.5180 Y4.6200
G01 X12.5384 Y4.6004
G01 X12.5631 Y4.5789
G01 X12.5898 Y4.5579
G01 X12.6135 Y4.5411
G01 X12.6467 Y4.5201
G01 X12.6746 Y4.5045
G01 X12.6969 Y4.4933
G01 X12.7325 Y4.4776
G01 X12.7623 Y4.4662
G01 X12.7856 Y4.4585
G01 X12.8235 Y4.4480
G01 X12.8509 Y4.4419
G01 X12.8789 Y4.4370
G01 X12.9179 Y4.4322
G01 X12.9498 Y4.4300
G01 X12.9780 Y4.4294
G01 X25.1345 Y4.4294
G01 X30.0423 Y-0.4784
G01 X30.0417 Y-0.5080
G01 X30.0427 Y-0.5509
G01 X30.0459 Y-0.5975
G01 X30.0514 Y-0.6438
G01 X30.0599 Y-0.6936
G01 X30.0711 Y-0.7425
G01 X30.0837 Y-0.7874
G01 X30.0985 Y-0.8316
G01 X30.1126 Y-0.8683
G01 X30.1314 Y-0.9110
G01 X30.1522 Y-0.9527
G01 X30.1750 Y-0.9934
G01 X30.2039 Y-1.0390
G01 X30.2309 Y-1.0771
G01 X30.2597 Y-1.1137
G01 X30.2854 Y-1.1435
G01 X30.3174 Y-1.1774
G01 X30.3511 Y-1.2097
G01 X30.3870 Y-1.2409
G01 X30.4252 Y-1.2708
G01 X30.4671 Y-1.3002
G01 X30.5066 Y-1.3250
G01 X30.5473 Y-1.3478
G01 X30.5890 Y-1.3686
G01 X30.6300 Y-1.3867
G01 X30.6753 Y-1.4040
G01 X30.7197 Y-1.4185
G01 X30.7647 Y-1.4307
G01 X30.8064 Y-1.4401
G01 X30.8489 Y-1.4475
G01 X30.8961 Y-1.4535
G01 X30.9417 Y-1.4570
G01 X30.9920 Y-1.4584
G01 X31.0349 Y-1.4573
G01 X31.0815 Y-1.4541
G01 X31.1278 Y-1.4486
G01 X31.1776 Y-1.4401
G01 X31.2193 Y-1.4307
G01 X31.2643 Y-1.4185
G01 X31.3087 Y-1.4040
G01 X31.3540 Y-1.3867
G01 X31.4013 Y-1.3657
G01 X31.4432 Y-1.3444
G01 X31.4837 Y-1.3212
G01 X31.5230 Y-1.2961
G01 X31.5588 Y-1.2708
G01 X31.5977 Y-1.2403
G01 X31.6329 Y-1.2097
G01 X31.6640 Y-1.1800
G01 X31.6986 Y-1.1435
G01 X31.7249 Y-1.1130
G01 X31.7531 Y-1.0771
G01 X31.7801 Y-1.0390
G01 X31.8056 Y-0.9991
G01 X31.8284 Y-0.9592
G01 X31.8526 Y-0.9110
G01 X31.8707 Y-0.8700
G01 X31.8880 Y-0.8247
G01 X31.9025 Y-0.7803
G01 X31.9129 Y-0.7425
G01 X31.9248 Y-0.6898
G01 X31.9326 Y-0.6438
G01 X31.9375 Y-0.6039
G01 X31.9410 Y-0.5583
G01 X31.9423 Y-0.5117
G01 X31.9410 Y-0.4577
G01 X31.9374 Y-0.4112
G01 X31.9315 Y-0.3649
G01 X31.9241 Y-0.3224
G01 X31.9147 Y-0.2807
G01 X31.9003 Y-0.2286
G01 X31.8855 Y-0.1844
G01 X31.8707 Y-0.1460
G01 X31.8526 Y-0.1050
G01 X31.8318 Y-0.0633
G01 X31.8090 Y-0.0226
G01 X31.7842 Y0.0169
G01 X31.7531 Y0.0611
G01 X31.7243 Y0.0977
G01 X31.6937 Y0.1329
G01 X31.6640 Y0.1640
G01 X31.6275 Y0.1986
G01 X31.5920 Y0.2289
G01 X31.5551 Y0.2575
G01 X31.5169 Y0.2842
G01 X31.4837 Y0.3052
G01 X31.4432 Y0.3284
G01 X31.4013 Y0.3497
G01 X31.3591 Y0.3686
G01 X31.3087 Y0.3880
G01 X31.2643 Y0.4025
G01 X31.2193 Y0.4147
G01 X31.1738 Y0.4248
G01 X31.1278 Y0.4326
G01 X31.0815 Y0.4381
G01 X31.0349 Y0.4413
G01 X30.9920 Y0.4424
G01 X30.9624 Y0.4417
G01 X25.8640 Y5.5400
G01 X25.8436 Y5.5596
G01 X25.8189 Y5.5811
G01 X25.7922 Y5.6021
G01 X25.7685 Y5.6189
G01 X25.7410 Y5.6365
G01 X25.7139 Y5.6520
G01 X25.6788 Y5.6697
G01 X25.6513 Y5.6818
G01 X25.6197 Y5.6938
G01 X25.5893 Y5.7036
G01 X25.5585 Y5.7120
G01 X25.5345 Y5.7173
G01 X25.5031 Y5.7230
G01 X25.4706 Y5.7272
G01 X25.4396 Y5.7296
G01 X25.4040 Y5.7306
G01 X13.2475 Y5.7306
G01 X10.1266 Y8.8515
G01 X10.1266 Y14.6791
G01 X11.6360 Y16.1886
G01 X11.6605 Y16.2145
G01 X11.6812 Y16.2388
G01 X11.6981 Y16.2604
G01 X11.7190 Y16.2903
G01 X11.7359 Y16.3173
G01 X11.7515 Y16.3452
G01 X11.7627 Y16.3675
G01 X11.7756 Y16.3963
G01 X11.7873 Y16.4260
G01 X11.7975 Y16.4563
G01 X11.8080 Y16.4941
G01 X11.8141 Y16.5216
G01 X11.8201 Y16.5568
G01 X11.8238 Y16.5885
G01 X11.8260 Y16.6204
G01 X11.8266 Y16.6449
G01 X11.8266 Y17.0876
G01 X11.8480 Y17.1080
G01 X11.8826 Y17.1445
G01 X11.9089 Y17.1750
G01 X11.9388 Y17.2132
G01 X11.9641 Y17.2490
G01 X11.9896 Y17.2889
G01 X12.0124 Y17.3288
G01 X12.0337 Y17.3707
G01 X12.0547 Y17.4180
G01 X12.0695 Y17.4564
G01 X12.0865 Y17.5077
G01 X12.0987 Y17.5527
G01 X12.1081 Y17.5944
G01 X12.1155 Y17.6369
G01 X12.1215 Y17.6841
G01 X12.1253 Y17.7371
G01 X12.1263 Y17.7837
G01 X12.1250 Y17.8303
G01 X12.1214 Y17.8768
G01 X12.1166 Y17.9158
G01 X12.1081 Y17.9656
G01 X12.0987 Y18.0073
G01 X12.0843 Y18.0594
G01 X12.0695 Y18.1036
G01 X12.0526 Y18.1471
G01 X12.0337 Y18.1893
G01 X12.0158 Y18.2247
G01 X11.9930 Y18.2654
G01 X11.9682 Y18.3049
G01 X11.9388 Y18.3468
G01 X11.9083 Y18.3857
G01 X11.8777 Y18.4209
G01 X11.8480 Y18.4520
G01 X11.8266 Y18.4724
G01 X11.8266 Y20.9679
G01 X11.8456 Y20.9881
G01 X11.8702 Y21.0167
G01 X11.8987 Y21.0530
G01 X11.9266 Y21.0929
G01 X11.9501 Y21.1303
G01 X11.9717 Y21.1689
G01 X11.9885 Y21.2021
G01 X12.0064 Y21.2421
G01 X12.0224 Y21.2832
G01 X12.0365 Y21.3251
G01 X12.0484 Y21.3677
G01 X12.0590 Y21.4142
G01 X12.0671 Y21.4615
G01 X12.0723 Y21.5054
G01 X12.0754 Y21.5495
G01 X12.0763 Y21.5900
G01 X12.0754 Y21.6305
G01 X12.0723 Y21.6746
G01 X12.0671 Y21.7185
G01 X12.0590 Y21.7658
G01 X12.0484 Y21.8123
G01 X12.0365 Y21.8549
G01 X12.0249 Y21.8898
G01 X12.0064 Y21.9379
G01 X11.9885 Y21.9779
G01 X11.9717 Y22.0111
G01 X11.9501 Y22.0497
G01 X11.9225 Y22.0933
G01 X11.8987 Y22.1270
G01 X11.8743 Y22.1583
G01 X11.8406 Y22.1973
G01 X11.8100 Y22.2292
G01 X11.7779 Y22.2596
G01 X11.7493 Y22.2842
G01 X11.7093 Y22.3153
G01 X11.6731 Y22.3406
G01 X11.6414 Y22.3607
G01 X11.5971 Y22.3857
G01 X11.5639 Y22.4025
G01 X11.5239 Y22.4204
G01 X11.4758 Y22.4389
G01 X11.4338 Y22.4526
G01 X11.3912 Y22.4642
G01 X11.3518 Y22.4730
G01 X11.3045 Y22.4811
G01 X11.2606 Y22.4863
G01 X11.2165 Y22.4894
G01 X11.1760 Y22.4903
G01 X11.1355 Y22.4894
G01 X11.0914 Y22.4863
G01 X11.0475 Y22.4811
G01 X11.0002 Y22.4730
G01 X10.9537 Y22.4624
G01 X10.9111 Y22.4505
G01 X10.8692 Y22.4364
G01 X10.8281 Y22.4204
G01 X10.7881 Y22.4025
G01 X10.7549 Y22.3857
G01 X10.7163 Y22.3641
G01 X10.6789 Y22.3406
G01 X10.6390 Y22.3127
G01 X10.6020 Y22.2836
G01 X10.5687 Y22.2546
G01 X10.5394 Y22.2266
G01 X10.5064 Y22.1919
G01 X10.4818 Y22.1633
G01 X10.4551 Y22.1293
G01 X10.4295 Y22.0933
G01 X10.4053 Y22.0554
G01 X10.3837 Y22.0177
G01 X10.3635 Y21.9779
G01 X10.3428 Y21.9311
G01 X10.3271 Y21.8898
G01 X10.3134 Y21.8478
G01 X10.3018 Y21.8052
G01 X10.2930 Y21.7658
G01 X10.2860 Y21.7258
G01 X10.2803 Y21.6810
G01 X10.2770 Y21.6379
G01 X10.2757 Y21.5900
G01 X10.2770 Y21.5421
G01 X10.2804 Y21.4981
G01 X10.2849 Y21.4615
G01 X10.2923 Y21.4180
G01 X10.3036 Y21.3677
G01 X10.3155 Y21.3251
G01 X10.3296 Y21.2832
G01 X10.3456 Y21.2421
G01 X10.3635 Y21.2021
G01 X10.3803 Y21.1689
G01 X10.4019 Y21.1303
G01 X10.4254 Y21.0929
G01 X10.4533 Y21.0530
G01 X10.4824 Y21.0160
G01 X10.5064 Y20.9881
G01 X10.5254 Y20.9679
G01 X10.5254 Y18.4724
G01 X10.5040 Y18.4520
G01 X10.4743 Y18.4209
G01 X10.4431 Y18.3850
G01 X10.4132 Y18.3468
G01 X10.3879 Y18.3110
G01 X10.3624 Y18.2711
G01 X10.3396 Y18.2312
G01 X10.3183 Y18.1893
G01 X10.2973 Y18.1420
G01 X10.2800 Y18.0967
G01 X10.2655 Y18.0523
G01 X10.2533 Y18.0073
G01 X10.2439 Y17.9656
G01 X10.2365 Y17.9231
G01 X10.2305 Y17.8759
G01 X10.2267 Y17.8229
G01 X10.2257 Y17.7800
G01 X10.2270 Y17.7297
G01 X10.2306 Y17.6832
G01 X10.2365 Y17.6369
G01 X10.2439 Y17.5944
G01 X10.2551 Y17.5455
G01 X10.2677 Y17.5006
G01 X10.2800 Y17.4633
G01 X10.2973 Y17.4180
G01 X10.3154 Y17.3770
G01 X10.3362 Y17.3353
G01 X10.3590 Y17.2946
G01 X10.3838 Y17.2551
G01 X10.4105 Y17.2169
G01 X10.4391 Y17.1800
G01 X10.4694 Y17.1445
G01 X10.5040 Y17.1080
G01 X10.5254 Y17.0876
G01 X10.5254 Y16.9181
G01 X9.0160 Y15.4087
G01 X8.9915 Y15.3828
G01 X8.9749 Y15.3635
G01 X8.9539 Y15.3368
G01 X8.9371 Y15.3131
G01 X8.9195 Y15.2856
G01 X8.9040 Y15.2586
G01 X8.8893 Y15.2298
G01 X8.8742 Y15.1959
G01 X8.8647 Y15.1713
G01 X8.8524 Y15.1339
G01 X8.8440 Y15.1031
G01 X8.8372 Y15.0719
G01 X8.8319 Y15.0404
G01 X8.8288 Y15.0152
G01 X8.8264 Y14.9842
G01 X8.8254 Y14.9523
G00 Z1.9990
G00 X7.4254 Y15.6997
G01 F80.00
G01 Z-0.3732
G01 F80.00
G01 X7.4254 Y8.0021
G01 X7.4260 Y7.9739
G01 X7.4282 Y7.9420
G01 X7.4319 Y7.9103
G01 X7.4372 Y7.8788
G01 X7.4458 Y7.8404
G01 X7.4545 Y7.8097
G01 X7.4647 Y7.7795
G01 X7.4764 Y7.7497
G01 X7.4893 Y7.7210
G01 X7.5005 Y7.6987
G01 X7.5161 Y7.6708
G01 X7.5330 Y7.6437
G01 X7.5539 Y7.6139
G01 X7.5708 Y7.5922
G01 X7.5915 Y7.5679
G01 X7.6159 Y7.5421
G01 X12.0620 Y3.0960
G01 X12.0879 Y3.0715
G01 X12.1072 Y3.0549
G01 X12.1316 Y3.0357
G01 X12.1576 Y3.0171
G01 X12.1845 Y2.9999
G01 X12.2187 Y2.9805
G01 X12.2410 Y2.9693
G01 X12.2697 Y2.9564
G01 X12.3064 Y2.9422
G01 X12.3368 Y2.9324
G01 X12.3676 Y2.9240
G01 X12.3950 Y2.9179
G01 X12.4230 Y2.9130
G01 X12.4620 Y2.9082
G01 X12.4938 Y2.9060
G01 X12.5221 Y2.9054
G01 X24.1185 Y2.9054
G01 X27.5023 Y-0.4784
G01 X27.5017 Y-0.5080
G01 X27.5027 Y-0.5509
G01 X27.5059 Y-0.5975
G01 X27.5114 Y-0.6438
G01 X27.5199 Y-0.6936
G01 X27.5311 Y-0.7425
G01 X27.5437 Y-0.7874
G01 X27.5585 Y-0.8316
G01 X27.5726 Y-0.8683
G01 X27.5914 Y-0.9110
G01 X27.6122 Y-0.9527
G01 X27.6350 Y-0.9934
G01 X27.6639 Y-1.0390
G01 X27.6909 Y-1.0771
G01 X27.7197 Y-1.1137
G01 X27.7454 Y-1.1435
G01 X27.7774 Y-1.1774
G01 X27.8165 Y-1.2146
G01 X27.8520 Y-1.2449
G01 X27.8852 Y-1.2708
G01 X27.9271 Y-1.3002
G01 X27.9666 Y-1.3250
G01 X28.0073 Y-1.3478
G01 X28.0490 Y-1.3686
G01 X28.0917 Y-1.3874
G01 X28.1353 Y-1.4040
G01 X28.1726 Y-1.4163
G01 X28.2175 Y-1.4289
G01 X28.2664 Y-1.4401
G01 X28.3089 Y-1.4475
G01 X28.3561 Y-1.4535
G01 X28.4017 Y-1.4570
G01 X28.4520 Y-1.4584
G01 X28.4949 Y-1.4573
G01 X28.5415 Y-1.4541
G01 X28.5878 Y-1.4486
G01 X28.6376 Y-1.4401
G01 X28.6793 Y-1.4307
G01 X28.7243 Y-1.4185
G01 X28.7687 Y-1.4040
G01 X28.8140 Y-1.3867
G01 X28.8550 Y-1.3686
G01 X28.8967 Y-1.3478
G01 X28.9374 Y-1.3250
G01 X28.9769 Y-1.3002
G01 X29.0188 Y-1.2708
G01 X29.0520 Y-1.2449
G01 X29.0875 Y-1.2146
G01 X29.1240 Y-1.1800
G01 X29.1537 Y-1.1489
G01 X29.1849 Y-1.1130
G01 X29.2131 Y-1.0771
G01 X29.2401 Y-1.0390
G01 X29.2652 Y-0.9997
G01 X29.2918 Y-0.9527
G01 X29.3126 Y-0.9110
G01 X29.3307 Y-0.8700
G01 X29.3455 Y-0.8316
G01 X29.3603 Y-0.7874
G01 X29.3747 Y-0.7353
G01 X29.3841 Y-0.6936
G01 X29.3926 Y-0.6438
G01 X29.3981 Y-0.5975
G01 X29.4013 Y-0.5509
G01 X29.4023 Y-0.5080
G01 X29.4013 Y-0.4651
G01 X29.3981 Y-0.4185
G01 X29.3926 Y-0.3722
G01 X29.3833 Y-0.3190
G01 X29.3729 Y-0.2735
G01 X29.3603 Y-0.2286
G01 X29.3455 Y-0.1844
G01 X29.3307 Y-0.1460
G01 X29.3126 Y-0.1050
G01 X29.2918 Y-0.0633
G01 X29.2652 Y-0.0163
G01 X29.2401 Y0.0230
G01 X29.2148 Y0.0588
G01 X29.1889 Y0.0920
G01 X29.1586 Y0.1275
G01 X29.1240 Y0.1640
G01 X29.0875 Y0.1986
G01 X29.0520 Y0.2289
G01 X29.0151 Y0.2575
G01 X28.9769 Y0.2842
G01 X28.9437 Y0.3052
G01 X28.9032 Y0.3284
G01 X28.8613 Y0.3497
G01 X28.8191 Y0.3686
G01 X28.7687 Y0.3880
G01 X28.7243 Y0.4025
G01 X28.6793 Y0.4147
G01 X28.6338 Y0.4248
G01 X28.5878 Y0.4326
G01 X28.5415 Y0.4381
G01 X28.4949 Y0.4413
G01 X28.4520 Y0.4424
G01 X28.4224 Y0.4417
G01 X24.8480 Y4.0160
G01 X24.8276 Y4.0356
G01 X24.8029 Y4.0571
G01 X24.7762 Y4.0781
G01 X24.7525 Y4.0949
G01 X24.7250 Y4.1125
G01 X24.6979 Y4.1280
G01 X24.6628 Y4.1457
G01 X24.6353 Y4.1578
G01 X24.6037 Y4.1698
G01 X24.5733 Y4.1796
G01 X24.5425 Y4.1880
G01 X24.5185 Y4.1933
G01 X24.4871 Y4.1990
G01 X24.4546 Y4.2032
G01 X24.4236 Y4.2056
G01 X24.3880 Y4.2066
G01 X12.7916 Y4.2066
G01 X8.7266 Y8.2716
G01 X8.7266 Y15.4265
G01 X9.8580 Y16.5580
G01 X9.8825 Y16.5838
G01 X9.8991 Y16.6031
G01 X9.9183 Y16.6275
G01 X9.9410 Y16.6596
G01 X9.9545 Y16.6810
G01 X9.9700 Y16.7081
G01 X9.9847 Y16.7369
G01 X10.0004 Y16.7725
G01 X10.0118 Y16.8023
G01 X10.0195 Y16.8256
G01 X10.0300 Y16.8635
G01 X10.0361 Y16.8909
G01 X10.0410 Y16.9189
G01 X10.0458 Y16.9579
G01 X10.0480 Y16.9898
G01 X10.0486 Y17.0180
G01 X10.0486 Y24.1145
G01 X11.1464 Y25.2123
G01 X11.1760 Y25.2117
G01 X11.2263 Y25.2130
G01 X11.2728 Y25.2166
G01 X11.3191 Y25.2225
G01 X11.3616 Y25.2299
G01 X11.4105 Y25.2411
G01 X11.4554 Y25.2537
G01 X11.4996 Y25.2685
G01 X11.5380 Y25.2833
G01 X11.5853 Y25.3043
G01 X11.6272 Y25.3256
G01 X11.6677 Y25.3488
G01 X11.7070 Y25.3739
G01 X11.7428 Y25.3992
G01 X11.7817 Y25.4297
G01 X11.8169 Y25.4603
G01 X11.8480 Y25.4900
G01 X11.8826 Y25.5265
G01 X11.9089 Y25.5570
G01 X11.9388 Y25.5952
G01 X11.9641 Y25.6310
G01 X11.9896 Y25.6709
G01 X12.0124 Y25.7108
G01 X12.0335 Y25.7524
G01 X12.0554 Y25.8017
G01 X12.0720 Y25.8453
G01 X12.0865 Y25.8897
G01 X12.0987 Y25.9347
G01 X12.1081 Y25.9764
G01 X12.1155 Y26.0189
G01 X12.1215 Y26.0661
G01 X12.1253 Y26.1191
G01 X12.1263 Y26.1657
G01 X12.1250 Y26.2123
G01 X12.1214 Y26.2588
G01 X12.1166 Y26.2978
G01 X12.1081 Y26.3476
G01 X12.0987 Y26.3893
G01 X12.0843 Y26.4414
G01 X12.0695 Y26.4856
G01 X12.0526 Y26.5291
G01 X12.0337 Y26.5713
G01 X12.0158 Y26.6067
G01 X11.9930 Y26.6474
G01 X11.9682 Y26.6869
G01 X11.9388 Y26.7288
G01 X11.9083 Y26.7677
G01 X11.8777 Y26.8029
G01 X11.8480 Y26.8340
G01 X11.8266 Y26.8544
G01 X11.8266 Y29.3499
G01 X11.8456 Y29.3701
G01 X11.8702 Y29.3987
G01 X11.8987 Y29.4350
G01 X11.9266 Y29.4749
G01 X11.9501 Y29.5123
G01 X11.9717 Y29.5509
G01 X11.9885 Y29.5841
G01 X12.0064 Y29.6241
G01 X12.0224 Y29.6652
G01 X12.0365 Y29.7071
G01 X12.0502 Y29.7568
G01 X12.0597 Y29.8000
G01 X12.0671 Y29.8435
G01 X12.0717 Y29.8810
G01 X12.0750 Y29.9241
G01 X12.0763 Y29.9720
G01 X12.0750 Y30.0199
G01 X12.0716 Y30.0639
G01 X12.0660 Y30.1078
G01 X12.0590 Y30.1478
G01 X12.0502 Y30.1872
G01 X12.0365 Y30.2369
G01 X12.0224 Y30.2788
G01 X12.0092 Y30.3131
G01 X11.9885 Y30.3599
G01 X11.9717 Y30.3931
G01 X11.9501 Y30.4317
G01 X11.9225 Y30.4753
G01 X11.8987 Y30.5090
G01 X11.8743 Y30.5403
G01 X11.8406 Y30.5793
G01 X11.8126 Y30.6086
G01 X11.7833 Y30.6366
G01 X11.7493 Y30.6662
G01 X11.7093 Y30.6973
G01 X11.6731 Y30.7226
G01 X11.6414 Y30.7427
G01 X11.5971 Y30.7677
G01 X11.5576 Y30.7874
G01 X11.5189 Y30.8045
G01 X11.4758 Y30.8209
G01 X11.4338 Y30.8346
G01 X11.3983 Y30.8444
G01 X11.3518 Y30.8550
G01 X11.3118 Y30.8620
G01 X11.2606 Y30.8683
G01 X11.2165 Y30.8714
G01 X11.1760 Y30.8723
G01 X11.1355 Y30.8714
G01 X11.0914 Y30.8683
G01 X11.0402 Y30.8620
G01 X11.0002 Y30.8550
G01 X10.9537 Y30.8444
G01 X10.9111 Y30.8325
G01 X10.8692 Y30.8184
G01 X10.8331 Y30.8045
G01 X10.7877 Y30.7843
G01 X10.7483 Y30.7643
G01 X10.7100 Y30.7423
G01 X10.6727 Y30.7185
G01 X10.6390 Y30.6947
G01 X10.6077 Y30.6703
G01 X10.5741 Y30.6416
G01 X10.5394 Y30.6086
G01 X10.5114 Y30.5793
G01 X10.4818 Y30.5453
G01 X10.4551 Y30.5113
G01 X10.4254 Y30.4691
G01 X10.4019 Y30.4317
G01 X10.3803 Y30.3931
G01 X10.3606 Y30.3536
G01 X10.3435 Y30.3149
G01 X10.3271 Y30.2718
G01 X10.3134 Y30.2298
G01 X10.3036 Y30.1943
G01 X10.2923 Y30.1440
G01 X10.2849 Y30.1005
G01 X10.2803 Y30.0630
G01 X10.2766 Y30.0125
G01 X10.2757 Y29.9720
G01 X10.2766 Y29.9315
G01 X10.2804 Y29.8801
G01 X10.2860 Y29.8362
G01 X10.2930 Y29.7962
G01 X10.3036 Y29.7497
G01 X10.3155 Y29.7071
G01 X10.3271 Y29.6722
G01 X10.3456 Y29.6241
G01 X10.3635 Y29.5841
G01 X10.3803 Y29.5509
G01 X10.4057 Y29.5060
G01 X10.4295 Y29.4687
G01 X10.4507 Y29.4387
G01 X10.4824 Y29.3980
G01 X10.5064 Y29.3701
G01 X10.5254 Y29.3499
G01 X10.5254 Y26.8544
G01 X10.5040 Y26.8340
G01 X10.4743 Y26.8029
G01 X10.4431 Y26.7670
G01 X10.4132 Y26.7288
G01 X10.3879 Y26.6930
G01 X10.3624 Y26.6531
G01 X10.3396 Y26.6132
G01 X10.3183 Y26.5713
G01 X10.2973 Y26.5240
G01 X10.2800 Y26.4787
G01 X10.2655 Y26.4343
G01 X10.2533 Y26.3893
G01 X10.2432 Y26.3438
G01 X10.2354 Y26.2978
G01 X10.2299 Y26.2515
G01 X10.2267 Y26.2049
G01 X10.2257 Y26.1620
G01 X10.2263 Y26.1324
G01 X8.9380 Y24.8440
G01 X8.9184 Y24.8236
G01 X8.8969 Y24.7989
G01 X8.8733 Y24.7686
G01 X8.8550 Y24.7424
G01 X8.8419 Y24.7216
G01 X8.8260 Y24.6939
G01 X8.8113 Y24.6651
G01 X8.7956 Y24.6295
G01 X8.7842 Y24.5997
G01 X8.7744 Y24.5693
G01 X8.7678 Y24.5457
G01 X8.7599 Y24.5111
G01 X8.7539 Y24.4758
G01 X8.7508 Y24.4506
G01 X8.7484 Y24.4196
G01 X8.7474 Y24.3840
G01 X8.7474 Y17.2875
G01 X7.6159 Y16.1560
G01 X7.5964 Y16.1356
G01 X7.5748 Y16.1108
G01 X7.5539 Y16.0842
G01 X7.5371 Y16.0605
G01 X7.5161 Y16.0273
G01 X7.5005 Y15.9994
G01 X7.4893 Y15.9771
G01 X7.4742 Y15.9433
G01 X7.4647 Y15.9186
G01 X7.4524 Y15.8813
G01 X7.4440 Y15.8505
G01 X7.4372 Y15.8193
G01 X7.4319 Y15.7878
G01 X7.4288 Y15.7625
G01 X7.4264 Y15.7316
G01 X7.4254 Y15.6997
G00 Z1.9990
G00 X5.9534 Y16.2076
G01 F80.00
G01 Z-0.3732
G01 F80.00
G01 X5.9534 Y7.4942
G01 X5.9544 Y7.4586
G01 X5.9569 Y7.4267
G01 X5.9610 Y7.3951
G01 X5.9659 Y7.3671
G01 X5.9720 Y7.3397
G01 X5.9804 Y7.3089
G01 X5.9902 Y7.2785
G01 X6.0016 Y7.2486
G01 X6.0143 Y7.2194
G01 X6.0285 Y7.1908
G01 X6.0441 Y7.1629
G01 X6.0610 Y7.1358
G01 X6.0819 Y7.1060
G01 X6.0988 Y7.0843
G01 X6.1195 Y7.0600
G01 X6.1440 Y7.0341
G01 X11.6061 Y1.5720
G01 X11.6266 Y1.5524
G01 X11.6513 Y1.5309
G01 X11.6780 Y1.5099
G01 X11.7017 Y1.4931
G01 X11.7349 Y1.4721
G01 X11.7628 Y1.4565
G01 X11.7850 Y1.4453
G01 X11.8189 Y1.4302
G01 X11.8435 Y1.4207
G01 X11.8809 Y1.4084
G01 X11.9117 Y1.4000
G01 X11.9429 Y1.3932
G01 X11.9744 Y1.3879
G01 X11.9996 Y1.3848
G01 X12.0306 Y1.3824
G01 X12.0625 Y1.3814
G01 X23.1025 Y1.3814
G01 X24.9623 Y-0.4784
G01 X24.9617 Y-0.5080
G01 X24.9627 Y-0.5509
G01 X24.9666 Y-0.6048
G01 X24.9725 Y-0.6511
G01 X24.9799 Y-0.6936
G01 X24.9893 Y-0.7353
G01 X25.0037 Y-0.7874
G01 X25.0185 Y-0.8316
G01 X25.0354 Y-0.8751
G01 X25.0543 Y-0.9173
G01 X25.0722 Y-0.9527
G01 X25.0950 Y-0.9934
G01 X25.1239 Y-1.0390
G01 X25.1509 Y-1.0771
G01 X25.1797 Y-1.1137
G01 X25.2054 Y-1.1435
G01 X25.2400 Y-1.1800
G01 X25.2765 Y-1.2146
G01 X25.3070 Y-1.2409
G01 X25.3429 Y-1.2691
G01 X25.3810 Y-1.2961
G01 X25.4209 Y-1.3216
G01 X25.4608 Y-1.3444
G01 X25.5027 Y-1.3657
G01 X25.5449 Y-1.3846
G01 X25.5884 Y-1.4015
G01 X25.6326 Y-1.4163
G01 X25.6847 Y-1.4307
G01 X25.7264 Y-1.4401
G01 X25.7762 Y-1.4486
G01 X25.8225 Y-1.4541
G01 X25.8691 Y-1.4573
G01 X25.9120 Y-1.4584
G01 X25.9623 Y-1.4570
G01 X26.0088 Y-1.4534
G01 X26.0478 Y-1.4486
G01 X26.0976 Y-1.4401
G01 X26.1393 Y-1.4307
G01 X26.1914 Y-1.4163
G01 X26.2356 Y-1.4015
G01 X26.2740 Y-1.3867
G01 X26.3213 Y-1.3657
G01 X26.3632 Y-1.3444
G01 X26.4037 Y-1.3212
G01 X26.4430 Y-1.2961
G01 X26.4788 Y-1.2708
G01 X26.5177 Y-1.2403
G01 X26.5529 Y-1.2097
G01 X26.5840 Y-1.1800
G01 X26.6137 Y-1.1489
G01 X26.6449 Y-1.1130
G01 X26.6748 Y-1.0748
G01 X26.7001 Y-1.0390
G01 X26.7290 Y-0.9934
G01 X26.7518 Y-0.9527
G01 X26.7697 Y-0.9173
G01 X26.7907 Y-0.8700
G01 X26.8055 Y-0.8316
G01 X26.8225 Y-0.7803
G01 X26.8347 Y-0.7353
G01 X26.8448 Y-0.6898
G01 X26.8526 Y-0.6438
G01 X26.8575 Y-0.6039
G01 X26.8610 Y-0.5583
G01 X26.8623 Y-0.5080
G01 X26.8613 Y-0.4651
G01 X26.8581 Y-0.4185
G01 X26.8526 Y-0.3722
G01 X26.8448 Y-0.3262
G01 X26.8329 Y-0.2735
G01 X26.8203 Y-0.2286
G01 X26.8055 Y-0.1844
G01 X26.7907 Y-0.1460
G01 X26.7697 Y-0.0987
G01 X26.7518 Y-0.0633
G01 X26.7290 Y-0.0226
G01 X26.7042 Y0.0169
G01 X26.6775 Y0.0551
G01 X26.6443 Y0.0977
G01 X26.6137 Y0.1329
G01 X26.5840 Y0.1640
G01 X26.5529 Y0.1937
G01 X26.5170 Y0.2249
G01 X26.4811 Y0.2531
G01 X26.4430 Y0.2801
G01 X26.4031 Y0.3056
G01 X26.3567 Y0.3318
G01 X26.3150 Y0.3526
G01 X26.2723 Y0.3714
G01 X26.2287 Y0.3880
G01 X26.1914 Y0.4003
G01 X26.1465 Y0.4129
G01 X26.0976 Y0.4241
G01 X26.0478 Y0.4326
G01 X26.0015 Y0.4381
G01 X25.9549 Y0.4413
G01 X25.9120 Y0.4424
G01 X25.8824 Y0.4417
G01 X23.8320 Y2.4920
G01 X23.8116 Y2.5116
G01 X23.7869 Y2.5331
G01 X23.7566 Y2.5567
G01 X23.7304 Y2.5750
G01 X23.7096 Y2.5881
G01 X23.6819 Y2.6040
G01 X23.6531 Y2.6187
G01 X23.6175 Y2.6344
G01 X23.5877 Y2.6458
G01 X23.5573 Y2.6556
G01 X23.5337 Y2.6622
G01 X23.4991 Y2.6701
G01 X23.4638 Y2.6761
G01 X23.4386 Y2.6792
G01 X23.4076 Y2.6816
G01 X23.3720 Y2.6826
G01 X12.3357 Y2.6826
G01 X7.2546 Y7.7637
G01 X7.2546 Y15.9344
G01 X8.3340 Y17.0139
G01 X8.3585 Y17.0398
G01 X8.3751 Y17.0591
G01 X8.3943 Y17.0834
G01 X8.4170 Y17.1156
G01 X8.4305 Y17.1369
G01 X8.4460 Y17.1640
G01 X8.4637 Y17.1991
G01 X8.4758 Y17.2266
G01 X8.4853 Y17.2513
G01 X8.4976 Y17.2886
G01 X8.5060 Y17.3194
G01 X8.5113 Y17.3434
G01 X8.5181 Y17.3821
G01 X8.5212 Y17.4074
G01 X8.5236 Y17.4383
G01 X8.5246 Y17.4739
G01 X8.5246 Y25.1065
G01 X9.9886 Y26.5706
G01 X10.0105 Y26.5938
G01 X10.0312 Y26.6181
G01 X10.0481 Y26.6398
G01 X10.0690 Y26.6696
G01 X10.0859 Y26.6967
G01 X10.1015 Y26.7246
G01 X10.1157 Y26.7532
G01 X10.1284 Y26.7825
G01 X10.1398 Y26.8123
G01 X10.1496 Y26.8427
G01 X10.1580 Y26.8735
G01 X10.1641 Y26.9009
G01 X10.1690 Y26.9289
G01 X10.1732 Y26.9614
G01 X10.1756 Y26.9924
G01 X10.1766 Y27.0280
G01 X10.1766 Y31.4931
G01 X11.6360 Y32.9526
G01 X11.6605 Y32.9785
G01 X11.6812 Y33.0028
G01 X11.6981 Y33.0244
G01 X11.7190 Y33.0543
G01 X11.7359 Y33.0813
G01 X11.7515 Y33.1092
G01 X11.7627 Y33.1315
G01 X11.7756 Y33.1603
G01 X11.7873 Y33.1900
G01 X11.7975 Y33.2203
G01 X11.8080 Y33.2581
G01 X11.8141 Y33.2856
G01 X11.8201 Y33.3208
G01 X11.8238 Y33.3525
G01 X11.8260 Y33.3844
G01 X11.8266 Y33.4089
G01 X11.8266 Y33.8516
G01 X11.8480 Y33.8720
G01 X11.8826 Y33.9085
G01 X11.9089 Y33.9390
G01 X11.9388 Y33.9772
G01 X11.9641 Y34.0130
G01 X11.9892 Y34.0523
G01 X12.0158 Y34.0993
G01 X12.0366 Y34.1410
G01 X12.0547 Y34.1820
G01 X12.0695 Y34.2204
G01 X12.0843 Y34.2646
G01 X12.0987 Y34.3167
G01 X12.1081 Y34.3584
G01 X12.1166 Y34.4082
G01 X12.1221 Y34.4545
G01 X12.1253 Y34.5011
G01 X12.1263 Y34.5440
G01 X12.1253 Y34.5869
G01 X12.1221 Y34.6335
G01 X12.1155 Y34.6871
G01 X12.1073 Y34.7330
G01 X12.0969 Y34.7785
G01 X12.0843 Y34.8234
G01 X12.0720 Y34.8607
G01 X12.0547 Y34.9060
G01 X12.0337 Y34.9533
G01 X12.0124 Y34.9952
G01 X11.9892 Y35.0357
G01 X11.9682 Y35.0689
G01 X11.9388 Y35.1108
G01 X11.9083 Y35.1497
G01 X11.8777 Y35.1849
G01 X11.8480 Y35.2160
G01 X11.8266 Y35.2364
G01 X11.8266 Y37.7319
G01 X11.8456 Y37.7521
G01 X11.8702 Y37.7807
G01 X11.8987 Y37.8170
G01 X11.9266 Y37.8569
G01 X11.9501 Y37.8943
G01 X11.9717 Y37.9329
G01 X11.9885 Y37.9661
G01 X12.0064 Y38.0061
G01 X12.0224 Y38.0472
G01 X12.0365 Y38.0891
G01 X12.0502 Y38.1388
G01 X12.0597 Y38.1820
G01 X12.0671 Y38.2255
G01 X12.0717 Y38.2630
G01 X12.0750 Y38.3061
G01 X12.0763 Y38.3540
G01 X12.0750 Y38.4019
G01 X12.0716 Y38.4459
G01 X12.0660 Y38.4898
G01 X12.0590 Y38.5298
G01 X12.0502 Y38.5692
G01 X12.0365 Y38.6189
G01 X12.0224 Y38.6608
G01 X12.0092 Y38.6951
G01 X11.9885 Y38.7419
G01 X11.9717 Y38.7751
G01 X11.9501 Y38.8137
G01 X11.9225 Y38.8573
G01 X11.8987 Y38.8910
G01 X11.8743 Y38.9223
G01 X11.8406 Y38.9613
G01 X11.8126 Y38.9906
G01 X11.7833 Y39.0186
G01 X11.7443 Y39.0523
G01 X11.7130 Y39.0767
G01 X11.6793 Y39.1005
G01 X11.6357 Y39.1281
G01 X11.5971 Y39.1497
G01 X11.5639 Y39.1665
G01 X11.5189 Y39.1865
G01 X11.4828 Y39.2004
G01 X11.4409 Y39.2145
G01 X11.3912 Y39.2282
G01 X11.3518 Y39.2370
G01 X11.3045 Y39.2451
G01 X11.2606 Y39.2503
G01 X11.2165 Y39.2534
G01 X11.1760 Y39.2544
G01 X11.1281 Y39.2530
G01 X11.0841 Y39.2496
G01 X11.0402 Y39.2440
G01 X11.0002 Y39.2370
G01 X10.9537 Y39.2264
G01 X10.9111 Y39.2145
G01 X10.8692 Y39.2004
G01 X10.8331 Y39.1865
G01 X10.7881 Y39.1665
G01 X10.7483 Y39.1463
G01 X10.7100 Y39.1243
G01 X10.6727 Y39.1005
G01 X10.6390 Y39.0767
G01 X10.6020 Y39.0476
G01 X10.5687 Y39.0186
G01 X10.5394 Y38.9906
G01 X10.5064 Y38.9559
G01 X10.4818 Y38.9273
G01 X10.4533 Y38.8910
G01 X10.4295 Y38.8573
G01 X10.4053 Y38.8194
G01 X10.3803 Y38.7751
G01 X10.3606 Y38.7356
G01 X10.3435 Y38.6969
G01 X10.3271 Y38.6538
G01 X10.3134 Y38.6118
G01 X10.3018 Y38.5692
G01 X10.2930 Y38.5298
G01 X10.2860 Y38.4898
G01 X10.2804 Y38.4459
G01 X10.2770 Y38.4019
G01 X10.2757 Y38.3540
G01 X10.2770 Y38.3061
G01 X10.2804 Y38.2621
G01 X10.2849 Y38.2255
G01 X10.2930 Y38.1782
G01 X10.3036 Y38.1317
G01 X10.3155 Y38.0891
