(G-CODE GENERATED BY FLATCAM v8.96 - www.flatcam.org - Version Date: 2019/08/23)

(Name: carte-radio-drill)
(Type: G-code from Excellon)
(Units: MM)

(Created on jeudi, 28 novembre 2019 at 21:25)

(Feedrate: 79.9998 mm/min)
(Feedrate rapids 800.0009 mm/min)

(Z_Cut: -3.0 mm)
(Z_Move: 1.999 mm)
(Z Toolchange: 12.7 mm)
(X,Y Toolchange: 0.0000, 0.0000 mm)
(Z Start: None mm)
(Z End: 12.7 mm)
(Steps per circle: 128)
(Postprocessor Excellon: default)

(X range:   -1.1000 ...   60.8520  mm)
(Y range:   -1.1000 ...   48.1520  mm)

(Spindle Speed: None RPM)

G21
G90
G94

G01 F80.00
G00 Z1.9990

M03
G00 X13.7160 Y17.7800
G01 Z-3.0000
G01 Z0
G00 Z1.9990
G00 X11.1760 Y17.7800
G01 Z-3.0000
G01 Z0
G00 Z1.9990
G00 X11.1760 Y21.5900
G01 Z-3.0000
G01 Z0
G00 Z1.9990
G00 X13.7160 Y21.5900
G01 Z-3.0000
G01 Z0
G00 Z1.9990
G00 X16.2560 Y21.5900
G01 Z-3.0000
G01 Z0
G00 Z1.9990
G00 X13.7160 Y26.1620
G01 Z-3.0000
G01 Z0
G00 Z1.9990
G00 X11.1760 Y26.1620
G01 Z-3.0000
G01 Z0
G00 Z1.9990
G00 X11.1760 Y29.9720
G01 Z-3.0000
G01 Z0
G00 Z1.9990
G00 X13.7160 Y29.9720
G01 Z-3.0000
G01 Z0
G00 Z1.9990
G00 X16.2560 Y29.9720
G01 Z-3.0000
G01 Z0
G00 Z1.9990
G00 X13.7160 Y34.5440
G01 Z-3.0000
G01 Z0
G00 Z1.9990
G00 X16.2560 Y38.3540
G01 Z-3.0000
G01 Z0
G00 Z1.9990
G00 X13.7160 Y38.3540
G01 Z-3.0000
G01 Z0
G00 Z1.9990
G00 X11.1760 Y38.3540
G01 Z-3.0000
G01 Z0
G00 Z1.9990
G00 X11.1760 Y34.5440
G01 Z-3.0000
G01 Z0
G00 Z1.9990
G00 X3.5560 Y34.5440
G01 Z-3.0000
G01 Z0
G00 Z1.9990
G00 X3.5560 Y26.1620
G01 Z-3.0000
G01 Z0
G00 Z1.9990
G00 X3.5560 Y17.7800
G01 Z-3.0000
G01 Z0
G00 Z1.9990
G00 X3.5560 Y9.3980
G01 Z-3.0000
G01 Z0
G00 Z1.9990
G00 X11.1760 Y9.3980
G01 Z-3.0000
G01 Z0
G00 Z1.9990
G00 X13.7160 Y9.3980
G01 Z-3.0000
G01 Z0
G00 Z1.9990
G00 X15.7520 Y-0.5080
G01 Z-3.0000
G01 Z0
G00 Z1.9990
G00 X18.2920 Y-0.5080
G01 Z-3.0000
G01 Z0
G00 Z1.9990
G00 X20.8320 Y-0.5080
G01 Z-3.0000
G01 Z0
G00 Z1.9990
G00 X23.3720 Y-0.5080
G01 Z-3.0000
G01 Z0
G00 Z1.9990
G00 X25.9120 Y-0.5080
G01 Z-3.0000
G01 Z0
G00 Z1.9990
G00 X28.4520 Y-0.5080
G01 Z-3.0000
G01 Z0
G00 Z1.9990
G00 X30.9920 Y-0.5080
G01 Z-3.0000
G01 Z0
G00 Z1.9990
G00 X33.5320 Y-0.5080
G01 Z-3.0000
G01 Z0
G00 Z1.9990
G00 X36.0720 Y-0.5080
G01 Z-3.0000
G01 Z0
G00 Z1.9990
G00 X38.6120 Y-0.5080
G01 Z-3.0000
G01 Z0
G00 Z1.9990
G00 X42.6720 Y-0.5080
G01 Z-3.0000
G01 Z0
G00 Z1.9990
G00 X45.2120 Y-0.5080
G01 Z-3.0000
G01 Z0
G00 Z1.9990
G00 X47.7520 Y-0.5080
G01 Z-3.0000
G01 Z0
G00 Z1.9990
G00 X50.2920 Y-0.5080
G01 Z-3.0000
G01 Z0
G00 Z1.9990
G00 X52.8320 Y-0.5080
G01 Z-3.0000
G01 Z0
G00 Z1.9990
G00 X54.3560 Y2.2860
G01 Z-3.0000
G01 Z0
G00 Z1.9990
G00 X55.3720 Y-0.5080
G01 Z-3.0000
G01 Z0
G00 Z1.9990
G00 X57.9120 Y-0.5080
G01 Z-3.0000
G01 Z0
G00 Z1.9990
G00 X60.4520 Y-0.5080
G01 Z-3.0000
G01 Z0
G00 Z1.9990
G00 X60.4520 Y19.8120
G01 Z-3.0000
G01 Z0
G00 Z1.9990
G00 X56.8960 Y22.6060
G01 Z-3.0000
G01 Z0
G00 Z1.9990
G00 X56.8960 Y20.0660
G01 Z-3.0000
G01 Z0
G00 Z1.9990
G00 X56.8960 Y17.5260
G01 Z-3.0000
G01 Z0
G00 Z1.9990
G00 X54.3560 Y17.5260
G01 Z-3.0000
G01 Z0
G00 Z1.9990
G00 X52.0700 Y18.7960
G01 Z-3.0000
G01 Z0
G00 Z1.9990
G00 X52.0700 Y26.4160
G01 Z-3.0000
G01 Z0
G00 Z1.9990
G00 X60.4520 Y27.4320
G01 Z-3.0000
G01 Z0
G00 Z1.9990
G00 X60.4520 Y47.7520
G01 Z-3.0000
G01 Z0
G00 Z1.9990
G00 X57.9120 Y47.7520
G01 Z-3.0000
G01 Z0
G00 Z1.9990
G00 X55.3720 Y47.7520
G01 Z-3.0000
G01 Z0
G00 Z1.9990
G00 X52.8320 Y47.7520
G01 Z-3.0000
G01 Z0
G00 Z1.9990
G00 X50.2920 Y47.7520
G01 Z-3.0000
G01 Z0
G00 Z1.9990
G00 X47.7520 Y47.7520
G01 Z-3.0000
G01 Z0
G00 Z1.9990
G00 X42.6720 Y47.7520
G01 Z-3.0000
G01 Z0
G00 Z1.9990
G00 X40.1320 Y47.7520
G01 Z-3.0000
G01 Z0
G00 Z1.9990
G00 X37.5920 Y47.7520
G01 Z-3.0000
G01 Z0
G00 Z1.9990
G00 X35.0520 Y47.7520
G01 Z-3.0000
G01 Z0
G00 Z1.9990
G00 X32.5120 Y47.7520
G01 Z-3.0000
G01 Z0
G00 Z1.9990
G00 X29.9720 Y47.7520
G01 Z-3.0000
G01 Z0
G00 Z1.9990
G00 X27.4320 Y47.7520
G01 Z-3.0000
G01 Z0
G00 Z1.9990
G00 X24.8920 Y47.7520
G01 Z-3.0000
G01 Z0
G00 Z1.9990
G00 X21.3360 Y34.5440
G01 Z-3.0000
G01 Z0
G00 Z1.9990
G00 X27.4320 Y31.4960
G01 Z-3.0000
G01 Z0
G00 Z1.9990
G00 X21.3360 Y26.1620
G01 Z-3.0000
G01 Z0
G00 Z1.9990
G00 X27.4320 Y18.7960
G01 Z-3.0000
G01 Z0
G00 Z1.9990
G00 X21.3360 Y17.7800
G01 Z-3.0000
G01 Z0
G00 Z1.9990
G00 X21.3360 Y9.3980
G01 Z-3.0000
G01 Z0
G00 Z1.9990
G00 X16.2560 Y13.2080
G01 Z-3.0000
G01 Z0
G00 Z1.9990
G00 X13.7160 Y13.2080
G01 Z-3.0000
G01 Z0
G00 Z1.9990
G00 X11.1760 Y13.2080
G01 Z-3.0000
G01 Z0
G00 Z1.9990
M03
G00 X0.0000 Y0.0000
G01 Z-3.0000
G01 Z0
G00 Z1.9990
M05
G00 Z12.70
G00 X0.0 Y0.0

M02