(G-CODE GENERATED BY FLATCAM v8.96 - www.flatcam.org - Version Date: 2019/08/23)

(Name: cutout.Cu)
(Type: G-code from Geometry)
(Units: MM)

(Created on mercredi, 11 décembre 2019 at 20:34)

(TOOL DIAMETER: 1.6 mm)
(Feedrate: 79.9998 mm/min)
(Feedrate_Z: 79.9998 mm/min)
(Feedrate rapids 79.9998 mm/min)

(Z_Cut: -2.4003 mm)
(DepthPerCut: 0.5 mm <=>5 passes)
(Z_Move: 1.999 mm)
(Z Toolchange: 12.7 mm)
(X,Y Toolchange: 0.0000, 0.0000 mm)
(Z Start: None mm)
(Z End: 12.7 mm)
(Steps per circle: 128)
(Postprocessor Geometry: default)

(X range:   -3.6182 ...   63.5622  mm)
(Y range:   -3.6182 ...   50.8622  mm)

(Spindle Speed: None RPM)

G21
G90
G94

G01 F80.00
G00 Z1.9990

M03
G00 X-3.6182 Y21.9211
G01 F80.00
G01 Z-0.5000
G01 F80.00
G01 X-3.6182 Y-2.7191
G01 X-3.6138 Y-2.8072
G01 X-3.6009 Y-2.8945
G01 X-3.5794 Y-2.9801
G01 X-3.5497 Y-3.0631
G01 X-3.5120 Y-3.1429
G01 X-3.4666 Y-3.2186
G01 X-3.4141 Y-3.2894
G01 X-3.3548 Y-3.3548
G01 X-3.2894 Y-3.4141
G01 X-3.2186 Y-3.4666
G01 X-3.1429 Y-3.5120
G01 X-3.0631 Y-3.5497
G01 X-2.9801 Y-3.5794
G01 X-2.8945 Y-3.6009
G01 X-2.8072 Y-3.6138
G01 X-2.7191 Y-3.6182
G01 X62.6631 Y-3.6182
G00 X62.6631 Y-3.6182
G01 F80.00
G01 Z-1.0000
G01 F80.00
G01 X-2.7191 Y-3.6182
G01 X-2.8072 Y-3.6138
G01 X-2.8945 Y-3.6009
G01 X-2.9801 Y-3.5794
G01 X-3.0631 Y-3.5497
G01 X-3.1429 Y-3.5120
G01 X-3.2186 Y-3.4666
G01 X-3.2894 Y-3.4141
G01 X-3.3548 Y-3.3548
G01 X-3.4141 Y-3.2894
G01 X-3.4666 Y-3.2186
G01 X-3.5120 Y-3.1429
G01 X-3.5497 Y-3.0631
G01 X-3.5794 Y-2.9801
G01 X-3.6009 Y-2.8945
G01 X-3.6138 Y-2.8072
G01 X-3.6182 Y-2.7191
G01 X-3.6182 Y21.9211
G00 X-3.6182 Y21.9211
G01 F80.00
G01 Z-1.5000
G01 F80.00
G01 X-3.6182 Y-2.7191
G01 X-3.6138 Y-2.8072
G01 X-3.6009 Y-2.8945
G01 X-3.5794 Y-2.9801
G01 X-3.5497 Y-3.0631
G01 X-3.5120 Y-3.1429
G01 X-3.4666 Y-3.2186
G01 X-3.4141 Y-3.2894
G01 X-3.3548 Y-3.3548
G01 X-3.2894 Y-3.4141
G01 X-3.2186 Y-3.4666
G01 X-3.1429 Y-3.5120
G01 X-3.0631 Y-3.5497
G01 X-2.9801 Y-3.5794
G01 X-2.8945 Y-3.6009
G01 X-2.8072 Y-3.6138
G01 X-2.7191 Y-3.6182
G01 X62.6631 Y-3.6182
G00 X62.6631 Y-3.6182
G01 F80.00
G01 Z-2.0000
G01 F80.00
G01 X-2.7191 Y-3.6182
G01 X-2.8072 Y-3.6138
G01 X-2.8945 Y-3.6009
G01 X-2.9801 Y-3.5794
G01 X-3.0631 Y-3.5497
G01 X-3.1429 Y-3.5120
G01 X-3.2186 Y-3.4666
G01 X-3.2894 Y-3.4141
G01 X-3.3548 Y-3.3548
G01 X-3.4141 Y-3.2894
G01 X-3.4666 Y-3.2186
G01 X-3.5120 Y-3.1429
G01 X-3.5497 Y-3.0631
G01 X-3.5794 Y-2.9801
G01 X-3.6009 Y-2.8945
G01 X-3.6138 Y-2.8072
G01 X-3.6182 Y-2.7191
G01 X-3.6182 Y21.9211
G00 X-3.6182 Y21.9211
G01 F80.00
G01 Z-2.4003
G01 F80.00
G01 X-3.6182 Y-2.7191
G01 X-3.6138 Y-2.8072
G01 X-3.6009 Y-2.8945
G01 X-3.5794 Y-2.9801
G01 X-3.5497 Y-3.0631
G01 X-3.5120 Y-3.1429
G01 X-3.4666 Y-3.2186
G01 X-3.4141 Y-3.2894
G01 X-3.3548 Y-3.3548
G01 X-3.2894 Y-3.4141
G01 X-3.2186 Y-3.4666
G01 X-3.1429 Y-3.5120
G01 X-3.0631 Y-3.5497
G01 X-2.9801 Y-3.5794
G01 X-2.8945 Y-3.6009
G01 X-2.8072 Y-3.6138
G01 X-2.7191 Y-3.6182
G01 X62.6631 Y-3.6182
G00 Z1.9990
G00 X62.6631 Y-3.6182
G01 F80.00
G01 Z-0.5000
G01 F80.00
G01 X62.7512 Y-3.6138
G01 X62.8385 Y-3.6009
G01 X62.9241 Y-3.5794
G01 X63.0071 Y-3.5497
G01 X63.0869 Y-3.5120
G01 X63.1626 Y-3.4666
G01 X63.2334 Y-3.4141
G01 X63.2988 Y-3.3548
G01 X63.3581 Y-3.2894
G01 X63.4106 Y-3.2186
G01 X63.4560 Y-3.1429
G01 X63.4937 Y-3.0631
G01 X63.5234 Y-2.9801
G01 X63.5449 Y-2.8945
G01 X63.5578 Y-2.8072
G01 X63.5622 Y-2.7191
G01 X63.5622 Y21.9211
G00 X63.5622 Y21.9211
G01 F80.00
G01 Z-1.0000
G01 F80.00
G01 X63.5622 Y-2.7191
G01 X63.5578 Y-2.8072
G01 X63.5449 Y-2.8945
G01 X63.5234 Y-2.9801
G01 X63.4937 Y-3.0631
G01 X63.4560 Y-3.1429
G01 X63.4106 Y-3.2186
G01 X63.3581 Y-3.2894
G01 X63.2988 Y-3.3548
G01 X63.2334 Y-3.4141
G01 X63.1626 Y-3.4666
G01 X63.0869 Y-3.5120
G01 X63.0071 Y-3.5497
G01 X62.9241 Y-3.5794
G01 X62.8385 Y-3.6009
G01 X62.7512 Y-3.6138
G01 X62.6631 Y-3.6182
G00 X62.6631 Y-3.6182
G01 F80.00
G01 Z-1.5000
G01 F80.00
G01 X62.7512 Y-3.6138
G01 X62.8385 Y-3.6009
G01 X62.9241 Y-3.5794
G01 X63.0071 Y-3.5497
G01 X63.0869 Y-3.5120
G01 X63.1626 Y-3.4666
G01 X63.2334 Y-3.4141
G01 X63.2988 Y-3.3548
G01 X63.3581 Y-3.2894
G01 X63.4106 Y-3.2186
G01 X63.4560 Y-3.1429
G01 X63.4937 Y-3.0631
G01 X63.5234 Y-2.9801
G01 X63.5449 Y-2.8945
G01 X63.5578 Y-2.8072
G01 X63.5622 Y-2.7191
G01 X63.5622 Y21.9211
G00 X63.5622 Y21.9211
G01 F80.00
G01 Z-2.0000
G01 F80.00
G01 X63.5622 Y-2.7191
G01 X63.5578 Y-2.8072
G01 X63.5449 Y-2.8945
G01 X63.5234 Y-2.9801
G01 X63.4937 Y-3.0631
G01 X63.4560 Y-3.1429
G01 X63.4106 Y-3.2186
G01 X63.3581 Y-3.2894
G01 X63.2988 Y-3.3548
G01 X63.2334 Y-3.4141
G01 X63.1626 Y-3.4666
G01 X63.0869 Y-3.5120
G01 X63.0071 Y-3.5497
G01 X62.9241 Y-3.5794
G01 X62.8385 Y-3.6009
G01 X62.7512 Y-3.6138
G01 X62.6631 Y-3.6182
G00 X62.6631 Y-3.6182
G01 F80.00
G01 Z-2.4003
G01 F80.00
G01 X62.7512 Y-3.6138
G01 X62.8385 Y-3.6009
G01 X62.9241 Y-3.5794
G01 X63.0071 Y-3.5497
G01 X63.0869 Y-3.5120
G01 X63.1626 Y-3.4666
G01 X63.2334 Y-3.4141
G01 X63.2988 Y-3.3548
G01 X63.3581 Y-3.2894
G01 X63.4106 Y-3.2186
G01 X63.4560 Y-3.1429
G01 X63.4937 Y-3.0631
G01 X63.5234 Y-2.9801
G01 X63.5449 Y-2.8945
G01 X63.5578 Y-2.8072
G01 X63.5622 Y-2.7191
G01 X63.5622 Y21.9211
G00 Z1.9990
G00 X63.5622 Y25.5211
G01 F80.00
G01 Z-0.5000
G01 F80.00
G01 X63.5622 Y49.9631
G01 X63.5578 Y50.0512
G01 X63.5449 Y50.1385
G01 X63.5234 Y50.2241
G01 X63.4937 Y50.3071
G01 X63.4560 Y50.3869
G01 X63.4106 Y50.4626
G01 X63.3581 Y50.5334
G01 X63.2988 Y50.5988
G01 X63.2334 Y50.6581
G01 X63.1626 Y50.7106
G01 X63.0869 Y50.7560
G01 X63.0071 Y50.7937
G01 X62.9241 Y50.8234
G01 X62.8385 Y50.8449
G01 X62.7512 Y50.8578
G01 X62.6631 Y50.8622
G01 X-2.7191 Y50.8622
G01 X-2.8072 Y50.8578
G01 X-2.8945 Y50.8449
G01 X-2.9801 Y50.8234
G01 X-3.0631 Y50.7937
G01 X-3.1429 Y50.7560
G01 X-3.2186 Y50.7106
G01 X-3.2894 Y50.6581
G01 X-3.3548 Y50.5988
G01 X-3.4141 Y50.5334
G01 X-3.4666 Y50.4626
G01 X-3.5120 Y50.3869
G01 X-3.5497 Y50.3071
G01 X-3.5794 Y50.2241
G01 X-3.6009 Y50.1385
G01 X-3.6138 Y50.0512
G01 X-3.6182 Y49.9631
G01 X-3.6182 Y25.5211
G00 X-3.6182 Y25.5211
G01 F80.00
G01 Z-1.0000
G01 F80.00
G01 X-3.6182 Y49.9631
G01 X-3.6138 Y50.0512
G01 X-3.6009 Y50.1385
G01 X-3.5794 Y50.2241
G01 X-3.5497 Y50.3071
G01 X-3.5120 Y50.3869
G01 X-3.4666 Y50.4626
G01 X-3.4141 Y50.5334
G01 X-3.3548 Y50.5988
G01 X-3.2894 Y50.6581
G01 X-3.2186 Y50.7106
G01 X-3.1429 Y50.7560
G01 X-3.0631 Y50.7937
G01 X-2.9801 Y50.8234
G01 X-2.8945 Y50.8449
G01 X-2.8072 Y50.8578
G01 X-2.7191 Y50.8622
G01 X62.6631 Y50.8622
G01 X62.7512 Y50.8578
G01 X62.8385 Y50.8449
G01 X62.9241 Y50.8234
G01 X63.0071 Y50.7937
G01 X63.0869 Y50.7560
G01 X63.1626 Y50.7106
G01 X63.2334 Y50.6581
G01 X63.2988 Y50.5988
G01 X63.3581 Y50.5334
G01 X63.4106 Y50.4626
G01 X63.4560 Y50.3869
G01 X63.4937 Y50.3071
G01 X63.5234 Y50.2241
G01 X63.5449 Y50.1385
G01 X63.5578 Y50.0512
G01 X63.5622 Y49.9631
G01 X63.5622 Y25.5211
G00 X63.5622 Y25.5211
G01 F80.00
G01 Z-1.5000
G01 F80.00
G01 X63.5622 Y49.9631
G01 X63.5578 Y50.0512
G01 X63.5449 Y50.1385
G01 X63.5234 Y50.2241
G01 X63.4937 Y50.3071
G01 X63.4560 Y50.3869
G01 X63.4106 Y50.4626
G01 X63.3581 Y50.5334
G01 X63.2988 Y50.5988
G01 X63.2334 Y50.6581
G01 X63.1626 Y50.7106
G01 X63.0869 Y50.7560
G01 X63.0071 Y50.7937
G01 X62.9241 Y50.8234
G01 X62.8385 Y50.8449
G01 X62.7512 Y50.8578
G01 X62.6631 Y50.8622
G01 X-2.7191 Y50.8622
G01 X-2.8072 Y50.8578
G01 X-2.8945 Y50.8449
G01 X-2.9801 Y50.8234
G01 X-3.0631 Y50.7937
G01 X-3.1429 Y50.7560
G01 X-3.2186 Y50.7106
G01 X-3.2894 Y50.6581
G01 X-3.3548 Y50.5988
G01 X-3.4141 Y50.5334
G01 X-3.4666 Y50.4626
G01 X-3.5120 Y50.3869
G01 X-3.5497 Y50.3071
G01 X-3.5794 Y50.2241
G01 X-3.6009 Y50.1385
G01 X-3.6138 Y50.0512
G01 X-3.6182 Y49.9631
G01 X-3.6182 Y25.5211
G00 X-3.6182 Y25.5211
G01 F80.00
G01 Z-2.0000
G01 F80.00
G01 X-3.6182 Y49.9631
G01 X-3.6138 Y50.0512
G01 X-3.6009 Y50.1385
G01 X-3.5794 Y50.2241
G01 X-3.5497 Y50.3071
G01 X-3.5120 Y50.3869
G01 X-3.4666 Y50.4626
G01 X-3.4141 Y50.5334
G01 X-3.3548 Y50.5988
G01 X-3.2894 Y50.6581
G01 X-3.2186 Y50.7106
G01 X-3.1429 Y50.7560
G01 X-3.0631 Y50.7937
G01 X-2.9801 Y50.8234
G01 X-2.8945 Y50.8449
G01 X-2.8072 Y50.8578
G01 X-2.7191 Y50.8622
G01 X62.6631 Y50.8622
G01 X62.7512 Y50.8578
G01 X62.8385 Y50.8449
G01 X62.9241 Y50.8234
G01 X63.0071 Y50.7937
G01 X63.0869 Y50.7560
G01 X63.1626 Y50.7106
G01 X63.2334 Y50.6581
G01 X63.2988 Y50.5988
G01 X63.3581 Y50.5334
G01 X63.4106 Y50.4626
G01 X63.4560 Y50.3869
G01 X63.4937 Y50.3071
G01 X63.5234 Y50.2241
G01 X63.5449 Y50.1385
G01 X63.5578 Y50.0512
G01 X63.5622 Y49.9631
G01 X63.5622 Y25.5211
G00 X63.5622 Y25.5211
G01 F80.00
G01 Z-2.4003
G01 F80.00
G01 X63.5622 Y49.9631
G01 X63.5578 Y50.0512
G01 X63.5449 Y50.1385
G01 X63.5234 Y50.2241
G01 X63.4937 Y50.3071
G01 X63.4560 Y50.3869
G01 X63.4106 Y50.4626
G01 X63.3581 Y50.5334
G01 X63.2988 Y50.5988
G01 X63.2334 Y50.6581
G01 X63.1626 Y50.7106
G01 X63.0869 Y50.7560
G01 X63.0071 Y50.7937
G01 X62.9241 Y50.8234
G01 X62.8385 Y50.8449
G01 X62.7512 Y50.8578
G01 X62.6631 Y50.8622
G01 X-2.7191 Y50.8622
G01 X-2.8072 Y50.8578
G01 X-2.8945 Y50.8449
G01 X-2.9801 Y50.8234
G01 X-3.0631 Y50.7937
G01 X-3.1429 Y50.7560
G01 X-3.2186 Y50.7106
G01 X-3.2894 Y50.6581
G01 X-3.3548 Y50.5988
G01 X-3.4141 Y50.5334
G01 X-3.4666 Y50.4626
G01 X-3.5120 Y50.3869
G01 X-3.5497 Y50.3071
G01 X-3.5794 Y50.2241
G01 X-3.6009 Y50.1385
G01 X-3.6138 Y50.0512
G01 X-3.6182 Y49.9631
G01 X-3.6182 Y25.5211
G00 Z1.9990
M05
G00 Z1.9990
G00 Z12.70
G00 X0.0 Y0.0

M02