(Exported by FreeCAD)
(Post Processor: grbl_post)
(Output Time:2020-10-27 15:37:10.472903)
(begin preamble)
G17 G90
G21
(begin operation: Default Tool)
(Path: Default Tool)
(Default Tool)
(begin toolchange)
; M6 T1
M3 S800.0000
(finish operation: Default Tool)
(begin operation: Pocket_Shape)
(Path: Pocket_Shape)
(Pocket_Shape)
G0 Z5.0000
G0 X0.5616 Y8.0616
G0 Z3.0000
G1 X0.5616 Y8.0616 Z-1.0000 F180.00
G2 X0.6603 Y7.0588 Z-1.0000 I-0.5616 J-0.5616 F180.00
G2 X-0.4412 Y6.8397 Z-1.0000 I-0.6603 J0.4412 F180.00
G2 X-0.6603 Y7.9412 Z-1.0000 I0.4412 J0.6603 F180.00
G2 X0.5616 Y8.0616 Z-1.0000 I0.6603 J-0.4412 F180.00
G1 X0.5616 Y8.0616 Z-2.0000 F180.00
G2 X0.6603 Y7.0588 Z-2.0000 I-0.5616 J-0.5616 F180.00
G2 X-0.4412 Y6.8397 Z-2.0000 I-0.6603 J0.4412 F180.00
G2 X-0.6603 Y7.9412 Z-2.0000 I0.4412 J0.6603 F180.00
G2 X0.5616 Y8.0616 Z-2.0000 I0.6603 J-0.4412 F180.00
G1 X0.5616 Y8.0616 Z-3.0000 F180.00
G2 X0.6603 Y7.0588 Z-3.0000 I-0.5616 J-0.5616 F180.00
G2 X-0.4412 Y6.8397 Z-3.0000 I-0.6603 J0.4412 F180.00
G2 X-0.6603 Y7.9412 Z-3.0000 I0.4412 J0.6603 F180.00
G2 X0.5616 Y8.0616 Z-3.0000 I0.6603 J-0.4412 F180.00
G1 X0.5616 Y8.0616 Z-4.0000 F180.00
G2 X0.6603 Y7.0588 Z-4.0000 I-0.5616 J-0.5616 F180.00
G2 X-0.4412 Y6.8397 Z-4.0000 I-0.6603 J0.4412 F180.00
G2 X-0.6603 Y7.9412 Z-4.0000 I0.4412 J0.6603 F180.00
G2 X0.5616 Y8.0616 Z-4.0000 I0.6603 J-0.4412 F180.00
G1 X0.5616 Y8.0616 Z-5.0000 F180.00
G2 X0.6603 Y7.0588 Z-5.0000 I-0.5616 J-0.5616 F180.00
G2 X-0.4412 Y6.8397 Z-5.0000 I-0.6603 J0.4412 F180.00
G2 X-0.6603 Y7.9412 Z-5.0000 I0.4412 J0.6603 F180.00
G2 X0.5616 Y8.0616 Z-5.0000 I0.6603 J-0.4412 F180.00
G1 X0.5616 Y8.0616 Z-6.0000 F180.00
G2 X0.6603 Y7.0588 Z-6.0000 I-0.5616 J-0.5616 F180.00
G2 X-0.4412 Y6.8397 Z-6.0000 I-0.6603 J0.4412 F180.00
G2 X-0.6603 Y7.9412 Z-6.0000 I0.4412 J0.6603 F180.00
G2 X0.5616 Y8.0616 Z-6.0000 I0.6603 J-0.4412 F180.00
G1 X0.5616 Y8.0616 Z-7.0000 F180.00
G2 X0.6603 Y7.0588 Z-7.0000 I-0.5616 J-0.5616 F180.00
G2 X-0.4412 Y6.8397 Z-7.0000 I-0.6603 J0.4412 F180.00
G2 X-0.6603 Y7.9412 Z-7.0000 I0.4412 J0.6603 F180.00
G2 X0.5616 Y8.0616 Z-7.0000 I0.6603 J-0.4412 F180.00
G1 X0.5616 Y8.0616 Z-8.0000 F180.00
G2 X0.6603 Y7.0588 Z-8.0000 I-0.5616 J-0.5616 F180.00
G2 X-0.4412 Y6.8397 Z-8.0000 I-0.6603 J0.4412 F180.00
G2 X-0.6603 Y7.9412 Z-8.0000 I0.4412 J0.6603 F180.00
G2 X0.5616 Y8.0616 Z-8.0000 I0.6603 J-0.4412 F180.00
G1 X0.5616 Y8.0616 Z-9.0000 F180.00
G2 X0.6603 Y7.0588 Z-9.0000 I-0.5616 J-0.5616 F180.00
G2 X-0.4412 Y6.8397 Z-9.0000 I-0.6603 J0.4412 F180.00
G2 X-0.6603 Y7.9412 Z-9.0000 I0.4412 J0.6603 F180.00
G2 X0.5616 Y8.0616 Z-9.0000 I0.6603 J-0.4412 F180.00
G1 X0.5616 Y8.0616 Z-10.0000 F180.00
G2 X0.6603 Y7.0588 Z-10.0000 I-0.5616 J-0.5616 F180.00
G2 X-0.4412 Y6.8397 Z-10.0000 I-0.6603 J0.4412 F180.00
G2 X-0.6603 Y7.9412 Z-10.0000 I0.4412 J0.6603 F180.00
G2 X0.5616 Y8.0616 Z-10.0000 I0.6603 J-0.4412 F180.00
G1 X0.5616 Y8.0616 Z-11.0000 F180.00
G2 X0.6603 Y7.0588 Z-11.0000 I-0.5616 J-0.5616 F180.00
G2 X-0.4412 Y6.8397 Z-11.0000 I-0.6603 J0.4412 F180.00
G2 X-0.6603 Y7.9412 Z-11.0000 I0.4412 J0.6603 F180.00
G2 X0.5616 Y8.0616 Z-11.0000 I0.6603 J-0.4412 F180.00
G0 Z5.0000
G0 X0.5616 Y-6.9384
G0 Z3.0000
G1 X0.5616 Y-6.9384 Z-1.0000 F180.00
G2 X-0.4412 Y-8.1603 Z-1.0000 I-0.5616 J-0.5616 F180.00
G2 X0.4412 Y-6.8397 Z-1.0000 I0.4412 J0.6603 F180.00
G2 X0.5616 Y-6.9384 Z-1.0000 I-0.4412 J-0.6603 F180.00
G1 X0.5616 Y-6.9384 Z-2.0000 F180.00
G2 X-0.4412 Y-8.1603 Z-2.0000 I-0.5616 J-0.5616 F180.00
G2 X0.4412 Y-6.8397 Z-2.0000 I0.4412 J0.6603 F180.00
G2 X0.5616 Y-6.9384 Z-2.0000 I-0.4412 J-0.6603 F180.00
G1 X0.5616 Y-6.9384 Z-3.0000 F180.00
G2 X-0.4412 Y-8.1603 Z-3.0000 I-0.5616 J-0.5616 F180.00
G2 X0.4412 Y-6.8397 Z-3.0000 I0.4412 J0.6603 F180.00
G2 X0.5616 Y-6.9384 Z-3.0000 I-0.4412 J-0.6603 F180.00
G1 X0.5616 Y-6.9384 Z-4.0000 F180.00
G2 X-0.4412 Y-8.1603 Z-4.0000 I-0.5616 J-0.5616 F180.00
G2 X0.4412 Y-6.8397 Z-4.0000 I0.4412 J0.6603 F180.00
G2 X0.5616 Y-6.9384 Z-4.0000 I-0.4412 J-0.6603 F180.00
G1 X0.5616 Y-6.9384 Z-5.0000 F180.00
G2 X-0.4412 Y-8.1603 Z-5.0000 I-0.5616 J-0.5616 F180.00
G2 X0.4412 Y-6.8397 Z-5.0000 I0.4412 J0.6603 F180.00
G2 X0.5616 Y-6.9384 Z-5.0000 I-0.4412 J-0.6603 F180.00
G1 X0.5616 Y-6.9384 Z-6.0000 F180.00
G2 X-0.4412 Y-8.1603 Z-6.0000 I-0.5616 J-0.5616 F180.00
G2 X0.4412 Y-6.8397 Z-6.0000 I0.4412 J0.6603 F180.00
G2 X0.5616 Y-6.9384 Z-6.0000 I-0.4412 J-0.6603 F180.00
G1 X0.5616 Y-6.9384 Z-7.0000 F180.00
G2 X-0.4412 Y-8.1603 Z-7.0000 I-0.5616 J-0.5616 F180.00
G2 X0.4412 Y-6.8397 Z-7.0000 I0.4412 J0.6603 F180.00
G2 X0.5616 Y-6.9384 Z-7.0000 I-0.4412 J-0.6603 F180.00
G1 X0.5616 Y-6.9384 Z-8.0000 F180.00
G2 X-0.4412 Y-8.1603 Z-8.0000 I-0.5616 J-0.5616 F180.00
G2 X0.4412 Y-6.8397 Z-8.0000 I0.4412 J0.6603 F180.00
G2 X0.5616 Y-6.9384 Z-8.0000 I-0.4412 J-0.6603 F180.00
G1 X0.5616 Y-6.9384 Z-9.0000 F180.00
G2 X-0.4412 Y-8.1603 Z-9.0000 I-0.5616 J-0.5616 F180.00
G2 X0.4412 Y-6.8397 Z-9.0000 I0.4412 J0.6603 F180.00
G2 X0.5616 Y-6.9384 Z-9.0000 I-0.4412 J-0.6603 F180.00
G1 X0.5616 Y-6.9384 Z-10.0000 F180.00
G2 X-0.4412 Y-8.1603 Z-10.0000 I-0.5616 J-0.5616 F180.00
G2 X0.4412 Y-6.8397 Z-10.0000 I0.4412 J0.6603 F180.00
G2 X0.5616 Y-6.9384 Z-10.0000 I-0.4412 J-0.6603 F180.00
G1 X0.5616 Y-6.9384 Z-11.0000 F180.00
G2 X-0.4412 Y-8.1603 Z-11.0000 I-0.5616 J-0.5616 F180.00
G2 X0.4412 Y-6.8397 Z-11.0000 I0.4412 J0.6603 F180.00
G2 X0.5616 Y-6.9384 Z-11.0000 I-0.4412 J-0.6603 F180.00
G0 Z5.0000
(finish operation: Pocket_Shape)
(begin operation: TagDressup)
(Path: TagDressup)
G0 Z5.0000
G0 X76.4545 Y11.4552 Z5.0000
G0 X76.4545 Y11.4552 Z3.0000
G1 X76.4545 Y11.4552 Z-0.5000 F180.00
G2 X65.0428 Y-16.1992 Z-0.5000 I-11.4549 J-11.4549 F180.00
G1 X0.0000 Y-16.2000 Z-0.5000 F180.00
G2 X-0.0428 Y16.1992 Z-0.5000 I0.0004 J16.1996 F180.00
G1 X65.0000 Y16.2000 Z-0.5000 F180.00
G2 X76.4545 Y11.4552 Z-0.5000 I-0.0004 J-16.1996 F180.00
G1 X76.4545 Y11.4552 Z-1.0000 F180.00
G2 X65.0428 Y-16.1992 Z-1.0000 I-11.4549 J-11.4549 F180.00
G1 X0.0000 Y-16.2000 Z-1.0000 F180.00
G2 X-0.0428 Y16.1992 Z-1.0000 I0.0004 J16.1996 F180.00
G1 X65.0000 Y16.2000 Z-1.0000 F180.00
G2 X76.4545 Y11.4552 Z-1.0000 I-0.0004 J-16.1996 F180.00
G1 X76.4545 Y11.4552 Z-1.5000 F180.00
G2 X65.0428 Y-16.1992 Z-1.5000 I-11.4549 J-11.4549 F180.00
G1 X0.0000 Y-16.2000 Z-1.5000 F180.00
G2 X-0.0428 Y16.1992 Z-1.5000 I0.0004 J16.1996 F180.00
G1 X65.0000 Y16.2000 Z-1.5000 F180.00
G2 X76.4545 Y11.4552 Z-1.5000 I-0.0004 J-16.1996 F180.00
G1 X76.4545 Y11.4552 Z-2.0000 F180.00
G2 X65.0428 Y-16.1992 Z-2.0000 I-11.4549 J-11.4549 F180.00
G1 X0.0000 Y-16.2000 Z-2.0000 F180.00
G2 X-0.0428 Y16.1992 Z-2.0000 I0.0004 J16.1996 F180.00
G1 X65.0000 Y16.2000 Z-2.0000 F180.00
G2 X76.4545 Y11.4552 Z-2.0000 I-0.0004 J-16.1996 F180.00
G1 X76.4545 Y11.4552 Z-2.5000 F180.00
G2 X65.0428 Y-16.1992 Z-2.5000 I-11.4549 J-11.4549 F180.00
G1 X0.0000 Y-16.2000 Z-2.5000 F180.00
G2 X-0.0428 Y16.1992 Z-2.5000 I0.0004 J16.1996 F180.00
G1 X65.0000 Y16.2000 Z-2.5000 F180.00
G2 X76.4545 Y11.4552 Z-2.5000 I-0.0004 J-16.1996 F180.00
G1 X76.4545 Y11.4552 Z-3.0000 F180.00
G2 X65.0428 Y-16.1992 Z-3.0000 I-11.4549 J-11.4549 F180.00
G1 X0.0000 Y-16.2000 Z-3.0000 F180.00
G2 X-0.0428 Y16.1992 Z-3.0000 I0.0004 J16.1996 F180.00
G1 X65.0000 Y16.2000 Z-3.0000 F180.00
G2 X76.4545 Y11.4552 Z-3.0000 I-0.0004 J-16.1996 F180.00
G1 X76.4545 Y11.4552 Z-3.5000 F180.00
G2 X65.0428 Y-16.1992 Z-3.5000 I-11.4549 J-11.4549 F180.00
G1 X0.0000 Y-16.2000 Z-3.5000 F180.00
G2 X-0.0428 Y16.1992 Z-3.5000 I0.0004 J16.1996 F180.00
G1 X65.0000 Y16.2000 Z-3.5000 F180.00
G2 X76.4545 Y11.4552 Z-3.5000 I-0.0004 J-16.1996 F180.00
G1 X76.4545 Y11.4552 Z-4.0000 F180.00
G2 X65.0428 Y-16.1992 Z-4.0000 I-11.4549 J-11.4549 F180.00
G1 X0.0000 Y-16.2000 Z-4.0000 F180.00
G2 X-0.0428 Y16.1992 Z-4.0000 I0.0004 J16.1996 F180.00
G1 X65.0000 Y16.2000 Z-4.0000 F180.00
G2 X76.4545 Y11.4552 Z-4.0000 I-0.0004 J-16.1996 F180.00
G1 X76.4545 Y11.4552 Z-4.5000 F180.00
G2 X65.0428 Y-16.1992 Z-4.5000 I-11.4549 J-11.4549 F180.00
G1 X0.0000 Y-16.2000 Z-4.5000 F180.00
G2 X-0.0428 Y16.1992 Z-4.5000 I0.0004 J16.1996 F180.00
G1 X65.0000 Y16.2000 Z-4.5000 F180.00
G2 X76.4545 Y11.4552 Z-4.5000 I-0.0004 J-16.1996 F180.00
G1 X76.4545 Y11.4552 Z-5.0000 F180.00
G2 X65.0428 Y-16.1992 Z-5.0000 I-11.4549 J-11.4549 F180.00
G1 X0.0000 Y-16.2000 Z-5.0000 F180.00
G2 X-0.0428 Y16.1992 Z-5.0000 I0.0004 J16.1996 F180.00
G1 X65.0000 Y16.2000 Z-5.0000 F180.00
G2 X76.4545 Y11.4552 Z-5.0000 I-0.0004 J-16.1996 F180.00
G1 X76.4545 Y11.4552 Z-5.5000 F180.00
G2 X65.0428 Y-16.1992 Z-5.5000 I-11.4549 J-11.4549 F180.00
G1 X0.0000 Y-16.2000 Z-5.5000 F180.00
G2 X-0.0428 Y16.1992 Z-5.5000 I0.0004 J16.1996 F180.00
G1 X65.0000 Y16.2000 Z-5.5000 F180.00
G2 X76.4545 Y11.4552 Z-5.5000 I-0.0004 J-16.1996 F180.00
G1 X76.4545 Y11.4552 Z-6.0000 F180.00
G2 X65.0428 Y-16.1992 Z-6.0000 I-11.4549 J-11.4549 F180.00
G1 X0.0000 Y-16.2000 Z-6.0000 F180.00
G2 X-0.0428 Y16.1992 Z-6.0000 I0.0004 J16.1996 F180.00
G1 X65.0000 Y16.2000 Z-6.0000 F180.00
G2 X76.4545 Y11.4552 Z-6.0000 I-0.0004 J-16.1996 F180.00
G1 X76.4545 Y11.4552 Z-6.5000 F180.00
G2 X65.0428 Y-16.1992 Z-6.5000 I-11.4549 J-11.4549 F180.00
G1 X0.0000 Y-16.2000 Z-6.5000 F180.00
G2 X-0.0428 Y16.1992 Z-6.5000 I0.0004 J16.1996 F180.00
G1 X65.0000 Y16.2000 Z-6.5000 F180.00
G2 X76.4545 Y11.4552 Z-6.5000 I-0.0004 J-16.1996 F180.00
G1 X76.4545 Y11.4552 Z-7.0000 F180.00
G2 X65.0428 Y-16.1992 Z-7.0000 I-11.4549 J-11.4549 F180.00
G1 X0.0000 Y-16.2000 Z-7.0000 F180.00
G2 X-0.0428 Y16.1992 Z-7.0000 I0.0004 J16.1996 F180.00
G1 X65.0000 Y16.2000 Z-7.0000 F180.00
G2 X76.4545 Y11.4552 Z-7.0000 I-0.0004 J-16.1996 F180.00
G1 X76.4545 Y11.4552 Z-7.5000 F180.00
G2 X65.0428 Y-16.1992 Z-7.5000 I-11.4549 J-11.4549 F180.00
G1 X0.0000 Y-16.2000 Z-7.5000 F180.00
G2 X-0.0428 Y16.1992 Z-7.5000 I0.0004 J16.1996 F180.00
G1 X65.0000 Y16.2000 Z-7.5000 F180.00
G2 X76.4545 Y11.4552 Z-7.5000 I-0.0004 J-16.1996 F180.00
G1 X76.4545 Y11.4552 Z-8.0000 F180.00
G2 X65.0428 Y-16.1992 Z-8.0000 I-11.4549 J-11.4549 F180.00
G1 X49.2273 Y-16.1994 Z-8.0000 F180.00
G1 X48.7821 Y-16.1994 Z-7.5503 F180.00
G1 X48.3369 Y-16.1994 Z-8.0000 F180.00
G1 X16.7059 Y-16.1998 Z-8.0000 F180.00
G1 X16.2607 Y-16.1998 Z-7.5503 F180.00
G1 X15.8155 Y-16.1998 Z-8.0000 F180.00
G1 X0.0000 Y-16.2000 Z-8.0000 F180.00
G2 X-0.0428 Y16.1992 Z-8.0000 I0.0004 J16.1996 F180.00
G1 X15.7727 Y16.1994 Z-8.0000 F180.00
G1 X16.2179 Y16.1994 Z-7.5503 F180.00
G1 X16.6631 Y16.1994 Z-8.0000 F180.00
G1 X48.2941 Y16.1998 Z-8.0000 F180.00
G1 X48.7393 Y16.1998 Z-7.5503 F180.00
G1 X49.1845 Y16.1998 Z-8.0000 F180.00
G1 X65.0000 Y16.2000 Z-8.0000 F180.00
G2 X76.4545 Y11.4552 Z-8.0000 I-0.0004 J-16.1996 F180.00
G1 X76.4545 Y11.4552 Z-8.5000 F180.00
G2 X65.0428 Y-16.1992 Z-8.5000 I-11.4549 J-11.4549 F180.00
G1 X49.7224 Y-16.1994 Z-8.5000 F180.00
G1 X48.7821 Y-16.1994 Z-7.5503 F180.00
G1 X47.8419 Y-16.1994 Z-8.5000 F180.00
G1 X17.2010 Y-16.1998 Z-8.5000 F180.00
G1 X16.2607 Y-16.1998 Z-7.5503 F180.00
G1 X15.3205 Y-16.1998 Z-8.5000 F180.00
G1 X0.0000 Y-16.2000 Z-8.5000 F180.00
G2 X-0.0428 Y16.1992 Z-8.5000 I0.0004 J16.1996 F180.00
G1 X15.2776 Y16.1994 Z-8.5000 F180.00
G1 X16.2179 Y16.1994 Z-7.5503 F180.00
G1 X17.1581 Y16.1994 Z-8.5000 F180.00
G1 X47.7990 Y16.1998 Z-8.5000 F180.00
G1 X48.7393 Y16.1998 Z-7.5503 F180.00
G1 X49.6795 Y16.1998 Z-8.5000 F180.00
G1 X65.0000 Y16.2000 Z-8.5000 F180.00
G2 X76.4545 Y11.4552 Z-8.5000 I-0.0004 J-16.1996 F180.00
G1 X76.4545 Y11.4552 Z-9.0000 F180.00
G2 X65.0428 Y-16.1992 Z-9.0000 I-11.4549 J-11.4549 F180.00
G1 X50.2174 Y-16.1994 Z-9.0000 F180.00
G1 X48.7821 Y-16.1994 Z-7.5503 F180.00
G1 X47.3468 Y-16.1994 Z-9.0000 F180.00
G1 X17.6960 Y-16.1998 Z-9.0000 F180.00
G1 X16.2607 Y-16.1998 Z-7.5503 F180.00
G1 X14.8254 Y-16.1998 Z-9.0000 F180.00
G1 X0.0000 Y-16.2000 Z-9.0000 F180.00
G2 X-0.0428 Y16.1992 Z-9.0000 I0.0004 J16.1996 F180.00
G1 X14.7826 Y16.1994 Z-9.0000 F180.00
G1 X16.2179 Y16.1994 Z-7.5503 F180.00
G1 X17.6532 Y16.1994 Z-9.0000 F180.00
G1 X47.3040 Y16.1998 Z-9.0000 F180.00
G1 X48.7393 Y16.1998 Z-7.5503 F180.00
G1 X50.1746 Y16.1998 Z-9.0000 F180.00
G1 X65.0000 Y16.2000 Z-9.0000 F180.00
G2 X76.4545 Y11.4552 Z-9.0000 I-0.0004 J-16.1996 F180.00
G1 X76.4545 Y11.4552 Z-9.5000 F180.00
G2 X65.0428 Y-16.1992 Z-9.5000 I-11.4549 J-11.4549 F180.00
G1 X50.7125 Y-16.1994 Z-9.5000 F180.00
G1 X48.7821 Y-16.1994 Z-7.5503 F180.00
G1 X46.8518 Y-16.1994 Z-9.5000 F180.00
G1 X18.1911 Y-16.1998 Z-9.5000 F180.00
G1 X16.2607 Y-16.1998 Z-7.5503 F180.00
G1 X14.3304 Y-16.1998 Z-9.5000 F180.00
G1 X0.0000 Y-16.2000 Z-9.5000 F180.00
G2 X-0.0428 Y16.1992 Z-9.5000 I0.0004 J16.1996 F180.00
G1 X14.2875 Y16.1994 Z-9.5000 F180.00
G1 X16.2179 Y16.1994 Z-7.5503 F180.00
G1 X18.1482 Y16.1994 Z-9.5000 F180.00
G1 X46.8089 Y16.1998 Z-9.5000 F180.00
G1 X48.7393 Y16.1998 Z-7.5503 F180.00
G1 X50.6696 Y16.1998 Z-9.5000 F180.00
G1 X65.0000 Y16.2000 Z-9.5000 F180.00
G2 X76.4545 Y11.4552 Z-9.5000 I-0.0004 J-16.1996 F180.00
G1 X76.4545 Y11.4552 Z-10.0000 F180.00
G2 X65.0428 Y-16.1992 Z-10.0000 I-11.4549 J-11.4549 F180.00
G1 X51.2075 Y-16.1994 Z-10.0000 F180.00
G1 X48.7821 Y-16.1994 Z-7.5503 F180.00
G1 X46.3567 Y-16.1995 Z-10.0000 F180.00
G1 X18.6861 Y-16.1998 Z-10.0000 F180.00
G1 X16.2607 Y-16.1998 Z-7.5503 F180.00
G1 X13.8353 Y-16.1998 Z-10.0000 F180.00
G1 X0.0000 Y-16.2000 Z-10.0000 F180.00
G2 X-0.0428 Y16.1992 Z-10.0000 I0.0004 J16.1996 F180.00
G1 X13.7925 Y16.1994 Z-10.0000 F180.00
G1 X16.2179 Y16.1994 Z-7.5503 F180.00
G1 X18.6433 Y16.1995 Z-10.0000 F180.00
G1 X46.3139 Y16.1998 Z-10.0000 F180.00
G1 X48.7393 Y16.1998 Z-7.5503 F180.00
G1 X51.1647 Y16.1998 Z-10.0000 F180.00
G1 X65.0000 Y16.2000 Z-10.0000 F180.00
G2 X76.4545 Y11.4552 Z-10.0000 I-0.0004 J-16.1996 F180.00
G1 X76.4545 Y11.4552 Z-10.5000 F180.00
G2 X65.0428 Y-16.1992 Z-10.5000 I-11.4549 J-11.4549 F180.00
G1 X51.7026 Y-16.1994 Z-10.5000 F180.00
G1 X48.7821 Y-16.1994 Z-7.5503 F180.00
G1 X45.8617 Y-16.1995 Z-10.5000 F180.00
G1 X19.1812 Y-16.1998 Z-10.5000 F180.00
G1 X16.2607 Y-16.1998 Z-7.5503 F180.00
G1 X13.3403 Y-16.1998 Z-10.5000 F180.00
G1 X0.0000 Y-16.2000 Z-10.5000 F180.00
G2 X-0.0428 Y16.1992 Z-10.5000 I0.0004 J16.1996 F180.00
G1 X13.2974 Y16.1994 Z-10.5000 F180.00
G1 X16.2179 Y16.1994 Z-7.5503 F180.00
G1 X19.1383 Y16.1995 Z-10.5000 F180.00
G1 X45.8188 Y16.1998 Z-10.5000 F180.00
G1 X48.7393 Y16.1998 Z-7.5503 F180.00
G1 X51.6597 Y16.1998 Z-10.5000 F180.00
G1 X65.0000 Y16.2000 Z-10.5000 F180.00
G2 X76.4545 Y11.4552 Z-10.5000 I-0.0004 J-16.1996 F180.00
G1 X76.4545 Y11.4552 Z-11.0000 F180.00
G2 X65.0428 Y-16.1992 Z-11.0000 I-11.4549 J-11.4549 F180.00
G1 X52.1976 Y-16.1994 Z-11.0000 F180.00
G1 X48.7821 Y-16.1994 Z-7.5503 F180.00
G1 X45.3666 Y-16.1995 Z-11.0000 F180.00
G1 X19.6762 Y-16.1998 Z-11.0000 F180.00
G1 X16.2607 Y-16.1998 Z-7.5503 F180.00
G1 X12.8452 Y-16.1998 Z-11.0000 F180.00
G1 X0.0000 Y-16.2000 Z-11.0000 F180.00
G2 X-0.0428 Y16.1992 Z-11.0000 I0.0004 J16.1996 F180.00
G1 X12.8024 Y16.1994 Z-11.0000 F180.00
G1 X16.2179 Y16.1994 Z-7.5503 F180.00
G1 X19.6334 Y16.1995 Z-11.0000 F180.00
G1 X45.3238 Y16.1998 Z-11.0000 F180.00
G1 X48.7393 Y16.1998 Z-7.5503 F180.00
G1 X52.1548 Y16.1998 Z-11.0000 F180.00
G1 X65.0000 Y16.2000 Z-11.0000 F180.00
G2 X76.4545 Y11.4552 Z-11.0000 I-0.0004 J-16.1996 F180.00
G0 X76.4545 Y11.4552 Z5.0000
(finish operation: TagDressup)
(begin postamble)
M5
G17 G90
; M2
