(Exported by FreeCAD)
(Post Processor: grbl_post)
(Output Time:2020-07-10 20:57:05.461532)
(begin preamble)
G17 G90
G21
(begin operation: Default Tool)
(Path: Default Tool)
(Default Tool)
(begin toolchange)
; M6 T1
M3 S800.0000
(finish operation: Default Tool)
(begin operation: Pocket_Shape)
(Path: Pocket_Shape)
(Pocket_Shape)
G0 Z5.0000
G0 X18.9502 Y18.9502
G1 X18.9502 Y18.9502 Z-0.5000 F180.00
G2 X0.7134 Y-26.7901 Z-0.5000 I-18.9502 J-18.9502 F180.00
G2 X-0.7134 Y26.7901 Z-0.5000 I-0.7134 J26.7901 F180.00
G2 X18.9502 Y18.9502 Z-0.5000 I0.7134 J-26.7901 F180.00
G0 X18.9502 Y18.9502 Z5.0000
G0 X18.6962 Y-19.2007 Z5.0000
G0 X18.6962 Y-19.2007 Z4.5000
G1 X18.6962 Y-19.2007 Z-0.5000 F180.00
G3 X25.0812 Y-9.4217 Z-0.5000 I-18.5479 J19.0843 F180.00
G1 X9.4216 Y-25.0813 Z-0.5000 F180.00
G2 X4.7363 Y-26.3725 Z-0.5000 I-9.0366 J23.6447 F180.00
G1 X26.3683 Y-4.7404 Z-0.5000 F180.00
G3 X26.7745 Y-0.9401 Z-0.5000 I-23.4068 J4.4238 F180.00
G1 X0.9364 Y-26.7782 Z-0.5000 F180.00
G2 X-2.3690 Y-26.6895 Z-0.5000 I-1.0004 J24.3479 F180.00
G1 X26.6864 Y2.3659 Z-0.5000 F180.00
G3 X26.2570 Y5.3306 Z-0.5000 I-22.3936 J-1.7296 F180.00
G1 X-5.3303 Y-26.2567 Z-0.5000 F180.00
G2 X-8.0294 Y-25.5617 Z-0.5000 I3.2218 J18.1022 F180.00
G1 X25.5607 Y8.0284 Z-0.5000 F180.00
G3 X24.6443 Y10.5061 Z-0.5000 I-19.4787 J-5.7961 F180.00
G1 X-10.5113 Y-24.6495 Z-0.5000 F180.00
G2 X-12.7972 Y-23.5413 Z-0.5000 I9.2536 J21.9986 F180.00
G1 X23.5384 Y12.7944 Z-0.5000 F180.00
G3 X22.2633 Y14.9133 Z-0.5000 I-14.8870 J-7.5158 F180.00
G1 X-14.9088 Y-22.2587 Z-0.5000 F180.00
G2 X-16.8632 Y-20.8191 Z-0.5000 I9.4532 J14.8800 F180.00
G1 X20.8200 Y16.8642 Z-0.5000 F180.00
G3 X19.2222 Y18.6605 Z-0.5000 I-15.1183 J-11.8385 F180.00
G1 X-18.6665 Y-19.2282 Z-0.5000 F180.00
G2 X-20.3073 Y-17.4749 Z-0.5000 I15.1855 J15.8554 F180.00
G1 X17.4774 Y20.3098 Z-0.5000 F180.00
G3 X15.5760 Y21.8025 Z-0.5000 I-14.9535 J-17.0921 F180.00
G1 X-21.7997 Y-15.5732 Z-0.5000 F180.00
G2 X-23.1380 Y-13.5173 Z-0.5000 I13.1565 J10.0274 F180.00
G1 X13.5124 Y23.1330 Z-0.5000 F180.00
G3 X11.2841 Y24.2988 Z-0.5000 I-9.5226 J-15.4882 F180.00
G1 X-24.3012 Y-11.2865 Z-0.5000 F180.00
G2 X-25.2798 Y-8.8710 Z-0.5000 I19.3466 J9.2433 F180.00
G1 X8.8736 Y25.2824 Z-0.5000 F180.00
G3 X6.2539 Y26.0569 Z-0.5000 I-6.2936 J-16.4707 F180.00
G1 X-26.0514 Y-6.2485 Z-0.5000 F180.00
G2 X-26.5766 Y-3.3796 Z-0.5000 I20.4874 J5.2332 F180.00
G1 X3.3839 Y26.5810 Z-0.5000 F180.00
G3 X0.1989 Y26.7901 Z-0.5000 I-2.9278 J-20.2338 F180.00
G1 X-26.7942 Y-0.2030 Z-0.5000 F180.00
G2 X-26.5722 Y3.4131 Z-0.5000 I24.1514 J0.3321 F180.00
G1 X-3.4068 Y26.5785 Z-0.5000 F180.00
G3 X-7.7149 Y25.6645 Z-0.5000 I3.2254 J-25.8118 F180.00
G1 X-25.6512 Y7.7282 Z-0.5000 F180.00
G2 X-22.9572 Y13.8163 Z-0.5000 I24.8166 J-7.3412 F180.00
G1 X-13.8244 Y22.9491 Z-0.5000 F180.00
G3 X-22.9572 Y13.8163 Z-0.5000 I13.6550 J-22.7878 F180.00
G1 X-22.9572 Y13.8163 Z-1.0000 F180.00
G2 X-13.8244 Y22.9491 Z-1.0000 I22.7878 J-13.6550 F180.00
G1 X-22.9572 Y13.8163 Z-1.0000 F180.00
G3 X-25.6512 Y7.7282 Z-1.0000 I22.1227 J-13.4293 F180.00
G1 X-7.7149 Y25.6645 Z-1.0000 F180.00
G2 X-3.4068 Y26.5785 Z-1.0000 I7.5336 J-24.8977 F180.00
G1 X-26.5722 Y3.4131 Z-1.0000 F180.00
G3 X-26.7942 Y-0.2030 Z-1.0000 I23.9294 J-3.2840 F180.00
G1 X0.1989 Y26.7901 Z-1.0000 F180.00
G2 X3.3839 Y26.5810 Z-1.0000 I0.2573 J-20.4429 F180.00
G1 X-26.5766 Y-3.3796 Z-1.0000 F180.00
G3 X-26.0514 Y-6.2485 Z-1.0000 I21.0126 J2.3643 F180.00
G1 X6.2539 Y26.0569 Z-1.0000 F180.00
G2 X8.8736 Y25.2824 Z-1.0000 I-3.6740 J-17.2451 F180.00
G1 X-25.2798 Y-8.8710 Z-1.0000 F180.00
G3 X-24.3012 Y-11.2865 Z-1.0000 I20.3251 J6.8278 F180.00
G1 X11.2841 Y24.2988 Z-1.0000 F180.00
G2 X13.5124 Y23.1330 Z-1.0000 I-7.2944 J-16.6541 F180.00
G1 X-23.1380 Y-13.5173 Z-1.0000 F180.00
G3 X-21.7997 Y-15.5732 Z-1.0000 I14.4947 J7.9715 F180.00
G1 X15.5760 Y21.8025 Z-1.0000 F180.00
G2 X17.4774 Y20.3098 Z-1.0000 I-13.0520 J-18.5848 F180.00
G1 X-20.3073 Y-17.4749 Z-1.0000 F180.00
G3 X-18.6665 Y-19.2282 Z-1.0000 I16.8263 J14.1021 F180.00
G1 X19.2222 Y18.6605 Z-1.0000 F180.00
G2 X20.8200 Y16.8642 Z-1.0000 I-13.5206 J-13.6349 F180.00
G1 X-16.8632 Y-20.8191 Z-1.0000 F180.00
G3 X-14.9088 Y-22.2587 Z-1.0000 I11.4077 J13.4403 F180.00
G1 X22.2633 Y14.9133 Z-1.0000 F180.00
G2 X23.5384 Y12.7944 Z-1.0000 I-13.6119 J-9.6347 F180.00
G1 X-12.7972 Y-23.5413 Z-1.0000 F180.00
G3 X-10.5113 Y-24.6495 Z-1.0000 I11.5395 J20.8904 F180.00
G1 X24.6443 Y10.5061 Z-1.0000 F180.00
G2 X25.5607 Y8.0284 Z-1.0000 I-18.5623 J-8.2738 F180.00
G1 X-8.0294 Y-25.5617 Z-1.0000 F180.00
G3 X-5.3303 Y-26.2567 Z-1.0000 I5.9209 J17.4073 F180.00
G1 X26.2570 Y5.3306 Z-1.0000 F180.00
G2 X26.6864 Y2.3659 Z-1.0000 I-21.9642 J-4.6943 F180.00
G1 X-2.3690 Y-26.6895 Z-1.0000 F180.00
G3 X0.9364 Y-26.7782 Z-1.0000 I2.3050 J24.2592 F180.00
G1 X26.7745 Y-0.9401 Z-1.0000 F180.00
G2 X26.3683 Y-4.7404 Z-1.0000 I-23.8130 J0.6235 F180.00
G1 X4.7363 Y-26.3725 Z-1.0000 F180.00
G3 X9.4216 Y-25.0813 Z-1.0000 I-4.3513 J24.9359 F180.00
G1 X25.0812 Y-9.4217 Z-1.0000 F180.00
G2 X18.6962 Y-19.2007 Z-1.0000 I-24.9329 J9.3052 F180.00
G1 X18.6962 Y-19.2007 Z-1.0000 F180.00
G2 X0.7134 Y-26.7901 Z-1.0000 I-18.6962 J19.2007 F180.00
G2 X-0.7134 Y26.7901 Z-1.0000 I-0.7134 J26.7901 F180.00
G2 X18.6962 Y-19.2007 Z-1.0000 I0.7134 J-26.7901 F180.00
G0 Z5.0000
(finish operation: Pocket_Shape)
(begin postamble)
M5
G17 G90
; M2
