(G-CODE GENERATED BY FLATCAM v8.96 - www.flatcam.org - Version Date: 2019/08/23)

(Name: drill-1100)
(Type: G-code from Excellon)
(Units: MM)

(Created on samedi, 07 septembre 2019 at 18:18)

(Feedrate: 79.9998 mm/min)
(Feedrate rapids 800.0009 mm/min)

(Z_Cut: -3.0 mm)
(Z_Move: 1.999 mm)
(Z Toolchange: 12.7 mm)
(X,Y Toolchange: 0.0000, 0.0000 mm)
(Z Start: None mm)
(Z End: 12.7 mm)
(Steps per circle: 128)
(Postprocessor Excellon: default)

(X range:   -1.2500 ...   62.4760  mm)
(Y range:  -47.1090 ...    2.0510  mm)

(Spindle Speed: None RPM)

G21
G90
G94

G01 F80.00
G00 Z1.9990

M03
G00 X29.3370 Y-40.8940
G01 Z-3.0000
G01 Z0
G00 Z1.9990
G00 X29.3370 Y-38.3540
G01 Z-3.0000
G01 Z0
G00 Z1.9990
G00 X29.3370 Y-31.4960
G01 Z-3.0000
G01 Z0
G00 Z1.9990
G00 X29.3370 Y-34.0360
G01 Z-3.0000
G01 Z0
G00 Z1.9990
M03
G00 X61.9760 Y-11.8110
G01 Z-3.0000
G01 Z0
G00 Z1.9990
G00 X61.9760 Y-9.2710
G01 Z-3.0000
G01 Z0
G00 Z1.9990
G00 X61.9760 Y-5.0800
G01 Z-3.0000
G01 Z0
G00 Z1.9990
G00 X61.9760 Y-2.5400
G01 Z-3.0000
G01 Z0
G00 Z1.9990
G00 X39.4970 Y-10.0330
G01 Z-3.0000
G01 Z0
G00 Z1.9990
G00 X18.2880 Y-11.0490
G01 Z-3.0000
G01 Z0
G00 Z1.9990
G00 X13.2880 Y-11.0490
G01 Z-3.0000
G01 Z0
G00 Z1.9990
G00 X2.2860 Y-46.6090
G01 Z-3.0000
G01 Z0
G00 Z1.9990
G00 X4.8260 Y-46.6090
G01 Z-3.0000
G01 Z0
G00 Z1.9990
G00 X7.3660 Y-46.6090
G01 Z-3.0000
G01 Z0
G00 Z1.9990
G00 X9.9060 Y-46.6090
G01 Z-3.0000
G01 Z0
G00 Z1.9990
G00 X39.4970 Y-15.1130
G01 Z-3.0000
G01 Z0
G00 Z1.9990
M03
G00 X46.7360 Y-10.0330
G01 Z-3.0000
G01 Z0
G00 Z1.9990
G00 X49.2760 Y-10.0330
G01 Z-3.0000
G01 Z0
G00 Z1.9990
G00 X51.8160 Y-10.0330
G01 Z-3.0000
G01 Z0
G00 Z1.9990
M05
G00 Z12.70
G00 X0.0 Y0.0

M02