(G-CODE GENERATED BY FLATCAM v8.96 - www.flatcam.org - Version Date: 2019/08/23)

(Name: drill-800)
(Type: G-code from Excellon)
(Units: MM)

(Created on samedi, 07 septembre 2019 at 18:09)

(Feedrate: 79.9998 mm/min)
(Feedrate rapids 800.0009 mm/min)

(Z_Cut: -3.0 mm)
(Z_Move: 1.999 mm)
(Z Toolchange: 12.7 mm)
(X,Y Toolchange: 0.0000, 0.0000 mm)
(Z Start: None mm)
(Z End: 12.7 mm)
(Steps per circle: 128)
(Postprocessor Excellon: default)

(X range:   -1.2500 ...   62.4760  mm)
(Y range:  -47.1090 ...    2.0510  mm)

(Spindle Speed: None RPM)

G21
G90
G94

G01 F80.00
G00 Z1.9990

M03
G00 X56.8960 Y-30.8610
G01 Z-3.0000
G01 Z0
G00 Z1.9990
G00 X52.4510 Y-32.0040
G01 Z-3.0000
G01 Z0
G00 Z1.9990
G00 X52.4510 Y-42.1640
G01 Z-3.0000
G01 Z0
G00 Z1.9990
G00 X59.1820 Y-46.6090
G01 Z-3.0000
G01 Z0
G00 Z1.9990
G00 X56.6420 Y-46.6090
G01 Z-3.0000
G01 Z0
G00 Z1.9990
G00 X54.1020 Y-46.6090
G01 Z-3.0000
G01 Z0
G00 Z1.9990
G00 X51.5620 Y-46.6090
G01 Z-3.0000
G01 Z0
G00 Z1.9990
G00 X49.0220 Y-46.6090
G01 Z-3.0000
G01 Z0
G00 Z1.9990
G00 X46.4820 Y-46.6090
G01 Z-3.0000
G01 Z0
G00 Z1.9990
G00 X43.9420 Y-46.6090
G01 Z-3.0000
G01 Z0
G00 Z1.9990
G00 X41.4020 Y-46.6090
G01 Z-3.0000
G01 Z0
G00 Z1.9990
G00 X37.3420 Y-46.6090
G01 Z-3.0000
G01 Z0
G00 Z1.9990
G00 X34.8020 Y-46.6090
G01 Z-3.0000
G01 Z0
G00 Z1.9990
G00 X32.2620 Y-46.6090
G01 Z-3.0000
G01 Z0
G00 Z1.9990
G00 X29.7220 Y-46.6090
G01 Z-3.0000
G01 Z0
G00 Z1.9990
G00 X27.1820 Y-46.6090
G01 Z-3.0000
G01 Z0
G00 Z1.9990
G00 X24.6420 Y-46.6090
G01 Z-3.0000
G01 Z0
G00 Z1.9990
G00 X22.1020 Y-46.6090
G01 Z-3.0000
G01 Z0
G00 Z1.9990
G00 X19.5620 Y-46.6090
G01 Z-3.0000
G01 Z0
G00 Z1.9990
G00 X17.0220 Y-46.6090
G01 Z-3.0000
G01 Z0
G00 Z1.9990
G00 X14.4820 Y-46.6090
G01 Z-3.0000
G01 Z0
G00 Z1.9990
G00 X24.0030 Y-41.2750
G01 Z-3.0000
G01 Z0
G00 Z1.9990
G00 X24.0030 Y-31.1150
G01 Z-3.0000
G01 Z0
G00 Z1.9990
G00 X35.5600 Y-31.3690
G01 Z-3.0000
G01 Z0
G00 Z1.9990
G00 X40.0050 Y-32.8930
G01 Z-3.0000
G01 Z0
G00 Z1.9990
G00 X40.0050 Y-35.4330
G01 Z-3.0000
G01 Z0
G00 Z1.9990
G00 X40.0050 Y-37.9730
G01 Z-3.0000
G01 Z0
G00 Z1.9990
G00 X35.5600 Y-41.5290
G01 Z-3.0000
G01 Z0
G00 Z1.9990
G00 X40.0050 Y-40.5130
G01 Z-3.0000
G01 Z0
G00 Z1.9990
G00 X47.6250 Y-40.5130
G01 Z-3.0000
G01 Z0
G00 Z1.9990
G00 X47.6250 Y-37.9730
G01 Z-3.0000
G01 Z0
G00 Z1.9990
G00 X47.6250 Y-35.4330
G01 Z-3.0000
G01 Z0
G00 Z1.9990
G00 X47.6250 Y-32.8930
G01 Z-3.0000
G01 Z0
G00 Z1.9990
G00 X46.9970 Y-5.5880
G01 Z-3.0000
G01 Z0
G00 Z1.9990
G00 X39.4970 Y-5.5880
G01 Z-3.0000
G01 Z0
G00 Z1.9990
G00 X23.6220 Y1.6510
G01 Z-3.0000
G01 Z0
G00 Z1.9990
G00 X26.1620 Y1.6510
G01 Z-3.0000
G01 Z0
G00 Z1.9990
G00 X28.7020 Y1.6510
G01 Z-3.0000
G01 Z0
G00 Z1.9990
G00 X31.2420 Y1.6510
G01 Z-3.0000
G01 Z0
G00 Z1.9990
G00 X33.7820 Y1.6510
G01 Z-3.0000
G01 Z0
G00 Z1.9990
G00 X36.3220 Y1.6510
G01 Z-3.0000
G01 Z0
G00 Z1.9990
G00 X38.8620 Y1.6510
G01 Z-3.0000
G01 Z0
G00 Z1.9990
G00 X41.4020 Y1.6510
G01 Z-3.0000
G01 Z0
G00 Z1.9990
G00 X46.4820 Y1.6510
G01 Z-3.0000
G01 Z0
G00 Z1.9990
G00 X49.0220 Y1.6510
G01 Z-3.0000
G01 Z0
G00 Z1.9990
G00 X51.5620 Y1.6510
G01 Z-3.0000
G01 Z0
G00 Z1.9990
G00 X54.1020 Y1.6510
G01 Z-3.0000
G01 Z0
G00 Z1.9990
G00 X56.6420 Y1.6510
G01 Z-3.0000
G01 Z0
G00 Z1.9990
G00 X59.1820 Y1.6510
G01 Z-3.0000
G01 Z0
G00 Z1.9990
G00 X57.0230 Y-10.0330
G01 Z-3.0000
G01 Z0
G00 Z1.9990
G00 X57.0230 Y-17.5330
G01 Z-3.0000
G01 Z0
G00 Z1.9990
G00 X56.8960 Y-20.7010
G01 Z-3.0000
G01 Z0
G00 Z1.9990
M05
G00 Z12.70
G00 X0.0 Y0.0

M02