(G-CODE GENERATED BY FLATCAM v8.96 - www.flatcam.org - Version Date: 2019/08/23)

(Name: drill-mill-1400)
(Type: G-code from Geometry)
(Units: MM)

(Created on samedi, 07 septembre 2019 at 18:23)

(TOOL DIAMETER: 1.4 mm)
(Feedrate: 79.9998 mm/min)
(Feedrate_Z: 79.9998 mm/min)
(Feedrate rapids 79.9998 mm/min)

(Z_Cut: -3.0 mm)
(DepthPerCut: 0.8001 mm <=>4 passes)
(Z_Move: 1.999 mm)
(Z Toolchange: 12.7 mm)
(X,Y Toolchange: 0.0000, 0.0000 mm)
(Z Start: None mm)
(Z End: 12.7 mm)
(Steps per circle: 128)
(Postprocessor Geometry: default)

(X range:   -0.5500 ...   58.7245  mm)
(Y range:  -41.7065 ...    0.5500  mm)

(Spindle Speed: None RPM)

G21
G90
G94

G01 F80.00
G00 Z1.9990

M03
G00 X0.5500 Y0.0000
G01 F80.00
G01 Z-0.8001
G01 F80.00
G01 X0.5474 Y-0.0539
G01 X0.5394 Y-0.1073
G01 X0.5263 Y-0.1597
G01 X0.5081 Y-0.2105
G01 X0.4851 Y-0.2593
G01 X0.4573 Y-0.3056
G01 X0.4252 Y-0.3489
G01 X0.3889 Y-0.3889
G01 X0.3489 Y-0.4252
G01 X0.3056 Y-0.4573
G01 X0.2593 Y-0.4851
G01 X0.2105 Y-0.5081
G01 X0.1597 Y-0.5263
G01 X0.1073 Y-0.5394
G01 X0.0539 Y-0.5474
G01 X0.0000 Y-0.5500
G01 X-0.0539 Y-0.5474
G01 X-0.1073 Y-0.5394
G01 X-0.1597 Y-0.5263
G01 X-0.2105 Y-0.5081
G01 X-0.2593 Y-0.4851
G01 X-0.3056 Y-0.4573
G01 X-0.3489 Y-0.4252
G01 X-0.3889 Y-0.3889
G01 X-0.4252 Y-0.3489
G01 X-0.4573 Y-0.3056
G01 X-0.4851 Y-0.2593
G01 X-0.5081 Y-0.2105
G01 X-0.5263 Y-0.1597
G01 X-0.5394 Y-0.1073
G01 X-0.5474 Y-0.0539
G01 X-0.5500 Y-0.0000
G01 X-0.5474 Y0.0539
G01 X-0.5394 Y0.1073
G01 X-0.5263 Y0.1597
G01 X-0.5081 Y0.2105
G01 X-0.4851 Y0.2593
G01 X-0.4573 Y0.3056
G01 X-0.4252 Y0.3489
G01 X-0.3889 Y0.3889
G01 X-0.3489 Y0.4252
G01 X-0.3056 Y0.4573
G01 X-0.2593 Y0.4851
G01 X-0.2105 Y0.5081
G01 X-0.1597 Y0.5263
G01 X-0.1073 Y0.5394
G01 X-0.0539 Y0.5474
G01 X-0.0000 Y0.5500
G01 X0.0539 Y0.5474
G01 X0.1073 Y0.5394
G01 X0.1597 Y0.5263
G01 X0.2105 Y0.5081
G01 X0.2593 Y0.4851
G01 X0.3056 Y0.4573
G01 X0.3489 Y0.4252
G01 X0.3889 Y0.3889
G01 X0.4252 Y0.3489
G01 X0.4573 Y0.3056
G01 X0.4851 Y0.2593
G01 X0.5081 Y0.2105
G01 X0.5263 Y0.1597
G01 X0.5394 Y0.1073
G01 X0.5474 Y0.0539
G01 X0.5500 Y0.0000
G00 X0.5500 Y0.0000
G01 F80.00
G01 Z-1.6002
G01 F80.00
G01 X0.5474 Y-0.0539
G01 X0.5394 Y-0.1073
G01 X0.5263 Y-0.1597
G01 X0.5081 Y-0.2105
G01 X0.4851 Y-0.2593
G01 X0.4573 Y-0.3056
G01 X0.4252 Y-0.3489
G01 X0.3889 Y-0.3889
G01 X0.3489 Y-0.4252
G01 X0.3056 Y-0.4573
G01 X0.2593 Y-0.4851
G01 X0.2105 Y-0.5081
G01 X0.1597 Y-0.5263
G01 X0.1073 Y-0.5394
G01 X0.0539 Y-0.5474
G01 X0.0000 Y-0.5500
G01 X-0.0539 Y-0.5474
G01 X-0.1073 Y-0.5394
G01 X-0.1597 Y-0.5263
G01 X-0.2105 Y-0.5081
G01 X-0.2593 Y-0.4851
G01 X-0.3056 Y-0.4573
G01 X-0.3489 Y-0.4252
G01 X-0.3889 Y-0.3889
G01 X-0.4252 Y-0.3489
G01 X-0.4573 Y-0.3056
G01 X-0.4851 Y-0.2593
G01 X-0.5081 Y-0.2105
G01 X-0.5263 Y-0.1597
G01 X-0.5394 Y-0.1073
G01 X-0.5474 Y-0.0539
G01 X-0.5500 Y-0.0000
G01 X-0.5474 Y0.0539
G01 X-0.5394 Y0.1073
G01 X-0.5263 Y0.1597
G01 X-0.5081 Y0.2105
G01 X-0.4851 Y0.2593
G01 X-0.4573 Y0.3056
G01 X-0.4252 Y0.3489
G01 X-0.3889 Y0.3889
G01 X-0.3489 Y0.4252
G01 X-0.3056 Y0.4573
G01 X-0.2593 Y0.4851
G01 X-0.2105 Y0.5081
G01 X-0.1597 Y0.5263
G01 X-0.1073 Y0.5394
G01 X-0.0539 Y0.5474
G01 X-0.0000 Y0.5500
G01 X0.0539 Y0.5474
G01 X0.1073 Y0.5394
G01 X0.1597 Y0.5263
G01 X0.2105 Y0.5081
G01 X0.2593 Y0.4851
G01 X0.3056 Y0.4573
G01 X0.3489 Y0.4252
G01 X0.3889 Y0.3889
G01 X0.4252 Y0.3489
G01 X0.4573 Y0.3056
G01 X0.4851 Y0.2593
G01 X0.5081 Y0.2105
G01 X0.5263 Y0.1597
G01 X0.5394 Y0.1073
G01 X0.5474 Y0.0539
G01 X0.5500 Y0.0000
G00 X0.5500 Y0.0000
G01 F80.00
G01 Z-2.4003
G01 F80.00
G01 X0.5474 Y-0.0539
G01 X0.5394 Y-0.1073
G01 X0.5263 Y-0.1597
G01 X0.5081 Y-0.2105
G01 X0.4851 Y-0.2593
G01 X0.4573 Y-0.3056
G01 X0.4252 Y-0.3489
G01 X0.3889 Y-0.3889
G01 X0.3489 Y-0.4252
G01 X0.3056 Y-0.4573
G01 X0.2593 Y-0.4851
G01 X0.2105 Y-0.5081
G01 X0.1597 Y-0.5263
G01 X0.1073 Y-0.5394
G01 X0.0539 Y-0.5474
G01 X0.0000 Y-0.5500
G01 X-0.0539 Y-0.5474
G01 X-0.1073 Y-0.5394
G01 X-0.1597 Y-0.5263
G01 X-0.2105 Y-0.5081
G01 X-0.2593 Y-0.4851
G01 X-0.3056 Y-0.4573
G01 X-0.3489 Y-0.4252
G01 X-0.3889 Y-0.3889
G01 X-0.4252 Y-0.3489
G01 X-0.4573 Y-0.3056
G01 X-0.4851 Y-0.2593
G01 X-0.5081 Y-0.2105
G01 X-0.5263 Y-0.1597
G01 X-0.5394 Y-0.1073
G01 X-0.5474 Y-0.0539
G01 X-0.5500 Y-0.0000
G01 X-0.5474 Y0.0539
G01 X-0.5394 Y0.1073
G01 X-0.5263 Y0.1597
G01 X-0.5081 Y0.2105
G01 X-0.4851 Y0.2593
G01 X-0.4573 Y0.3056
G01 X-0.4252 Y0.3489
G01 X-0.3889 Y0.3889
G01 X-0.3489 Y0.4252
G01 X-0.3056 Y0.4573
G01 X-0.2593 Y0.4851
G01 X-0.2105 Y0.5081
G01 X-0.1597 Y0.5263
G01 X-0.1073 Y0.5394
G01 X-0.0539 Y0.5474
G01 X-0.0000 Y0.5500
G01 X0.0539 Y0.5474
G01 X0.1073 Y0.5394
G01 X0.1597 Y0.5263
G01 X0.2105 Y0.5081
G01 X0.2593 Y0.4851
G01 X0.3056 Y0.4573
G01 X0.3489 Y0.4252
G01 X0.3889 Y0.3889
G01 X0.4252 Y0.3489
G01 X0.4573 Y0.3056
G01 X0.4851 Y0.2593
G01 X0.5081 Y0.2105
G01 X0.5263 Y0.1597
G01 X0.5394 Y0.1073
G01 X0.5474 Y0.0539
G01 X0.5500 Y0.0000
G00 X0.5500 Y0.0000
G01 F80.00
G01 Z-3.0000
G01 F80.00
G01 X0.5474 Y-0.0539
G01 X0.5394 Y-0.1073
G01 X0.5263 Y-0.1597
G01 X0.5081 Y-0.2105
G01 X0.4851 Y-0.2593
G01 X0.4573 Y-0.3056
G01 X0.4252 Y-0.3489
G01 X0.3889 Y-0.3889
G01 X0.3489 Y-0.4252
G01 X0.3056 Y-0.4573
G01 X0.2593 Y-0.4851
G01 X0.2105 Y-0.5081
G01 X0.1597 Y-0.5263
G01 X0.1073 Y-0.5394
G01 X0.0539 Y-0.5474
G01 X0.0000 Y-0.5500
G01 X-0.0539 Y-0.5474
G01 X-0.1073 Y-0.5394
G01 X-0.1597 Y-0.5263
G01 X-0.2105 Y-0.5081
G01 X-0.2593 Y-0.4851
G01 X-0.3056 Y-0.4573
G01 X-0.3489 Y-0.4252
G01 X-0.3889 Y-0.3889
G01 X-0.4252 Y-0.3489
G01 X-0.4573 Y-0.3056
G01 X-0.4851 Y-0.2593
G01 X-0.5081 Y-0.2105
G01 X-0.5263 Y-0.1597
G01 X-0.5394 Y-0.1073
G01 X-0.5474 Y-0.0539
G01 X-0.5500 Y-0.0000
G01 X-0.5474 Y0.0539
G01 X-0.5394 Y0.1073
G01 X-0.5263 Y0.1597
G01 X-0.5081 Y0.2105
G01 X-0.4851 Y0.2593
G01 X-0.4573 Y0.3056
G01 X-0.4252 Y0.3489
G01 X-0.3889 Y0.3889
G01 X-0.3489 Y0.4252
G01 X-0.3056 Y0.4573
G01 X-0.2593 Y0.4851
G01 X-0.2105 Y0.5081
G01 X-0.1597 Y0.5263
G01 X-0.1073 Y0.5394
G01 X-0.0539 Y0.5474
G01 X-0.0000 Y0.5500
G01 X0.0539 Y0.5474
G01 X0.1073 Y0.5394
G01 X0.1597 Y0.5263
G01 X0.2105 Y0.5081
G01 X0.2593 Y0.4851
G01 X0.3056 Y0.4573
G01 X0.3489 Y0.4252
G01 X0.3889 Y0.3889
G01 X0.4252 Y0.3489
G01 X0.4573 Y0.3056
G01 X0.4851 Y0.2593
G01 X0.5081 Y0.2105
G01 X0.5263 Y0.1597
G01 X0.5394 Y0.1073
G01 X0.5474 Y0.0539
G01 X0.5500 Y0.0000
G00 Z1.9990
G00 X13.0045 Y0.3810
G01 F80.00
G01 Z-0.8001
G01 F80.00
G01 X13.0035 Y0.3711
G01 X13.0007 Y0.3617
G01 X12.9960 Y0.3529
G01 X12.9897 Y0.3453
G01 X12.9821 Y0.3390
G01 X12.9733 Y0.3343
G01 X12.9639 Y0.3315
G01 X12.9540 Y0.3305
G01 X12.9441 Y0.3315
G01 X12.9347 Y0.3343
G01 X12.9259 Y0.3390
G01 X12.9183 Y0.3453
G01 X12.9120 Y0.3529
G01 X12.9073 Y0.3617
G01 X12.9045 Y0.3711
G01 X12.9035 Y0.3810
G01 X12.9045 Y0.3909
G01 X12.9073 Y0.4003
G01 X12.9120 Y0.4091
G01 X12.9183 Y0.4167
G01 X12.9259 Y0.4230
G01 X12.9347 Y0.4277
G01 X12.9441 Y0.4305
G01 X12.9540 Y0.4315
G01 X12.9639 Y0.4305
G01 X12.9733 Y0.4277
G01 X12.9821 Y0.4230
G01 X12.9897 Y0.4167
G01 X12.9960 Y0.4091
G01 X13.0007 Y0.4003
G01 X13.0035 Y0.3909
G01 X13.0045 Y0.3810
G00 X13.0045 Y0.3810
G01 F80.00
G01 Z-1.6002
G01 F80.00
G01 X13.0035 Y0.3711
G01 X13.0007 Y0.3617
G01 X12.9960 Y0.3529
G01 X12.9897 Y0.3453
G01 X12.9821 Y0.3390
G01 X12.9733 Y0.3343
G01 X12.9639 Y0.3315
G01 X12.9540 Y0.3305
G01 X12.9441 Y0.3315
G01 X12.9347 Y0.3343
G01 X12.9259 Y0.3390
G01 X12.9183 Y0.3453
G01 X12.9120 Y0.3529
G01 X12.9073 Y0.3617
G01 X12.9045 Y0.3711
G01 X12.9035 Y0.3810
G01 X12.9045 Y0.3909
G01 X12.9073 Y0.4003
G01 X12.9120 Y0.4091
G01 X12.9183 Y0.4167
G01 X12.9259 Y0.4230
G01 X12.9347 Y0.4277
G01 X12.9441 Y0.4305
G01 X12.9540 Y0.4315
G01 X12.9639 Y0.4305
G01 X12.9733 Y0.4277
G01 X12.9821 Y0.4230
G01 X12.9897 Y0.4167
G01 X12.9960 Y0.4091
G01 X13.0007 Y0.4003
G01 X13.0035 Y0.3909
G01 X13.0045 Y0.3810
G00 X13.0045 Y0.3810
G01 F80.00
G01 Z-2.4003
G01 F80.00
G01 X13.0035 Y0.3711
G01 X13.0007 Y0.3617
G01 X12.9960 Y0.3529
G01 X12.9897 Y0.3453
G01 X12.9821 Y0.3390
G01 X12.9733 Y0.3343
G01 X12.9639 Y0.3315
G01 X12.9540 Y0.3305
G01 X12.9441 Y0.3315
G01 X12.9347 Y0.3343
G01 X12.9259 Y0.3390
G01 X12.9183 Y0.3453
G01 X12.9120 Y0.3529
G01 X12.9073 Y0.3617
G01 X12.9045 Y0.3711
G01 X12.9035 Y0.3810
G01 X12.9045 Y0.3909
G01 X12.9073 Y0.4003
G01 X12.9120 Y0.4091
G01 X12.9183 Y0.4167
G01 X12.9259 Y0.4230
G01 X12.9347 Y0.4277
G01 X12.9441 Y0.4305
G01 X12.9540 Y0.4315
G01 X12.9639 Y0.4305
G01 X12.9733 Y0.4277
G01 X12.9821 Y0.4230
G01 X12.9897 Y0.4167
G01 X12.9960 Y0.4091
G01 X13.0007 Y0.4003
G01 X13.0035 Y0.3909
G01 X13.0045 Y0.3810
G00 X13.0045 Y0.3810
G01 F80.00
G01 Z-3.0000
G01 F80.00
G01 X13.0035 Y0.3711
G01 X13.0007 Y0.3617
G01 X12.9960 Y0.3529
G01 X12.9897 Y0.3453
G01 X12.9821 Y0.3390
G01 X12.9733 Y0.3343
G01 X12.9639 Y0.3315
G01 X12.9540 Y0.3305
G01 X12.9441 Y0.3315
G01 X12.9347 Y0.3343
G01 X12.9259 Y0.3390
G01 X12.9183 Y0.3453
G01 X12.9120 Y0.3529
G01 X12.9073 Y0.3617
G01 X12.9045 Y0.3711
G01 X12.9035 Y0.3810
G01 X12.9045 Y0.3909
G01 X12.9073 Y0.4003
G01 X12.9120 Y0.4091
G01 X12.9183 Y0.4167
G01 X12.9259 Y0.4230
G01 X12.9347 Y0.4277
G01 X12.9441 Y0.4305
G01 X12.9540 Y0.4315
G01 X12.9639 Y0.4305
G01 X12.9733 Y0.4277
G01 X12.9821 Y0.4230
G01 X12.9897 Y0.4167
G01 X12.9960 Y0.4091
G01 X13.0007 Y0.4003
G01 X13.0035 Y0.3909
G01 X13.0045 Y0.3810
G00 Z1.9990
G00 X18.0845 Y0.3810
G01 F80.00
G01 Z-0.8001
G01 F80.00
G01 X18.0835 Y0.3711
G01 X18.0807 Y0.3617
G01 X18.0760 Y0.3529
G01 X18.0697 Y0.3453
G01 X18.0621 Y0.3390
G01 X18.0533 Y0.3343
G01 X18.0439 Y0.3315
G01 X18.0340 Y0.3305
G01 X18.0241 Y0.3315
G01 X18.0147 Y0.3343
G01 X18.0059 Y0.3390
G01 X17.9983 Y0.3453
G01 X17.9920 Y0.3529
G01 X17.9873 Y0.3617
G01 X17.9845 Y0.3711
G01 X17.9835 Y0.3810
G01 X17.9845 Y0.3909
G01 X17.9873 Y0.4003
G01 X17.9920 Y0.4091
G01 X17.9983 Y0.4167
G01 X18.0059 Y0.4230
G01 X18.0147 Y0.4277
G01 X18.0241 Y0.4305
G01 X18.0340 Y0.4315
G01 X18.0439 Y0.4305
G01 X18.0533 Y0.4277
G01 X18.0621 Y0.4230
G01 X18.0697 Y0.4167
G01 X18.0760 Y0.4091
G01 X18.0807 Y0.4003
G01 X18.0835 Y0.3909
G01 X18.0845 Y0.3810
G00 X18.0845 Y0.3810
G01 F80.00
G01 Z-1.6002
G01 F80.00
G01 X18.0835 Y0.3711
G01 X18.0807 Y0.3617
G01 X18.0760 Y0.3529
G01 X18.0697 Y0.3453
G01 X18.0621 Y0.3390
G01 X18.0533 Y0.3343
G01 X18.0439 Y0.3315
G01 X18.0340 Y0.3305
G01 X18.0241 Y0.3315
G01 X18.0147 Y0.3343
G01 X18.0059 Y0.3390
G01 X17.9983 Y0.3453
G01 X17.9920 Y0.3529
G01 X17.9873 Y0.3617
G01 X17.9845 Y0.3711
G01 X17.9835 Y0.3810
G01 X17.9845 Y0.3909
G01 X17.9873 Y0.4003
G01 X17.9920 Y0.4091
G01 X17.9983 Y0.4167
G01 X18.0059 Y0.4230
G01 X18.0147 Y0.4277
G01 X18.0241 Y0.4305
G01 X18.0340 Y0.4315
G01 X18.0439 Y0.4305
G01 X18.0533 Y0.4277
G01 X18.0621 Y0.4230
G01 X18.0697 Y0.4167
G01 X18.0760 Y0.4091
G01 X18.0807 Y0.4003
G01 X18.0835 Y0.3909
G01 X18.0845 Y0.3810
G00 X18.0845 Y0.3810
G01 F80.00
G01 Z-2.4003
G01 F80.00
G01 X18.0835 Y0.3711
G01 X18.0807 Y0.3617
G01 X18.0760 Y0.3529
G01 X18.0697 Y0.3453
G01 X18.0621 Y0.3390
G01 X18.0533 Y0.3343
G01 X18.0439 Y0.3315
G01 X18.0340 Y0.3305
G01 X18.0241 Y0.3315
G01 X18.0147 Y0.3343
G01 X18.0059 Y0.3390
G01 X17.9983 Y0.3453
G01 X17.9920 Y0.3529
G01 X17.9873 Y0.3617
G01 X17.9845 Y0.3711
G01 X17.9835 Y0.3810
G01 X17.9845 Y0.3909
G01 X17.9873 Y0.4003
G01 X17.9920 Y0.4091
G01 X17.9983 Y0.4167
G01 X18.0059 Y0.4230
G01 X18.0147 Y0.4277
G01 X18.0241 Y0.4305
G01 X18.0340 Y0.4315
G01 X18.0439 Y0.4305
G01 X18.0533 Y0.4277
G01 X18.0621 Y0.4230
G01 X18.0697 Y0.4167
G01 X18.0760 Y0.4091
G01 X18.0807 Y0.4003
G01 X18.0835 Y0.3909
G01 X18.0845 Y0.3810
G00 X18.0845 Y0.3810
G01 F80.00
G01 Z-3.0000
G01 F80.00
G01 X18.0835 Y0.3711
G01 X18.0807 Y0.3617
G01 X18.0760 Y0.3529
G01 X18.0697 Y0.3453
G01 X18.0621 Y0.3390
G01 X18.0533 Y0.3343
G01 X18.0439 Y0.3315
G01 X18.0340 Y0.3305
G01 X18.0241 Y0.3315
G01 X18.0147 Y0.3343
G01 X18.0059 Y0.3390
G01 X17.9983 Y0.3453
G01 X17.9920 Y0.3529
G01 X17.9873 Y0.3617
G01 X17.9845 Y0.3711
G01 X17.9835 Y0.3810
G01 X17.9845 Y0.3909
G01 X17.9873 Y0.4003
G01 X17.9920 Y0.4091
G01 X17.9983 Y0.4167
G01 X18.0059 Y0.4230
G01 X18.0147 Y0.4277
G01 X18.0241 Y0.4305
G01 X18.0340 Y0.4315
G01 X18.0439 Y0.4305
G01 X18.0533 Y0.4277
G01 X18.0621 Y0.4230
G01 X18.0697 Y0.4167
G01 X18.0760 Y0.4091
G01 X18.0807 Y0.4003
G01 X18.0835 Y0.3909
G01 X18.0845 Y0.3810
G00 Z1.9990
G00 X29.2970 Y-12.5730
G01 F80.00
G01 Z-0.8001
G01 F80.00
G01 X29.2927 Y-12.6612
G01 X29.2797 Y-12.7486
G01 X29.2582 Y-12.8343
G01 X29.2285 Y-12.9174
G01 X29.1907 Y-12.9973
G01 X29.1453 Y-13.0730
G01 X29.0927 Y-13.1440
G01 X29.0334 Y-13.2094
G01 X28.9680 Y-13.2687
G01 X28.8970 Y-13.3213
G01 X28.8213 Y-13.3667
G01 X28.7414 Y-13.4045
G01 X28.6583 Y-13.4342
G01 X28.5726 Y-13.4557
G01 X28.4852 Y-13.4687
G01 X28.3970 Y-13.4730
G01 X28.3088 Y-13.4687
G01 X28.2214 Y-13.4557
G01 X28.1357 Y-13.4342
G01 X28.0526 Y-13.4045
G01 X27.9727 Y-13.3667
G01 X27.8970 Y-13.3213
G01 X27.8260 Y-13.2687
G01 X27.7606 Y-13.2094
G01 X27.7013 Y-13.1440
G01 X27.6487 Y-13.0730
G01 X27.6033 Y-12.9973
G01 X27.5655 Y-12.9174
G01 X27.5358 Y-12.8343
G01 X27.5143 Y-12.7486
G01 X27.5013 Y-12.6612
G01 X27.4970 Y-12.5730
G01 X27.5013 Y-12.4848
G01 X27.5143 Y-12.3974
G01 X27.5358 Y-12.3117
G01 X27.5655 Y-12.2286
G01 X27.6033 Y-12.1487
G01 X27.6487 Y-12.0730
G01 X27.7013 Y-12.0020
G01 X27.7606 Y-11.9366
G01 X27.8260 Y-11.8773
G01 X27.8970 Y-11.8247
G01 X27.9727 Y-11.7793
G01 X28.0526 Y-11.7415
G01 X28.1357 Y-11.7118
G01 X28.2214 Y-11.6903
G01 X28.3088 Y-11.6773
G01 X28.3970 Y-11.6730
G01 X28.4852 Y-11.6773
G01 X28.5726 Y-11.6903
G01 X28.6583 Y-11.7118
G01 X28.7414 Y-11.7415
G01 X28.8213 Y-11.7793
G01 X28.8970 Y-11.8247
G01 X28.9680 Y-11.8773
G01 X29.0334 Y-11.9366
G01 X29.0927 Y-12.0020
G01 X29.1453 Y-12.0730
G01 X29.1907 Y-12.1487
G01 X29.2285 Y-12.2286
G01 X29.2582 Y-12.3117
G01 X29.2797 Y-12.3974
G01 X29.2927 Y-12.4848
G01 X29.2970 Y-12.5730
G00 X29.2970 Y-12.5730
G01 F80.00
G01 Z-1.6002
G01 F80.00
G01 X29.2927 Y-12.6612
G01 X29.2797 Y-12.7486
G01 X29.2582 Y-12.8343
G01 X29.2285 Y-12.9174
G01 X29.1907 Y-12.9973
G01 X29.1453 Y-13.0730
G01 X29.0927 Y-13.1440
G01 X29.0334 Y-13.2094
G01 X28.9680 Y-13.2687
G01 X28.8970 Y-13.3213
G01 X28.8213 Y-13.3667
G01 X28.7414 Y-13.4045
G01 X28.6583 Y-13.4342
G01 X28.5726 Y-13.4557
G01 X28.4852 Y-13.4687
G01 X28.3970 Y-13.4730
G01 X28.3088 Y-13.4687
G01 X28.2214 Y-13.4557
G01 X28.1357 Y-13.4342
G01 X28.0526 Y-13.4045
G01 X27.9727 Y-13.3667
G01 X27.8970 Y-13.3213
G01 X27.8260 Y-13.2687
G01 X27.7606 Y-13.2094
G01 X27.7013 Y-13.1440
G01 X27.6487 Y-13.0730
G01 X27.6033 Y-12.9973
G01 X27.5655 Y-12.9174
G01 X27.5358 Y-12.8343
G01 X27.5143 Y-12.7486
G01 X27.5013 Y-12.6612
G01 X27.4970 Y-12.5730
G01 X27.5013 Y-12.4848
G01 X27.5143 Y-12.3974
G01 X27.5358 Y-12.3117
G01 X27.5655 Y-12.2286
G01 X27.6033 Y-12.1487
G01 X27.6487 Y-12.0730
G01 X27.7013 Y-12.0020
G01 X27.7606 Y-11.9366
G01 X27.8260 Y-11.8773
G01 X27.8970 Y-11.8247
G01 X27.9727 Y-11.7793
G01 X28.0526 Y-11.7415
G01 X28.1357 Y-11.7118
G01 X28.2214 Y-11.6903
G01 X28.3088 Y-11.6773
G01 X28.3970 Y-11.6730
G01 X28.4852 Y-11.6773
G01 X28.5726 Y-11.6903
G01 X28.6583 Y-11.7118
G01 X28.7414 Y-11.7415
G01 X28.8213 Y-11.7793
G01 X28.8970 Y-11.8247
G01 X28.9680 Y-11.8773
G01 X29.0334 Y-11.9366
G01 X29.0927 Y-12.0020
G01 X29.1453 Y-12.0730
G01 X29.1907 Y-12.1487
G01 X29.2285 Y-12.2286
G01 X29.2582 Y-12.3117
G01 X29.2797 Y-12.3974
G01 X29.2927 Y-12.4848
G01 X29.2970 Y-12.5730
G00 X29.2970 Y-12.5730
G01 F80.00
G01 Z-2.4003
G01 F80.00
G01 X29.2927 Y-12.6612
G01 X29.2797 Y-12.7486
G01 X29.2582 Y-12.8343
G01 X29.2285 Y-12.9174
G01 X29.1907 Y-12.9973
G01 X29.1453 Y-13.0730
G01 X29.0927 Y-13.1440
G01 X29.0334 Y-13.2094
G01 X28.9680 Y-13.2687
G01 X28.8970 Y-13.3213
G01 X28.8213 Y-13.3667
G01 X28.7414 Y-13.4045
G01 X28.6583 Y-13.4342
G01 X28.5726 Y-13.4557
G01 X28.4852 Y-13.4687
G01 X28.3970 Y-13.4730
G01 X28.3088 Y-13.4687
G01 X28.2214 Y-13.4557
G01 X28.1357 Y-13.4342
G01 X28.0526 Y-13.4045
G01 X27.9727 Y-13.3667
G01 X27.8970 Y-13.3213
G01 X27.8260 Y-13.2687
G01 X27.7606 Y-13.2094
G01 X27.7013 Y-13.1440
G01 X27.6487 Y-13.0730
G01 X27.6033 Y-12.9973
G01 X27.5655 Y-12.9174
G01 X27.5358 Y-12.8343
G01 X27.5143 Y-12.7486
G01 X27.5013 Y-12.6612
G01 X27.4970 Y-12.5730
G01 X27.5013 Y-12.4848
G01 X27.5143 Y-12.3974
G01 X27.5358 Y-12.3117
G01 X27.5655 Y-12.2286
G01 X27.6033 Y-12.1487
G01 X27.6487 Y-12.0730
G01 X27.7013 Y-12.0020
G01 X27.7606 Y-11.9366
G01 X27.8260 Y-11.8773
G01 X27.8970 Y-11.8247
G01 X27.9727 Y-11.7793
G01 X28.0526 Y-11.7415
G01 X28.1357 Y-11.7118
G01 X28.2214 Y-11.6903
G01 X28.3088 Y-11.6773
G01 X28.3970 Y-11.6730
G01 X28.4852 Y-11.6773
G01 X28.5726 Y-11.6903
G01 X28.6583 Y-11.7118
G01 X28.7414 Y-11.7415
G01 X28.8213 Y-11.7793
G01 X28.8970 Y-11.8247
G01 X28.9680 Y-11.8773
G01 X29.0334 Y-11.9366
G01 X29.0927 Y-12.0020
G01 X29.1453 Y-12.0730
G01 X29.1907 Y-12.1487
G01 X29.2285 Y-12.2286
G01 X29.2582 Y-12.3117
G01 X29.2797 Y-12.3974
G01 X29.2927 Y-12.4848
G01 X29.2970 Y-12.5730
G00 X29.2970 Y-12.5730
G01 F80.00
G01 Z-3.0000
G01 F80.00
G01 X29.2927 Y-12.6612
G01 X29.2797 Y-12.7486
G01 X29.2582 Y-12.8343
G01 X29.2285 Y-12.9174
G01 X29.1907 Y-12.9973
G01 X29.1453 Y-13.0730
G01 X29.0927 Y-13.1440
G01 X29.0334 Y-13.2094
G01 X28.9680 Y-13.2687
G01 X28.8970 Y-13.3213
G01 X28.8213 Y-13.3667
G01 X28.7414 Y-13.4045
G01 X28.6583 Y-13.4342
G01 X28.5726 Y-13.4557
G01 X28.4852 Y-13.4687
G01 X28.3970 Y-13.4730
G01 X28.3088 Y-13.4687
G01 X28.2214 Y-13.4557
G01 X28.1357 Y-13.4342
G01 X28.0526 Y-13.4045
G01 X27.9727 Y-13.3667
G01 X27.8970 Y-13.3213
G01 X27.8260 Y-13.2687
G01 X27.7606 Y-13.2094
G01 X27.7013 Y-13.1440
G01 X27.6487 Y-13.0730
G01 X27.6033 Y-12.9973
G01 X27.5655 Y-12.9174
G01 X27.5358 Y-12.8343
G01 X27.5143 Y-12.7486
G01 X27.5013 Y-12.6612
G01 X27.4970 Y-12.5730
G01 X27.5013 Y-12.4848
G01 X27.5143 Y-12.3974
G01 X27.5358 Y-12.3117
G01 X27.5655 Y-12.2286
G01 X27.6033 Y-12.1487
G01 X27.6487 Y-12.0730
G01 X27.7013 Y-12.0020
G01 X27.7606 Y-11.9366
G01 X27.8260 Y-11.8773
G01 X27.8970 Y-11.8247
G01 X27.9727 Y-11.7793
G01 X28.0526 Y-11.7415
G01 X28.1357 Y-11.7118
G01 X28.2214 Y-11.6903
G01 X28.3088 Y-11.6773
G01 X28.3970 Y-11.6730
G01 X28.4852 Y-11.6773
G01 X28.5726 Y-11.6903
G01 X28.6583 Y-11.7118
G01 X28.7414 Y-11.7415
G01 X28.8213 Y-11.7793
G01 X28.8970 Y-11.8247
G01 X28.9680 Y-11.8773
G01 X29.0334 Y-11.9366
G01 X29.0927 Y-12.0020
G01 X29.1453 Y-12.0730
G01 X29.1907 Y-12.1487
G01 X29.2285 Y-12.2286
G01 X29.2582 Y-12.3117
G01 X29.2797 Y-12.3974
G01 X29.2927 Y-12.4848
G01 X29.2970 Y-12.5730
G00 Z1.9990
G00 X18.3440 Y-23.1140
G01 F80.00
G01 Z-0.8001
G01 F80.00
G01 X18.3430 Y-23.1238
G01 X18.3402 Y-23.1331
G01 X18.3356 Y-23.1418
G01 X18.3294 Y-23.1494
G01 X18.3218 Y-23.1556
G01 X18.3131 Y-23.1602
G01 X18.3038 Y-23.1630
G01 X18.2940 Y-23.1640
G01 X18.2842 Y-23.1630
G01 X18.2749 Y-23.1602
G01 X18.2662 Y-23.1556
G01 X18.2586 Y-23.1494
G01 X18.2524 Y-23.1418
G01 X18.2478 Y-23.1331
G01 X18.2450 Y-23.1238
G01 X18.2440 Y-23.1140
G01 X18.2450 Y-23.1042
G01 X18.2478 Y-23.0949
G01 X18.2524 Y-23.0862
G01 X18.2586 Y-23.0786
G01 X18.2662 Y-23.0724
G01 X18.2749 Y-23.0678
G01 X18.2842 Y-23.0650
G01 X18.2940 Y-23.0640
G01 X18.3038 Y-23.0650
G01 X18.3131 Y-23.0678
G01 X18.3218 Y-23.0724
G01 X18.3294 Y-23.0786
G01 X18.3356 Y-23.0862
G01 X18.3402 Y-23.0949
G01 X18.3430 Y-23.1042
G01 X18.3440 Y-23.1140
G00 X18.3440 Y-23.1140
G01 F80.00
G01 Z-1.6002
G01 F80.00
G01 X18.3430 Y-23.1238
G01 X18.3402 Y-23.1331
G01 X18.3356 Y-23.1418
G01 X18.3294 Y-23.1494
G01 X18.3218 Y-23.1556
G01 X18.3131 Y-23.1602
G01 X18.3038 Y-23.1630
G01 X18.2940 Y-23.1640
G01 X18.2842 Y-23.1630
G01 X18.2749 Y-23.1602
G01 X18.2662 Y-23.1556
G01 X18.2586 Y-23.1494
G01 X18.2524 Y-23.1418
G01 X18.2478 Y-23.1331
G01 X18.2450 Y-23.1238
G01 X18.2440 Y-23.1140
G01 X18.2450 Y-23.1042
G01 X18.2478 Y-23.0949
G01 X18.2524 Y-23.0862
G01 X18.2586 Y-23.0786
G01 X18.2662 Y-23.0724
G01 X18.2749 Y-23.0678
G01 X18.2842 Y-23.0650
G01 X18.2940 Y-23.0640
G01 X18.3038 Y-23.0650
G01 X18.3131 Y-23.0678
G01 X18.3218 Y-23.0724
G01 X18.3294 Y-23.0786
G01 X18.3356 Y-23.0862
G01 X18.3402 Y-23.0949
G01 X18.3430 Y-23.1042
G01 X18.3440 Y-23.1140
G00 X18.3440 Y-23.1140
G01 F80.00
G01 Z-2.4003
G01 F80.00
G01 X18.3430 Y-23.1238
G01 X18.3402 Y-23.1331
G01 X18.3356 Y-23.1418
G01 X18.3294 Y-23.1494
G01 X18.3218 Y-23.1556
G01 X18.3131 Y-23.1602
G01 X18.3038 Y-23.1630
G01 X18.2940 Y-23.1640
G01 X18.2842 Y-23.1630
G01 X18.2749 Y-23.1602
G01 X18.2662 Y-23.1556
G01 X18.2586 Y-23.1494
G01 X18.2524 Y-23.1418
G01 X18.2478 Y-23.1331
G01 X18.2450 Y-23.1238
G01 X18.2440 Y-23.1140
G01 X18.2450 Y-23.1042
G01 X18.2478 Y-23.0949
G01 X18.2524 Y-23.0862
G01 X18.2586 Y-23.0786
G01 X18.2662 Y-23.0724
G01 X18.2749 Y-23.0678
G01 X18.2842 Y-23.0650
G01 X18.2940 Y-23.0640
G01 X18.3038 Y-23.0650
G01 X18.3131 Y-23.0678
G01 X18.3218 Y-23.0724
G01 X18.3294 Y-23.0786
G01 X18.3356 Y-23.0862
G01 X18.3402 Y-23.0949
G01 X18.3430 Y-23.1042
G01 X18.3440 Y-23.1140
G00 X18.3440 Y-23.1140
G01 F80.00
G01 Z-3.0000
G01 F80.00
G01 X18.3430 Y-23.1238
G01 X18.3402 Y-23.1331
G01 X18.3356 Y-23.1418
G01 X18.3294 Y-23.1494
G01 X18.3218 Y-23.1556
G01 X18.3131 Y-23.1602
G01 X18.3038 Y-23.1630
G01 X18.2940 Y-23.1640
G01 X18.2842 Y-23.1630
G01 X18.2749 Y-23.1602
G01 X18.2662 Y-23.1556
G01 X18.2586 Y-23.1494
G01 X18.2524 Y-23.1418
G01 X18.2478 Y-23.1331
G01 X18.2450 Y-23.1238
G01 X18.2440 Y-23.1140
G01 X18.2450 Y-23.1042
G01 X18.2478 Y-23.0949
G01 X18.2524 Y-23.0862
G01 X18.2586 Y-23.0786
G01 X18.2662 Y-23.0724
G01 X18.2749 Y-23.0678
G01 X18.2842 Y-23.0650
G01 X18.2940 Y-23.0640
G01 X18.3038 Y-23.0650
G01 X18.3131 Y-23.0678
G01 X18.3218 Y-23.0724
G01 X18.3294 Y-23.0786
G01 X18.3356 Y-23.0862
G01 X18.3402 Y-23.0949
G01 X18.3430 Y-23.1042
G01 X18.3440 Y-23.1140
G00 Z1.9990
G00 X40.9440 Y-23.1140
G01 F80.00
G01 Z-0.8001
G01 F80.00
G01 X40.9430 Y-23.1238
G01 X40.9402 Y-23.1331
G01 X40.9356 Y-23.1418
G01 X40.9294 Y-23.1494
G01 X40.9218 Y-23.1556
G01 X40.9131 Y-23.1602
G01 X40.9038 Y-23.1630
G01 X40.8940 Y-23.1640
G01 X40.8842 Y-23.1630
G01 X40.8749 Y-23.1602
G01 X40.8662 Y-23.1556
G01 X40.8586 Y-23.1494
G01 X40.8524 Y-23.1418
G01 X40.8478 Y-23.1331
G01 X40.8450 Y-23.1238
G01 X40.8440 Y-23.1140
G01 X40.8450 Y-23.1042
G01 X40.8478 Y-23.0949
G01 X40.8524 Y-23.0862
G01 X40.8586 Y-23.0786
G01 X40.8662 Y-23.0724
G01 X40.8749 Y-23.0678
G01 X40.8842 Y-23.0650
G01 X40.8940 Y-23.0640
G01 X40.9038 Y-23.0650
G01 X40.9131 Y-23.0678
G01 X40.9218 Y-23.0724
G01 X40.9294 Y-23.0786
G01 X40.9356 Y-23.0862
G01 X40.9402 Y-23.0949
G01 X40.9430 Y-23.1042
G01 X40.9440 Y-23.1140
G00 X40.9440 Y-23.1140
G01 F80.00
G01 Z-1.6002
G01 F80.00
G01 X40.9430 Y-23.1238
G01 X40.9402 Y-23.1331
G01 X40.9356 Y-23.1418
G01 X40.9294 Y-23.1494
G01 X40.9218 Y-23.1556
G01 X40.9131 Y-23.1602
G01 X40.9038 Y-23.1630
G01 X40.8940 Y-23.1640
G01 X40.8842 Y-23.1630
G01 X40.8749 Y-23.1602
G01 X40.8662 Y-23.1556
G01 X40.8586 Y-23.1494
G01 X40.8524 Y-23.1418
G01 X40.8478 Y-23.1331
G01 X40.8450 Y-23.1238
G01 X40.8440 Y-23.1140
G01 X40.8450 Y-23.1042
G01 X40.8478 Y-23.0949
G01 X40.8524 Y-23.0862
G01 X40.8586 Y-23.0786
G01 X40.8662 Y-23.0724
G01 X40.8749 Y-23.0678
G01 X40.8842 Y-23.0650
G01 X40.8940 Y-23.0640
G01 X40.9038 Y-23.0650
G01 X40.9131 Y-23.0678
G01 X40.9218 Y-23.0724
G01 X40.9294 Y-23.0786
G01 X40.9356 Y-23.0862
G01 X40.9402 Y-23.0949
G01 X40.9430 Y-23.1042
G01 X40.9440 Y-23.1140
G00 X40.9440 Y-23.1140
G01 F80.00
G01 Z-2.4003
G01 F80.00
G01 X40.9430 Y-23.1238
G01 X40.9402 Y-23.1331
G01 X40.9356 Y-23.1418
G01 X40.9294 Y-23.1494
G01 X40.9218 Y-23.1556
G01 X40.9131 Y-23.1602
G01 X40.9038 Y-23.1630
G01 X40.8940 Y-23.1640
G01 X40.8842 Y-23.1630
G01 X40.8749 Y-23.1602
G01 X40.8662 Y-23.1556
G01 X40.8586 Y-23.1494
G01 X40.8524 Y-23.1418
G01 X40.8478 Y-23.1331
G01 X40.8450 Y-23.1238
G01 X40.8440 Y-23.1140
G01 X40.8450 Y-23.1042
G01 X40.8478 Y-23.0949
G01 X40.8524 Y-23.0862
G01 X40.8586 Y-23.0786
G01 X40.8662 Y-23.0724
G01 X40.8749 Y-23.0678
G01 X40.8842 Y-23.0650
G01 X40.8940 Y-23.0640
G01 X40.9038 Y-23.0650
G01 X40.9131 Y-23.0678
G01 X40.9218 Y-23.0724
G01 X40.9294 Y-23.0786
G01 X40.9356 Y-23.0862
G01 X40.9402 Y-23.0949
G01 X40.9430 Y-23.1042
G01 X40.9440 Y-23.1140
G00 X40.9440 Y-23.1140
G01 F80.00
G01 Z-3.0000
G01 F80.00
G01 X40.9430 Y-23.1238
G01 X40.9402 Y-23.1331
G01 X40.9356 Y-23.1418
G01 X40.9294 Y-23.1494
G01 X40.9218 Y-23.1556
G01 X40.9131 Y-23.1602
G01 X40.9038 Y-23.1630
G01 X40.8940 Y-23.1640
G01 X40.8842 Y-23.1630
G01 X40.8749 Y-23.1602
G01 X40.8662 Y-23.1556
G01 X40.8586 Y-23.1494
G01 X40.8524 Y-23.1418
G01 X40.8478 Y-23.1331
G01 X40.8450 Y-23.1238
G01 X40.8440 Y-23.1140
G01 X40.8450 Y-23.1042
G01 X40.8478 Y-23.0949
G01 X40.8524 Y-23.0862
G01 X40.8586 Y-23.0786
G01 X40.8662 Y-23.0724
G01 X40.8749 Y-23.0678
G01 X40.8842 Y-23.0650
G01 X40.8940 Y-23.0640
G01 X40.9038 Y-23.0650
G01 X40.9131 Y-23.0678
G01 X40.9218 Y-23.0724
G01 X40.9294 Y-23.0786
G01 X40.9356 Y-23.0862
G01 X40.9402 Y-23.0949
G01 X40.9430 Y-23.1042
G01 X40.9440 Y-23.1140
G00 Z1.9990
G00 X50.3260 Y-26.6930
G01 F80.00
G01 Z-0.8001
G01 F80.00
G01 X50.3209 Y-26.7959
G01 X50.3058 Y-26.8978
G01 X50.2808 Y-26.9978
G01 X50.2461 Y-27.0948
G01 X50.2020 Y-27.1880
G01 X50.1490 Y-27.2763
G01 X50.0877 Y-27.3591
G01 X50.0185 Y-27.4355
G01 X49.9421 Y-27.5047
G01 X49.8593 Y-27.5660
G01 X49.7710 Y-27.6190
G01 X49.6778 Y-27.6631
G01 X49.5808 Y-27.6978
G01 X49.4808 Y-27.7228
G01 X49.3789 Y-27.7379
G01 X49.2760 Y-27.7430
G01 X49.1731 Y-27.7379
G01 X49.0712 Y-27.7228
G01 X48.9712 Y-27.6978
G01 X48.8742 Y-27.6631
G01 X48.7810 Y-27.6190
G01 X48.6927 Y-27.5660
G01 X48.6099 Y-27.5047
G01 X48.5335 Y-27.4355
G01 X48.4643 Y-27.3591
G01 X48.4030 Y-27.2763
G01 X48.3500 Y-27.1880
G01 X48.3059 Y-27.0948
G01 X48.2712 Y-26.9978
G01 X48.2462 Y-26.8978
G01 X48.2311 Y-26.7959
G01 X48.2260 Y-26.6930
G01 X48.2311 Y-26.5901
G01 X48.2462 Y-26.4882
G01 X48.2712 Y-26.3882
G01 X48.3059 Y-26.2912
G01 X48.3500 Y-26.1980
G01 X48.4030 Y-26.1097
G01 X48.4643 Y-26.0269
G01 X48.5335 Y-25.9505
G01 X48.6099 Y-25.8813
G01 X48.6927 Y-25.8200
G01 X48.7810 Y-25.7670
G01 X48.8742 Y-25.7229
G01 X48.9712 Y-25.6882
G01 X49.0712 Y-25.6632
G01 X49.1731 Y-25.6481
G01 X49.2760 Y-25.6430
G01 X49.3789 Y-25.6481
G01 X49.4808 Y-25.6632
G01 X49.5808 Y-25.6882
G01 X49.6778 Y-25.7229
G01 X49.7710 Y-25.7670
G01 X49.8593 Y-25.8200
G01 X49.9421 Y-25.8813
G01 X50.0185 Y-25.9505
G01 X50.0877 Y-26.0269
G01 X50.1490 Y-26.1097
G01 X50.2020 Y-26.1980
G01 X50.2461 Y-26.2912
G01 X50.2808 Y-26.3882
G01 X50.3058 Y-26.4882
G01 X50.3209 Y-26.5901
G01 X50.3260 Y-26.6930
G00 X50.3260 Y-26.6930
G01 F80.00
G01 Z-1.6002
G01 F80.00
G01 X50.3209 Y-26.7959
G01 X50.3058 Y-26.8978
G01 X50.2808 Y-26.9978
G01 X50.2461 Y-27.0948
G01 X50.2020 Y-27.1880
G01 X50.1490 Y-27.2763
G01 X50.0877 Y-27.3591
G01 X50.0185 Y-27.4355
G01 X49.9421 Y-27.5047
G01 X49.8593 Y-27.5660
G01 X49.7710 Y-27.6190
G01 X49.6778 Y-27.6631
G01 X49.5808 Y-27.6978
G01 X49.4808 Y-27.7228
G01 X49.3789 Y-27.7379
G01 X49.2760 Y-27.7430
G01 X49.1731 Y-27.7379
G01 X49.0712 Y-27.7228
G01 X48.9712 Y-27.6978
G01 X48.8742 Y-27.6631
G01 X48.7810 Y-27.6190
G01 X48.6927 Y-27.5660
G01 X48.6099 Y-27.5047
G01 X48.5335 Y-27.4355
G01 X48.4643 Y-27.3591
G01 X48.4030 Y-27.2763
G01 X48.3500 Y-27.1880
G01 X48.3059 Y-27.0948
G01 X48.2712 Y-26.9978
G01 X48.2462 Y-26.8978
G01 X48.2311 Y-26.7959
G01 X48.2260 Y-26.6930
G01 X48.2311 Y-26.5901
G01 X48.2462 Y-26.4882
G01 X48.2712 Y-26.3882
G01 X48.3059 Y-26.2912
G01 X48.3500 Y-26.1980
G01 X48.4030 Y-26.1097
G01 X48.4643 Y-26.0269
G01 X48.5335 Y-25.9505
G01 X48.6099 Y-25.8813
G01 X48.6927 Y-25.8200
G01 X48.7810 Y-25.7670
G01 X48.8742 Y-25.7229
G01 X48.9712 Y-25.6882
G01 X49.0712 Y-25.6632
G01 X49.1731 Y-25.6481
G01 X49.2760 Y-25.6430
G01 X49.3789 Y-25.6481
G01 X49.4808 Y-25.6632
G01 X49.5808 Y-25.6882
G01 X49.6778 Y-25.7229
G01 X49.7710 Y-25.7670
G01 X49.8593 Y-25.8200
G01 X49.9421 Y-25.8813
G01 X50.0185 Y-25.9505
G01 X50.0877 Y-26.0269
G01 X50.1490 Y-26.1097
G01 X50.2020 Y-26.1980
G01 X50.2461 Y-26.2912
G01 X50.2808 Y-26.3882
G01 X50.3058 Y-26.4882
G01 X50.3209 Y-26.5901
G01 X50.3260 Y-26.6930
G00 X50.3260 Y-26.6930
G01 F80.00
G01 Z-2.4003
G01 F80.00
G01 X50.3209 Y-26.7959
G01 X50.3058 Y-26.8978
G01 X50.2808 Y-26.9978
G01 X50.2461 Y-27.0948
G01 X50.2020 Y-27.1880
G01 X50.1490 Y-27.2763
G01 X50.0877 Y-27.3591
G01 X50.0185 Y-27.4355
G01 X49.9421 Y-27.5047
G01 X49.8593 Y-27.5660
G01 X49.7710 Y-27.6190
G01 X49.6778 Y-27.6631
G01 X49.5808 Y-27.6978
G01 X49.4808 Y-27.7228
G01 X49.3789 Y-27.7379
G01 X49.2760 Y-27.7430
G01 X49.1731 Y-27.7379
G01 X49.0712 Y-27.7228
G01 X48.9712 Y-27.6978
G01 X48.8742 Y-27.6631
G01 X48.7810 Y-27.6190
G01 X48.6927 Y-27.5660
G01 X48.6099 Y-27.5047
G01 X48.5335 Y-27.4355
G01 X48.4643 Y-27.3591
G01 X48.4030 Y-27.2763
G01 X48.3500 Y-27.1880
G01 X48.3059 Y-27.0948
G01 X48.2712 Y-26.9978
G01 X48.2462 Y-26.8978
G01 X48.2311 Y-26.7959
G01 X48.2260 Y-26.6930
G01 X48.2311 Y-26.5901
G01 X48.2462 Y-26.4882
G01 X48.2712 Y-26.3882
G01 X48.3059 Y-26.2912
G01 X48.3500 Y-26.1980
G01 X48.4030 Y-26.1097
G01 X48.4643 Y-26.0269
G01 X48.5335 Y-25.9505
G01 X48.6099 Y-25.8813
G01 X48.6927 Y-25.8200
G01 X48.7810 Y-25.7670
G01 X48.8742 Y-25.7229
G01 X48.9712 Y-25.6882
G01 X49.0712 Y-25.6632
G01 X49.1731 Y-25.6481
G01 X49.2760 Y-25.6430
G01 X49.3789 Y-25.6481
G01 X49.4808 Y-25.6632
G01 X49.5808 Y-25.6882
G01 X49.6778 Y-25.7229
G01 X49.7710 Y-25.7670
G01 X49.8593 Y-25.8200
G01 X49.9421 Y-25.8813
G01 X50.0185 Y-25.9505
G01 X50.0877 Y-26.0269
G01 X50.1490 Y-26.1097
G01 X50.2020 Y-26.1980
G01 X50.2461 Y-26.2912
G01 X50.2808 Y-26.3882
G01 X50.3058 Y-26.4882
G01 X50.3209 Y-26.5901
G01 X50.3260 Y-26.6930
G00 X50.3260 Y-26.6930
G01 F80.00
G01 Z-3.0000
G01 F80.00
G01 X50.3209 Y-26.7959
G01 X50.3058 Y-26.8978
G01 X50.2808 Y-26.9978
G01 X50.2461 Y-27.0948
G01 X50.2020 Y-27.1880
G01 X50.1490 Y-27.2763
G01 X50.0877 Y-27.3591
G01 X50.0185 Y-27.4355
G01 X49.9421 Y-27.5047
G01 X49.8593 Y-27.5660
G01 X49.7710 Y-27.6190
G01 X49.6778 Y-27.6631
G01 X49.5808 Y-27.6978
G01 X49.4808 Y-27.7228
G01 X49.3789 Y-27.7379
G01 X49.2760 Y-27.7430
G01 X49.1731 Y-27.7379
G01 X49.0712 Y-27.7228
G01 X48.9712 Y-27.6978
G01 X48.8742 Y-27.6631
G01 X48.7810 Y-27.6190
G01 X48.6927 Y-27.5660
G01 X48.6099 Y-27.5047
G01 X48.5335 Y-27.4355
G01 X48.4643 Y-27.3591
G01 X48.4030 Y-27.2763
G01 X48.3500 Y-27.1880
G01 X48.3059 Y-27.0948
G01 X48.2712 Y-26.9978
G01 X48.2462 Y-26.8978
G01 X48.2311 Y-26.7959
G01 X48.2260 Y-26.6930
G01 X48.2311 Y-26.5901
G01 X48.2462 Y-26.4882
G01 X48.2712 Y-26.3882
G01 X48.3059 Y-26.2912
G01 X48.3500 Y-26.1980
G01 X48.4030 Y-26.1097
G01 X48.4643 Y-26.0269
G01 X48.5335 Y-25.9505
G01 X48.6099 Y-25.8813
G01 X48.6927 Y-25.8200
G01 X48.7810 Y-25.7670
G01 X48.8742 Y-25.7229
G01 X48.9712 Y-25.6882
G01 X49.0712 Y-25.6632
G01 X49.1731 Y-25.6481
G01 X49.2760 Y-25.6430
G01 X49.3789 Y-25.6481
G01 X49.4808 Y-25.6632
G01 X49.5808 Y-25.6882
G01 X49.6778 Y-25.7229
G01 X49.7710 Y-25.7670
G01 X49.8593 Y-25.8200
G01 X49.9421 Y-25.8813
G01 X50.0185 Y-25.9505
G01 X50.0877 Y-26.0269
G01 X50.1490 Y-26.1097
G01 X50.2020 Y-26.1980
G01 X50.2461 Y-26.2912
G01 X50.2808 Y-26.3882
G01 X50.3058 Y-26.4882
G01 X50.3209 Y-26.5901
G01 X50.3260 Y-26.6930
G00 Z1.9990
G00 X58.7245 Y-36.5760
G01 F80.00
G01 Z-0.8001
G01 F80.00
G01 X58.7235 Y-36.5859
G01 X58.7207 Y-36.5953
G01 X58.7160 Y-36.6041
G01 X58.7097 Y-36.6117
G01 X58.7021 Y-36.6180
G01 X58.6933 Y-36.6227
G01 X58.6839 Y-36.6255
G01 X58.6740 Y-36.6265
G01 X58.6641 Y-36.6255
G01 X58.6547 Y-36.6227
G01 X58.6459 Y-36.6180
G01 X58.6383 Y-36.6117
G01 X58.6320 Y-36.6041
G01 X58.6273 Y-36.5953
G01 X58.6245 Y-36.5859
G01 X58.6235 Y-36.5760
G01 X58.6245 Y-36.5661
G01 X58.6273 Y-36.5567
G01 X58.6320 Y-36.5479
G01 X58.6383 Y-36.5403
G01 X58.6459 Y-36.5340
G01 X58.6547 Y-36.5293
G01 X58.6641 Y-36.5265
G01 X58.6740 Y-36.5255
G01 X58.6839 Y-36.5265
G01 X58.6933 Y-36.5293
G01 X58.7021 Y-36.5340
G01 X58.7097 Y-36.5403
G01 X58.7160 Y-36.5479
G01 X58.7207 Y-36.5567
G01 X58.7235 Y-36.5661
G01 X58.7245 Y-36.5760
G00 X58.7245 Y-36.5760
G01 F80.00
G01 Z-1.6002
G01 F80.00
G01 X58.7235 Y-36.5859
G01 X58.7207 Y-36.5953
G01 X58.7160 Y-36.6041
G01 X58.7097 Y-36.6117
G01 X58.7021 Y-36.6180
G01 X58.6933 Y-36.6227
G01 X58.6839 Y-36.6255
G01 X58.6740 Y-36.6265
G01 X58.6641 Y-36.6255
G01 X58.6547 Y-36.6227
G01 X58.6459 Y-36.6180
G01 X58.6383 Y-36.6117
G01 X58.6320 Y-36.6041
G01 X58.6273 Y-36.5953
G01 X58.6245 Y-36.5859
G01 X58.6235 Y-36.5760
G01 X58.6245 Y-36.5661
G01 X58.6273 Y-36.5567
G01 X58.6320 Y-36.5479
G01 X58.6383 Y-36.5403
G01 X58.6459 Y-36.5340
G01 X58.6547 Y-36.5293
G01 X58.6641 Y-36.5265
G01 X58.6740 Y-36.5255
G01 X58.6839 Y-36.5265
G01 X58.6933 Y-36.5293
G01 X58.7021 Y-36.5340
G01 X58.7097 Y-36.5403
G01 X58.7160 Y-36.5479
G01 X58.7207 Y-36.5567
G01 X58.7235 Y-36.5661
G01 X58.7245 Y-36.5760
G00 X58.7245 Y-36.5760
G01 F80.00
G01 Z-2.4003
G01 F80.00
G01 X58.7235 Y-36.5859
G01 X58.7207 Y-36.5953
G01 X58.7160 Y-36.6041
G01 X58.7097 Y-36.6117
G01 X58.7021 Y-36.6180
G01 X58.6933 Y-36.6227
G01 X58.6839 Y-36.6255
G01 X58.6740 Y-36.6265
G01 X58.6641 Y-36.6255
G01 X58.6547 Y-36.6227
G01 X58.6459 Y-36.6180
G01 X58.6383 Y-36.6117
G01 X58.6320 Y-36.6041
G01 X58.6273 Y-36.5953
G01 X58.6245 Y-36.5859
G01 X58.6235 Y-36.5760
G01 X58.6245 Y-36.5661
G01 X58.6273 Y-36.5567
G01 X58.6320 Y-36.5479
G01 X58.6383 Y-36.5403
G01 X58.6459 Y-36.5340
G01 X58.6547 Y-36.5293
G01 X58.6641 Y-36.5265
G01 X58.6740 Y-36.5255
G01 X58.6839 Y-36.5265
G01 X58.6933 Y-36.5293
G01 X58.7021 Y-36.5340
G01 X58.7097 Y-36.5403
G01 X58.7160 Y-36.5479
G01 X58.7207 Y-36.5567
G01 X58.7235 Y-36.5661
G01 X58.7245 Y-36.5760
G00 X58.7245 Y-36.5760
G01 F80.00
G01 Z-3.0000
G01 F80.00
G01 X58.7235 Y-36.5859
G01 X58.7207 Y-36.5953
G01 X58.7160 Y-36.6041
G01 X58.7097 Y-36.6117
G01 X58.7021 Y-36.6180
G01 X58.6933 Y-36.6227
G01 X58.6839 Y-36.6255
G01 X58.6740 Y-36.6265
G01 X58.6641 Y-36.6255
G01 X58.6547 Y-36.6227
G01 X58.6459 Y-36.6180
G01 X58.6383 Y-36.6117
G01 X58.6320 Y-36.6041
G01 X58.6273 Y-36.5953
G01 X58.6245 Y-36.5859
G01 X58.6235 Y-36.5760
G01 X58.6245 Y-36.5661
G01 X58.6273 Y-36.5567
G01 X58.6320 Y-36.5479
G01 X58.6383 Y-36.5403
G01 X58.6459 Y-36.5340
G01 X58.6547 Y-36.5293
G01 X58.6641 Y-36.5265
G01 X58.6740 Y-36.5255
G01 X58.6839 Y-36.5265
G01 X58.6933 Y-36.5293
G01 X58.7021 Y-36.5340
G01 X58.7097 Y-36.5403
G01 X58.7160 Y-36.5479
G01 X58.7207 Y-36.5567
G01 X58.7235 Y-36.5661
G01 X58.7245 Y-36.5760
G00 Z1.9990
G00 X58.7245 Y-41.6560
G01 F80.00
G01 Z-0.8001
G01 F80.00
G01 X58.7235 Y-41.6659
G01 X58.7207 Y-41.6753
G01 X58.7160 Y-41.6841
G01 X58.7097 Y-41.6917
G01 X58.7021 Y-41.6980
G01 X58.6933 Y-41.7027
G01 X58.6839 Y-41.7055
G01 X58.6740 Y-41.7065
G01 X58.6641 Y-41.7055
G01 X58.6547 Y-41.7027
G01 X58.6459 Y-41.6980
G01 X58.6383 Y-41.6917
G01 X58.6320 Y-41.6841
G01 X58.6273 Y-41.6753
G01 X58.6245 Y-41.6659
G01 X58.6235 Y-41.6560
G01 X58.6245 Y-41.6461
G01 X58.6273 Y-41.6367
G01 X58.6320 Y-41.6279
G01 X58.6383 Y-41.6203
G01 X58.6459 Y-41.6140
G01 X58.6547 Y-41.6093
G01 X58.6641 Y-41.6065
G01 X58.6740 Y-41.6055
G01 X58.6839 Y-41.6065
G01 X58.6933 Y-41.6093
G01 X58.7021 Y-41.6140
G01 X58.7097 Y-41.6203
G01 X58.7160 Y-41.6279
G01 X58.7207 Y-41.6367
G01 X58.7235 Y-41.6461
G01 X58.7245 Y-41.6560
G00 X58.7245 Y-41.6560
G01 F80.00
G01 Z-1.6002
G01 F80.00
G01 X58.7235 Y-41.6659
G01 X58.7207 Y-41.6753
G01 X58.7160 Y-41.6841
G01 X58.7097 Y-41.6917
G01 X58.7021 Y-41.6980
G01 X58.6933 Y-41.7027
G01 X58.6839 Y-41.7055
G01 X58.6740 Y-41.7065
G01 X58.6641 Y-41.7055
G01 X58.6547 Y-41.7027
G01 X58.6459 Y-41.6980
G01 X58.6383 Y-41.6917
G01 X58.6320 Y-41.6841
G01 X58.6273 Y-41.6753
G01 X58.6245 Y-41.6659
G01 X58.6235 Y-41.6560
G01 X58.6245 Y-41.6461
G01 X58.6273 Y-41.6367
G01 X58.6320 Y-41.6279
G01 X58.6383 Y-41.6203
G01 X58.6459 Y-41.6140
G01 X58.6547 Y-41.6093
G01 X58.6641 Y-41.6065
G01 X58.6740 Y-41.6055
G01 X58.6839 Y-41.6065
G01 X58.6933 Y-41.6093
G01 X58.7021 Y-41.6140
G01 X58.7097 Y-41.6203
G01 X58.7160 Y-41.6279
G01 X58.7207 Y-41.6367
G01 X58.7235 Y-41.6461
G01 X58.7245 Y-41.6560
G00 X58.7245 Y-41.6560
G01 F80.00
G01 Z-2.4003
G01 F80.00
G01 X58.7235 Y-41.6659
G01 X58.7207 Y-41.6753
G01 X58.7160 Y-41.6841
G01 X58.7097 Y-41.6917
G01 X58.7021 Y-41.6980
G01 X58.6933 Y-41.7027
G01 X58.6839 Y-41.7055
G01 X58.6740 Y-41.7065
G01 X58.6641 Y-41.7055
G01 X58.6547 Y-41.7027
G01 X58.6459 Y-41.6980
G01 X58.6383 Y-41.6917
G01 X58.6320 Y-41.6841
G01 X58.6273 Y-41.6753
G01 X58.6245 Y-41.6659
G01 X58.6235 Y-41.6560
G01 X58.6245 Y-41.6461
G01 X58.6273 Y-41.6367
G01 X58.6320 Y-41.6279
G01 X58.6383 Y-41.6203
G01 X58.6459 Y-41.6140
G01 X58.6547 Y-41.6093
G01 X58.6641 Y-41.6065
G01 X58.6740 Y-41.6055
G01 X58.6839 Y-41.6065
G01 X58.6933 Y-41.6093
G01 X58.7021 Y-41.6140
G01 X58.7097 Y-41.6203
G01 X58.7160 Y-41.6279
G01 X58.7207 Y-41.6367
G01 X58.7235 Y-41.6461
G01 X58.7245 Y-41.6560
G00 X58.7245 Y-41.6560
G01 F80.00
G01 Z-3.0000
G01 F80.00
G01 X58.7235 Y-41.6659
G01 X58.7207 Y-41.6753
G01 X58.7160 Y-41.6841
G01 X58.7097 Y-41.6917
G01 X58.7021 Y-41.6980
G01 X58.6933 Y-41.7027
G01 X58.6839 Y-41.7055
G01 X58.6740 Y-41.7065
G01 X58.6641 Y-41.7055
G01 X58.6547 Y-41.7027
G01 X58.6459 Y-41.6980
G01 X58.6383 Y-41.6917
G01 X58.6320 Y-41.6841
G01 X58.6273 Y-41.6753
G01 X58.6245 Y-41.6659
G01 X58.6235 Y-41.6560
G01 X58.6245 Y-41.6461
G01 X58.6273 Y-41.6367
G01 X58.6320 Y-41.6279
G01 X58.6383 Y-41.6203
G01 X58.6459 Y-41.6140
G01 X58.6547 Y-41.6093
G01 X58.6641 Y-41.6065
G01 X58.6740 Y-41.6055
G01 X58.6839 Y-41.6065
G01 X58.6933 Y-41.6093
G01 X58.7021 Y-41.6140
G01 X58.7097 Y-41.6203
G01 X58.7160 Y-41.6279
G01 X58.7207 Y-41.6367
G01 X58.7235 Y-41.6461
G01 X58.7245 Y-41.6560
G00 Z1.9990
M05
G00 Z1.9990
G00 Z12.70
G00 X0.0 Y0.0

M02