(G-CODE GENERATED BY FLATCAM v8.96 - www.flatcam.org - Version Date: 2019/08/23)

(Name: edge)
(Type: G-code from Geometry)
(Units: MM)

(Created on samedi, 07 septembre 2019 at 18:29)

(TOOL DIAMETER: 1.4 mm)
(Feedrate: 40.0 mm/min)
(Feedrate_Z: 40.0 mm/min)
(Feedrate rapids 79.9998 mm/min)

(Z_Cut: -2.4003 mm)
(DepthPerCut: 0.3 mm <=>9 passes)
(Z_Move: 1.999 mm)
(Z Toolchange: 12.7 mm)
(X,Y Toolchange: 0.0000, 0.0000 mm)
(Z Start: None mm)
(Z End: 12.7 mm)
(Steps per circle: 128)
(Postprocessor Geometry: default)

(X range:   -5.3191 ...   65.2631  mm)
(Y range:  -50.1501 ...    5.1921  mm)

(Spindle Speed: None RPM)

G21
G90
G94

G01 F40.00
G00 Z1.9990

M03
G00 X-5.3191 Y-21.1799
G01 F40.00
G01 Z-0.3000
G01 F40.00
G01 X-5.3191 Y4.3278
G01 X-5.3169 Y4.3805
G01 X-5.3123 Y4.4268
G01 X-5.3066 Y4.4656
G01 X-5.3023 Y4.4885
G01 X-5.2929 Y4.5304
G01 X-5.2815 Y4.5717
G01 X-5.2680 Y4.6125
G01 X-5.2526 Y4.6525
G01 X-5.2434 Y4.6739
G01 X-5.2266 Y4.7094
G01 X-5.2065 Y4.7472
G01 X-5.1825 Y4.7872
G01 X-5.1607 Y4.8198
G01 X-5.1471 Y4.8387
G01 X-5.1207 Y4.8725
G01 X-5.0927 Y4.9050
G01 X-5.0768 Y4.9221
G01 X-5.0491 Y4.9498
G01 X-5.0173 Y4.9787
G01 X-4.9813 Y5.0082
G01 X-4.9468 Y5.0337
G01 X-4.9142 Y5.0555
G01 X-4.8944 Y5.0678
G01 X-4.8571 Y5.0889
G01 X-4.8187 Y5.1082
G01 X-4.7975 Y5.1179
G01 X-4.7613 Y5.1329
G01 X-4.7209 Y5.1474
G01 X-4.6987 Y5.1545
G01 X-4.6574 Y5.1659
G01 X-4.6155 Y5.1753
G01 X-4.5926 Y5.1796
G01 X-4.5538 Y5.1853
G01 X-4.5111 Y5.1896
G01 X-4.4879 Y5.1911
G01 X-4.4450 Y5.1921
G01 X28.8711 Y5.1921
G00 X28.8711 Y5.1921
G01 F40.00
G01 Z-0.6000
G01 F40.00
G01 X-4.4450 Y5.1921
G01 X-4.4879 Y5.1911
G01 X-4.5111 Y5.1896
G01 X-4.5538 Y5.1853
G01 X-4.5926 Y5.1796
G01 X-4.6155 Y5.1753
G01 X-4.6574 Y5.1659
G01 X-4.6987 Y5.1545
G01 X-4.7209 Y5.1474
G01 X-4.7613 Y5.1329
G01 X-4.7975 Y5.1179
G01 X-4.8187 Y5.1082
G01 X-4.8571 Y5.0889
G01 X-4.8944 Y5.0678
G01 X-4.9142 Y5.0555
G01 X-4.9468 Y5.0337
G01 X-4.9813 Y5.0082
G01 X-5.0173 Y4.9787
G01 X-5.0491 Y4.9498
G01 X-5.0768 Y4.9221
G01 X-5.0927 Y4.9050
G01 X-5.1207 Y4.8725
G01 X-5.1471 Y4.8387
G01 X-5.1607 Y4.8198
G01 X-5.1825 Y4.7872
G01 X-5.2065 Y4.7472
G01 X-5.2266 Y4.7094
G01 X-5.2434 Y4.6739
G01 X-5.2526 Y4.6525
G01 X-5.2680 Y4.6125
G01 X-5.2815 Y4.5717
G01 X-5.2929 Y4.5304
G01 X-5.3023 Y4.4885
G01 X-5.3066 Y4.4656
G01 X-5.3123 Y4.4268
G01 X-5.3169 Y4.3805
G01 X-5.3191 Y4.3278
G01 X-5.3191 Y-21.1799
G00 X-5.3191 Y-21.1799
G01 F40.00
G01 Z-0.9000
G01 F40.00
G01 X-5.3191 Y4.3278
G01 X-5.3169 Y4.3805
G01 X-5.3123 Y4.4268
G01 X-5.3066 Y4.4656
G01 X-5.3023 Y4.4885
G01 X-5.2929 Y4.5304
G01 X-5.2815 Y4.5717
G01 X-5.2680 Y4.6125
G01 X-5.2526 Y4.6525
G01 X-5.2434 Y4.6739
G01 X-5.2266 Y4.7094
G01 X-5.2065 Y4.7472
G01 X-5.1825 Y4.7872
G01 X-5.1607 Y4.8198
G01 X-5.1471 Y4.8387
G01 X-5.1207 Y4.8725
G01 X-5.0927 Y4.9050
G01 X-5.0768 Y4.9221
G01 X-5.0491 Y4.9498
G01 X-5.0173 Y4.9787
G01 X-4.9813 Y5.0082
G01 X-4.9468 Y5.0337
G01 X-4.9142 Y5.0555
G01 X-4.8944 Y5.0678
G01 X-4.8571 Y5.0889
G01 X-4.8187 Y5.1082
G01 X-4.7975 Y5.1179
G01 X-4.7613 Y5.1329
G01 X-4.7209 Y5.1474
G01 X-4.6987 Y5.1545
G01 X-4.6574 Y5.1659
G01 X-4.6155 Y5.1753
G01 X-4.5926 Y5.1796
G01 X-4.5538 Y5.1853
G01 X-4.5111 Y5.1896
G01 X-4.4879 Y5.1911
G01 X-4.4450 Y5.1921
G01 X28.8711 Y5.1921
G00 X28.8711 Y5.1921
G01 F40.00
G01 Z-1.2000
G01 F40.00
G01 X-4.4450 Y5.1921
G01 X-4.4879 Y5.1911
G01 X-4.5111 Y5.1896
G01 X-4.5538 Y5.1853
G01 X-4.5926 Y5.1796
G01 X-4.6155 Y5.1753
G01 X-4.6574 Y5.1659
G01 X-4.6987 Y5.1545
G01 X-4.7209 Y5.1474
G01 X-4.7613 Y5.1329
G01 X-4.7975 Y5.1179
G01 X-4.8187 Y5.1082
G01 X-4.8571 Y5.0889
G01 X-4.8944 Y5.0678
G01 X-4.9142 Y5.0555
G01 X-4.9468 Y5.0337
G01 X-4.9813 Y5.0082
G01 X-5.0173 Y4.9787
G01 X-5.0491 Y4.9498
G01 X-5.0768 Y4.9221
G01 X-5.0927 Y4.9050
G01 X-5.1207 Y4.8725
G01 X-5.1471 Y4.8387
G01 X-5.1607 Y4.8198
G01 X-5.1825 Y4.7872
G01 X-5.2065 Y4.7472
G01 X-5.2266 Y4.7094
G01 X-5.2434 Y4.6739
G01 X-5.2526 Y4.6525
G01 X-5.2680 Y4.6125
G01 X-5.2815 Y4.5717
G01 X-5.2929 Y4.5304
G01 X-5.3023 Y4.4885
G01 X-5.3066 Y4.4656
G01 X-5.3123 Y4.4268
G01 X-5.3169 Y4.3805
G01 X-5.3191 Y4.3278
G01 X-5.3191 Y-21.1799
G00 X-5.3191 Y-21.1799
G01 F40.00
G01 Z-1.5000
G01 F40.00
G01 X-5.3191 Y4.3278
G01 X-5.3169 Y4.3805
G01 X-5.3123 Y4.4268
G01 X-5.3066 Y4.4656
G01 X-5.3023 Y4.4885
G01 X-5.2929 Y4.5304
G01 X-5.2815 Y4.5717
G01 X-5.2680 Y4.6125
G01 X-5.2526 Y4.6525
G01 X-5.2434 Y4.6739
G01 X-5.2266 Y4.7094
G01 X-5.2065 Y4.7472
G01 X-5.1825 Y4.7872
G01 X-5.1607 Y4.8198
G01 X-5.1471 Y4.8387
G01 X-5.1207 Y4.8725
G01 X-5.0927 Y4.9050
G01 X-5.0768 Y4.9221
G01 X-5.0491 Y4.9498
G01 X-5.0173 Y4.9787
G01 X-4.9813 Y5.0082
G01 X-4.9468 Y5.0337
G01 X-4.9142 Y5.0555
G01 X-4.8944 Y5.0678
G01 X-4.8571 Y5.0889
G01 X-4.8187 Y5.1082
G01 X-4.7975 Y5.1179
G01 X-4.7613 Y5.1329
G01 X-4.7209 Y5.1474
G01 X-4.6987 Y5.1545
G01 X-4.6574 Y5.1659
G01 X-4.6155 Y5.1753
G01 X-4.5926 Y5.1796
G01 X-4.5538 Y5.1853
G01 X-4.5111 Y5.1896
G01 X-4.4879 Y5.1911
G01 X-4.4450 Y5.1921
G01 X28.8711 Y5.1921
G00 X28.8711 Y5.1921
G01 F40.00
G01 Z-1.8000
G01 F40.00
G01 X-4.4450 Y5.1921
G01 X-4.4879 Y5.1911
G01 X-4.5111 Y5.1896
G01 X-4.5538 Y5.1853
G01 X-4.5926 Y5.1796
G01 X-4.6155 Y5.1753
G01 X-4.6574 Y5.1659
G01 X-4.6987 Y5.1545
G01 X-4.7209 Y5.1474
G01 X-4.7613 Y5.1329
G01 X-4.7975 Y5.1179
G01 X-4.8187 Y5.1082
G01 X-4.8571 Y5.0889
G01 X-4.8944 Y5.0678
G01 X-4.9142 Y5.0555
G01 X-4.9468 Y5.0337
G01 X-4.9813 Y5.0082
G01 X-5.0173 Y4.9787
G01 X-5.0491 Y4.9498
G01 X-5.0768 Y4.9221
G01 X-5.0927 Y4.9050
G01 X-5.1207 Y4.8725
G01 X-5.1471 Y4.8387
G01 X-5.1607 Y4.8198
G01 X-5.1825 Y4.7872
G01 X-5.2065 Y4.7472
G01 X-5.2266 Y4.7094
G01 X-5.2434 Y4.6739
G01 X-5.2526 Y4.6525
G01 X-5.2680 Y4.6125
G01 X-5.2815 Y4.5717
G01 X-5.2929 Y4.5304
G01 X-5.3023 Y4.4885
G01 X-5.3066 Y4.4656
G01 X-5.3123 Y4.4268
G01 X-5.3169 Y4.3805
G01 X-5.3191 Y4.3278
G01 X-5.3191 Y-21.1799
G00 X-5.3191 Y-21.1799
G01 F40.00
G01 Z-2.1000
G01 F40.00
G01 X-5.3191 Y4.3278
G01 X-5.3169 Y4.3805
G01 X-5.3123 Y4.4268
G01 X-5.3066 Y4.4656
G01 X-5.3023 Y4.4885
G01 X-5.2929 Y4.5304
G01 X-5.2815 Y4.5717
G01 X-5.2680 Y4.6125
G01 X-5.2526 Y4.6525
G01 X-5.2434 Y4.6739
G01 X-5.2266 Y4.7094
G01 X-5.2065 Y4.7472
G01 X-5.1825 Y4.7872
G01 X-5.1607 Y4.8198
G01 X-5.1471 Y4.8387
G01 X-5.1207 Y4.8725
G01 X-5.0927 Y4.9050
G01 X-5.0768 Y4.9221
G01 X-5.0491 Y4.9498
G01 X-5.0173 Y4.9787
G01 X-4.9813 Y5.0082
G01 X-4.9468 Y5.0337
G01 X-4.9142 Y5.0555
G01 X-4.8944 Y5.0678
G01 X-4.8571 Y5.0889
G01 X-4.8187 Y5.1082
G01 X-4.7975 Y5.1179
G01 X-4.7613 Y5.1329
G01 X-4.7209 Y5.1474
G01 X-4.6987 Y5.1545
G01 X-4.6574 Y5.1659
G01 X-4.6155 Y5.1753
G01 X-4.5926 Y5.1796
G01 X-4.5538 Y5.1853
G01 X-4.5111 Y5.1896
G01 X-4.4879 Y5.1911
G01 X-4.4450 Y5.1921
G01 X28.8711 Y5.1921
G00 X28.8711 Y5.1921
G01 F40.00
G01 Z-2.4000
G01 F40.00
G01 X-4.4450 Y5.1921
G01 X-4.4879 Y5.1911
G01 X-4.5111 Y5.1896
G01 X-4.5538 Y5.1853
G01 X-4.5926 Y5.1796
G01 X-4.6155 Y5.1753
G01 X-4.6574 Y5.1659
G01 X-4.6987 Y5.1545
G01 X-4.7209 Y5.1474
G01 X-4.7613 Y5.1329
G01 X-4.7975 Y5.1179
G01 X-4.8187 Y5.1082
G01 X-4.8571 Y5.0889
G01 X-4.8944 Y5.0678
G01 X-4.9142 Y5.0555
G01 X-4.9468 Y5.0337
G01 X-4.9813 Y5.0082
G01 X-5.0173 Y4.9787
G01 X-5.0491 Y4.9498
G01 X-5.0768 Y4.9221
G01 X-5.0927 Y4.9050
G01 X-5.1207 Y4.8725
G01 X-5.1471 Y4.8387
G01 X-5.1607 Y4.8198
G01 X-5.1825 Y4.7872
G01 X-5.2065 Y4.7472
G01 X-5.2266 Y4.7094
G01 X-5.2434 Y4.6739
G01 X-5.2526 Y4.6525
G01 X-5.2680 Y4.6125
G01 X-5.2815 Y4.5717
G01 X-5.2929 Y4.5304
G01 X-5.3023 Y4.4885
G01 X-5.3066 Y4.4656
G01 X-5.3123 Y4.4268
G01 X-5.3169 Y4.3805
G01 X-5.3191 Y4.3278
G01 X-5.3191 Y-21.1799
G00 X-5.3191 Y-21.1799
G01 F40.00
G01 Z-2.4003
G01 F40.00
G01 X-5.3191 Y4.3278
G01 X-5.3169 Y4.3805
G01 X-5.3123 Y4.4268
G01 X-5.3066 Y4.4656
G01 X-5.3023 Y4.4885
G01 X-5.2929 Y4.5304
G01 X-5.2815 Y4.5717
G01 X-5.2680 Y4.6125
G01 X-5.2526 Y4.6525
G01 X-5.2434 Y4.6739
G01 X-5.2266 Y4.7094
G01 X-5.2065 Y4.7472
G01 X-5.1825 Y4.7872
G01 X-5.1607 Y4.8198
G01 X-5.1471 Y4.8387
G01 X-5.1207 Y4.8725
G01 X-5.0927 Y4.9050
G01 X-5.0768 Y4.9221
G01 X-5.0491 Y4.9498
G01 X-5.0173 Y4.9787
G01 X-4.9813 Y5.0082
G01 X-4.9468 Y5.0337
G01 X-4.9142 Y5.0555
G01 X-4.8944 Y5.0678
G01 X-4.8571 Y5.0889
G01 X-4.8187 Y5.1082
G01 X-4.7975 Y5.1179
G01 X-4.7613 Y5.1329
G01 X-4.7209 Y5.1474
G01 X-4.6987 Y5.1545
G01 X-4.6574 Y5.1659
G01 X-4.6155 Y5.1753
G01 X-4.5926 Y5.1796
G01 X-4.5538 Y5.1853
G01 X-4.5111 Y5.1896
G01 X-4.4879 Y5.1911
G01 X-4.4450 Y5.1921
G01 X28.8711 Y5.1921
G00 Z1.9990
G00 X31.2711 Y5.1921
G01 F40.00
G01 Z-0.3000
G01 F40.00
G01 X61.8490 Y5.1921
G01 X61.8919 Y5.1911
G01 X61.9151 Y5.1896
G01 X61.9542 Y5.1858
G01 X61.9966 Y5.1796
G01 X62.0195 Y5.1753
G01 X62.0614 Y5.1659
G01 X62.1027 Y5.1545
G01 X62.1249 Y5.1474
G01 X62.1653 Y5.1329
G01 X62.2015 Y5.1179
G01 X62.2227 Y5.1082
G01 X62.2611 Y5.0889
G01 X62.2984 Y5.0678
G01 X62.3182 Y5.0555
G01 X62.3538 Y5.0316
G01 X62.3853 Y5.0082
G01 X62.4186 Y4.9811
G01 X62.4504 Y4.9523
G01 X62.4808 Y4.9221
G01 X62.5097 Y4.8903
G01 X62.5392 Y4.8543
G01 X62.5647 Y4.8198
G01 X62.5885 Y4.7841
G01 X62.6105 Y4.7472
G01 X62.6306 Y4.7094
G01 X62.6489 Y4.6705
G01 X62.6652 Y4.6309
G01 X62.6796 Y4.5904
G01 X62.6919 Y4.5494
G01 X62.7023 Y4.5077
G01 X62.7106 Y4.4656
G01 X62.7168 Y4.4232
G01 X62.7206 Y4.3841
G01 X62.7221 Y4.3609
G01 X62.7231 Y4.3180
G01 X62.7231 Y2.0131
G01 X65.0071 Y-0.2709
G01 X65.0367 Y-0.3020
G01 X65.0647 Y-0.3345
G01 X65.0792 Y-0.3527
G01 X65.1026 Y-0.3842
G01 X65.1265 Y-0.4198
G01 X65.1388 Y-0.4396
G01 X65.1599 Y-0.4769
G01 X65.1792 Y-0.5153
G01 X65.1889 Y-0.5365
G01 X65.2039 Y-0.5727
G01 X65.2184 Y-0.6131
G01 X65.2255 Y-0.6353
G01 X65.2369 Y-0.6766
G01 X65.2423 Y-0.6993
G01 X65.2499 Y-0.7377
G01 X65.2537 Y-0.7608
G01 X65.2589 Y-0.8033
G01 X65.2621 Y-0.8461
G01 X65.2631 Y-0.8890
G01 X65.2631 Y-21.1799
G00 X65.2631 Y-21.1799
G01 F40.00
G01 Z-0.6000
G01 F40.00
G01 X65.2631 Y-0.8890
G01 X65.2621 Y-0.8461
G01 X65.2589 Y-0.8033
G01 X65.2537 Y-0.7608
G01 X65.2499 Y-0.7377
G01 X65.2423 Y-0.6993
G01 X65.2369 Y-0.6766
G01 X65.2255 Y-0.6353
G01 X65.2184 Y-0.6131
G01 X65.2039 Y-0.5727
G01 X65.1889 Y-0.5365
G01 X65.1792 Y-0.5153
G01 X65.1599 Y-0.4769
G01 X65.1388 Y-0.4396
G01 X65.1265 Y-0.4198
G01 X65.1026 Y-0.3842
G01 X65.0792 Y-0.3527
G01 X65.0647 Y-0.3345
G01 X65.0367 Y-0.3020
G01 X65.0071 Y-0.2709
G01 X62.7231 Y2.0131
G01 X62.7231 Y4.3180
G01 X62.7221 Y4.3609
G01 X62.7206 Y4.3841
G01 X62.7168 Y4.4232
G01 X62.7106 Y4.4656
G01 X62.7023 Y4.5077
G01 X62.6919 Y4.5494
G01 X62.6796 Y4.5904
G01 X62.6652 Y4.6309
G01 X62.6489 Y4.6705
G01 X62.6306 Y4.7094
G01 X62.6105 Y4.7472
G01 X62.5885 Y4.7841
G01 X62.5647 Y4.8198
G01 X62.5392 Y4.8543
G01 X62.5097 Y4.8903
G01 X62.4808 Y4.9221
G01 X62.4504 Y4.9523
G01 X62.4186 Y4.9811
G01 X62.3853 Y5.0082
G01 X62.3538 Y5.0316
G01 X62.3182 Y5.0555
G01 X62.2984 Y5.0678
G01 X62.2611 Y5.0889
G01 X62.2227 Y5.1082
G01 X62.2015 Y5.1179
G01 X62.1653 Y5.1329
G01 X62.1249 Y5.1474
G01 X62.1027 Y5.1545
G01 X62.0614 Y5.1659
G01 X62.0195 Y5.1753
G01 X61.9966 Y5.1796
G01 X61.9542 Y5.1858
G01 X61.9151 Y5.1896
G01 X61.8919 Y5.1911
G01 X61.8490 Y5.1921
G01 X31.2711 Y5.1921
G00 X31.2711 Y5.1921
G01 F40.00
G01 Z-0.9000
G01 F40.00
G01 X61.8490 Y5.1921
G01 X61.8919 Y5.1911
G01 X61.9151 Y5.1896
G01 X61.9542 Y5.1858
G01 X61.9966 Y5.1796
G01 X62.0195 Y5.1753
G01 X62.0614 Y5.1659
G01 X62.1027 Y5.1545
G01 X62.1249 Y5.1474
G01 X62.1653 Y5.1329
G01 X62.2015 Y5.1179
G01 X62.2227 Y5.1082
G01 X62.2611 Y5.0889
G01 X62.2984 Y5.0678
G01 X62.3182 Y5.0555
G01 X62.3538 Y5.0316
G01 X62.3853 Y5.0082
G01 X62.4186 Y4.9811
G01 X62.4504 Y4.9523
G01 X62.4808 Y4.9221
G01 X62.5097 Y4.8903
G01 X62.5392 Y4.8543
G01 X62.5647 Y4.8198
G01 X62.5885 Y4.7841
G01 X62.6105 Y4.7472
G01 X62.6306 Y4.7094
G01 X62.6489 Y4.6705
G01 X62.6652 Y4.6309
G01 X62.6796 Y4.5904
G01 X62.6919 Y4.5494
G01 X62.7023 Y4.5077
G01 X62.7106 Y4.4656
G01 X62.7168 Y4.4232
G01 X62.7206 Y4.3841
G01 X62.7221 Y4.3609
G01 X62.7231 Y4.3180
G01 X62.7231 Y2.0131
G01 X65.0071 Y-0.2709
G01 X65.0367 Y-0.3020
G01 X65.0647 Y-0.3345
G01 X65.0792 Y-0.3527
G01 X65.1026 Y-0.3842
G01 X65.1265 Y-0.4198
G01 X65.1388 Y-0.4396
G01 X65.1599 Y-0.4769
G01 X65.1792 Y-0.5153
G01 X65.1889 Y-0.5365
G01 X65.2039 Y-0.5727
G01 X65.2184 Y-0.6131
G01 X65.2255 Y-0.6353
G01 X65.2369 Y-0.6766
G01 X65.2423 Y-0.6993
G01 X65.2499 Y-0.7377
G01 X65.2537 Y-0.7608
G01 X65.2589 Y-0.8033
G01 X65.2621 Y-0.8461
G01 X65.2631 Y-0.8890
G01 X65.2631 Y-21.1799
G00 X65.2631 Y-21.1799
G01 F40.00
G01 Z-1.2000
G01 F40.00
G01 X65.2631 Y-0.8890
G01 X65.2621 Y-0.8461
G01 X65.2589 Y-0.8033
G01 X65.2537 Y-0.7608
G01 X65.2499 Y-0.7377
G01 X65.2423 Y-0.6993
G01 X65.2369 Y-0.6766
G01 X65.2255 Y-0.6353
G01 X65.2184 Y-0.6131
G01 X65.2039 Y-0.5727
G01 X65.1889 Y-0.5365
G01 X65.1792 Y-0.5153
G01 X65.1599 Y-0.4769
G01 X65.1388 Y-0.4396
G01 X65.1265 Y-0.4198
G01 X65.1026 Y-0.3842
G01 X65.0792 Y-0.3527
G01 X65.0647 Y-0.3345
G01 X65.0367 Y-0.3020
G01 X65.0071 Y-0.2709
G01 X62.7231 Y2.0131
G01 X62.7231 Y4.3180
G01 X62.7221 Y4.3609
G01 X62.7206 Y4.3841
G01 X62.7168 Y4.4232
G01 X62.7106 Y4.4656
G01 X62.7023 Y4.5077
G01 X62.6919 Y4.5494
G01 X62.6796 Y4.5904
G01 X62.6652 Y4.6309
G01 X62.6489 Y4.6705
G01 X62.6306 Y4.7094
G01 X62.6105 Y4.7472
G01 X62.5885 Y4.7841
G01 X62.5647 Y4.8198
G01 X62.5392 Y4.8543
G01 X62.5097 Y4.8903
G01 X62.4808 Y4.9221
G01 X62.4504 Y4.9523
G01 X62.4186 Y4.9811
G01 X62.3853 Y5.0082
G01 X62.3538 Y5.0316
G01 X62.3182 Y5.0555
G01 X62.2984 Y5.0678
G01 X62.2611 Y5.0889
G01 X62.2227 Y5.1082
G01 X62.2015 Y5.1179
G01 X62.1653 Y5.1329
G01 X62.1249 Y5.1474
G01 X62.1027 Y5.1545
G01 X62.0614 Y5.1659
G01 X62.0195 Y5.1753
G01 X61.9966 Y5.1796
G01 X61.9542 Y5.1858
G01 X61.9151 Y5.1896
G01 X61.8919 Y5.1911
G01 X61.8490 Y5.1921
G01 X31.2711 Y5.1921
G00 X31.2711 Y5.1921
G01 F40.00
G01 Z-1.5000
G01 F40.00
G01 X61.8490 Y5.1921
G01 X61.8919 Y5.1911
G01 X61.9151 Y5.1896
G01 X61.9542 Y5.1858
G01 X61.9966 Y5.1796
G01 X62.0195 Y5.1753
G01 X62.0614 Y5.1659
G01 X62.1027 Y5.1545
G01 X62.1249 Y5.1474
G01 X62.1653 Y5.1329
G01 X62.2015 Y5.1179
G01 X62.2227 Y5.1082
G01 X62.2611 Y5.0889
G01 X62.2984 Y5.0678
G01 X62.3182 Y5.0555
G01 X62.3538 Y5.0316
G01 X62.3853 Y5.0082
G01 X62.4186 Y4.9811
G01 X62.4504 Y4.9523
G01 X62.4808 Y4.9221
G01 X62.5097 Y4.8903
G01 X62.5392 Y4.8543
G01 X62.5647 Y4.8198
G01 X62.5885 Y4.7841
G01 X62.6105 Y4.7472
G01 X62.6306 Y4.7094
G01 X62.6489 Y4.6705
G01 X62.6652 Y4.6309
G01 X62.6796 Y4.5904
G01 X62.6919 Y4.5494
G01 X62.7023 Y4.5077
G01 X62.7106 Y4.4656
G01 X62.7168 Y4.4232
G01 X62.7206 Y4.3841
G01 X62.7221 Y4.3609
G01 X62.7231 Y4.3180
G01 X62.7231 Y2.0131
G01 X65.0071 Y-0.2709
G01 X65.0367 Y-0.3020
G01 X65.0647 Y-0.3345
G01 X65.0792 Y-0.3527
G01 X65.1026 Y-0.3842
G01 X65.1265 Y-0.4198
G01 X65.1388 Y-0.4396
G01 X65.1599 Y-0.4769
G01 X65.1792 Y-0.5153
G01 X65.1889 Y-0.5365
G01 X65.2039 Y-0.5727
G01 X65.2184 Y-0.6131
G01 X65.2255 Y-0.6353
G01 X65.2369 Y-0.6766
G01 X65.2423 Y-0.6993
G01 X65.2499 Y-0.7377
G01 X65.2537 Y-0.7608
G01 X65.2589 Y-0.8033
G01 X65.2621 Y-0.8461
G01 X65.2631 Y-0.8890
G01 X65.2631 Y-21.1799
G00 X65.2631 Y-21.1799
G01 F40.00
G01 Z-1.8000
G01 F40.00
G01 X65.2631 Y-0.8890
G01 X65.2621 Y-0.8461
G01 X65.2589 Y-0.8033
G01 X65.2537 Y-0.7608
G01 X65.2499 Y-0.7377
G01 X65.2423 Y-0.6993
G01 X65.2369 Y-0.6766
G01 X65.2255 Y-0.6353
G01 X65.2184 Y-0.6131
G01 X65.2039 Y-0.5727
G01 X65.1889 Y-0.5365
G01 X65.1792 Y-0.5153
G01 X65.1599 Y-0.4769
G01 X65.1388 Y-0.4396
G01 X65.1265 Y-0.4198
G01 X65.1026 Y-0.3842
G01 X65.0792 Y-0.3527
G01 X65.0647 Y-0.3345
G01 X65.0367 Y-0.3020
G01 X65.0071 Y-0.2709
G01 X62.7231 Y2.0131
G01 X62.7231 Y4.3180
G01 X62.7221 Y4.3609
G01 X62.7206 Y4.3841
G01 X62.7168 Y4.4232
G01 X62.7106 Y4.4656
G01 X62.7023 Y4.5077
G01 X62.6919 Y4.5494
G01 X62.6796 Y4.5904
G01 X62.6652 Y4.6309
G01 X62.6489 Y4.6705
G01 X62.6306 Y4.7094
G01 X62.6105 Y4.7472
G01 X62.5885 Y4.7841
G01 X62.5647 Y4.8198
G01 X62.5392 Y4.8543
G01 X62.5097 Y4.8903
G01 X62.4808 Y4.9221
G01 X62.4504 Y4.9523
G01 X62.4186 Y4.9811
G01 X62.3853 Y5.0082
G01 X62.3538 Y5.0316
G01 X62.3182 Y5.0555
G01 X62.2984 Y5.0678
G01 X62.2611 Y5.0889
G01 X62.2227 Y5.1082
G01 X62.2015 Y5.1179
G01 X62.1653 Y5.1329
G01 X62.1249 Y5.1474
G01 X62.1027 Y5.1545
G01 X62.0614 Y5.1659
G01 X62.0195 Y5.1753
G01 X61.9966 Y5.1796
G01 X61.9542 Y5.1858
G01 X61.9151 Y5.1896
G01 X61.8919 Y5.1911
G01 X61.8490 Y5.1921
G01 X31.2711 Y5.1921
G00 X31.2711 Y5.1921
G01 F40.00
G01 Z-2.1000
G01 F40.00
G01 X61.8490 Y5.1921
G01 X61.8919 Y5.1911
G01 X61.9151 Y5.1896
G01 X61.9542 Y5.1858
G01 X61.9966 Y5.1796
G01 X62.0195 Y5.1753
G01 X62.0614 Y5.1659
G01 X62.1027 Y5.1545
G01 X62.1249 Y5.1474
G01 X62.1653 Y5.1329
G01 X62.2015 Y5.1179
G01 X62.2227 Y5.1082
G01 X62.2611 Y5.0889
G01 X62.2984 Y5.0678
G01 X62.3182 Y5.0555
G01 X62.3538 Y5.0316
G01 X62.3853 Y5.0082
G01 X62.4186 Y4.9811
G01 X62.4504 Y4.9523
G01 X62.4808 Y4.9221
G01 X62.5097 Y4.8903
G01 X62.5392 Y4.8543
G01 X62.5647 Y4.8198
G01 X62.5885 Y4.7841
G01 X62.6105 Y4.7472
G01 X62.6306 Y4.7094
G01 X62.6489 Y4.6705
G01 X62.6652 Y4.6309
G01 X62.6796 Y4.5904
G01 X62.6919 Y4.5494
G01 X62.7023 Y4.5077
G01 X62.7106 Y4.4656
G01 X62.7168 Y4.4232
G01 X62.7206 Y4.3841
G01 X62.7221 Y4.3609
G01 X62.7231 Y4.3180
G01 X62.7231 Y2.0131
G01 X65.0071 Y-0.2709
G01 X65.0367 Y-0.3020
G01 X65.0647 Y-0.3345
G01 X65.0792 Y-0.3527
G01 X65.1026 Y-0.3842
G01 X65.1265 Y-0.4198
G01 X65.1388 Y-0.4396
G01 X65.1599 Y-0.4769
G01 X65.1792 Y-0.5153
G01 X65.1889 Y-0.5365
G01 X65.2039 Y-0.5727
G01 X65.2184 Y-0.6131
G01 X65.2255 Y-0.6353
G01 X65.2369 Y-0.6766
G01 X65.2423 Y-0.6993
G01 X65.2499 Y-0.7377
G01 X65.2537 Y-0.7608
G01 X65.2589 Y-0.8033
G01 X65.2621 Y-0.8461
G01 X65.2631 Y-0.8890
G01 X65.2631 Y-21.1799
G00 X65.2631 Y-21.1799
G01 F40.00
G01 Z-2.4000
G01 F40.00
G01 X65.2631 Y-0.8890
G01 X65.2621 Y-0.8461
G01 X65.2589 Y-0.8033
G01 X65.2537 Y-0.7608
G01 X65.2499 Y-0.7377
G01 X65.2423 Y-0.6993
G01 X65.2369 Y-0.6766
G01 X65.2255 Y-0.6353
G01 X65.2184 Y-0.6131
G01 X65.2039 Y-0.5727
G01 X65.1889 Y-0.5365
G01 X65.1792 Y-0.5153
G01 X65.1599 Y-0.4769
G01 X65.1388 Y-0.4396
G01 X65.1265 Y-0.4198
G01 X65.1026 Y-0.3842
G01 X65.0792 Y-0.3527
G01 X65.0647 Y-0.3345
G01 X65.0367 Y-0.3020
G01 X65.0071 Y-0.2709
G01 X62.7231 Y2.0131
G01 X62.7231 Y4.3180
G01 X62.7221 Y4.3609
G01 X62.7206 Y4.3841
G01 X62.7168 Y4.4232
G01 X62.7106 Y4.4656
G01 X62.7023 Y4.5077
G01 X62.6919 Y4.5494
G01 X62.6796 Y4.5904
G01 X62.6652 Y4.6309
G01 X62.6489 Y4.6705
G01 X62.6306 Y4.7094
G01 X62.6105 Y4.7472
G01 X62.5885 Y4.7841
G01 X62.5647 Y4.8198
G01 X62.5392 Y4.8543
G01 X62.5097 Y4.8903
G01 X62.4808 Y4.9221
G01 X62.4504 Y4.9523
G01 X62.4186 Y4.9811
G01 X62.3853 Y5.0082
G01 X62.3538 Y5.0316
G01 X62.3182 Y5.0555
G01 X62.2984 Y5.0678
G01 X62.2611 Y5.0889
G01 X62.2227 Y5.1082
G01 X62.2015 Y5.1179
G01 X62.1653 Y5.1329
G01 X62.1249 Y5.1474
G01 X62.1027 Y5.1545
G01 X62.0614 Y5.1659
G01 X62.0195 Y5.1753
G01 X61.9966 Y5.1796
G01 X61.9542 Y5.1858
G01 X61.9151 Y5.1896
G01 X61.8919 Y5.1911
G01 X61.8490 Y5.1921
G01 X31.2711 Y5.1921
G00 X31.2711 Y5.1921
G01 F40.00
G01 Z-2.4003
G01 F40.00
G01 X61.8490 Y5.1921
G01 X61.8919 Y5.1911
G01 X61.9151 Y5.1896
G01 X61.9542 Y5.1858
G01 X61.9966 Y5.1796
G01 X62.0195 Y5.1753
G01 X62.0614 Y5.1659
G01 X62.1027 Y5.1545
G01 X62.1249 Y5.1474
G01 X62.1653 Y5.1329
G01 X62.2015 Y5.1179
G01 X62.2227 Y5.1082
G01 X62.2611 Y5.0889
G01 X62.2984 Y5.0678
G01 X62.3182 Y5.0555
G01 X62.3538 Y5.0316
G01 X62.3853 Y5.0082
G01 X62.4186 Y4.9811
G01 X62.4504 Y4.9523
G01 X62.4808 Y4.9221
G01 X62.5097 Y4.8903
G01 X62.5392 Y4.8543
G01 X62.5647 Y4.8198
G01 X62.5885 Y4.7841
G01 X62.6105 Y4.7472
G01 X62.6306 Y4.7094
G01 X62.6489 Y4.6705
G01 X62.6652 Y4.6309
G01 X62.6796 Y4.5904
G01 X62.6919 Y4.5494
G01 X62.7023 Y4.5077
G01 X62.7106 Y4.4656
G01 X62.7168 Y4.4232
G01 X62.7206 Y4.3841
G01 X62.7221 Y4.3609
G01 X62.7231 Y4.3180
G01 X62.7231 Y2.0131
G01 X65.0071 Y-0.2709
G01 X65.0367 Y-0.3020
G01 X65.0647 Y-0.3345
G01 X65.0792 Y-0.3527
G01 X65.1026 Y-0.3842
G01 X65.1265 Y-0.4198
G01 X65.1388 Y-0.4396
G01 X65.1599 Y-0.4769
G01 X65.1792 Y-0.5153
G01 X65.1889 Y-0.5365
G01 X65.2039 Y-0.5727
G01 X65.2184 Y-0.6131
G01 X65.2255 Y-0.6353
G01 X65.2369 Y-0.6766
G01 X65.2423 Y-0.6993
G01 X65.2499 Y-0.7377
G01 X65.2537 Y-0.7608
G01 X65.2589 Y-0.8033
G01 X65.2621 Y-0.8461
G01 X65.2631 Y-0.8890
G01 X65.2631 Y-21.1799
G00 Z1.9990
G00 X65.2631 Y-23.5799
G01 F40.00
G01 Z-0.3000
G01 F40.00
G01 X65.2631 Y-33.6550
G01 X65.2621 Y-33.6979
G01 X65.2606 Y-33.7211
G01 X65.2568 Y-33.7602
G01 X65.2506 Y-33.8026
G01 X65.2415 Y-33.8483
G01 X65.2319 Y-33.8864
G01 X65.2255 Y-33.9087
G01 X65.2184 Y-33.9309
G01 X65.2052 Y-33.9679
G01 X65.1966 Y-33.9895
G01 X65.1792 Y-34.0287
G01 X65.1690 Y-34.0497
G01 X65.1505 Y-34.0842
G01 X65.1388 Y-34.1044
G01 X65.1158 Y-34.1406
G01 X65.1026 Y-34.1598
G01 X65.0792 Y-34.1913
G01 X65.0647 Y-34.2095
G01 X65.0367 Y-34.2420
G01 X65.0071 Y-34.2731
G01 X62.7231 Y-36.5571
G01 X62.7231 Y-47.6250
G01 X62.7221 Y-47.6679
G01 X62.7206 Y-47.6911
G01 X62.7168 Y-47.7302
G01 X62.7137 Y-47.7533
G01 X62.7063 Y-47.7955
G01 X62.7015 Y-47.8183
G01 X62.6919 Y-47.8564
G01 X62.6855 Y-47.8787
G01 X62.6784 Y-47.9009
G01 X62.6652 Y-47.9379
G01 X62.6566 Y-47.9595
G01 X62.6392 Y-47.9987
G01 X62.6199 Y-48.0371
G01 X62.6086 Y-48.0575
G01 X62.5885 Y-48.0911
G01 X62.5758 Y-48.1107
G01 X62.5511 Y-48.1457
G01 X62.5370 Y-48.1642
G01 X62.5121 Y-48.1946
G01 X62.4967 Y-48.2120
G01 X62.4671 Y-48.2431
G01 X60.8161 Y-49.8941
G01 X60.7850 Y-49.9237
G01 X60.7676 Y-49.9391
G01 X60.7372 Y-49.9640
G01 X60.7187 Y-49.9781
G01 X60.6837 Y-50.0028
G01 X60.6474 Y-50.0258
G01 X60.6272 Y-50.0375
G01 X60.5894 Y-50.0576
G01 X60.5539 Y-50.0744
G01 X60.5325 Y-50.0836
G01 X60.4925 Y-50.0990
G01 X60.4517 Y-50.1125
G01 X60.4294 Y-50.1189
G01 X60.3877 Y-50.1293
G01 X60.3493 Y-50.1369
G01 X60.3263 Y-50.1407
G01 X60.2837 Y-50.1459
G01 X60.2409 Y-50.1491
G01 X60.2078 Y-50.1501
G01 X31.2711 Y-50.1501
G00 X31.2711 Y-50.1501
G01 F40.00
G01 Z-0.6000
G01 F40.00
G01 X60.2078 Y-50.1501
G01 X60.2409 Y-50.1491
G01 X60.2837 Y-50.1459
G01 X60.3263 Y-50.1407
G01 X60.3493 Y-50.1369
G01 X60.3877 Y-50.1293
G01 X60.4294 Y-50.1189
G01 X60.4517 Y-50.1125
G01 X60.4925 Y-50.0990
G01 X60.5325 Y-50.0836
G01 X60.5539 Y-50.0744
G01 X60.5894 Y-50.0576
G01 X60.6272 Y-50.0375
G01 X60.6474 Y-50.0258
G01 X60.6837 Y-50.0028
G01 X60.7187 Y-49.9781
G01 X60.7372 Y-49.9640
G01 X60.7676 Y-49.9391
G01 X60.7850 Y-49.9237
G01 X60.8161 Y-49.8941
G01 X62.4671 Y-48.2431
G01 X62.4967 Y-48.2120
G01 X62.5121 Y-48.1946
G01 X62.5370 Y-48.1642
G01 X62.5511 Y-48.1457
G01 X62.5758 Y-48.1107
G01 X62.5885 Y-48.0911
G01 X62.6086 Y-48.0575
G01 X62.6199 Y-48.0371
G01 X62.6392 Y-47.9987
G01 X62.6566 Y-47.9595
G01 X62.6652 Y-47.9379
G01 X62.6784 Y-47.9009
G01 X62.6855 Y-47.8787
G01 X62.6919 Y-47.8564
G01 X62.7015 Y-47.8183
G01 X62.7063 Y-47.7955
G01 X62.7137 Y-47.7533
G01 X62.7168 Y-47.7302
G01 X62.7206 Y-47.6911
G01 X62.7221 Y-47.6679
G01 X62.7231 Y-47.6250
G01 X62.7231 Y-36.5571
G01 X65.0071 Y-34.2731
G01 X65.0367 Y-34.2420
G01 X65.0647 Y-34.2095
G01 X65.0792 Y-34.1913
G01 X65.1026 Y-34.1598
G01 X65.1158 Y-34.1406
G01 X65.1388 Y-34.1044
G01 X65.1505 Y-34.0842
G01 X65.1690 Y-34.0497
G01 X65.1792 Y-34.0287
G01 X65.1966 Y-33.9895
G01 X65.2052 Y-33.9679
G01 X65.2184 Y-33.9309
G01 X65.2255 Y-33.9087
G01 X65.2319 Y-33.8864
G01 X65.2415 Y-33.8483
G01 X65.2506 Y-33.8026
G01 X65.2568 Y-33.7602
G01 X65.2606 Y-33.7211
G01 X65.2621 Y-33.6979
G01 X65.2631 Y-33.6550
G01 X65.2631 Y-23.5799
G00 X65.2631 Y-23.5799
G01 F40.00
G01 Z-0.9000
G01 F40.00
G01 X65.2631 Y-33.6550
G01 X65.2621 Y-33.6979
G01 X65.2606 Y-33.7211
G01 X65.2568 Y-33.7602
G01 X65.2506 Y-33.8026
G01 X65.2415 Y-33.8483
G01 X65.2319 Y-33.8864
G01 X65.2255 Y-33.9087
G01 X65.2184 Y-33.9309
G01 X65.2052 Y-33.9679
G01 X65.1966 Y-33.9895
G01 X65.1792 Y-34.0287
G01 X65.1690 Y-34.0497
G01 X65.1505 Y-34.0842
G01 X65.1388 Y-34.1044
G01 X65.1158 Y-34.1406
G01 X65.1026 Y-34.1598
G01 X65.0792 Y-34.1913
G01 X65.0647 Y-34.2095
G01 X65.0367 Y-34.2420
G01 X65.0071 Y-34.2731
G01 X62.7231 Y-36.5571
G01 X62.7231 Y-47.6250
G01 X62.7221 Y-47.6679
G01 X62.7206 Y-47.6911
G01 X62.7168 Y-47.7302
G01 X62.7137 Y-47.7533
G01 X62.7063 Y-47.7955
G01 X62.7015 Y-47.8183
G01 X62.6919 Y-47.8564
G01 X62.6855 Y-47.8787
G01 X62.6784 Y-47.9009
G01 X62.6652 Y-47.9379
G01 X62.6566 Y-47.9595
G01 X62.6392 Y-47.9987
G01 X62.6199 Y-48.0371
G01 X62.6086 Y-48.0575
G01 X62.5885 Y-48.0911
G01 X62.5758 Y-48.1107
G01 X62.5511 Y-48.1457
G01 X62.5370 Y-48.1642
G01 X62.5121 Y-48.1946
G01 X62.4967 Y-48.2120
G01 X62.4671 Y-48.2431
G01 X60.8161 Y-49.8941
G01 X60.7850 Y-49.9237
G01 X60.7676 Y-49.9391
G01 X60.7372 Y-49.9640
G01 X60.7187 Y-49.9781
G01 X60.6837 Y-50.0028
G01 X60.6474 Y-50.0258
G01 X60.6272 Y-50.0375
G01 X60.5894 Y-50.0576
G01 X60.5539 Y-50.0744
G01 X60.5325 Y-50.0836
G01 X60.4925 Y-50.0990
G01 X60.4517 Y-50.1125
G01 X60.4294 Y-50.1189
G01 X60.3877 Y-50.1293
G01 X60.3493 Y-50.1369
G01 X60.3263 Y-50.1407
G01 X60.2837 Y-50.1459
G01 X60.2409 Y-50.1491
G01 X60.2078 Y-50.1501
G01 X31.2711 Y-50.1501
G00 X31.2711 Y-50.1501
G01 F40.00
G01 Z-1.2000
G01 F40.00
G01 X60.2078 Y-50.1501
G01 X60.2409 Y-50.1491
G01 X60.2837 Y-50.1459
G01 X60.3263 Y-50.1407
G01 X60.3493 Y-50.1369
G01 X60.3877 Y-50.1293
G01 X60.4294 Y-50.1189
G01 X60.4517 Y-50.1125
G01 X60.4925 Y-50.0990
G01 X60.5325 Y-50.0836
G01 X60.5539 Y-50.0744
G01 X60.5894 Y-50.0576
G01 X60.6272 Y-50.0375
G01 X60.6474 Y-50.0258
G01 X60.6837 Y-50.0028
G01 X60.7187 Y-49.9781
G01 X60.7372 Y-49.9640
G01 X60.7676 Y-49.9391
G01 X60.7850 Y-49.9237
G01 X60.8161 Y-49.8941
G01 X62.4671 Y-48.2431
G01 X62.4967 Y-48.2120
G01 X62.5121 Y-48.1946
G01 X62.5370 Y-48.1642
G01 X62.5511 Y-48.1457
G01 X62.5758 Y-48.1107
G01 X62.5885 Y-48.0911
G01 X62.6086 Y-48.0575
G01 X62.6199 Y-48.0371
G01 X62.6392 Y-47.9987
G01 X62.6566 Y-47.9595
G01 X62.6652 Y-47.9379
G01 X62.6784 Y-47.9009
G01 X62.6855 Y-47.8787
G01 X62.6919 Y-47.8564
G01 X62.7015 Y-47.8183
G01 X62.7063 Y-47.7955
G01 X62.7137 Y-47.7533
G01 X62.7168 Y-47.7302
G01 X62.7206 Y-47.6911
G01 X62.7221 Y-47.6679
G01 X62.7231 Y-47.6250
G01 X62.7231 Y-36.5571
G01 X65.0071 Y-34.2731
G01 X65.0367 Y-34.2420
G01 X65.0647 Y-34.2095
G01 X65.0792 Y-34.1913
G01 X65.1026 Y-34.1598
G01 X65.1158 Y-34.1406
G01 X65.1388 Y-34.1044
G01 X65.1505 Y-34.0842
G01 X65.1690 Y-34.0497
G01 X65.1792 Y-34.0287
G01 X65.1966 Y-33.9895
G01 X65.2052 Y-33.9679
G01 X65.2184 Y-33.9309
G01 X65.2255 Y-33.9087
G01 X65.2319 Y-33.8864
G01 X65.2415 Y-33.8483
G01 X65.2506 Y-33.8026
G01 X65.2568 Y-33.7602
G01 X65.2606 Y-33.7211
G01 X65.2621 Y-33.6979
G01 X65.2631 Y-33.6550
G01 X65.2631 Y-23.5799
G00 X65.2631 Y-23.5799
G01 F40.00
G01 Z-1.5000
G01 F40.00
G01 X65.2631 Y-33.6550
G01 X65.2621 Y-33.6979
G01 X65.2606 Y-33.7211
G01 X65.2568 Y-33.7602
G01 X65.2506 Y-33.8026
G01 X65.2415 Y-33.8483
G01 X65.2319 Y-33.8864
G01 X65.2255 Y-33.9087
G01 X65.2184 Y-33.9309
G01 X65.2052 Y-33.9679
G01 X65.1966 Y-33.9895
G01 X65.1792 Y-34.0287
G01 X65.1690 Y-34.0497
G01 X65.1505 Y-34.0842
G01 X65.1388 Y-34.1044
G01 X65.1158 Y-34.1406
G01 X65.1026 Y-34.1598
G01 X65.0792 Y-34.1913
G01 X65.0647 Y-34.2095
G01 X65.0367 Y-34.2420
G01 X65.0071 Y-34.2731
G01 X62.7231 Y-36.5571
G01 X62.7231 Y-47.6250
G01 X62.7221 Y-47.6679
G01 X62.7206 Y-47.6911
G01 X62.7168 Y-47.7302
G01 X62.7137 Y-47.7533
G01 X62.7063 Y-47.7955
G01 X62.7015 Y-47.8183
G01 X62.6919 Y-47.8564
G01 X62.6855 Y-47.8787
G01 X62.6784 Y-47.9009
G01 X62.6652 Y-47.9379
G01 X62.6566 Y-47.9595
G01 X62.6392 Y-47.9987
G01 X62.6199 Y-48.0371
G01 X62.6086 Y-48.0575
G01 X62.5885 Y-48.0911
G01 X62.5758 Y-48.1107
G01 X62.5511 Y-48.1457
G01 X62.5370 Y-48.1642
G01 X62.5121 Y-48.1946
G01 X62.4967 Y-48.2120
G01 X62.4671 Y-48.2431
G01 X60.8161 Y-49.8941
G01 X60.7850 Y-49.9237
G01 X60.7676 Y-49.9391
G01 X60.7372 Y-49.9640
G01 X60.7187 Y-49.9781
G01 X60.6837 Y-50.0028
G01 X60.6474 Y-50.0258
G01 X60.6272 Y-50.0375
G01 X60.5894 Y-50.0576
G01 X60.5539 Y-50.0744
G01 X60.5325 Y-50.0836
G01 X60.4925 Y-50.0990
G01 X60.4517 Y-50.1125
G01 X60.4294 Y-50.1189
G01 X60.3877 Y-50.1293
G01 X60.3493 Y-50.1369
G01 X60.3263 Y-50.1407
G01 X60.2837 Y-50.1459
G01 X60.2409 Y-50.1491
G01 X60.2078 Y-50.1501
G01 X31.2711 Y-50.1501
G00 X31.2711 Y-50.1501
G01 F40.00
G01 Z-1.8000
G01 F40.00
G01 X60.2078 Y-50.1501
G01 X60.2409 Y-50.1491
G01 X60.2837 Y-50.1459
G01 X60.3263 Y-50.1407
G01 X60.3493 Y-50.1369
G01 X60.3877 Y-50.1293
G01 X60.4294 Y-50.1189
G01 X60.4517 Y-50.1125
G01 X60.4925 Y-50.0990
G01 X60.5325 Y-50.0836
G01 X60.5539 Y-50.0744
G01 X60.5894 Y-50.0576
G01 X60.6272 Y-50.0375
G01 X60.6474 Y-50.0258
G01 X60.6837 Y-50.0028
G01 X60.7187 Y-49.9781
G01 X60.7372 Y-49.9640
G01 X60.7676 Y-49.9391
G01 X60.7850 Y-49.9237
G01 X60.8161 Y-49.8941
G01 X62.4671 Y-48.2431
G01 X62.4967 Y-48.2120
G01 X62.5121 Y-48.1946
G01 X62.5370 Y-48.1642
G01 X62.5511 Y-48.1457
G01 X62.5758 Y-48.1107
G01 X62.5885 Y-48.0911
G01 X62.6086 Y-48.0575
G01 X62.6199 Y-48.0371
G01 X62.6392 Y-47.9987
G01 X62.6566 Y-47.9595
G01 X62.6652 Y-47.9379
G01 X62.6784 Y-47.9009
G01 X62.6855 Y-47.8787
G01 X62.6919 Y-47.8564
G01 X62.7015 Y-47.8183
G01 X62.7063 Y-47.7955
G01 X62.7137 Y-47.7533
G01 X62.7168 Y-47.7302
G01 X62.7206 Y-47.6911
G01 X62.7221 Y-47.6679
G01 X62.7231 Y-47.6250
G01 X62.7231 Y-36.5571
G01 X65.0071 Y-34.2731
G01 X65.0367 Y-34.2420
G01 X65.0647 Y-34.2095
G01 X65.0792 Y-34.1913
G01 X65.1026 Y-34.1598
G01 X65.1158 Y-34.1406
G01 X65.1388 Y-34.1044
G01 X65.1505 Y-34.0842
G01 X65.1690 Y-34.0497
G01 X65.1792 Y-34.0287
G01 X65.1966 Y-33.9895
G01 X65.2052 Y-33.9679
G01 X65.2184 Y-33.9309
G01 X65.2255 Y-33.9087
G01 X65.2319 Y-33.8864
G01 X65.2415 Y-33.8483
G01 X65.2506 Y-33.8026
G01 X65.2568 Y-33.7602
G01 X65.2606 Y-33.7211
G01 X65.2621 Y-33.6979
G01 X65.2631 Y-33.6550
G01 X65.2631 Y-23.5799
G00 X65.2631 Y-23.5799
G01 F40.00
G01 Z-2.1000
G01 F40.00
G01 X65.2631 Y-33.6550
G01 X65.2621 Y-33.6979
G01 X65.2606 Y-33.7211
G01 X65.2568 Y-33.7602
G01 X65.2506 Y-33.8026
G01 X65.2415 Y-33.8483
G01 X65.2319 Y-33.8864
G01 X65.2255 Y-33.9087
G01 X65.2184 Y-33.9309
G01 X65.2052 Y-33.9679
G01 X65.1966 Y-33.9895
G01 X65.1792 Y-34.0287
G01 X65.1690 Y-34.0497
G01 X65.1505 Y-34.0842
G01 X65.1388 Y-34.1044
G01 X65.1158 Y-34.1406
G01 X65.1026 Y-34.1598
G01 X65.0792 Y-34.1913
G01 X65.0647 Y-34.2095
G01 X65.0367 Y-34.2420
G01 X65.0071 Y-34.2731
G01 X62.7231 Y-36.5571
G01 X62.7231 Y-47.6250
G01 X62.7221 Y-47.6679
G01 X62.7206 Y-47.6911
G01 X62.7168 Y-47.7302
G01 X62.7137 Y-47.7533
G01 X62.7063 Y-47.7955
G01 X62.7015 Y-47.8183
G01 X62.6919 Y-47.8564
G01 X62.6855 Y-47.8787
G01 X62.6784 Y-47.9009
G01 X62.6652 Y-47.9379
G01 X62.6566 Y-47.9595
G01 X62.6392 Y-47.9987
G01 X62.6199 Y-48.0371
G01 X62.6086 Y-48.0575
G01 X62.5885 Y-48.0911
G01 X62.5758 Y-48.1107
G01 X62.5511 Y-48.1457
G01 X62.5370 Y-48.1642
G01 X62.5121 Y-48.1946
G01 X62.4967 Y-48.2120
G01 X62.4671 Y-48.2431
G01 X60.8161 Y-49.8941
G01 X60.7850 Y-49.9237
G01 X60.7676 Y-49.9391
G01 X60.7372 Y-49.9640
G01 X60.7187 Y-49.9781
G01 X60.6837 Y-50.0028
G01 X60.6474 Y-50.0258
G01 X60.6272 Y-50.0375
G01 X60.5894 Y-50.0576
G01 X60.5539 Y-50.0744
G01 X60.5325 Y-50.0836
G01 X60.4925 Y-50.0990
G01 X60.4517 Y-50.1125
G01 X60.4294 Y-50.1189
G01 X60.3877 Y-50.1293
G01 X60.3493 Y-50.1369
G01 X60.3263 Y-50.1407
G01 X60.2837 Y-50.1459
G01 X60.2409 Y-50.1491
G01 X60.2078 Y-50.1501
G01 X31.2711 Y-50.1501
G00 X31.2711 Y-50.1501
G01 F40.00
G01 Z-2.4000
G01 F40.00
G01 X60.2078 Y-50.1501
G01 X60.2409 Y-50.1491
G01 X60.2837 Y-50.1459
G01 X60.3263 Y-50.1407
G01 X60.3493 Y-50.1369
G01 X60.3877 Y-50.1293
G01 X60.4294 Y-50.1189
G01 X60.4517 Y-50.1125
G01 X60.4925 Y-50.0990
G01 X60.5325 Y-50.0836
G01 X60.5539 Y-50.0744
G01 X60.5894 Y-50.0576
G01 X60.6272 Y-50.0375
G01 X60.6474 Y-50.0258
G01 X60.6837 Y-50.0028
G01 X60.7187 Y-49.9781
G01 X60.7372 Y-49.9640
G01 X60.7676 Y-49.9391
G01 X60.7850 Y-49.9237
G01 X60.8161 Y-49.8941
G01 X62.4671 Y-48.2431
G01 X62.4967 Y-48.2120
G01 X62.5121 Y-48.1946
G01 X62.5370 Y-48.1642
G01 X62.5511 Y-48.1457
G01 X62.5758 Y-48.1107
G01 X62.5885 Y-48.0911
G01 X62.6086 Y-48.0575
G01 X62.6199 Y-48.0371
G01 X62.6392 Y-47.9987
G01 X62.6566 Y-47.9595
G01 X62.6652 Y-47.9379
G01 X62.6784 Y-47.9009
G01 X62.6855 Y-47.8787
G01 X62.6919 Y-47.8564
G01 X62.7015 Y-47.8183
G01 X62.7063 Y-47.7955
G01 X62.7137 Y-47.7533
G01 X62.7168 Y-47.7302
G01 X62.7206 Y-47.6911
G01 X62.7221 Y-47.6679
G01 X62.7231 Y-47.6250
G01 X62.7231 Y-36.5571
G01 X65.0071 Y-34.2731
G01 X65.0367 Y-34.2420
G01 X65.0647 Y-34.2095
G01 X65.0792 Y-34.1913
G01 X65.1026 Y-34.1598
G01 X65.1158 Y-34.1406
G01 X65.1388 Y-34.1044
G01 X65.1505 Y-34.0842
G01 X65.1690 Y-34.0497
G01 X65.1792 Y-34.0287
G01 X65.1966 Y-33.9895
G01 X65.2052 Y-33.9679
G01 X65.2184 Y-33.9309
G01 X65.2255 Y-33.9087
G01 X65.2319 Y-33.8864
G01 X65.2415 Y-33.8483
G01 X65.2506 Y-33.8026
G01 X65.2568 Y-33.7602
G01 X65.2606 Y-33.7211
G01 X65.2621 Y-33.6979
G01 X65.2631 Y-33.6550
G01 X65.2631 Y-23.5799
G00 X65.2631 Y-23.5799
G01 F40.00
G01 Z-2.4003
G01 F40.00
G01 X65.2631 Y-33.6550
G01 X65.2621 Y-33.6979
G01 X65.2606 Y-33.7211
G01 X65.2568 Y-33.7602
G01 X65.2506 Y-33.8026
G01 X65.2415 Y-33.8483
G01 X65.2319 Y-33.8864
G01 X65.2255 Y-33.9087
G01 X65.2184 Y-33.9309
G01 X65.2052 Y-33.9679
G01 X65.1966 Y-33.9895
G01 X65.1792 Y-34.0287
G01 X65.1690 Y-34.0497
G01 X65.1505 Y-34.0842
G01 X65.1388 Y-34.1044
G01 X65.1158 Y-34.1406
G01 X65.1026 Y-34.1598
G01 X65.0792 Y-34.1913
G01 X65.0647 Y-34.2095
G01 X65.0367 Y-34.2420
G01 X65.0071 Y-34.2731
G01 X62.7231 Y-36.5571
G01 X62.7231 Y-47.6250
G01 X62.7221 Y-47.6679
G01 X62.7206 Y-47.6911
G01 X62.7168 Y-47.7302
G01 X62.7137 Y-47.7533
G01 X62.7063 Y-47.7955
G01 X62.7015 Y-47.8183
G01 X62.6919 Y-47.8564
G01 X62.6855 Y-47.8787
G01 X62.6784 Y-47.9009
G01 X62.6652 Y-47.9379
G01 X62.6566 Y-47.9595
G01 X62.6392 Y-47.9987
G01 X62.6199 Y-48.0371
G01 X62.6086 Y-48.0575
G01 X62.5885 Y-48.0911
G01 X62.5758 Y-48.1107
G01 X62.5511 Y-48.1457
G01 X62.5370 Y-48.1642
G01 X62.5121 Y-48.1946
G01 X62.4967 Y-48.2120
G01 X62.4671 Y-48.2431
G01 X60.8161 Y-49.8941
G01 X60.7850 Y-49.9237
G01 X60.7676 Y-49.9391
G01 X60.7372 Y-49.9640
G01 X60.7187 Y-49.9781
G01 X60.6837 Y-50.0028
G01 X60.6474 Y-50.0258
G01 X60.6272 Y-50.0375
G01 X60.5894 Y-50.0576
G01 X60.5539 Y-50.0744
G01 X60.5325 Y-50.0836
G01 X60.4925 Y-50.0990
G01 X60.4517 Y-50.1125
G01 X60.4294 Y-50.1189
G01 X60.3877 Y-50.1293
G01 X60.3493 Y-50.1369
G01 X60.3263 Y-50.1407
G01 X60.2837 Y-50.1459
G01 X60.2409 Y-50.1491
G01 X60.2078 Y-50.1501
G01 X31.2711 Y-50.1501
G00 Z1.9990
G00 X28.8711 Y-50.1501
G01 F40.00
G01 Z-0.3000
G01 F40.00
G01 X-4.4683 Y-50.1498
G01 X-4.5111 Y-50.1476
G01 X-4.5538 Y-50.1433
G01 X-4.5926 Y-50.1376
G01 X-4.6347 Y-50.1293
G01 X-4.6764 Y-50.1189
G01 X-4.7174 Y-50.1066
G01 X-4.7579 Y-50.0922
G01 X-4.7975 Y-50.0759
G01 X-4.8364 Y-50.0576
G01 X-4.8742 Y-50.0375
G01 X-4.9111 Y-50.0155
G01 X-4.9468 Y-49.9917
G01 X-4.9813 Y-49.9662
G01 X-5.0146 Y-49.9391
G01 X-5.0464 Y-49.9103
G01 X-5.0768 Y-49.8801
G01 X-5.0927 Y-49.8630
G01 X-5.1207 Y-49.8305
G01 X-5.1471 Y-49.7967
G01 X-5.1718 Y-49.7617
G01 X-5.1948 Y-49.7254
G01 X-5.2159 Y-49.6881
G01 X-5.2352 Y-49.6497
G01 X-5.2526 Y-49.6105
G01 X-5.2680 Y-49.5705
G01 X-5.2815 Y-49.5297
G01 X-5.2929 Y-49.4884
G01 X-5.3023 Y-49.4465
G01 X-5.3097 Y-49.4043
G01 X-5.3149 Y-49.3617
G01 X-5.3181 Y-49.3189
G01 X-5.3191 Y-49.2760
G00 X-5.3191 Y-49.2760
G01 F40.00
G01 Z-0.6000
G01 F40.00
G01 X-5.3181 Y-49.3189
G01 X-5.3149 Y-49.3617
G01 X-5.3097 Y-49.4043
G01 X-5.3023 Y-49.4465
G01 X-5.2929 Y-49.4884
G01 X-5.2815 Y-49.5297
G01 X-5.2680 Y-49.5705
G01 X-5.2526 Y-49.6105
G01 X-5.2352 Y-49.6497
G01 X-5.2159 Y-49.6881
G01 X-5.1948 Y-49.7254
G01 X-5.1718 Y-49.7617
G01 X-5.1471 Y-49.7967
G01 X-5.1207 Y-49.8305
G01 X-5.0927 Y-49.8630
G01 X-5.0768 Y-49.8801
G01 X-5.0464 Y-49.9103
G01 X-5.0146 Y-49.9391
G01 X-4.9813 Y-49.9662
G01 X-4.9468 Y-49.9917
G01 X-4.9111 Y-50.0155
G01 X-4.8742 Y-50.0375
G01 X-4.8364 Y-50.0576
G01 X-4.7975 Y-50.0759
G01 X-4.7579 Y-50.0922
G01 X-4.7174 Y-50.1066
G01 X-4.6764 Y-50.1189
G01 X-4.6347 Y-50.1293
G01 X-4.5926 Y-50.1376
G01 X-4.5538 Y-50.1433
G01 X-4.5111 Y-50.1476
G01 X-4.4683 Y-50.1498
G01 X28.8711 Y-50.1501
G00 X28.8711 Y-50.1501
G01 F40.00
G01 Z-0.9000
G01 F40.00
G01 X-4.4683 Y-50.1498
G01 X-4.5111 Y-50.1476
G01 X-4.5538 Y-50.1433
G01 X-4.5926 Y-50.1376
G01 X-4.6347 Y-50.1293
G01 X-4.6764 Y-50.1189
G01 X-4.7174 Y-50.1066
G01 X-4.7579 Y-50.0922
G01 X-4.7975 Y-50.0759
G01 X-4.8364 Y-50.0576
G01 X-4.8742 Y-50.0375
G01 X-4.9111 Y-50.0155
G01 X-4.9468 Y-49.9917
G01 X-4.9813 Y-49.9662
G01 X-5.0146 Y-49.9391
G01 X-5.0464 Y-49.9103
G01 X-5.0768 Y-49.8801
G01 X-5.0927 Y-49.8630
G01 X-5.1207 Y-49.8305
G01 X-5.1471 Y-49.7967
G01 X-5.1718 Y-49.7617
G01 X-5.1948 Y-49.7254
G01 X-5.2159 Y-49.6881
G01 X-5.2352 Y-49.6497
G01 X-5.2526 Y-49.6105
G01 X-5.2680 Y-49.5705
G01 X-5.2815 Y-49.5297
G01 X-5.2929 Y-49.4884
G01 X-5.3023 Y-49.4465
G01 X-5.3097 Y-49.4043
G01 X-5.3149 Y-49.3617
G01 X-5.3181 Y-49.3189
G01 X-5.3191 Y-49.2760
G00 X-5.3191 Y-49.2760
G01 F40.00
G01 Z-1.2000
G01 F40.00
G01 X-5.3181 Y-49.3189
G01 X-5.3149 Y-49.3617
G01 X-5.3097 Y-49.4043
G01 X-5.3023 Y-49.4465
G01 X-5.2929 Y-49.4884
G01 X-5.2815 Y-49.5297
G01 X-5.2680 Y-49.5705
G01 X-5.2526 Y-49.6105
G01 X-5.2352 Y-49.6497
G01 X-5.2159 Y-49.6881
G01 X-5.1948 Y-49.7254
G01 X-5.1718 Y-49.7617
G01 X-5.1471 Y-49.7967
G01 X-5.1207 Y-49.8305
G01 X-5.0927 Y-49.8630
G01 X-5.0768 Y-49.8801
G01 X-5.0464 Y-49.9103
G01 X-5.0146 Y-49.9391
G01 X-4.9813 Y-49.9662
G01 X-4.9468 Y-49.9917
G01 X-4.9111 Y-50.0155
G01 X-4.8742 Y-50.0375
G01 X-4.8364 Y-50.0576
G01 X-4.7975 Y-50.0759
G01 X-4.7579 Y-50.0922
G01 X-4.7174 Y-50.1066
G01 X-4.6764 Y-50.1189
G01 X-4.6347 Y-50.1293
G01 X-4.5926 Y-50.1376
G01 X-4.5538 Y-50.1433
G01 X-4.5111 Y-50.1476
G01 X-4.4683 Y-50.1498
G01 X28.8711 Y-50.1501
G00 X28.8711 Y-50.1501
G01 F40.00
G01 Z-1.5000
G01 F40.00
G01 X-4.4683 Y-50.1498
G01 X-4.5111 Y-50.1476
G01 X-4.5538 Y-50.1433
G01 X-4.5926 Y-50.1376
G01 X-4.6347 Y-50.1293
G01 X-4.6764 Y-50.1189
G01 X-4.7174 Y-50.1066
G01 X-4.7579 Y-50.0922
G01 X-4.7975 Y-50.0759
G01 X-4.8364 Y-50.0576
G01 X-4.8742 Y-50.0375
G01 X-4.9111 Y-50.0155
G01 X-4.9468 Y-49.9917
G01 X-4.9813 Y-49.9662
G01 X-5.0146 Y-49.9391
G01 X-5.0464 Y-49.9103
G01 X-5.0768 Y-49.8801
G01 X-5.0927 Y-49.8630
G01 X-5.1207 Y-49.8305
G01 X-5.1471 Y-49.7967
G01 X-5.1718 Y-49.7617
G01 X-5.1948 Y-49.7254
G01 X-5.2159 Y-49.6881
G01 X-5.2352 Y-49.6497
G01 X-5.2526 Y-49.6105
G01 X-5.2680 Y-49.5705
G01 X-5.2815 Y-49.5297
G01 X-5.2929 Y-49.4884
G01 X-5.3023 Y-49.4465
G01 X-5.3097 Y-49.4043
G01 X-5.3149 Y-49.3617
G01 X-5.3181 Y-49.3189
G01 X-5.3191 Y-49.2760
G00 X-5.3191 Y-49.2760
G01 F40.00
G01 Z-1.8000
G01 F40.00
G01 X-5.3181 Y-49.3189
G01 X-5.3149 Y-49.3617
G01 X-5.3097 Y-49.4043
G01 X-5.3023 Y-49.4465
G01 X-5.2929 Y-49.4884
G01 X-5.2815 Y-49.5297
G01 X-5.2680 Y-49.5705
G01 X-5.2526 Y-49.6105
G01 X-5.2352 Y-49.6497
G01 X-5.2159 Y-49.6881
G01 X-5.1948 Y-49.7254
G01 X-5.1718 Y-49.7617
G01 X-5.1471 Y-49.7967
G01 X-5.1207 Y-49.8305
G01 X-5.0927 Y-49.8630
G01 X-5.0768 Y-49.8801
G01 X-5.0464 Y-49.9103
G01 X-5.0146 Y-49.9391
G01 X-4.9813 Y-49.9662
G01 X-4.9468 Y-49.9917
G01 X-4.9111 Y-50.0155
G01 X-4.8742 Y-50.0375
G01 X-4.8364 Y-50.0576
G01 X-4.7975 Y-50.0759
G01 X-4.7579 Y-50.0922
G01 X-4.7174 Y-50.1066
G01 X-4.6764 Y-50.1189
G01 X-4.6347 Y-50.1293
G01 X-4.5926 Y-50.1376
G01 X-4.5538 Y-50.1433
G01 X-4.5111 Y-50.1476
G01 X-4.4683 Y-50.1498
G01 X28.8711 Y-50.1501
G00 X28.8711 Y-50.1501
G01 F40.00
G01 Z-2.1000
G01 F40.00
G01 X-4.4683 Y-50.1498
G01 X-4.5111 Y-50.1476
G01 X-4.5538 Y-50.1433
G01 X-4.5926 Y-50.1376
G01 X-4.6347 Y-50.1293
G01 X-4.6764 Y-50.1189
G01 X-4.7174 Y-50.1066
G01 X-4.7579 Y-50.0922
G01 X-4.7975 Y-50.0759
G01 X-4.8364 Y-50.0576
G01 X-4.8742 Y-50.0375
G01 X-4.9111 Y-50.0155
G01 X-4.9468 Y-49.9917
G01 X-4.9813 Y-49.9662
G01 X-5.0146 Y-49.9391
G01 X-5.0464 Y-49.9103
G01 X-5.0768 Y-49.8801
G01 X-5.0927 Y-49.8630
G01 X-5.1207 Y-49.8305
G01 X-5.1471 Y-49.7967
G01 X-5.1718 Y-49.7617
G01 X-5.1948 Y-49.7254
G01 X-5.2159 Y-49.6881
G01 X-5.2352 Y-49.6497
G01 X-5.2526 Y-49.6105
G01 X-5.2680 Y-49.5705
G01 X-5.2815 Y-49.5297
G01 X-5.2929 Y-49.4884
G01 X-5.3023 Y-49.4465
G01 X-5.3097 Y-49.4043
G01 X-5.3149 Y-49.3617
G01 X-5.3181 Y-49.3189
G01 X-5.3191 Y-49.2760
G00 X-5.3191 Y-49.2760
G01 F40.00
G01 Z-2.4000
G01 F40.00
G01 X-5.3181 Y-49.3189
G01 X-5.3149 Y-49.3617
G01 X-5.3097 Y-49.4043
G01 X-5.3023 Y-49.4465
G01 X-5.2929 Y-49.4884
G01 X-5.2815 Y-49.5297
G01 X-5.2680 Y-49.5705
G01 X-5.2526 Y-49.6105
G01 X-5.2352 Y-49.6497
G01 X-5.2159 Y-49.6881
G01 X-5.1948 Y-49.7254
G01 X-5.1718 Y-49.7617
G01 X-5.1471 Y-49.7967
G01 X-5.1207 Y-49.8305
G01 X-5.0927 Y-49.8630
G01 X-5.0768 Y-49.8801
G01 X-5.0464 Y-49.9103
G01 X-5.0146 Y-49.9391
G01 X-4.9813 Y-49.9662
G01 X-4.9468 Y-49.9917
G01 X-4.9111 Y-50.0155
G01 X-4.8742 Y-50.0375
G01 X-4.8364 Y-50.0576
G01 X-4.7975 Y-50.0759
G01 X-4.7579 Y-50.0922
G01 X-4.7174 Y-50.1066
G01 X-4.6764 Y-50.1189
G01 X-4.6347 Y-50.1293
G01 X-4.5926 Y-50.1376
G01 X-4.5538 Y-50.1433
G01 X-4.5111 Y-50.1476
G01 X-4.4683 Y-50.1498
G01 X28.8711 Y-50.1501
G00 X28.8711 Y-50.1501
G01 F40.00
G01 Z-2.4003
G01 F40.00
G01 X-4.4683 Y-50.1498
G01 X-4.5111 Y-50.1476
G01 X-4.5538 Y-50.1433
G01 X-4.5926 Y-50.1376
G01 X-4.6347 Y-50.1293
G01 X-4.6764 Y-50.1189
G01 X-4.7174 Y-50.1066
G01 X-4.7579 Y-50.0922
G01 X-4.7975 Y-50.0759
G01 X-4.8364 Y-50.0576
G01 X-4.8742 Y-50.0375
G01 X-4.9111 Y-50.0155
G01 X-4.9468 Y-49.9917
G01 X-4.9813 Y-49.9662
G01 X-5.0146 Y-49.9391
G01 X-5.0464 Y-49.9103
G01 X-5.0768 Y-49.8801
G01 X-5.0927 Y-49.8630
G01 X-5.1207 Y-49.8305
G01 X-5.1471 Y-49.7967
G01 X-5.1718 Y-49.7617
G01 X-5.1948 Y-49.7254
G01 X-5.2159 Y-49.6881
G01 X-5.2352 Y-49.6497
G01 X-5.2526 Y-49.6105
G01 X-5.2680 Y-49.5705
G01 X-5.2815 Y-49.5297
G01 X-5.2929 Y-49.4884
G01 X-5.3023 Y-49.4465
G01 X-5.3097 Y-49.4043
G01 X-5.3149 Y-49.3617
G01 X-5.3181 Y-49.3189
G01 X-5.3191 Y-49.2760
G00 Z1.9990
G00 X-5.3191 Y-49.2760
G01 F40.00
G01 Z-0.3000
G01 F40.00
G01 X-5.3191 Y-23.5799
G00 X-5.3191 Y-23.5799
G01 F40.00
G01 Z-0.6000
G01 F40.00
G01 X-5.3191 Y-49.2760
G00 X-5.3191 Y-49.2760
G01 F40.00
G01 Z-0.9000
G01 F40.00
G01 X-5.3191 Y-23.5799
G00 X-5.3191 Y-23.5799
G01 F40.00
G01 Z-1.2000
G01 F40.00
G01 X-5.3191 Y-49.2760
G00 X-5.3191 Y-49.2760
G01 F40.00
G01 Z-1.5000
G01 F40.00
G01 X-5.3191 Y-23.5799
G00 X-5.3191 Y-23.5799
G01 F40.00
G01 Z-1.8000
G01 F40.00
G01 X-5.3191 Y-49.2760
G00 X-5.3191 Y-49.2760
G01 F40.00
G01 Z-2.1000
G01 F40.00
G01 X-5.3191 Y-23.5799
G00 X-5.3191 Y-23.5799
G01 F40.00
G01 Z-2.4000
G01 F40.00
G01 X-5.3191 Y-49.2760
G00 X-5.3191 Y-49.2760
G01 F40.00
G01 Z-2.4003
G01 F40.00
G01 X-5.3191 Y-23.5799
G00 Z1.9990
M05
G00 Z1.9990
G00 Z12.70
G00 X0.0 Y0.0

M02