(G-CODE GENERATED BY FLATCAM v8.96 - www.flatcam.org - Version Date: 2019/08/23)

(Name: pistes)
(Type: G-code from Geometry)
(Units: MM)

(Created on samedi, 07 septembre 2019 at 17:30)

(TOOL DIAMETER: 0.35 mm)
(Feedrate: 79.9998 mm/min)
(Feedrate_Z: 79.9998 mm/min)
(Feedrate rapids 79.9998 mm/min)

(Z_Cut: -0.4665 mm)
(Z_Move: 1.999 mm)
(Z Toolchange: 12.7 mm)
(X,Y Toolchange: 0.0000, 0.0000 mm)
(Z Start: None mm)
(Z End: 12.7 mm)
(Steps per circle: 128)
(Postprocessor Geometry: default)

(X range:    0.0000 ...    0.0000  mm)
(Y range:    0.0000 ...    0.0000  mm)

(Spindle Speed: None RPM)

G21
G90
G94

G01 F80.00
G00 Z1.9990

M03
G00 X-2.6719 Y-0.1270
G01 F80.00
G01 Z-0.4665
G01 F80.00
G01 X-2.6617 Y-0.2657
G01 X-2.6466 Y-0.3882
G01 X-2.6236 Y-0.5220
G01 X-2.5958 Y-0.6458
G01 X-2.5603 Y-0.7750
G01 X-2.5184 Y-0.9017
G01 X-2.4711 Y-1.0244
G01 X-2.4180 Y-1.1441
G01 X-2.3592 Y-1.2609
G01 X-2.2926 Y-1.3782
G01 X-2.2263 Y-1.4829
G01 X-2.1491 Y-1.5928
G01 X-2.0658 Y-1.6993
G01 X-1.9803 Y-1.7983
G01 X-1.8915 Y-1.8915
G01 X-1.7983 Y-1.9803
G01 X-1.6993 Y-2.0658
G01 X-1.5942 Y-2.1480
G01 X-1.4829 Y-2.2263
G01 X-1.3782 Y-2.2926
G01 X-1.2609 Y-2.3592
G01 X-1.1441 Y-2.4180
G01 X-1.0244 Y-2.4711
G01 X-0.9017 Y-2.5184
G01 X-0.7750 Y-2.5603
G01 X-0.6541 Y-2.5937
G01 X-0.5220 Y-2.6236
G01 X-0.3967 Y-2.6454
G01 X-0.2657 Y-2.6617
G01 X-0.1290 Y-2.6719
G01 X-0.0000 Y-2.6750
G01 X0.1290 Y-2.6719
G01 X0.2657 Y-2.6617
G01 X0.3882 Y-2.6466
G01 X0.5220 Y-2.6236
G01 X0.6458 Y-2.5958
G01 X0.7750 Y-2.5603
G01 X0.9017 Y-2.5184
G01 X1.0244 Y-2.4711
G01 X1.1441 Y-2.4180
G01 X1.2609 Y-2.3592
G01 X1.3782 Y-2.2926
G01 X1.4829 Y-2.2263
G01 X1.5928 Y-2.1491
G01 X1.6993 Y-2.0658
G01 X1.7983 Y-1.9803
G01 X1.8915 Y-1.8915
G01 X1.9803 Y-1.7983
G01 X2.0658 Y-1.6993
G01 X2.1480 Y-1.5942
G01 X2.2263 Y-1.4829
G01 X2.2926 Y-1.3782
G01 X2.3592 Y-1.2609
G01 X2.4180 Y-1.1441
G01 X2.4711 Y-1.0244
G01 X2.5184 Y-0.9017
G01 X2.5603 Y-0.7750
G01 X2.5937 Y-0.6541
G01 X2.6236 Y-0.5220
G01 X2.6454 Y-0.3967
G01 X2.6617 Y-0.2657
G01 X2.6719 Y-0.1290
G01 X2.6750 Y-0.0000
G01 X2.6719 Y0.1290
G01 X2.6617 Y0.2657
G01 X2.6466 Y0.3882
G01 X2.6236 Y0.5220
G01 X2.5958 Y0.6458
G01 X2.5603 Y0.7750
G01 X2.5184 Y0.9017
G01 X2.4711 Y1.0244
G01 X2.4180 Y1.1441
G01 X2.3592 Y1.2609
G01 X2.2926 Y1.3782
G01 X2.2263 Y1.4829
G01 X2.1491 Y1.5928
G01 X2.0658 Y1.6993
G01 X1.9803 Y1.7983
G01 X1.8915 Y1.8915
G01 X1.7983 Y1.9803
G01 X1.6993 Y2.0658
G01 X1.5942 Y2.1480
G01 X1.4829 Y2.2263
G01 X1.3782 Y2.2926
G01 X1.2609 Y2.3592
G01 X1.1441 Y2.4180
G01 X1.0244 Y2.4711
G01 X0.9017 Y2.5184
G01 X0.7750 Y2.5603
G01 X0.6541 Y2.5937
G01 X0.5220 Y2.6236
G01 X0.3967 Y2.6454
G01 X0.2657 Y2.6617
G01 X0.1290 Y2.6719
G01 X0.0000 Y2.6750
G01 X-0.1290 Y2.6719
G01 X-0.2657 Y2.6617
G01 X-0.3882 Y2.6466
G01 X-0.5220 Y2.6236
G01 X-0.6458 Y2.5958
G01 X-0.7750 Y2.5603
G01 X-0.9017 Y2.5184
G01 X-1.0244 Y2.4711
G01 X-1.1441 Y2.4180
G01 X-1.2609 Y2.3592
G01 X-1.3782 Y2.2926
G01 X-1.4829 Y2.2263
G01 X-1.5928 Y2.1491
G01 X-1.6993 Y2.0658
G01 X-1.7983 Y1.9803
G01 X-1.8915 Y1.8915
G01 X-1.9803 Y1.7983
G01 X-2.0658 Y1.6993
G01 X-2.1480 Y1.5942
G01 X-2.2263 Y1.4829
G01 X-2.2926 Y1.3782
G01 X-2.3592 Y1.2609
G01 X-2.4180 Y1.1441
G01 X-2.4711 Y1.0244
G01 X-2.5184 Y0.9017
G01 X-2.5603 Y0.7750
G01 X-2.5937 Y0.6541
G01 X-2.6236 Y0.5220
G01 X-2.6454 Y0.3967
G01 X-2.6617 Y0.2657
G01 X-2.6719 Y0.1290
G01 X-2.6750 Y0.0000
G01 X-2.6719 Y-0.1270
G00 Z1.9990
G00 X-2.8329 Y-0.5635
G01 F80.00
G01 Z-0.4665
G01 F80.00
G01 X-2.8329 Y0.5635
G01 X-2.4016 Y1.6047
G01 X-1.6047 Y2.4016
G01 X-0.5635 Y2.8329
G01 X0.5635 Y2.8329
G01 X1.6047 Y2.4016
G01 X2.4016 Y1.6047
G01 X2.8329 Y0.5635
G01 X2.8329 Y-0.5635
G01 X2.4016 Y-1.6047
G01 X1.6047 Y-2.4016
G01 X0.5635 Y-2.8329
G01 X-0.5635 Y-2.8329
G01 X-1.6047 Y-2.4016
G01 X-2.4016 Y-1.6047
G01 X-2.8329 Y-0.5635
G00 Z1.9990
G00 X9.1308 Y-5.6128
G01 F80.00
G01 Z-0.4665
G01 F80.00
G01 X9.1307 Y-14.7260
G01 X9.1316 Y-14.7640
G01 X9.1349 Y-14.8063
G01 X9.1398 Y-14.8440
G01 X9.1456 Y-14.8774
G01 X9.1529 Y-14.9102
G01 X9.1629 Y-14.9469
G01 X9.1769 Y-14.9897
G01 X9.1914 Y-15.0266
G01 X9.2042 Y-15.0556
G01 X9.2203 Y-15.0877
G01 X9.2429 Y-15.1277
G01 X9.2608 Y-15.1558
G01 X9.2838 Y-15.1886
G01 X9.3040 Y-15.2145
G01 X9.3287 Y-15.2434
G01 X9.3578 Y-15.2742
G01 X16.6961 Y-22.6125
G01 X16.6899 Y-22.6319
G01 X16.6703 Y-22.7029
G01 X16.6504 Y-22.7914
G01 X16.6367 Y-22.8715
G01 X16.6275 Y-22.9456
G01 X16.6209 Y-23.0361
G01 X16.6191 Y-23.1183
G01 X16.6213 Y-23.2005
G01 X16.6267 Y-23.2739
G01 X16.6378 Y-23.3640
G01 X16.6512 Y-23.4410
G01 X16.6682 Y-23.5168
G01 X16.6924 Y-23.6043
G01 X16.7167 Y-23.6776
G01 X16.7457 Y-23.7530
G01 X16.7815 Y-23.8336
G01 X16.8170 Y-23.9041
G01 X16.8551 Y-23.9714
G01 X16.8992 Y-24.0413
G01 X16.9512 Y-24.1152
G01 X17.0006 Y-24.1783
G01 X17.0501 Y-24.2356
G01 X17.1127 Y-24.3014
G01 X17.1673 Y-24.3534
G01 X17.2297 Y-24.4074
G01 X17.2955 Y-24.4588
G01 X17.3599 Y-24.5043
G01 X17.4366 Y-24.5529
G01 X17.5039 Y-24.5910
G01 X17.5744 Y-24.6265
G01 X17.6570 Y-24.6631
G01 X17.7304 Y-24.6913
G01 X17.8083 Y-24.7170
G01 X17.8829 Y-24.7377
G01 X17.9630 Y-24.7559
G01 X18.0515 Y-24.7713
G01 X18.1256 Y-24.7805
G01 X18.2075 Y-24.7867
G01 X18.2983 Y-24.7889
G01 X18.3805 Y-24.7867
G01 X18.4539 Y-24.7813
G01 X18.5365 Y-24.7713
G01 X18.6166 Y-24.7576
G01 X18.7051 Y-24.7377
G01 X18.7797 Y-24.7170
G01 X18.8576 Y-24.6913
G01 X18.9389 Y-24.6598
G01 X19.0136 Y-24.6265
G01 X19.0841 Y-24.5910
G01 X19.1573 Y-24.5494
G01 X19.2281 Y-24.5043
G01 X19.2925 Y-24.4588
G01 X19.3599 Y-24.4060
G01 X19.4207 Y-24.3534
G01 X19.4753 Y-24.3014
G01 X19.5322 Y-24.2420
G01 X19.5874 Y-24.1783
G01 X19.6388 Y-24.1125
G01 X19.6888 Y-24.0413
G01 X19.7294 Y-23.9773
G01 X19.7710 Y-23.9041
G01 X19.8100 Y-23.8262
G01 X19.8423 Y-23.7530
G01 X19.8696 Y-23.6823
G01 X19.8956 Y-23.6043
G01 X19.9177 Y-23.5251
G01 X19.9368 Y-23.4410
G01 X19.9513 Y-23.3565
G01 X19.9613 Y-23.2739
G01 X19.9671 Y-23.1919
G01 X19.9689 Y-23.1183
G01 X19.9671 Y-23.0361
G01 X19.9613 Y-22.9541
G01 X19.9513 Y-22.8715
G01 X19.9368 Y-22.7870
G01 X19.9177 Y-22.7029
G01 X19.8970 Y-22.6283
G01 X19.8696 Y-22.5457
G01 X19.8423 Y-22.4750
G01 X19.8100 Y-22.4018
G01 X19.7732 Y-22.3282
G01 X19.7294 Y-22.2507
G01 X19.6888 Y-22.1867
G01 X19.6388 Y-22.1155
G01 X19.5874 Y-22.0497
G01 X19.5322 Y-21.9860
G01 X19.4784 Y-21.9296
G01 X19.4207 Y-21.8746
G01 X19.3583 Y-21.8206
G01 X19.2952 Y-21.7712
G01 X19.2213 Y-21.7192
G01 X19.1573 Y-21.6786
G01 X19.0874 Y-21.6389
G01 X19.0136 Y-21.6015
G01 X18.9310 Y-21.5649
G01 X18.8576 Y-21.5367
G01 X18.7797 Y-21.5110
G01 X18.7051 Y-21.4903
G01 X18.6250 Y-21.4721
G01 X18.5365 Y-21.4567
G01 X18.4624 Y-21.4475
G01 X18.3805 Y-21.4413
G01 X18.2940 Y-21.4390
G01 X18.2161 Y-21.4409
G01 X18.1341 Y-21.4467
G01 X18.0440 Y-21.4578
G01 X17.9670 Y-21.4712
G01 X17.8912 Y-21.4882
G01 X17.8119 Y-21.5099
G01 X17.7925 Y-21.5161
G01 X10.6813 Y-14.4049
G01 X10.6813 Y-5.9382
G01 X13.5022 Y-3.1173
G01 X13.5272 Y-3.0911
G01 X13.5508 Y-3.0639
G01 X13.5762 Y-3.0317
G01 X13.5962 Y-3.0033
G01 X13.6212 Y-2.9639
G01 X13.6397 Y-2.9307
G01 X13.6552 Y-2.8999
G01 X13.6686 Y-2.8697
G01 X13.6834 Y-2.8319
G01 X13.6971 Y-2.7900
G01 X13.7071 Y-2.7533
G01 X13.7144 Y-2.7205
G01 X13.7202 Y-2.6871
G01 X13.7255 Y-2.6459
G01 X13.7284 Y-2.6069
G01 X13.7293 Y-2.5691
G01 X13.7293 Y-1.5441
G01 X14.7041 Y-1.5441
G01 X14.7225 Y-1.5431
G01 X14.7405 Y-1.5402
G01 X14.7665 Y-1.5325
G01 X14.7844 Y-1.5245
G01 X14.8065 Y-1.5110
G01 X14.8215 Y-1.4988
G01 X14.8388 Y-1.4807
G01 X14.8509 Y-1.4642
G01 X14.8610 Y-1.4464
G01 X14.8702 Y-1.4241
G01 X14.8751 Y-1.4062
G01 X14.8781 Y-1.3869
G01 X14.8791 Y-1.3691
G01 X14.8791 Y2.1311
G01 X14.8781 Y2.1489
G01 X14.8751 Y2.1681
G01 X14.8702 Y2.1861
G01 X14.8609 Y2.2087
G01 X14.8494 Y2.2285
G01 X14.8404 Y2.2407
G01 X14.8216 Y2.2608
G01 X14.8065 Y2.2730
G01 X14.7847 Y2.2864
G01 X14.7751 Y2.2910
G01 X14.7580 Y2.2976
G01 X14.7309 Y2.3040
G01 X14.7041 Y2.3061
G01 X11.2039 Y2.3061
G01 X11.1771 Y2.3040
G01 X11.1587 Y2.3001
G01 X11.1415 Y2.2945
G01 X11.1233 Y2.2864
G01 X11.1096 Y2.2785
G01 X11.0938 Y2.2671
G01 X11.0794 Y2.2541
G01 X11.0629 Y2.2347
G01 X11.0544 Y2.2220
G01 X11.0470 Y2.2084
G01 X11.0378 Y2.1860
G01 X11.0329 Y2.1681
G01 X11.0310 Y2.1578
G01 X11.0289 Y2.1311
G01 X11.0289 Y-1.3691
G01 X11.0299 Y-1.3869
G01 X11.0329 Y-1.4062
G01 X11.0405 Y-1.4316
G01 X11.0518 Y-1.4556
G01 X11.0629 Y-1.4726
G01 X11.0692 Y-1.4807
G01 X11.0865 Y-1.4988
G01 X11.0940 Y-1.5052
G01 X11.1093 Y-1.5163
G01 X11.1329 Y-1.5290
G01 X11.1587 Y-1.5381
G01 X11.1855 Y-1.5431
G01 X11.2039 Y-1.5441
G01 X12.1787 Y-1.5441
G01 X12.1787 Y-2.2479
G01 X9.3578 Y-5.0688
G01 X9.3323 Y-5.0956
G01 X9.3095 Y-5.1219
G01 X9.2838 Y-5.1545
G01 X9.2603 Y-5.1880
G01 X9.2433 Y-5.2148
G01 X9.2232 Y-5.2499
G01 X9.2070 Y-5.2817
G01 X9.1881 Y-5.3244
G01 X9.1766 Y-5.3542
G01 X9.1629 Y-5.3961
G01 X9.1529 Y-5.4329
G01 X9.1456 Y-5.4656
G01 X9.1398 Y-5.4991
G01 X9.1345 Y-5.5401
G01 X9.1316 Y-5.5792
G01 X9.1308 Y-5.6128
G00 Z1.9990
G00 X12.6936 Y-9.8479
G01 F80.00
G01 Z-0.4665
G01 F80.00
G01 X13.0723 Y-9.7072
G01 X13.6080 Y-9.7270
G01 X13.8875 Y-9.8427
G01 X13.7579 Y-9.9723
G01 X13.7357 Y-9.9626
G01 X13.6863 Y-9.9436
G01 X13.6332 Y-9.9259
G01 X13.5777 Y-9.9103
G01 X13.5174 Y-9.8966
G01 X13.4646 Y-9.8874
G01 X13.4038 Y-9.8797
G01 X13.3456 Y-9.8754
G01 X13.2880 Y-9.8740
G01 X13.2304 Y-9.8754
G01 X13.1722 Y-9.8797
G01 X13.1114 Y-9.8874
G01 X13.0586 Y-9.8966
G01 X12.9983 Y-9.9103
G01 X12.9428 Y-9.9259
G01 X12.8897 Y-9.9436
G01 X12.8403 Y-9.9626
G01 X12.8181 Y-9.9723
G01 X12.6936 Y-9.8479
G00 Z1.9990
G00 X12.0817 Y-10.4495
G01 F80.00
G01 Z-0.4665
G01 F80.00
G01 X12.2113 Y-10.5791
G01 X12.2016 Y-10.6013
G01 X12.1826 Y-10.6507
G01 X12.1649 Y-10.7038
G01 X12.1493 Y-10.7593
G01 X12.1356 Y-10.8196
G01 X12.1264 Y-10.8724
G01 X12.1187 Y-10.9332
G01 X12.1144 Y-10.9914
G01 X12.1130 Y-11.0490
G01 X12.1144 Y-11.1066
G01 X12.1187 Y-11.1648
G01 X12.1264 Y-11.2256
G01 X12.1356 Y-11.2784
G01 X12.1493 Y-11.3387
G01 X12.1649 Y-11.3942
G01 X12.1826 Y-11.4473
G01 X12.2016 Y-11.4967
G01 X12.2113 Y-11.5189
G01 X12.0869 Y-11.6434
G01 X11.9462 Y-11.2647
G01 X11.9660 Y-10.7290
G01 X12.0817 Y-10.4495
G00 Z1.9990
G00 X12.6885 Y-12.2553
G01 F80.00
G01 Z-0.4665
G01 F80.00
G01 X12.8181 Y-12.1257
G01 X12.8403 Y-12.1354
G01 X12.8897 Y-12.1544
G01 X12.9428 Y-12.1721
G01 X12.9983 Y-12.1877
G01 X13.0586 Y-12.2014
G01 X13.1114 Y-12.2106
G01 X13.1722 Y-12.2183
G01 X13.2304 Y-12.2226
G01 X13.2880 Y-12.2240
G01 X13.3456 Y-12.2226
G01 X13.4038 Y-12.2183
G01 X13.4646 Y-12.2106
G01 X13.5174 Y-12.2014
G01 X13.5777 Y-12.1877
G01 X13.6332 Y-12.1721
G01 X13.6863 Y-12.1544
G01 X13.7357 Y-12.1354
G01 X13.7579 Y-12.1257
G01 X13.8824 Y-12.2501
G01 X13.5037 Y-12.3908
G01 X12.9680 Y-12.3710
G01 X12.6885 Y-12.2553
G00 Z1.9990
G00 X14.3647 Y-11.5189
G01 F80.00
G01 Z-0.4665
G01 F80.00
G01 X14.3744 Y-11.4967
G01 X14.3934 Y-11.4473
G01 X14.4111 Y-11.3942
G01 X14.4267 Y-11.3387
G01 X14.4404 Y-11.2784
G01 X14.4496 Y-11.2256
G01 X14.4573 Y-11.1648
G01 X14.4616 Y-11.1066
G01 X14.4630 Y-11.0490
G01 X14.4616 Y-10.9914
G01 X14.4573 Y-10.9332
G01 X14.4496 Y-10.8724
G01 X14.4404 Y-10.8196
G01 X14.4267 Y-10.7593
G01 X14.4111 Y-10.7038
G01 X14.3934 Y-10.6507
G01 X14.3744 Y-10.6013
G01 X14.3647 Y-10.5791
G01 X14.4891 Y-10.4546
G01 X14.6298 Y-10.8333
G01 X14.6100 Y-11.3690
G01 X14.4943 Y-11.6485
G01 X14.3647 Y-11.5189
G00 Z1.9990
G00 X17.2880 Y-9.8740
G01 F80.00
G01 Z-0.4665
G01 F80.00
G01 X18.3666 Y-9.8740
G01 X18.8189 Y-9.4218
G01 X18.8415 Y-9.4003
G01 X18.8705 Y-9.3751
G01 X18.9014 Y-9.3508
G01 X18.9297 Y-9.3308
G01 X18.9691 Y-9.3058
G01 X18.9981 Y-9.2895
G01 X19.0287 Y-9.2740
G01 X19.0693 Y-9.2559
G01 X19.1069 Y-9.2416
G01 X19.1348 Y-9.2324
G01 X19.1715 Y-9.2220
G01 X19.2126 Y-9.2126
G01 X19.2460 Y-9.2068
G01 X19.2837 Y-9.2019
G01 X19.3262 Y-9.1986
G01 X19.3640 Y-9.1977
G01 X34.7909 Y-9.1977
G01 X38.5309 Y-5.4576
G01 X38.5332 Y-5.4407
G01 X38.5416 Y-5.3936
G01 X38.5523 Y-5.3469
G01 X38.5638 Y-5.3055
G01 X38.5796 Y-5.2579
G01 X38.5946 Y-5.2189
G01 X38.6173 Y-5.1677
G01 X38.6383 Y-5.1263
G01 X38.6589 Y-5.0899
G01 X38.6842 Y-5.0496
G01 X38.7114 Y-5.0107
G01 X38.7461 Y-4.9662
G01 X38.7753 Y-4.9324
G01 X38.8076 Y-4.8986
G01 X38.8434 Y-4.8646
G01 X38.8818 Y-4.8316
G01 X38.9154 Y-4.8054
G01 X38.9574 Y-4.7759
G01 X38.9942 Y-4.7527
G01 X39.0341 Y-4.7299
G01 X39.0820 Y-4.7057
G01 X39.1199 Y-4.6889
G01 X39.1660 Y-4.6709
G01 X39.2099 Y-4.6563
G01 X39.2643 Y-4.6412
G01 X39.3066 Y-4.6318
G01 X39.3579 Y-4.6230
G01 X39.4057 Y-4.6173
G01 X39.4512 Y-4.6141
G01 X39.4970 Y-4.6130
G01 X39.5405 Y-4.6140
G01 X39.5968 Y-4.6182
G01 X39.6443 Y-4.6242
G01 X39.6874 Y-4.6318
G01 X39.7297 Y-4.6412
G01 X39.7776 Y-4.6543
G01 X39.8257 Y-4.6701
G01 X39.8661 Y-4.6856
G01 X39.9177 Y-4.7085
G01 X39.9599 Y-4.7299
G01 X39.9986 Y-4.7519
G01 X40.0366 Y-4.7759
G01 X40.0786 Y-4.8054
G01 X40.1122 Y-4.8316
G01 X40.1506 Y-4.8646
G01 X40.1864 Y-4.8986
G01 X40.2165 Y-4.9301
G01 X40.2534 Y-4.9728
G01 X40.2796 Y-5.0064
G01 X40.3098 Y-5.0496
G01 X40.3342 Y-5.0883
G01 X40.3548 Y-5.1246
G01 X40.3767 Y-5.1677
G01 X40.3961 Y-5.2109
G01 X40.4164 Y-5.2636
G01 X40.4302 Y-5.3055
G01 X40.4436 Y-5.3546
G01 X40.4532 Y-5.3976
G01 X40.4620 Y-5.4492
G01 X40.4675 Y-5.4951
G01 X40.4706 Y-5.5359
G01 X40.4719 Y-5.5837
G01 X40.4710 Y-5.6315
G01 X40.4675 Y-5.6809
G01 X40.4620 Y-5.7268
G01 X40.4532 Y-5.7784
G01 X40.4417 Y-5.8291
G01 X40.4287 Y-5.8751
G01 X40.4144 Y-5.9181
G01 X40.3994 Y-5.9571
G01 X40.3802 Y-6.0010
G01 X40.3557 Y-6.0497
G01 X40.3313 Y-6.0925
G01 X40.3053 Y-6.1332
G01 X40.2723 Y-6.1789
G01 X40.2723 Y-8.9580
G01 X40.3970 Y-8.9580
G01 X40.4153 Y-8.9590
G01 X40.4336 Y-8.9619
G01 X40.4584 Y-8.9691
G01 X40.4776 Y-8.9777
G01 X40.4887 Y-8.9840
G01 X40.5041 Y-8.9946
G01 X40.5228 Y-9.0114
G01 X40.5398 Y-9.0318
G01 X40.5511 Y-9.0500
G01 X40.5618 Y-9.0741
G01 X40.5653 Y-9.0849
G01 X40.5690 Y-9.1010
G01 X40.5716 Y-9.1212
G01 X40.5720 Y-9.1330
G01 X40.5720 Y-9.2577
G01 X45.6085 Y-9.2577
G01 X45.6089 Y-9.0212
G01 X45.6115 Y-9.0010
G01 X45.6152 Y-8.9849
G01 X45.6187 Y-8.9741
G01 X45.6294 Y-8.9500
G01 X45.6407 Y-8.9318
G01 X45.6515 Y-8.9181
G01 X45.6691 Y-8.9006
G01 X45.6839 Y-8.8891
G01 X45.6918 Y-8.8840
G01 X45.7124 Y-8.8731
G01 X45.7382 Y-8.8640
G01 X45.7557 Y-8.8602
G01 X45.7652 Y-8.8590
G01 X45.7835 Y-8.8580
G01 X47.6885 Y-8.8580
G01 X47.7068 Y-8.8590
G01 X47.7163 Y-8.8602
G01 X47.7419 Y-8.8664
G01 X47.7596 Y-8.8731
G01 X47.7691 Y-8.8777
G01 X47.7802 Y-8.8840
G01 X47.7956 Y-8.8946
G01 X47.8143 Y-8.9114
G01 X47.8263 Y-8.9251
G01 X47.8359 Y-8.9387
G01 X47.8456 Y-8.9559
G01 X47.8533 Y-8.9741
G01 X47.8588 Y-8.9929
G01 X47.8619 Y-9.0091
G01 X47.8635 Y-9.0330
G01 X47.8631 Y-11.0448
G01 X47.8605 Y-11.0650
G01 X47.8568 Y-11.0811
G01 X47.8533 Y-11.0919
G01 X47.8426 Y-11.1160
G01 X47.8313 Y-11.1342
G01 X47.8205 Y-11.1479
G01 X47.8029 Y-11.1654
G01 X47.7881 Y-11.1769
G01 X47.7802 Y-11.1820
G01 X47.7596 Y-11.1929
G01 X47.7432 Y-11.1992
G01 X47.7251 Y-11.2041
G01 X47.7068 Y-11.2070
G01 X47.6972 Y-11.2078
G01 X47.5113 Y-11.2080
G01 X47.5113 Y-11.9119
G01 X55.5251 Y-19.9257
G01 X56.3051 Y-19.9257
G01 X56.3187 Y-19.9154
G01 X56.3576 Y-19.8882
G01 X56.3957 Y-19.8642
G01 X56.4326 Y-19.8432
G01 X56.4830 Y-19.8178
G01 X56.5249 Y-19.7994
G01 X56.5650 Y-19.7839
G01 X56.6171 Y-19.7668
G01 X56.6633 Y-19.7542
G01 X56.7056 Y-19.7448
G01 X56.7572 Y-19.7360
G01 X56.7962 Y-19.7312
G01 X56.8439 Y-19.7274
G01 X56.8960 Y-19.7260
G01 X56.9395 Y-19.7270
G01 X56.9873 Y-19.7303
G01 X57.0433 Y-19.7372
G01 X57.0864 Y-19.7448
G01 X57.1287 Y-19.7542
G01 X57.1749 Y-19.7668
G01 X57.2270 Y-19.7839
G01 X57.2671 Y-19.7994
G01 X57.3090 Y-19.8178
G01 X57.3518 Y-19.8391
G01 X57.4009 Y-19.8670
G01 X57.4412 Y-19.8927
G01 X57.4776 Y-19.9184
G01 X57.5112 Y-19.9446
G01 X57.5485 Y-19.9765
G01 X57.5854 Y-20.0116
G01 X57.6155 Y-20.0431
G01 X57.6524 Y-20.0858
G01 X57.6786 Y-20.1194
G01 X57.7088 Y-20.1626
G01 X57.7341 Y-20.2029
G01 X57.7538 Y-20.2376
G01 X57.7757 Y-20.2807
G01 X57.7951 Y-20.3239
G01 X57.8154 Y-20.3766
G01 X57.8292 Y-20.4185
G01 X57.8407 Y-20.4599
G01 X57.8522 Y-20.5106
G01 X57.8598 Y-20.5537
G01 X57.8667 Y-20.6097
G01 X57.8700 Y-20.6575
G01 X57.8710 Y-20.7010
G01 X57.8700 Y-20.7445
G01 X57.8667 Y-20.7923
G01 X57.8598 Y-20.8483
G01 X57.8522 Y-20.8914
G01 X57.8428 Y-20.9337
G01 X57.8277 Y-20.9881
G01 X57.8143 Y-21.0288
G01 X57.7976 Y-21.0721
G01 X57.7792 Y-21.1140
G01 X57.7579 Y-21.1568
G01 X57.7303 Y-21.2055
G01 X57.7043 Y-21.2462
G01 X57.6786 Y-21.2826
G01 X57.6483 Y-21.3212
G01 X57.6213 Y-21.3526
G01 X57.5854 Y-21.3904
G01 X57.5476 Y-21.4263
G01 X57.5112 Y-21.4574
G01 X57.4776 Y-21.4836
G01 X57.4412 Y-21.5093
G01 X57.4009 Y-21.5350
G01 X57.3518 Y-21.5629
G01 X57.3090 Y-21.5842
G01 X57.2671 Y-21.6026
G01 X57.2270 Y-21.6181
G01 X57.1831 Y-21.6327
G01 X57.1287 Y-21.6478
G01 X57.0864 Y-21.6572
G01 X57.0433 Y-21.6648
G01 X56.9958 Y-21.6708
G01 X56.9481 Y-21.6746
G01 X56.8960 Y-21.6760
G01 X56.8525 Y-21.6750
G01 X56.8047 Y-21.6717
G01 X56.7555 Y-21.6658
G01 X56.7056 Y-21.6572
G01 X56.6549 Y-21.6457
G01 X56.6135 Y-21.6342
G01 X56.5650 Y-21.6181
G01 X56.5249 Y-21.6026
G01 X56.4757 Y-21.5807
G01 X56.4326 Y-21.5588
G01 X56.3911 Y-21.5350
G01 X56.3508 Y-21.5093
G01 X56.3051 Y-21.4763
G01 X55.2040 Y-21.4763
G01 X55.1702 Y-21.4755
G01 X55.1323 Y-21.4729
G01 X55.0928 Y-21.4683
G01 X55.0485 Y-21.4605
G01 X55.0198 Y-21.4541
G01 X54.9831 Y-21.4441
G01 X54.9469 Y-21.4324
G01 X54.9093 Y-21.4181
G01 X54.8691 Y-21.4002
G01 X54.8348 Y-21.3827
G01 X54.8064 Y-21.3666
G01 X54.7765 Y-21.3478
G01 X54.7414 Y-21.3232
G01 X54.7155 Y-21.3030
G01 X54.6856 Y-21.2775
G01 X54.6558 Y-21.2492
G01 X47.3013 Y-13.8947
G01 X47.3013 Y-29.0390
G01 X47.3005 Y-29.0728
G01 X47.2978 Y-29.1124
G01 X47.2935 Y-29.1485
G01 X47.2872 Y-29.1860
G01 X47.2770 Y-29.2315
G01 X47.2681 Y-29.2635
G01 X47.2562 Y-29.2995
G01 X47.2406 Y-29.3396
G01 X47.2252 Y-29.3739
G01 X47.2117 Y-29.4007
G01 X47.1890 Y-29.4408
G01 X47.1682 Y-29.4733
G01 X47.1482 Y-29.5016
G01 X47.1225 Y-29.5341
G01 X47.0987 Y-29.5615
G01 X47.0772 Y-29.5841
G01 X41.9117 Y-34.7498
G01 X41.9117 Y-35.1119
G01 X42.3532 Y-35.5534
G01 X42.3823 Y-35.5842
G01 X42.4070 Y-35.6131
G01 X42.4272 Y-35.6390
G01 X42.4518 Y-35.6742
G01 X42.4677 Y-35.6994
G01 X42.4867 Y-35.7324
G01 X42.5042 Y-35.7667
G01 X42.5229 Y-35.8089
G01 X42.5341 Y-35.8379
G01 X42.5456 Y-35.8725
G01 X42.5560 Y-35.9091
G01 X42.5662 Y-35.9546
G01 X42.5712 Y-35.9836
G01 X42.5761 Y-36.0214
G01 X42.5791 Y-36.0593
G01 X42.5803 Y-36.1016
G01 X42.5803 Y-41.0559
G01 X44.7131 Y-43.1887
G01 X53.0948 Y-43.1887
G01 X55.1757 Y-41.1078
G01 X55.2056 Y-41.0795
G01 X55.2354 Y-41.0540
G01 X55.2613 Y-41.0338
G01 X55.2897 Y-41.0138
G01 X55.3217 Y-40.9933
G01 X55.3547 Y-40.9743
G01 X55.3890 Y-40.9568
G01 X55.4292 Y-40.9389
G01 X55.4668 Y-40.9246
G01 X55.4994 Y-40.9139
G01 X55.5314 Y-40.9050
G01 X55.5685 Y-40.8965
G01 X55.6059 Y-40.8898
G01 X55.6506 Y-40.8842
G01 X55.6902 Y-40.8815
G01 X55.7239 Y-40.8807
G01 X56.7489 Y-40.8807
G01 X56.7489 Y-39.9059
G01 X56.7499 Y-39.8877
G01 X56.7537 Y-39.8656
G01 X56.7615 Y-39.8409
G01 X56.7717 Y-39.8197
G01 X56.7816 Y-39.8042
G01 X56.7975 Y-39.7850
G01 X56.8146 Y-39.7693
G01 X56.8300 Y-39.7583
G01 X56.8529 Y-39.7460
G01 X56.8759 Y-39.7377
G01 X56.8913 Y-39.7340
G01 X56.9057 Y-39.7319
G01 X56.9239 Y-39.7309
G01 X60.4241 Y-39.7309
G01 X60.4488 Y-39.7327
G01 X60.4644 Y-39.7357
G01 X60.4829 Y-39.7411
G01 X60.4951 Y-39.7460
G01 X60.5103 Y-39.7537
G01 X60.5334 Y-39.7693
G01 X60.5450 Y-39.7795
G01 X60.5557 Y-39.7907
G01 X60.5664 Y-39.8042
G01 X60.5763 Y-39.8197
G01 X60.5840 Y-39.8349
G01 X60.5889 Y-39.8471
G01 X60.5923 Y-39.8579
G01 X60.5960 Y-39.8733
G01 X60.5981 Y-39.8877
G01 X60.5991 Y-39.9059
G01 X60.5991 Y-43.4061
G01 X60.5981 Y-43.4243
G01 X60.5960 Y-43.4387
G01 X60.5923 Y-43.4541
G01 X60.5889 Y-43.4649
G01 X60.5840 Y-43.4771
G01 X60.5763 Y-43.4923
G01 X60.5607 Y-43.5154
G01 X60.5450 Y-43.5325
G01 X60.5334 Y-43.5427
G01 X60.5180 Y-43.5537
G01 X60.5023 Y-43.5626
G01 X60.4829 Y-43.5709
G01 X60.4644 Y-43.5763
G01 X60.4423 Y-43.5801
G01 X60.4241 Y-43.5811
G01 X56.9239 Y-43.5811
G01 X56.9057 Y-43.5801
G01 X56.8836 Y-43.5763
G01 X56.8651 Y-43.5709
G01 X56.8529 Y-43.5660
G01 X56.8300 Y-43.5537
G01 X56.8087 Y-43.5377
G01 X56.7923 Y-43.5213
G01 X56.7763 Y-43.5000
G01 X56.7640 Y-43.4771
G01 X56.7557 Y-43.4541
G01 X56.7520 Y-43.4387
G01 X56.7499 Y-43.4243
G01 X56.7489 Y-43.4061
G01 X56.7489 Y-42.4313
G01 X56.0451 Y-42.4313
G01 X53.9642 Y-44.5122
G01 X53.9397 Y-44.5355
G01 X53.9044 Y-44.5660
G01 X53.8743 Y-44.5892
G01 X53.8434 Y-44.6108
G01 X53.8182 Y-44.6267
G01 X53.7776 Y-44.6497
G01 X53.7509 Y-44.6632
G01 X53.7166 Y-44.6786
G01 X53.6796 Y-44.6931
G01 X53.6369 Y-44.7071
G01 X53.6001 Y-44.7171
G01 X53.5674 Y-44.7244
G01 X53.5254 Y-44.7315
G01 X53.4893 Y-44.7358
G01 X53.4497 Y-44.7385
G01 X53.4159 Y-44.7393
G01 X44.3920 Y-44.7393
G01 X44.3517 Y-44.7382
G01 X44.3186 Y-44.7358
G01 X44.2825 Y-44.7315
G01 X44.2406 Y-44.7244
G01 X44.2078 Y-44.7171
G01 X44.1628 Y-44.7046
G01 X44.1283 Y-44.6931
G01 X44.0973 Y-44.6811
G01 X44.0644 Y-44.6667
G01 X44.0303 Y-44.6497
G01 X43.9905 Y-44.6272
G01 X43.9577 Y-44.6062
G01 X43.9294 Y-44.5862
G01 X43.9035 Y-44.5660
G01 X43.8736 Y-44.5405
G01 X43.8438 Y-44.5122
G01 X41.8050 Y-42.4734
G01 X40.4012 Y-43.8772
G01 X40.3714 Y-43.9055
G01 X40.3481 Y-43.9256
G01 X40.3183 Y-43.9491
G01 X40.2805 Y-43.9758
G01 X40.2552 Y-43.9917
G01 X40.2222 Y-44.0107
G01 X40.1806 Y-44.0317
G01 X40.1477 Y-44.0461
G01 X40.1182 Y-44.0575
G01 X40.0775 Y-44.0711
G01 X40.0455 Y-44.0800
G01 X40.0085 Y-44.0885
G01 X39.9625 Y-44.0965
G01 X39.9264 Y-44.1008
G01 X39.8953 Y-44.1031
G01 X39.8530 Y-44.1043
G01 X31.7677 Y-44.1042
G01 X31.7297 Y-44.1031
G01 X31.6986 Y-44.1008
G01 X31.6625 Y-44.0965
G01 X31.6250 Y-44.0902
G01 X31.5795 Y-44.0800
G01 X31.5475 Y-44.0711
G01 X31.5115 Y-44.0592
G01 X31.4773 Y-44.0461
G01 X31.4444 Y-44.0317
G01 X31.4028 Y-44.0107
G01 X31.3766 Y-43.9958
G01 X31.3445 Y-43.9758
G01 X31.3094 Y-43.9512
G01 X31.2835 Y-43.9310
G01 X31.2495 Y-43.9017
G01 X31.2238 Y-43.8772
G01 X29.3151 Y-41.9685
G01 X29.2800 Y-41.9674
G01 X29.2343 Y-41.9641
G01 X29.1835 Y-41.9579
G01 X29.1271 Y-41.9483
G01 X29.0716 Y-41.9357
G01 X29.0255 Y-41.9229
G01 X28.9789 Y-41.9076
G01 X28.9296 Y-41.8888
G01 X28.8739 Y-41.8641
G01 X28.8275 Y-41.8405
G01 X28.7807 Y-41.8138
G01 X28.7430 Y-41.7900
G01 X28.7001 Y-41.7600
G01 X28.6533 Y-41.7236
G01 X28.6132 Y-41.6888
G01 X28.5739 Y-41.6511
G01 X28.5384 Y-41.6136
G01 X28.5088 Y-41.5793
G01 X28.4741 Y-41.5351
G01 X28.4410 Y-41.4880
G01 X28.4144 Y-41.4457
G01 X28.3870 Y-41.3969
G01 X28.3634 Y-41.3497
G01 X28.3430 Y-41.3034
G01 X28.3258 Y-41.2586
G01 X28.3081 Y-41.2055
G01 X28.2932 Y-41.1510
G01 X28.2827 Y-41.1039
G01 X28.2733 Y-41.0492
G01 X28.2676 Y-41.0036
G01 X28.2636 Y-40.9510
G01 X28.2620 Y-40.8940
G01 X28.2636 Y-40.8370
G01 X28.2676 Y-40.7844
G01 X28.2733 Y-40.7388
G01 X28.2827 Y-40.6841
G01 X28.2932 Y-40.6370
G01 X28.3081 Y-40.5825
G01 X28.3258 Y-40.5294
G01 X28.3430 Y-40.4846
G01 X28.3669 Y-40.4309
G01 X28.3910 Y-40.3835
G01 X28.4144 Y-40.3423
G01 X28.4456 Y-40.2932
G01 X28.4741 Y-40.2529
G01 X28.5088 Y-40.2087
G01 X28.5384 Y-40.1744
G01 X28.5769 Y-40.1339
G01 X28.6132 Y-40.0992
G01 X28.6533 Y-40.0644
G01 X28.6959 Y-40.0311
G01 X28.7430 Y-39.9980
G01 X28.7875 Y-39.9701
G01 X28.8265 Y-39.9480
G01 X28.8813 Y-39.9204
G01 X28.9276 Y-39.9000
G01 X28.9708 Y-39.8833
G01 X29.0291 Y-39.8641
G01 X29.0716 Y-39.8523
G01 X29.1231 Y-39.8405
G01 X29.1835 Y-39.8301
G01 X29.2343 Y-39.8239
G01 X29.2800 Y-39.8206
G01 X29.3370 Y-39.8190
G01 X29.3855 Y-39.8201
G01 X29.4464 Y-39.8246
G01 X29.4990 Y-39.8313
G01 X29.5469 Y-39.8397
G01 X29.6024 Y-39.8523
G01 X29.6485 Y-39.8651
G01 X29.6984 Y-39.8816
G01 X29.7464 Y-39.9000
G01 X29.7927 Y-39.9204
G01 X29.8465 Y-39.9475
G01 X29.8865 Y-39.9701
G01 X29.9310 Y-39.9980
G01 X29.9781 Y-40.0311
G01 X30.0207 Y-40.0644
G01 X30.0621 Y-40.1004
G01 X30.1001 Y-40.1369
G01 X30.1356 Y-40.1744
G01 X30.1652 Y-40.2087
G01 X30.1999 Y-40.2529
G01 X30.2330 Y-40.3000
G01 X30.2596 Y-40.3423
G01 X30.2870 Y-40.3911
G01 X30.3071 Y-40.4309
G01 X30.3285 Y-40.4787
G01 X30.3477 Y-40.5278
G01 X30.3659 Y-40.5825
G01 X30.3787 Y-40.6286
G01 X30.3913 Y-40.6841
G01 X30.4007 Y-40.7388
G01 X30.4072 Y-40.7929
G01 X30.4104 Y-40.8370
G01 X30.4115 Y-40.8721
G01 X32.0931 Y-42.5537
G01 X39.5319 Y-42.5537
G01 X41.0297 Y-41.0559
G01 X41.0297 Y-36.4228
G01 X40.8152 Y-36.2083
G01 X40.5959 Y-36.2083
G01 X40.5823 Y-36.2186
G01 X40.5434 Y-36.2458
G01 X40.5099 Y-36.2670
G01 X40.4684 Y-36.2908
G01 X40.4180 Y-36.3162
G01 X40.3761 Y-36.3346
G01 X40.3360 Y-36.3501
G01 X40.2839 Y-36.3672
G01 X40.2377 Y-36.3798
G01 X40.1954 Y-36.3892
G01 X40.1523 Y-36.3968
G01 X40.1048 Y-36.4028
G01 X40.0485 Y-36.4070
G01 X40.0050 Y-36.4080
G01 X39.9615 Y-36.4070
G01 X39.9121 Y-36.4035
G01 X39.8577 Y-36.3968
G01 X39.8146 Y-36.3892
G01 X39.7723 Y-36.3798
G01 X39.7179 Y-36.3647
G01 X39.6740 Y-36.3501
G01 X39.6339 Y-36.3346
G01 X39.5847 Y-36.3127
G01 X39.5492 Y-36.2949
G01 X39.5075 Y-36.2714
G01 X39.4598 Y-36.2413
G01 X39.4234 Y-36.2156
G01 X39.3898 Y-36.1894
G01 X39.3471 Y-36.1525
G01 X39.3156 Y-36.1224
G01 X39.2855 Y-36.0909
G01 X39.2486 Y-36.0482
G01 X39.2224 Y-36.0146
G01 X39.1967 Y-35.9782
G01 X39.1666 Y-35.9305
G01 X39.1431 Y-35.8888
G01 X39.1253 Y-35.8533
G01 X39.1026 Y-35.8021
G01 X39.0879 Y-35.7640
G01 X39.0718 Y-35.7155
G01 X39.0603 Y-35.6741
G01 X39.0496 Y-35.6274
G01 X39.0400 Y-35.5718
G01 X39.0345 Y-35.5259
G01 X39.0314 Y-35.4851
G01 X39.0300 Y-35.4330
G01 X39.0313 Y-35.3829
G01 X39.0343 Y-35.3417
G01 X39.0412 Y-35.2857
G01 X39.0488 Y-35.2426
G01 X39.0582 Y-35.2003
G01 X39.0708 Y-35.1541
G01 X39.0879 Y-35.1020
G01 X39.1026 Y-35.0639
G01 X39.1253 Y-35.0127
G01 X39.1472 Y-34.9696
G01 X39.1705 Y-34.9288
G01 X39.1967 Y-34.8878
G01 X39.2245 Y-34.8488
G01 X39.2486 Y-34.8178
G01 X39.2797 Y-34.7814
G01 X39.3156 Y-34.7436
G01 X39.3471 Y-34.7135
G01 X39.3832 Y-34.6821
G01 X39.4234 Y-34.6504
G01 X39.4666 Y-34.6202
G01 X39.5075 Y-34.5946
G01 X39.5492 Y-34.5711
G01 X39.5847 Y-34.5533
G01 X39.6279 Y-34.5339
G01 X39.6740 Y-34.5159
G01 X39.7179 Y-34.5013
G01 X39.7639 Y-34.4883
G01 X39.8146 Y-34.4768
G01 X39.8662 Y-34.4680
G01 X39.9121 Y-34.4625
G01 X39.9615 Y-34.4590
G01 X40.0093 Y-34.4581
G01 X40.0571 Y-34.4594
G01 X40.0979 Y-34.4625
G01 X40.1438 Y-34.4680
G01 X40.1954 Y-34.4768
G01 X40.2461 Y-34.4883
G01 X40.2921 Y-34.5013
G01 X40.3294 Y-34.5136
G01 X40.3611 Y-34.5256
G01 X40.3611 Y-34.4243
G01 X40.3621 Y-34.3883
G01 X40.3653 Y-34.3486
G01 X40.3701 Y-34.3106
G01 X40.3760 Y-34.2772
G01 X40.3854 Y-34.2361
G01 X40.3958 Y-34.1995
G01 X40.4073 Y-34.1649
G01 X40.4185 Y-34.1359
G01 X40.4337 Y-34.1011
G01 X40.4506 Y-34.0670
G01 X40.4692 Y-34.0338
G01 X40.4896 Y-34.0012
G01 X40.5142 Y-33.9660
G01 X40.5398 Y-33.9335
G01 X40.5648 Y-33.9048
G01 X40.5881 Y-33.8804
G01 X45.7507 Y-28.7179
G01 X45.7507 Y-12.4430
G01 X45.7515 Y-12.4093
G01 X45.7542 Y-12.3699
G01 X45.7585 Y-12.3335
G01 X45.7656 Y-12.2916
G01 X45.7729 Y-12.2588
G01 X45.7839 Y-12.2185
G01 X45.7969 Y-12.1793
G01 X45.8089 Y-12.1483
G01 X45.8233 Y-12.1154
G01 X45.8403 Y-12.0813
G01 X45.8588 Y-12.0481
G01 X45.8792 Y-12.0155
G01 X45.9038 Y-11.9804
G01 X45.9240 Y-11.9545
G01 X45.9487 Y-11.9256
G01 X45.9607 Y-11.9126
G01 X45.9607 Y-11.2080
G01 X45.7835 Y-11.2080
G01 X45.7652 Y-11.2070
G01 X45.7469 Y-11.2041
G01 X45.7221 Y-11.1969
G01 X45.7029 Y-11.1883
G01 X45.6918 Y-11.1820
G01 X45.6764 Y-11.1714
G01 X45.6691 Y-11.1654
G01 X45.6515 Y-11.1479
G01 X45.6361 Y-11.1273
G01 X45.6236 Y-11.1041
G01 X45.6152 Y-11.0811
G01 X45.6101 Y-11.0569
G01 X45.6085 Y-11.0330
G01 X45.6085 Y-10.8083
G01 X40.5720 Y-10.8083
G01 X40.5716 Y-10.9448
G01 X40.5690 Y-10.9650
G01 X40.5653 Y-10.9811
G01 X40.5595 Y-10.9980
G01 X40.5541 Y-11.0101
G01 X40.5444 Y-11.0273
G01 X40.5348 Y-11.0409
G01 X40.5228 Y-11.0546
G01 X40.5041 Y-11.0714
G01 X40.4887 Y-11.0820
G01 X40.4681 Y-11.0929
G01 X40.4423 Y-11.1020
G01 X40.4248 Y-11.1058
G01 X40.4153 Y-11.1070
G01 X40.3970 Y-11.1080
G01 X38.5970 Y-11.1080
G01 X38.5787 Y-11.1070
G01 X38.5517 Y-11.1020
G01 X38.5356 Y-11.0969
G01 X38.5164 Y-11.0883
G01 X38.4974 Y-11.0769
G01 X38.4777 Y-11.0610
G01 X38.4650 Y-11.0479
G01 X38.4496 Y-11.0273
G01 X38.4399 Y-11.0101
G01 X38.4322 Y-10.9919
G01 X38.4287 Y-10.9811
G01 X38.4250 Y-10.9650
G01 X38.4224 Y-10.9448
G01 X38.4224 Y-9.1212
G01 X38.4250 Y-9.1010
G01 X38.4287 Y-9.0849
G01 X38.4322 Y-9.0741
G01 X38.4399 Y-9.0559
G01 X38.4496 Y-9.0387
G01 X38.4650 Y-9.0181
G01 X38.4777 Y-9.0050
G01 X38.4974 Y-8.9891
G01 X38.5164 Y-8.9777
G01 X38.5259 Y-8.9731
G01 X38.5423 Y-8.9668
G01 X38.5604 Y-8.9619
G01 X38.5787 Y-8.9590
G01 X38.5970 Y-8.9580
G01 X38.7217 Y-8.9580
G01 X38.7217 Y-7.4597
G01 X35.6602 Y-10.5212
G01 X35.6358 Y-10.5445
G01 X35.6005 Y-10.5750
G01 X35.5746 Y-10.5952
G01 X35.5418 Y-10.6182
G01 X35.5121 Y-10.6371
G01 X35.4812 Y-10.6547
G01 X35.4396 Y-10.6757
G01 X35.4067 Y-10.6901
G01 X35.3757 Y-10.7021
G01 X35.3412 Y-10.7136
G01 X35.3045 Y-10.7240
G01 X35.2590 Y-10.7342
G01 X35.2300 Y-10.7392
G01 X35.1923 Y-10.7441
G01 X35.1502 Y-10.7474
G01 X35.1120 Y-10.7483
G01 X19.6851 Y-10.7483
G01 X19.4630 Y-10.9704
G01 X19.4630 Y-12.0490
G01 X19.4624 Y-12.0629
G01 X19.4605 Y-12.0787
G01 X19.4558 Y-12.0986
G01 X19.4479 Y-12.1201
G01 X19.4401 Y-12.1355
G01 X19.4289 Y-12.1527
G01 X19.4175 Y-12.1667
G01 X19.3977 Y-12.1854
G01 X19.3823 Y-12.1964
G01 X19.3591 Y-12.2089
G01 X19.3393 Y-12.2163
G01 X19.3148 Y-12.2219
G01 X19.2880 Y-12.2240
G01 X17.2790 Y-12.2238
G01 X17.2612 Y-12.2219
G01 X17.2442 Y-12.2184
G01 X17.2343 Y-12.2156
G01 X17.2169 Y-12.2089
G01 X17.2004 Y-12.2005
G01 X17.1858 Y-12.1911
G01 X17.1783 Y-12.1854
G01 X17.1643 Y-12.1727
G01 X17.1531 Y-12.1605
G01 X17.1415 Y-12.1447
G01 X17.1359 Y-12.1355
G01 X17.1281 Y-12.1201
G01 X17.1227 Y-12.1064
G01 X17.1181 Y-12.0907
G01 X17.1155 Y-12.0787
G01 X17.1136 Y-12.0629
G01 X17.1130 Y-12.0490
G01 X17.1130 Y-10.0490
G01 X17.1144 Y-10.0272
G01 X17.1181 Y-10.0073
G01 X17.1227 Y-9.9916
G01 X17.1281 Y-9.9779
G01 X17.1359 Y-9.9625
G01 X17.1415 Y-9.9533
G01 X17.1531 Y-9.9375
G01 X17.1711 Y-9.9188
G01 X17.1858 Y-9.9069
G01 X17.1937 Y-9.9016
G01 X17.2169 Y-9.8891
G01 X17.2367 Y-9.8817
G01 X17.2612 Y-9.8761
G01 X17.2880 Y-9.8740
G01 X17.2737 Y-9.6639
G01 X18.2794 Y-9.6636
G01 X18.5843 Y-9.3587
G01 X17.5723 Y-9.3587
G01 X17.2737 Y-9.6573
G01 X17.2737 Y-9.6639
G00 Z1.9990
G00 X16.8933 Y-1.3665
G01 F80.00
G01 Z-0.4665
G01 F80.00
G01 X17.0108 Y-1.2490
G01 X17.0480 Y-1.2723
G01 X17.1228 Y-1.3147
G01 X17.2122 Y-1.3598
G01 X17.2993 Y-1.3983
G01 X17.3814 Y-1.4300
G01 X17.4781 Y-1.4620
G01 X17.5621 Y-1.4853
G01 X17.6542 Y-1.5062
G01 X17.7558 Y-1.5238
G01 X17.8421 Y-1.5344
G01 X17.9353 Y-1.5415
G01 X18.0340 Y-1.5441
G01 X18.1327 Y-1.5415
G01 X18.2259 Y-1.5344
G01 X18.3122 Y-1.5238
G01 X18.4138 Y-1.5062
G01 X18.5059 Y-1.4853
G01 X18.5913 Y-1.4616
G01 X18.6866 Y-1.4300
G01 X18.7687 Y-1.3983
G01 X18.8558 Y-1.3598
G01 X18.9452 Y-1.3147
G01 X19.0200 Y-1.2723
G01 X19.0572 Y-1.2490
G01 X19.1747 Y-1.3665
G01 X19.1464 Y-1.4178
G01 X18.4213 Y-1.7072
G01 X17.5906 Y-1.6964
G01 X16.9227 Y-1.4197
G01 X16.8933 Y-1.3665
G00 Z1.9990
G00 X16.1112 Y0.2908
G01 F80.00
G01 Z-0.4665
G01 F80.00
G01 X16.1178 Y0.1966
G01 X16.1305 Y0.0943
G01 X16.1460 Y0.0053
G01 X16.1656 Y-0.0826
G01 X16.1917 Y-0.1773
G01 X16.2230 Y-0.2716
G01 X16.2558 Y-0.3564
G01 X16.2920 Y-0.4382
G01 X16.3369 Y-0.5276
G01 X16.3807 Y-0.6050
G01 X16.4040 Y-0.6422
G01 X16.2865 Y-0.7597
G01 X16.2352 Y-0.7314
G01 X15.9458 Y-0.0063
G01 X15.9566 Y0.8244
G01 X16.2333 Y1.4923
G01 X16.2865 Y1.5217
G01 X16.4040 Y1.4042
G01 X16.3807 Y1.3670
G01 X16.3343 Y1.2847
G01 X16.2954 Y1.2075
G01 X16.2559 Y1.1186
G01 X16.2201 Y1.0255
G01 X16.1916 Y0.9391
G01 X16.1677 Y0.8529
G01 X16.1451 Y0.7523
G01 X16.1293 Y0.6602
G01 X16.1187 Y0.5740
G01 X16.1111 Y0.4712
G01 X16.1089 Y0.3810
G01 X16.1112 Y0.2908
G00 Z1.9990
G00 X16.8933 Y2.1285
G01 F80.00
G01 Z-0.4665
G01 F80.00
G01 X16.9216 Y2.1798
G01 X17.6467 Y2.4692
G01 X18.4774 Y2.4584
G01 X19.1453 Y2.1817
G01 X19.1747 Y2.1285
G01 X19.0572 Y2.0110
G01 X19.0200 Y2.0343
G01 X18.9452 Y2.0767
G01 X18.8558 Y2.1218
G01 X18.7687 Y2.1603
G01 X18.6866 Y2.1920
G01 X18.5904 Y2.2239
G01 X18.5059 Y2.2473
G01 X18.4138 Y2.2682
G01 X18.3122 Y2.2858
G01 X18.2264 Y2.2964
G01 X18.1327 Y2.3035
G01 X18.0340 Y2.3061
G01 X17.9353 Y2.3035
G01 X17.8416 Y2.2964
G01 X17.7558 Y2.2858
G01 X17.6542 Y2.2682
G01 X17.5621 Y2.2473
G01 X17.4767 Y2.2236
G01 X17.3814 Y2.1920
G01 X17.2993 Y2.1603
G01 X17.2122 Y2.1218
G01 X17.1228 Y2.0767
G01 X17.0480 Y2.0343
G01 X17.0108 Y2.0110
G01 X16.8933 Y2.1285
G00 Z1.9990
G00 X19.6640 Y-0.6422
G01 F80.00
G01 Z-0.4665
G01 F80.00
G01 X19.6873 Y-0.6050
G01 X19.7311 Y-0.5276
G01 X19.7760 Y-0.4382
G01 X19.8141 Y-0.3517
G01 X19.8461 Y-0.2688
G01 X19.8749 Y-0.1819
G01 X19.9024 Y-0.0826
G01 X19.9229 Y0.0097
G01 X19.9387 Y0.1018
G01 X19.9493 Y0.1880
G01 X19.9565 Y0.2823
G01 X19.9590 Y0.3853
G01 X19.9565 Y0.4797
G01 X19.9502 Y0.5654
G01 X19.9375 Y0.6677
G01 X19.9220 Y0.7567
G01 X19.9003 Y0.8529
G01 X19.8763 Y0.9393
G01 X19.8479 Y1.0255
G01 X19.8121 Y1.1186
G01 X19.7726 Y1.2075
G01 X19.7337 Y1.2847
G01 X19.6873 Y1.3670
G01 X19.6640 Y1.4042
G01 X19.7815 Y1.5217
G01 X19.8328 Y1.4934
G01 X20.1222 Y0.7683
G01 X20.1114 Y-0.0624
G01 X19.8347 Y-0.7303
G01 X19.7815 Y-0.7597
G01 X19.6640 Y-0.6422
G00 Z1.9990
G00 X22.8220 Y2.6260
G01 F80.00
G01 Z-0.4665
G01 F80.00
G01 X22.8037 Y2.6250
G01 X22.7859 Y2.6222
G01 X22.7679 Y2.6174
G01 X22.7586 Y2.6141
G01 X22.7419 Y2.6066
G01 X22.7271 Y2.5981
G01 X22.7053 Y2.5814
G01 X22.6927 Y2.5689
G01 X22.6808 Y2.5544
G01 X22.6750 Y2.5460
G01 X22.6650 Y2.5284
G01 X22.6595 Y2.5160
G01 X22.6542 Y2.5006
G01 X22.6495 Y2.4806
G01 X22.6476 Y2.4649
G01 X22.6470 Y2.4510
G01 X22.6471 Y0.8451
G01 X22.6484 Y0.8292
G01 X22.6521 Y0.8092
G01 X22.6596 Y0.7858
G01 X22.6651 Y0.7735
G01 X22.6750 Y0.7561
G01 X22.6809 Y0.7475
G01 X22.6928 Y0.7330
G01 X22.7051 Y0.7207
G01 X22.7195 Y0.7091
G01 X22.7349 Y0.6992
G01 X22.7509 Y0.6911
G01 X22.7681 Y0.6845
G01 X22.7863 Y0.6797
G01 X22.8038 Y0.6770
G01 X22.8220 Y0.6760
G01 X24.4220 Y0.6760
G01 X24.4402 Y0.6770
G01 X24.4577 Y0.6797
G01 X24.4761 Y0.6846
G01 X24.4859 Y0.6881
G01 X24.5019 Y0.6953
G01 X24.5166 Y0.7038
G01 X24.5245 Y0.7091
G01 X24.5389 Y0.7207
G01 X24.5512 Y0.7330
G01 X24.5631 Y0.7475
G01 X24.5742 Y0.7646
G01 X24.5819 Y0.7799
G01 X24.5873 Y0.7936
G01 X24.5919 Y0.8092
G01 X24.5956 Y0.8292
G01 X24.5970 Y0.8510
G01 X24.5969 Y2.4570
G01 X24.5956 Y2.4728
G01 X24.5919 Y2.4927
G01 X24.5844 Y2.5162
G01 X24.5788 Y2.5287
G01 X24.5690 Y2.5460
G01 X24.5632 Y2.5544
G01 X24.5513 Y2.5689
G01 X24.5387 Y2.5814
G01 X24.5244 Y2.5929
G01 X24.5096 Y2.6025
G01 X24.4931 Y2.6109
G01 X24.4757 Y2.6176
G01 X24.4665 Y2.6202
G01 X24.4496 Y2.6238
G01 X24.4310 Y2.6258
G01 X22.8220 Y2.6260
G00 Z1.9990
G00 X25.1880 Y1.6075
G01 F80.00
G01 Z-0.4665
G01 F80.00
G01 X25.1870 Y1.6510
G01 X25.1884 Y1.7031
G01 X25.1922 Y1.7508
G01 X25.1971 Y1.7908
G01 X25.2058 Y1.8414
G01 X25.2152 Y1.8837
G01 X25.2287 Y1.9332
G01 X25.2444 Y1.9807
G01 X25.2616 Y2.0251
G01 X25.2823 Y2.0713
G01 X25.3027 Y2.1117
G01 X25.3268 Y2.1540
G01 X25.3537 Y2.1962
G01 X25.3788 Y2.2317
G01 X25.4108 Y2.2725
G01 X25.4408 Y2.3071
G01 X25.4726 Y2.3404
G01 X25.5048 Y2.3712
G01 X25.5428 Y2.4041
G01 X25.5804 Y2.4336
G01 X25.6224 Y2.4631
G01 X25.6573 Y2.4852
G01 X25.7031 Y2.5112
G01 X25.7457 Y2.5326
G01 X25.7909 Y2.5526
G01 X25.8342 Y2.5693
G01 X25.8804 Y2.5845
G01 X25.9293 Y2.5978
G01 X25.9722 Y2.6073
G01 X26.0232 Y2.6160
G01 X26.0707 Y2.6217
G01 X26.1165 Y2.6249
G01 X26.1620 Y2.6260
G01 X26.2075 Y2.6249
G01 X26.2612 Y2.6209
G01 X26.3093 Y2.6148
G01 X26.3524 Y2.6072
G01 X26.4031 Y2.5957
G01 X26.4426 Y2.5847
G01 X26.4887 Y2.5696
G01 X26.5331 Y2.5526
G01 X26.5783 Y2.5326
G01 X26.6209 Y2.5112
G01 X26.6667 Y2.4852
G01 X26.7016 Y2.4631
G01 X26.7436 Y2.4336
G01 X26.7807 Y2.4046
G01 X26.8192 Y2.3712
G01 X26.8514 Y2.3404
G01 X26.8832 Y2.3071
G01 X26.9129 Y2.2728
G01 X26.9452 Y2.2317
G01 X26.9703 Y2.1962
G01 X26.9972 Y2.1540
G01 X27.0213 Y2.1117
G01 X27.0452 Y2.0640
G01 X27.0624 Y2.0251
G01 X27.0793 Y1.9813
G01 X27.0952 Y1.9334
G01 X27.1088 Y1.8837
G01 X27.1182 Y1.8414
G01 X27.1269 Y1.7909
G01 X27.1327 Y1.7423
G01 X27.1360 Y1.6945
G01 X27.1370 Y1.6510
G01 X27.1356 Y1.5989
G01 X27.1327 Y1.5597
G01 X27.1270 Y1.5122
G01 X27.1191 Y1.4650
G01 X27.1088 Y1.4183
G01 X27.0953 Y1.3688
G01 X27.0796 Y1.3213
G01 X27.0624 Y1.2769
G01 X27.0417 Y1.2307
G01 X27.0198 Y1.1876
G01 X26.9960 Y1.1461
G01 X26.9750 Y1.1129
G01 X26.9476 Y1.0737
G01 X26.9184 Y1.0358
G01 X26.8832 Y0.9949
G01 X26.8514 Y0.9616
G01 X26.8136 Y0.9257
G01 X26.7812 Y0.8979
G01 X26.7462 Y0.8705
G01 X26.7072 Y0.8427
G01 X26.6667 Y0.8168
G01 X26.6206 Y0.7906
G01 X26.5776 Y0.7690
G01 X26.5311 Y0.7486
G01 X26.4898 Y0.7327
G01 X26.4491 Y0.7193
G01 X26.4031 Y0.7063
G01 X26.3524 Y0.6948
G01 X26.3093 Y0.6872
G01 X26.2610 Y0.6811
G01 X26.2055 Y0.6770
G01 X26.1620 Y0.6760
G01 X26.1099 Y0.6774
G01 X26.0630 Y0.6811
G01 X26.0232 Y0.6860
G01 X25.9760 Y0.6939
G01 X25.9293 Y0.7042
G01 X25.8831 Y0.7168
G01 X25.8295 Y0.7345
G01 X25.7909 Y0.7494
G01 X25.7464 Y0.7690
G01 X25.7034 Y0.7906
G01 X25.6645 Y0.8126
G01 X25.6168 Y0.8427
G01 X25.5804 Y0.8684
G01 X25.5402 Y0.9001
G01 X25.5048 Y0.9308
G01 X25.4726 Y0.9616
G01 X25.4411 Y0.9946
G01 X25.4111 Y1.0292
G01 X25.3764 Y1.0737
G01 X25.3490 Y1.1129
G01 X25.3236 Y1.1535
G01 X25.3027 Y1.1903
G01 X25.2823 Y1.2307
G01 X25.2616 Y1.2769
G01 X25.2455 Y1.3185
G01 X25.2278 Y1.3721
G01 X25.2152 Y1.4183
G01 X25.2058 Y1.4606
G01 X25.1971 Y1.5111
G01 X25.1922 Y1.5512
G01 X25.1880 Y1.6075
G01 X25.0466 Y1.2496
G01 X25.0281 Y1.3055
G01 X25.0145 Y1.3538
G01 X24.9976 Y1.4290
G01 X24.9891 Y1.4796
G01 X24.9819 Y1.5391
G01 X24.9780 Y1.5937
G01 X24.9766 Y1.6484
G01 X24.9778 Y1.7049
G01 X24.9815 Y1.7578
G01 X24.9909 Y1.8343
G01 X24.9999 Y1.8851
G01 X25.0132 Y1.9432
G01 X25.0280 Y1.9963
G01 X25.0466 Y2.0524
G01 X25.0162 Y2.0534
G01 X24.9881 Y2.0558
G01 X24.9561 Y2.0605
G01 X24.9264 Y2.0668
G01 X24.8995 Y2.0741
G01 X24.8653 Y2.0857
G01 X24.8342 Y2.0986
G01 X24.8074 Y2.1118
G01 X24.8074 Y1.1902
G01 X24.8347 Y1.2036
G01 X24.8653 Y1.2163
G01 X24.8979 Y1.2275
G01 X24.9264 Y1.2352
G01 X24.9547 Y1.2412
G01 X24.9885 Y1.2462
G01 X25.0162 Y1.2486
G01 X25.0466 Y1.2496
G00 Z1.9990
G00 X27.5303 Y1.4717
G01 F80.00
G01 Z-0.4665
G01 F80.00
G01 X27.5029 Y1.4763
G01 X27.4773 Y1.4792
G01 X27.4560 Y1.4807
G01 X27.4301 Y1.4812
G01 X27.4080 Y1.4807
G01 X27.3792 Y1.4785
G01 X27.3337 Y1.4717
G01 X27.3425 Y1.5442
G01 X27.3462 Y1.5971
G01 X27.3474 Y1.6536
G01 X27.3462 Y1.7049
G01 X27.3425 Y1.7578
G01 X27.3337 Y1.8303
G01 X27.3611 Y1.8257
G01 X27.3864 Y1.8228
G01 X27.4080 Y1.8213
G01 X27.4339 Y1.8208
G01 X27.4560 Y1.8213
G01 X27.4855 Y1.8236
G01 X27.5303 Y1.8303
G01 X27.5215 Y1.7578
G01 X27.5178 Y1.7049
G01 X27.5166 Y1.6536
G01 X27.5180 Y1.5937
G01 X27.5215 Y1.5442
G01 X27.5303 Y1.4717
G01 X27.7280 Y1.6075
G01 X27.7313 Y1.5597
G01 X27.7371 Y1.5111
G01 X27.7458 Y1.4606
G01 X27.7552 Y1.4183
G01 X27.7688 Y1.3686
G01 X27.7847 Y1.3207
G01 X27.8016 Y1.2769
G01 X27.8225 Y1.2303
G01 X27.8427 Y1.1903
G01 X27.8680 Y1.1461
G01 X27.8937 Y1.1058
G01 X27.9164 Y1.0737
G01 X27.9456 Y1.0358
G01 X27.9811 Y0.9946
G01 X28.0126 Y0.9616
G01 X28.0448 Y0.9308
G01 X28.0868 Y0.8946
G01 X28.1204 Y0.8684
G01 X28.1626 Y0.8388
G01 X28.2045 Y0.8126
G01 X28.2434 Y0.7906
G01 X28.2864 Y0.7690
G01 X28.3309 Y0.7494
G01 X28.3751 Y0.7325
G01 X28.4217 Y0.7172
G01 X28.4693 Y0.7042
G01 X28.5116 Y0.6948
G01 X28.5632 Y0.6860
G01 X28.6107 Y0.6803
G01 X28.6565 Y0.6771
G01 X28.7020 Y0.6760
G01 X28.7475 Y0.6771
G01 X28.8010 Y0.6811
G01 X28.8493 Y0.6872
G01 X28.8924 Y0.6948
G01 X28.9347 Y0.7042
G01 X28.9836 Y0.7175
G01 X29.0298 Y0.7327
G01 X29.0731 Y0.7494
G01 X29.1176 Y0.7690
G01 X29.1578 Y0.7891
G01 X29.2069 Y0.8170
G01 X29.2416 Y0.8389
G01 X29.2862 Y0.8705
G01 X29.3212 Y0.8979
G01 X29.3592 Y0.9308
G01 X29.3914 Y0.9616
G01 X29.4273 Y0.9994
G01 X29.4584 Y1.0358
G01 X29.4856 Y1.0709
G01 X29.5103 Y1.1058
G01 X29.5372 Y1.1480
G01 X29.5613 Y1.1903
G01 X29.5817 Y1.2307
G01 X29.6024 Y1.2769
G01 X29.6196 Y1.3213
G01 X29.6353 Y1.3688
G01 X29.6488 Y1.4183
G01 X29.6582 Y1.4606
G01 X29.6669 Y1.5112
G01 X29.6718 Y1.5512
G01 X29.6756 Y1.5989
G01 X29.6770 Y1.6510
G01 X29.6760 Y1.6945
G01 X29.6727 Y1.7423
G01 X29.6669 Y1.7909
G01 X29.6582 Y1.8414
G01 X29.6488 Y1.8837
G01 X29.6352 Y1.9334
G01 X29.6193 Y1.9813
G01 X29.6024 Y2.0251
G01 X29.5852 Y2.0640
G01 X29.5613 Y2.1117
G01 X29.5372 Y2.1540
G01 X29.5103 Y2.1962
G01 X29.4852 Y2.2317
G01 X29.4529 Y2.2728
G01 X29.4232 Y2.3071
G01 X29.3914 Y2.3404
G01 X29.3592 Y2.3712
G01 X29.3207 Y2.4046
G01 X29.2836 Y2.4336
G01 X29.2416 Y2.4631
G01 X29.2067 Y2.4852
G01 X29.1609 Y2.5112
G01 X29.1183 Y2.5326
G01 X29.0731 Y2.5526
G01 X29.0287 Y2.5696
G01 X28.9826 Y2.5847
G01 X28.9431 Y2.5957
G01 X28.8924 Y2.6072
G01 X28.8493 Y2.6148
G01 X28.8012 Y2.6209
G01 X28.7475 Y2.6249
G01 X28.7020 Y2.6260
G01 X28.6565 Y2.6249
G01 X28.6107 Y2.6217
G01 X28.5632 Y2.6160
G01 X28.5122 Y2.6073
G01 X28.4693 Y2.5978
G01 X28.4204 Y2.5845
G01 X28.3742 Y2.5693
G01 X28.3309 Y2.5526
G01 X28.2857 Y2.5326
G01 X28.2431 Y2.5112
G01 X28.1973 Y2.4852
G01 X28.1624 Y2.4631
G01 X28.1204 Y2.4336
G01 X28.0828 Y2.4041
G01 X28.0448 Y2.3712
G01 X28.0126 Y2.3404
G01 X27.9808 Y2.3071
G01 X27.9508 Y2.2725
G01 X27.9188 Y2.2317
G01 X27.8937 Y2.1962
G01 X27.8668 Y2.1540
G01 X27.8427 Y2.1117
G01 X27.8223 Y2.0713
G01 X27.8016 Y2.0251
G01 X27.7844 Y1.9807
G01 X27.7687 Y1.9332
G01 X27.7552 Y1.8837
G01 X27.7458 Y1.8414
G01 X27.7371 Y1.7908
G01 X27.7322 Y1.7508
G01 X27.7284 Y1.7031
G01 X27.7270 Y1.6510
G01 X27.7280 Y1.6075
G00 Z1.9990
G00 X30.0703 Y1.4717
G01 F80.00
G01 Z-0.4665
G01 F80.00
G01 X30.0429 Y1.4763
G01 X30.0173 Y1.4792
G01 X29.9960 Y1.4807
G01 X29.9701 Y1.4812
G01 X29.9480 Y1.4807
G01 X29.9192 Y1.4785
G01 X29.8737 Y1.4717
G01 X29.8825 Y1.5442
G01 X29.8862 Y1.5971
G01 X29.8874 Y1.6536
G01 X29.8862 Y1.7049
G01 X29.8825 Y1.7578
G01 X29.8737 Y1.8303
G01 X29.9011 Y1.8257
G01 X29.9264 Y1.8228
G01 X29.9480 Y1.8213
G01 X29.9739 Y1.8208
G01 X29.9960 Y1.8213
G01 X30.0255 Y1.8236
G01 X30.0703 Y1.8303
G01 X30.0615 Y1.7578
G01 X30.0578 Y1.7049
G01 X30.0566 Y1.6536
G01 X30.0580 Y1.5937
G01 X30.0615 Y1.5442
G01 X30.0703 Y1.4717
G01 X30.2680 Y1.6075
G01 X30.2713 Y1.5597
G01 X30.2771 Y1.5111
G01 X30.2858 Y1.4606
G01 X30.2952 Y1.4183
G01 X30.3088 Y1.3686
G01 X30.3247 Y1.3207
G01 X30.3416 Y1.2769
G01 X30.3625 Y1.2303
G01 X30.3827 Y1.1903
G01 X30.4080 Y1.1461
G01 X30.4337 Y1.1058
G01 X30.4564 Y1.0737
G01 X30.4856 Y1.0358
G01 X30.5211 Y0.9946
G01 X30.5526 Y0.9616
G01 X30.5848 Y0.9308
G01 X30.6268 Y0.8946
G01 X30.6604 Y0.8684
G01 X30.7026 Y0.8388
G01 X30.7445 Y0.8126
G01 X30.7834 Y0.7906
G01 X30.8264 Y0.7690
G01 X30.8709 Y0.7494
G01 X30.9151 Y0.7325
G01 X30.9617 Y0.7172
G01 X31.0093 Y0.7042
G01 X31.0516 Y0.6948
G01 X31.1032 Y0.6860
G01 X31.1507 Y0.6803
G01 X31.1965 Y0.6771
G01 X31.2420 Y0.6760
G01 X31.2875 Y0.6771
G01 X31.3410 Y0.6811
G01 X31.3893 Y0.6872
G01 X31.4324 Y0.6948
G01 X31.4747 Y0.7042
G01 X31.5236 Y0.7175
G01 X31.5698 Y0.7327
G01 X31.6131 Y0.7494
G01 X31.6576 Y0.7690
G01 X31.6978 Y0.7891
G01 X31.7469 Y0.8170
G01 X31.7816 Y0.8389
G01 X31.8262 Y0.8705
G01 X31.8612 Y0.8979
G01 X31.8992 Y0.9308
G01 X31.9314 Y0.9616
G01 X31.9673 Y0.9994
G01 X31.9984 Y1.0358
G01 X32.0256 Y1.0709
G01 X32.0503 Y1.1058
G01 X32.0772 Y1.1480
G01 X32.1013 Y1.1903
G01 X32.1217 Y1.2307
G01 X32.1424 Y1.2769
G01 X32.1596 Y1.3213
G01 X32.1752 Y1.3686
G01 X32.1867 Y1.4099
G01 X32.1982 Y1.4606
G01 X32.2058 Y1.5037
G01 X32.2119 Y1.5514
G01 X32.2156 Y1.5989
G01 X32.2170 Y1.6510
G01 X32.2160 Y1.6945
G01 X32.2125 Y1.7439
G01 X32.2070 Y1.7898
G01 X32.1982 Y1.8414
G01 X32.1886 Y1.8844
G01 X32.1752 Y1.9334
G01 X32.1593 Y1.9813
G01 X32.1424 Y2.0251
G01 X32.1252 Y2.0640
G01 X32.1013 Y2.1117
G01 X32.0772 Y2.1540
G01 X32.0503 Y2.1962
G01 X32.0252 Y2.2317
G01 X31.9929 Y2.2728
G01 X31.9632 Y2.3071
G01 X31.9314 Y2.3404
G01 X31.8992 Y2.3712
G01 X31.8607 Y2.4046
G01 X31.8236 Y2.4336
G01 X31.7816 Y2.4631
G01 X31.7467 Y2.4852
G01 X31.7009 Y2.5112
G01 X31.6583 Y2.5326
G01 X31.6131 Y2.5526
G01 X31.5687 Y2.5696
G01 X31.5226 Y2.5847
G01 X31.4831 Y2.5957
G01 X31.4324 Y2.6072
G01 X31.3893 Y2.6148
G01 X31.3412 Y2.6209
G01 X31.2875 Y2.6249
G01 X31.2420 Y2.6260
G01 X31.1965 Y2.6249
G01 X31.1507 Y2.6217
G01 X31.1032 Y2.6160
G01 X31.0522 Y2.6073
G01 X31.0093 Y2.5978
G01 X30.9604 Y2.5845
G01 X30.9142 Y2.5693
G01 X30.8709 Y2.5526
G01 X30.8257 Y2.5326
G01 X30.7831 Y2.5112
G01 X30.7373 Y2.4852
G01 X30.7024 Y2.4631
G01 X30.6604 Y2.4336
G01 X30.6228 Y2.4041
G01 X30.5848 Y2.3712
G01 X30.5526 Y2.3404
G01 X30.5208 Y2.3071
G01 X30.4908 Y2.2725
G01 X30.4588 Y2.2317
G01 X30.4337 Y2.1962
G01 X30.4068 Y2.1540
G01 X30.3827 Y2.1117
G01 X30.3623 Y2.0713
G01 X30.3416 Y2.0251
G01 X30.3244 Y1.9807
G01 X30.3087 Y1.9332
G01 X30.2952 Y1.8837
G01 X30.2858 Y1.8414
G01 X30.2771 Y1.7908
G01 X30.2722 Y1.7508
G01 X30.2684 Y1.7031
G01 X30.2670 Y1.6510
G01 X30.2680 Y1.6075
G00 Z1.9990
G00 X32.6103 Y1.4717
G01 F80.00
G01 Z-0.4665
G01 F80.00
G01 X32.5829 Y1.4763
G01 X32.5634 Y1.4786
G01 X32.5356 Y1.4807
G01 X32.5142 Y1.4812
G01 X32.4918 Y1.4808
G01 X32.4664 Y1.4792
G01 X32.4411 Y1.4763
G01 X32.4137 Y1.4717
G01 X32.4225 Y1.5433
G01 X32.4262 Y1.5971
G01 X32.4274 Y1.6484
G01 X32.4262 Y1.7049
G01 X32.4225 Y1.7578
G01 X32.4137 Y1.8303
G01 X32.4599 Y1.8234
G01 X32.4875 Y1.8214
G01 X32.5142 Y1.8208
G01 X32.5365 Y1.8214
G01 X32.5655 Y1.8236
G01 X32.6103 Y1.8303
G01 X32.6015 Y1.7578
G01 X32.5978 Y1.7049
G01 X32.5966 Y1.6484
G01 X32.5978 Y1.5971
G01 X32.6015 Y1.5433
G01 X32.6103 Y1.4717
G00 Z1.9990
G00 X34.9575 Y1.8026
G01 F80.00
G01 Z-0.4665
G01 F80.00
G01 X34.9822 Y1.7975
G01 X35.0071 Y1.7937
G01 X35.0321 Y1.7911
G01 X35.0536 Y1.7898
G01 X35.0974 Y1.7900
G01 X35.1185 Y1.7915
G01 X35.1456 Y1.7946
G01 X35.1421 Y1.7652
G01 X35.1386 Y1.7186
G01 X35.1366 Y1.6579
G01 X35.1378 Y1.5971
G01 X35.1417 Y1.5417
G01 X35.1488 Y1.4813
G01 X35.1589 Y1.4220
G01 X35.1714 Y1.3660
G01 X35.1896 Y1.3007
G01 X35.2077 Y1.2466
G01 X35.2305 Y1.1887
G01 X35.2519 Y1.1410
G01 X35.2722 Y1.1006
G01 X35.3009 Y1.0489
G01 X35.3340 Y0.9960
G01 X35.3692 Y0.9457
G01 X35.4030 Y0.9023
G01 X35.4442 Y0.8543
G01 X35.4213 Y0.8430
G01 X35.3961 Y0.8289
G01 X35.3708 Y0.8128
G01 X35.3505 Y0.7983
G01 X35.3267 Y0.7792
G01 X35.3080 Y0.7624
G01 X35.2858 Y0.7402
G01 X35.2690 Y0.7214
G01 X35.2499 Y0.6977
G01 X35.2353 Y0.6772
G01 X35.2212 Y0.6553
G01 X35.2077 Y0.6318
G01 X35.1939 Y0.6040
G01 X35.1845 Y0.5825
G01 X35.1746 Y0.5562
G01 X35.1662 Y0.5294
G01 X34.7677 Y0.9279
G01 X34.7677 Y0.9926
G01 X34.7971 Y1.0388
G01 X34.8268 Y1.0911
G01 X34.8521 Y1.1410
G01 X34.8770 Y1.1970
G01 X34.8980 Y1.2514
G01 X34.9159 Y1.3055
G01 X34.9308 Y1.3588
G01 X34.9432 Y1.4129
G01 X34.9539 Y1.4728
G01 X34.9607 Y1.5258
G01 X34.9663 Y1.6023
G01 X34.9674 Y1.6536
G01 X34.9662 Y1.7049
G01 X34.9623 Y1.7603
G01 X34.9575 Y1.8026
G01 X35.0520 Y1.0722
G01 X35.0661 Y1.0420
G01 X35.0943 Y0.9870
G01 X35.1230 Y0.9364
G01 X35.1465 Y0.8988
G01 X35.1217 Y0.8726
G01 X35.0087 Y0.9850
G01 X35.0379 Y1.0420
G01 X35.0520 Y1.0722
G00 Z1.9990
G00 X36.8195 Y0.8126
G01 F80.00
G01 Z-0.4665
G01 F80.00
G01 X36.8672 Y0.8427
G01 X36.9036 Y0.8684
G01 X36.9372 Y0.8946
G01 X36.9799 Y0.9315
G01 X37.0114 Y0.9616
G01 X37.0432 Y0.9949
G01 X37.0784 Y1.0358
G01 X37.1046 Y1.0694
G01 X37.1303 Y1.1058
G01 X37.1603 Y1.1533
G01 X37.1807 Y1.1893
G01 X37.1973 Y1.2219
G01 X37.3477 Y1.2219
G01 X37.3330 Y1.1998
G01 X37.3206 Y1.1770
G01 X37.2271 Y0.9794
G01 X36.8954 Y0.6790
G01 X36.7511 Y0.6192
G01 X36.7511 Y0.7757
G01 X36.7854 Y0.7932
G01 X36.8195 Y0.8126
G00 Z1.9990
G00 X37.8363 Y1.2219
G01 F80.00
G01 Z-0.4665
G01 F80.00
G01 X37.9867 Y1.2219
G01 X38.0042 Y1.1876
G01 X38.0243 Y1.1521
G01 X38.0490 Y1.1129
G01 X38.0764 Y1.0737
G01 X38.1111 Y1.0292
G01 X38.1408 Y0.9949
G01 X38.1726 Y0.9616
G01 X38.2089 Y0.9270
G01 X38.2402 Y0.9001
G01 X38.2847 Y0.8654
G01 X38.3226 Y0.8388
G01 X38.3604 Y0.8149
G01 X38.4012 Y0.7918
G01 X38.4329 Y0.7757
G01 X38.4329 Y0.6192
G01 X38.2886 Y0.6790
G01 X37.9569 Y0.9794
G01 X37.8634 Y1.1770
G01 X37.8510 Y1.1998
G01 X37.8363 Y1.2219
G00 Z1.9990
G00 X37.8363 Y2.0801
G01 F80.00
G01 Z-0.4665
G01 F80.00
G01 X37.8510 Y2.1022
G01 X37.8634 Y2.1250
G01 X37.9569 Y2.3226
G01 X38.2886 Y2.6230
G01 X38.4329 Y2.6828
G01 X38.4329 Y2.5263
G01 X38.3986 Y2.5088
G01 X38.3586 Y2.4860
G01 X38.3224 Y2.4631
G01 X38.2847 Y2.4366
G01 X38.2402 Y2.4019
G01 X38.2089 Y2.3750
G01 X38.1726 Y2.3404
G01 X38.1408 Y2.3071
G01 X38.1108 Y2.2725
G01 X38.0764 Y2.2283
G01 X38.0490 Y2.1891
G01 X38.0276 Y2.1553
G01 X38.0033 Y2.1127
G01 X37.9867 Y2.0801
G01 X37.8363 Y2.0801
G00 Z1.9990
G00 X36.8269 Y2.4850
G01 F80.00
G01 Z-0.4665
G01 F80.00
G01 X36.7825 Y2.5104
G01 X36.7511 Y2.5263
G01 X36.7511 Y2.6828
G01 X36.8954 Y2.6230
G01 X37.2271 Y2.3226
G01 X37.3206 Y2.1250
G01 X37.3330 Y2.1022
G01 X37.3477 Y2.0801
G01 X37.1973 Y2.0801
G01 X37.1798 Y2.1144
G01 X37.1597 Y2.1499
G01 X37.1303 Y2.1962
G01 X37.1046 Y2.2326
G01 X37.0784 Y2.2662
G01 X37.0432 Y2.3071
G01 X37.0084 Y2.3434
G01 X36.9751 Y2.3750
G01 X36.9438 Y2.4019
G01 X36.8993 Y2.4366
G01 X36.8616 Y2.4631
G01 X36.8269 Y2.4850
G00 Z1.9990
G00 X39.3595 Y0.8126
G01 F80.00
G01 Z-0.4665
G01 F80.00
G01 X39.4016 Y0.8389
G01 X39.4462 Y0.8705
G01 X39.4838 Y0.9001
G01 X39.5136 Y0.9257
G01 X39.5544 Y0.9646
G01 X39.5832 Y0.9949
G01 X39.6129 Y1.0292
G01 X39.6446 Y1.0694
G01 X39.6750 Y1.1129
G01 X39.6964 Y1.1467
G01 X39.7207 Y1.1893
G01 X39.7452 Y1.2380
G01 X39.7624 Y1.2769
G01 X39.7785 Y1.3185
G01 X39.7952 Y1.3686
G01 X39.8088 Y1.4183
G01 X39.8182 Y1.4606
G01 X39.8258 Y1.5037
G01 X39.8326 Y1.5582
G01 X39.8360 Y1.6075
G01 X39.8370 Y1.6510
G01 X39.8360 Y1.6945
G01 X39.8325 Y1.7439
G01 X39.8258 Y1.7983
G01 X39.8182 Y1.8414
G01 X39.8067 Y1.8921
G01 X39.7937 Y1.9381
G01 X39.7793 Y1.9813
G01 X39.7644 Y2.0201
G01 X39.7417 Y2.0713
G01 X39.7198 Y2.1144
G01 X39.6997 Y2.1499
G01 X39.6750 Y2.1891
G01 X39.6446 Y2.2326
G01 X39.6184 Y2.2662
G01 X39.5873 Y2.3026
G01 X39.5484 Y2.3434
G01 X39.5151 Y2.3750
G01 X39.4838 Y2.4019
G01 X39.4393 Y2.4366
G01 X39.4016 Y2.4631
G01 X39.3636 Y2.4871
G01 X39.3225 Y2.5104
G01 X39.2911 Y2.5263
G01 X39.2911 Y2.6828
G01 X39.4354 Y2.6230
G01 X39.7671 Y2.3226
G01 X39.8380 Y2.1727
G01 X39.8468 Y2.1557
G01 X39.8576 Y2.1376
G01 X39.8690 Y2.1212
G01 X39.8844 Y2.1022
G01 X39.8975 Y2.0883
G01 X39.9115 Y2.0752
G01 X39.9304 Y2.0598
G01 X39.9469 Y2.0484
G01 X39.9678 Y2.0359
G01 X39.9859 Y2.0270
G01 X40.0091 Y2.0176
G01 X40.0335 Y2.0100
G01 X40.0564 Y2.0048
G01 X40.0858 Y2.0009
G01 X40.1006 Y2.0000
G01 X40.1216 Y2.0000
G01 X40.1512 Y2.0025
G01 X40.1803 Y2.0079
G01 X40.1973 Y2.0124
G01 X40.2153 Y2.0184
G01 X40.2436 Y2.0305
G01 X40.2700 Y2.0451
G01 X40.2824 Y2.0532
G01 X40.2993 Y2.0657
G01 X40.3122 Y2.0766
G01 X40.3276 Y2.0914
G01 X40.3420 Y2.1072
G01 X40.3562 Y2.1254
G01 X40.5852 Y2.4678
G01 X40.9600 Y2.7182
G01 X41.2904 Y2.7839
G01 X41.5136 Y2.7839
G01 X41.8440 Y2.7182
G01 X42.2188 Y2.4678
G01 X42.4692 Y2.0930
G01 X42.5571 Y1.6510
G01 X42.4692 Y1.2090
G01 X42.2188 Y0.8342
G01 X41.8440 Y0.5838
G01 X41.5136 Y0.5181
G01 X41.2904 Y0.5181
G01 X40.9600 Y0.5838
G01 X40.5852 Y0.8342
G01 X40.3598 Y1.1715
G01 X40.3472 Y1.1884
G01 X40.3377 Y1.1997
G01 X40.3246 Y1.2137
G01 X40.3107 Y1.2268
G01 X40.2917 Y1.2422
G01 X40.2753 Y1.2536
G01 X40.2549 Y1.2657
G01 X40.2306 Y1.2775
G01 X40.2029 Y1.2879
G01 X40.1803 Y1.2941
G01 X40.1596 Y1.2982
G01 X40.1364 Y1.3011
G01 X40.1074 Y1.3021
G01 X40.0778 Y1.3003
G01 X40.0520 Y1.2963
G01 X40.0249 Y1.2896
G01 X39.9975 Y1.2800
G01 X39.9725 Y1.2685
G01 X39.9456 Y1.2528
G01 X39.9228 Y1.2363
G01 X39.9051 Y1.2210
G01 X39.8844 Y1.1998
G01 X39.8690 Y1.1808
G01 X39.8520 Y1.1555
G01 X39.8380 Y1.1293
G01 X39.7671 Y0.9794
G01 X39.4354 Y0.6790
G01 X39.2911 Y0.6192
G01 X39.2911 Y0.7757
G01 X39.3254 Y0.7932
G01 X39.3595 Y0.8126
G00 Z1.9990
G00 X40.0384 Y1.5074
G01 F80.00
G01 Z-0.4665
G01 F80.00
G01 X40.0423 Y1.5418
G01 X40.0457 Y1.5885
G01 X40.0474 Y1.6536
G01 X40.0454 Y1.7186
G01 X40.0419 Y1.7654
G01 X40.0384 Y1.7946
G01 X40.0590 Y1.7921
G01 X40.0866 Y1.7900
G01 X40.1304 Y1.7898
G01 X40.1519 Y1.7911
G01 X40.1769 Y1.7937
G01 X40.2018 Y1.7975
G01 X40.2265 Y1.8026
G01 X40.2221 Y1.7652
G01 X40.2186 Y1.7186
G01 X40.2166 Y1.6484
G01 X40.2186 Y1.5834
G01 X40.2215 Y1.5442
G01 X40.2221 Y1.5366
G01 X40.2265 Y1.4994
G01 X40.2018 Y1.5045
G01 X40.1769 Y1.5083
G01 X40.1559 Y1.5106
G01 X40.1304 Y1.5122
G01 X40.0857 Y1.5120
G01 X40.0576 Y1.5098
G01 X40.0384 Y1.5074
G01 X40.4280 Y1.6075
G01 X40.4315 Y1.5581
G01 X40.4370 Y1.5122
G01 X40.4458 Y1.4606
G01 X40.4554 Y1.4176
G01 X40.4688 Y1.3686
G01 X40.4846 Y1.3209
G01 X40.5016 Y1.2769
G01 X40.5223 Y1.2307
G01 X40.5442 Y1.1876
G01 X40.5643 Y1.1521
G01 X40.5890 Y1.1129
G01 X40.6194 Y1.0694
G01 X40.6511 Y1.0292
G01 X40.6808 Y0.9949
G01 X40.7126 Y0.9616
G01 X40.7504 Y0.9257
G01 X40.7868 Y0.8946
G01 X40.8247 Y0.8654
G01 X40.8626 Y0.8388
G01 X40.8971 Y0.8170
G01 X40.9386 Y0.7932
G01 X40.9864 Y0.7690
G01 X41.0304 Y0.7496
G01 X41.0736 Y0.7330
G01 X41.1149 Y0.7193
G01 X41.1609 Y0.7063
G01 X41.2116 Y0.6948
G01 X41.2548 Y0.6872
G01 X41.3039 Y0.6810
G01 X41.3565 Y0.6771
G01 X41.4020 Y0.6760
G01 X41.4478 Y0.6771
G01 X41.4933 Y0.6803
G01 X41.5408 Y0.6860
G01 X41.5924 Y0.6948
G01 X41.6347 Y0.7042
G01 X41.6836 Y0.7175
G01 X41.7330 Y0.7339
G01 X41.7736 Y0.7496
G01 X41.8176 Y0.7690
G01 X41.8578 Y0.7891
G01 X41.9069 Y0.8170
G01 X41.9416 Y0.8389
G01 X41.9862 Y0.8705
G01 X42.0238 Y0.9001
G01 X42.0551 Y0.9270
G01 X42.0914 Y0.9616
G01 X42.1273 Y0.9994
G01 X42.1584 Y1.0358
G01 X42.1846 Y1.0694
G01 X42.2103 Y1.1058
G01 X42.2364 Y1.1467
G01 X42.2607 Y1.1893
G01 X42.2817 Y1.2307
G01 X42.3024 Y1.2769
G01 X42.3194 Y1.3209
G01 X42.3352 Y1.3686
G01 X42.3467 Y1.4099
G01 X42.3582 Y1.4606
G01 X42.3658 Y1.5037
G01 X42.3719 Y1.5514
G01 X42.3756 Y1.5989
G01 X42.3770 Y1.6510
G01 X42.3760 Y1.6945
G01 X42.3725 Y1.7439
G01 X42.3670 Y1.7898
G01 X42.3582 Y1.8414
G01 X42.3486 Y1.8844
G01 X42.3352 Y1.9334
G01 X42.3193 Y1.9813
G01 X42.3024 Y2.0251
G01 X42.2817 Y2.0713
G01 X42.2598 Y2.1144
G01 X42.2397 Y2.1499
G01 X42.2150 Y2.1891
G01 X42.1846 Y2.2326
G01 X42.1529 Y2.2728
G01 X42.1232 Y2.3071
G01 X42.0914 Y2.3404
G01 X42.0551 Y2.3750
G01 X42.0172 Y2.4074
G01 X41.9836 Y2.4336
G01 X41.9416 Y2.4631
G01 X41.9036 Y2.4871
G01 X41.8625 Y2.5104
G01 X41.8183 Y2.5326
G01 X41.7731 Y2.5526
G01 X41.7307 Y2.5689
G01 X41.6826 Y2.5847
G01 X41.6431 Y2.5957
G01 X41.5924 Y2.6072
G01 X41.5493 Y2.6148
G01 X41.5003 Y2.6210
G01 X41.4478 Y2.6249
G01 X41.4020 Y2.6260
G01 X41.3562 Y2.6249
G01 X41.3107 Y2.6217
G01 X41.2632 Y2.6160
G01 X41.2116 Y2.6072
G01 X41.1693 Y2.5978
G01 X41.1204 Y2.5845
G01 X41.0710 Y2.5681
G01 X41.0309 Y2.5526
G01 X40.9857 Y2.5326
G01 X40.9386 Y2.5088
G01 X40.8986 Y2.4860
G01 X40.8624 Y2.4631
G01 X40.8204 Y2.4336
G01 X40.7868 Y2.4074
G01 X40.7489 Y2.3750
G01 X40.7126 Y2.3404
G01 X40.6808 Y2.3071
G01 X40.6508 Y2.2725
G01 X40.6194 Y2.2326
G01 X40.5937 Y2.1962
G01 X40.5676 Y2.1553
G01 X40.5433 Y2.1127
G01 X40.5223 Y2.0713
G01 X40.5016 Y2.0251
G01 X40.4846 Y1.9811
G01 X40.4688 Y1.9334
G01 X40.4573 Y1.8921
G01 X40.4458 Y1.8414
G01 X40.4382 Y1.7983
G01 X40.4321 Y1.7506
G01 X40.4284 Y1.7031
G01 X40.4270 Y1.6510
G01 X40.4280 Y1.6075
G00 Z1.9990
G00 X45.3269 Y1.6510
G01 F80.00
G01 Z-0.4665
G01 F80.00
G01 X45.4148 Y2.0930
G01 X45.6652 Y2.4678
G01 X46.0400 Y2.7182
G01 X46.3704 Y2.7839
G01 X46.5936 Y2.7839
G01 X46.9240 Y2.7182
G01 X47.2988 Y2.4678
G01 X47.5069 Y2.1568
G01 X47.5158 Y2.1450
G01 X47.5294 Y2.1290
G01 X47.5415 Y2.1167
G01 X47.5571 Y2.1025
G01 X47.5806 Y2.0845
G01 X47.6004 Y2.0720
G01 X47.6234 Y2.0599
G01 X47.6500 Y2.0489
G01 X47.6745 Y2.0413
G01 X47.6973 Y2.0362
G01 X47.7267 Y2.0323
G01 X47.7520 Y2.0312
G01 X47.7773 Y2.0323
G01 X47.8067 Y2.0362
G01 X47.8295 Y2.0413
G01 X47.8563 Y2.0497
G01 X47.8806 Y2.0599
G01 X47.9036 Y2.0720
G01 X47.9234 Y2.0845
G01 X47.9469 Y2.1025
G01 X47.9625 Y2.1167
G01 X47.9746 Y2.1290
G01 X47.9882 Y2.1450
G01 X47.9971 Y2.1568
G01 X48.2052 Y2.4678
G01 X48.5800 Y2.7182
G01 X48.9104 Y2.7839
G01 X49.1336 Y2.7839
G01 X49.4640 Y2.7182
G01 X49.8388 Y2.4678
G01 X50.0469 Y2.1568
G01 X50.0558 Y2.1450
G01 X50.0694 Y2.1290
G01 X50.0815 Y2.1167
G01 X50.0971 Y2.1025
G01 X50.1206 Y2.0845
G01 X50.1404 Y2.0720
G01 X50.1634 Y2.0599
G01 X50.1900 Y2.0489
G01 X50.2145 Y2.0413
G01 X50.2373 Y2.0362
G01 X50.2667 Y2.0323
G01 X50.2920 Y2.0312
G01 X50.3173 Y2.0323
G01 X50.3467 Y2.0362
G01 X50.3695 Y2.0413
G01 X50.3963 Y2.0497
G01 X50.4206 Y2.0599
G01 X50.4436 Y2.0720
G01 X50.4634 Y2.0845
G01 X50.4869 Y2.1025
G01 X50.5025 Y2.1167
G01 X50.5146 Y2.1290
G01 X50.5282 Y2.1450
G01 X50.5371 Y2.1568
G01 X50.7452 Y2.4678
G01 X51.1200 Y2.7182
G01 X51.4504 Y2.7839
G01 X51.6736 Y2.7839
G01 X52.0040 Y2.7182
G01 X52.3788 Y2.4678
G01 X52.5869 Y2.1568
G01 X52.5958 Y2.1450
G01 X52.6094 Y2.1290
G01 X52.6215 Y2.1167
G01 X52.6371 Y2.1025
G01 X52.6606 Y2.0845
G01 X52.6804 Y2.0720
G01 X52.7034 Y2.0599
G01 X52.7300 Y2.0489
G01 X52.7545 Y2.0413
G01 X52.7773 Y2.0362
G01 X52.8067 Y2.0323
G01 X52.8320 Y2.0312
G01 X52.8573 Y2.0323
G01 X52.8867 Y2.0362
G01 X52.9095 Y2.0413
G01 X52.9363 Y2.0497
G01 X52.9606 Y2.0599
G01 X52.9836 Y2.0720
G01 X53.0034 Y2.0845
G01 X53.0269 Y2.1025
G01 X53.0425 Y2.1167
G01 X53.0546 Y2.1290
G01 X53.0682 Y2.1450
G01 X53.0771 Y2.1568
G01 X53.2852 Y2.4678
G01 X53.6600 Y2.7182
G01 X53.9904 Y2.7839
G01 X54.2136 Y2.7839
G01 X54.5440 Y2.7182
G01 X54.9188 Y2.4678
G01 X55.1269 Y2.1568
G01 X55.1358 Y2.1450
G01 X55.1494 Y2.1290
G01 X55.1615 Y2.1167
G01 X55.1771 Y2.1025
G01 X55.2006 Y2.0845
G01 X55.2204 Y2.0720
G01 X55.2434 Y2.0599
G01 X55.2700 Y2.0489
G01 X55.2945 Y2.0413
G01 X55.3173 Y2.0362
G01 X55.3467 Y2.0323
G01 X55.3720 Y2.0312
G01 X55.3973 Y2.0323
G01 X55.4267 Y2.0362
G01 X55.4495 Y2.0413
G01 X55.4763 Y2.0497
G01 X55.5006 Y2.0599
G01 X55.5236 Y2.0720
G01 X55.5434 Y2.0845
G01 X55.5669 Y2.1025
G01 X55.5825 Y2.1167
G01 X55.5946 Y2.1290
G01 X55.6082 Y2.1450
G01 X55.6171 Y2.1568
G01 X55.8252 Y2.4678
G01 X56.2000 Y2.7182
G01 X56.5304 Y2.7839
G01 X56.7536 Y2.7839
G01 X57.0840 Y2.7182
G01 X57.4588 Y2.4678
G01 X57.6669 Y2.1568
G01 X57.6758 Y2.1450
G01 X57.6894 Y2.1290
G01 X57.7015 Y2.1167
G01 X57.7171 Y2.1025
G01 X57.7406 Y2.0845
G01 X57.7604 Y2.0720
G01 X57.7834 Y2.0599
G01 X57.8100 Y2.0489
G01 X57.8345 Y2.0413
G01 X57.8573 Y2.0362
G01 X57.8867 Y2.0323
G01 X57.9120 Y2.0312
G01 X57.9373 Y2.0323
G01 X57.9667 Y2.0362
G01 X57.9895 Y2.0413
G01 X58.0163 Y2.0497
G01 X58.0406 Y2.0599
G01 X58.0636 Y2.0720
G01 X58.0834 Y2.0845
G01 X58.1069 Y2.1025
G01 X58.1225 Y2.1167
G01 X58.1346 Y2.1290
G01 X58.1482 Y2.1450
G01 X58.1571 Y2.1568
G01 X58.3652 Y2.4678
G01 X58.7400 Y2.7182
G01 X59.0704 Y2.7839
G01 X59.2936 Y2.7839
G01 X59.6240 Y2.7182
G01 X59.9988 Y2.4678
G01 X60.2492 Y2.0930
G01 X60.3371 Y1.6510
G01 X60.2492 Y1.2090
G01 X59.9988 Y0.8342
G01 X59.6240 Y0.5838
G01 X59.2936 Y0.5181
G01 X59.0704 Y0.5181
G01 X58.7400 Y0.5838
G01 X58.3652 Y0.8342
G01 X58.1571 Y1.1452
G01 X58.1482 Y1.1570
G01 X58.1346 Y1.1730
G01 X58.1225 Y1.1853
G01 X58.1069 Y1.1995
G01 X58.0834 Y1.2175
G01 X58.0636 Y1.2300
G01 X58.0399 Y1.2424
G01 X58.0140 Y1.2531
G01 X57.9895 Y1.2607
G01 X57.9667 Y1.2658
G01 X57.9373 Y1.2697
G01 X57.9120 Y1.2708
G01 X57.8867 Y1.2697
G01 X57.8573 Y1.2658
G01 X57.8345 Y1.2607
G01 X57.8072 Y1.2520
G01 X57.7841 Y1.2424
G01 X57.7604 Y1.2300
G01 X57.7406 Y1.2175
G01 X57.7171 Y1.1995
G01 X57.7015 Y1.1853
G01 X57.6894 Y1.1730
G01 X57.6758 Y1.1570
G01 X57.6669 Y1.1452
G01 X57.4588 Y0.8342
G01 X57.0840 Y0.5838
G01 X56.7536 Y0.5181
G01 X56.5304 Y0.5181
G01 X56.2000 Y0.5838
G01 X55.8252 Y0.8342
G01 X55.6171 Y1.1452
G01 X55.6082 Y1.1570
G01 X55.5946 Y1.1730
G01 X55.5825 Y1.1853
G01 X55.5669 Y1.1995
G01 X55.5434 Y1.2175
G01 X55.5236 Y1.2300
G01 X55.4999 Y1.2424
G01 X55.4740 Y1.2531
G01 X55.4495 Y1.2607
G01 X55.4267 Y1.2658
G01 X55.3973 Y1.2697
G01 X55.3720 Y1.2708
G01 X55.3467 Y1.2697
G01 X55.3173 Y1.2658
G01 X55.2945 Y1.2607
G01 X55.2672 Y1.2520
G01 X55.2441 Y1.2424
G01 X55.2204 Y1.2300
G01 X55.2006 Y1.2175
G01 X55.1771 Y1.1995
G01 X55.1615 Y1.1853
G01 X55.1494 Y1.1730
G01 X55.1358 Y1.1570
G01 X55.1269 Y1.1452
G01 X54.9188 Y0.8342
G01 X54.5440 Y0.5838
G01 X54.2136 Y0.5181
G01 X53.9904 Y0.5181
G01 X53.6600 Y0.5838
G01 X53.2852 Y0.8342
G01 X53.0771 Y1.1452
G01 X53.0682 Y1.1570
G01 X53.0546 Y1.1730
G01 X53.0425 Y1.1853
G01 X53.0269 Y1.1995
G01 X53.0034 Y1.2175
G01 X52.9836 Y1.2300
G01 X52.9599 Y1.2424
G01 X52.9340 Y1.2531
G01 X52.9095 Y1.2607
G01 X52.8867 Y1.2658
G01 X52.8573 Y1.2697
G01 X52.8320 Y1.2708
G01 X52.8067 Y1.2697
G01 X52.7773 Y1.2658
G01 X52.7545 Y1.2607
G01 X52.7272 Y1.2520
G01 X52.7041 Y1.2424
G01 X52.6804 Y1.2300
G01 X52.6606 Y1.2175
G01 X52.6371 Y1.1995
G01 X52.6215 Y1.1853
G01 X52.6094 Y1.1730
G01 X52.5958 Y1.1570
G01 X52.5869 Y1.1452
G01 X52.3788 Y0.8342
G01 X52.0040 Y0.5838
G01 X51.6736 Y0.5181
G01 X51.4504 Y0.5181
G01 X51.1200 Y0.5838
G01 X50.7452 Y0.8342
G01 X50.5371 Y1.1452
G01 X50.5282 Y1.1570
G01 X50.5146 Y1.1730
G01 X50.5025 Y1.1853
G01 X50.4869 Y1.1995
G01 X50.4634 Y1.2175
G01 X50.4436 Y1.2300
G01 X50.4199 Y1.2424
G01 X50.3940 Y1.2531
G01 X50.3695 Y1.2607
G01 X50.3467 Y1.2658
G01 X50.3173 Y1.2697
G01 X50.2920 Y1.2708
G01 X50.2667 Y1.2697
G01 X50.2373 Y1.2658
G01 X50.2145 Y1.2607
G01 X50.1872 Y1.2520
G01 X50.1641 Y1.2424
G01 X50.1404 Y1.2300
G01 X50.1206 Y1.2175
G01 X50.0971 Y1.1995
G01 X50.0815 Y1.1853
G01 X50.0694 Y1.1730
G01 X50.0558 Y1.1570
G01 X50.0469 Y1.1452
G01 X49.8388 Y0.8342
G01 X49.4640 Y0.5838
G01 X49.1336 Y0.5181
G01 X48.9104 Y0.5181
G01 X48.5800 Y0.5838
G01 X48.2052 Y0.8342
G01 X47.9971 Y1.1452
G01 X47.9882 Y1.1570
G01 X47.9746 Y1.1730
G01 X47.9625 Y1.1853
G01 X47.9469 Y1.1995
G01 X47.9234 Y1.2175
G01 X47.9036 Y1.2300
G01 X47.8799 Y1.2424
G01 X47.8540 Y1.2531
G01 X47.8295 Y1.2607
G01 X47.8067 Y1.2658
G01 X47.7773 Y1.2697
G01 X47.7520 Y1.2708
G01 X47.7267 Y1.2697
G01 X47.6973 Y1.2658
G01 X47.6745 Y1.2607
G01 X47.6472 Y1.2520
G01 X47.6241 Y1.2424
G01 X47.6004 Y1.2300
G01 X47.5806 Y1.2175
G01 X47.5571 Y1.1995
G01 X47.5415 Y1.1853
G01 X47.5294 Y1.1730
G01 X47.5158 Y1.1570
G01 X47.5069 Y1.1452
G01 X47.2988 Y0.8342
G01 X46.9240 Y0.5838
G01 X46.5936 Y0.5181
G01 X46.3704 Y0.5181
G01 X46.0400 Y0.5838
G01 X45.6652 Y0.8342
G01 X45.4148 Y1.2090
G01 X45.3269 Y1.6510
G01 X45.5080 Y1.6075
G01 X45.5115 Y1.5581
G01 X45.5182 Y1.5037
G01 X45.5258 Y1.4606
G01 X45.5354 Y1.4176
G01 X45.5503 Y1.3639
G01 X45.5646 Y1.3209
G01 X45.5796 Y1.2819
G01 X45.6023 Y1.2307
G01 X45.6242 Y1.1876
G01 X45.6443 Y1.1521
G01 X45.6690 Y1.1129
G01 X45.7015 Y1.0668
G01 X45.7311 Y1.0292
G01 X45.7567 Y0.9994
G01 X45.7926 Y0.9616
G01 X45.8304 Y0.9257
G01 X45.8668 Y0.8946
G01 X45.8978 Y0.8705
G01 X45.9426 Y0.8388
G01 X45.9804 Y0.8149
G01 X46.0186 Y0.7932
G01 X46.0690 Y0.7678
G01 X46.1104 Y0.7496
G01 X46.1495 Y0.7345
G01 X46.2017 Y0.7172
G01 X46.2493 Y0.7042
G01 X46.2916 Y0.6948
G01 X46.3348 Y0.6872
G01 X46.3839 Y0.6810
G01 X46.4385 Y0.6770
G01 X46.4820 Y0.6760
G01 X46.5255 Y0.6770
G01 X46.5812 Y0.6811
G01 X46.6293 Y0.6872
G01 X46.6724 Y0.6948
G01 X46.7147 Y0.7042
G01 X46.7691 Y0.7193
G01 X46.8130 Y0.7339
G01 X46.8511 Y0.7486
G01 X46.8976 Y0.7690
G01 X46.9454 Y0.7932
G01 X46.9851 Y0.8158
G01 X47.0201 Y0.8380
G01 X47.0662 Y0.8705
G01 X47.1038 Y0.9001
G01 X47.1336 Y0.9257
G01 X47.1714 Y0.9616
G01 X47.2032 Y0.9949
G01 X47.2329 Y1.0292
G01 X47.2676 Y1.0737
G01 X47.2950 Y1.1129
G01 X47.3164 Y1.1467
G01 X47.3439 Y1.1952
G01 X47.3617 Y1.2307
G01 X47.3824 Y1.2769
G01 X47.3994 Y1.3209
G01 X47.4137 Y1.3639
G01 X47.4288 Y1.4183
G01 X47.4382 Y1.4606
G01 X47.4458 Y1.5037
G01 X47.4527 Y1.5597
G01 X47.4560 Y1.6075
G01 X47.4570 Y1.6510
G01 X47.4556 Y1.7031
G01 X47.4525 Y1.7439
G01 X47.4470 Y1.7898
G01 X47.4374 Y1.8454
G01 X47.4286 Y1.8844
G01 X47.4162 Y1.9299
G01 X47.3985 Y1.9835
G01 X47.3824 Y2.0251
G01 X47.3617 Y2.0713
G01 X47.3439 Y2.1068
G01 X47.3204 Y2.1485
G01 X47.2903 Y2.1962
G01 X47.2646 Y2.2326
G01 X47.2384 Y2.2662
G01 X47.2032 Y2.3071
G01 X47.1714 Y2.3404
G01 X47.1399 Y2.3705
G01 X47.0972 Y2.4074
G01 X47.0636 Y2.4336
G01 X47.0272 Y2.4593
G01 X46.9836 Y2.4871
G01 X46.9425 Y2.5104
G01 X46.9027 Y2.5305
G01 X46.8531 Y2.5526
G01 X46.8107 Y2.5689
G01 X46.7691 Y2.5827
G01 X46.7147 Y2.5978
G01 X46.6724 Y2.6072
G01 X46.6293 Y2.6148
G01 X46.5733 Y2.6217
G01 X46.5255 Y2.6250
G01 X46.4820 Y2.6260
G01 X46.4385 Y2.6250
G01 X46.3907 Y2.6217
G01 X46.3432 Y2.6160
G01 X46.2916 Y2.6072
G01 X46.2493 Y2.5978
G01 X46.2004 Y2.5845
G01 X46.1510 Y2.5681
G01 X46.1109 Y2.5526
G01 X46.0657 Y2.5326
G01 X46.0186 Y2.5088
G01 X45.9771 Y2.4850
G01 X45.9424 Y2.4631
G01 X45.8978 Y2.4315
G01 X45.8602 Y2.4019
G01 X45.8304 Y2.3763
G01 X45.7956 Y2.3434
G01 X45.7608 Y2.3071
G01 X45.7308 Y2.2725
G01 X45.6994 Y2.2326
G01 X45.6737 Y2.1962
G01 X45.6476 Y2.1553
G01 X45.6233 Y2.1127
G01 X45.6023 Y2.0713
G01 X45.5796 Y2.0201
G01 X45.5647 Y1.9813
G01 X45.5478 Y1.9299
G01 X45.5352 Y1.8837
G01 X45.5258 Y1.8414
G01 X45.5182 Y1.7983
G01 X45.5121 Y1.7506
G01 X45.5084 Y1.7031
G01 X45.5070 Y1.6510
G01 X45.5080 Y1.6075
G00 Z1.9990
G00 X47.6537 Y1.4717
G01 F80.00
G01 Z-0.4665
G01 F80.00
G01 X47.6625 Y1.5433
G01 X47.6662 Y1.5971
G01 X47.6674 Y1.6484
G01 X47.6662 Y1.7049
G01 X47.6625 Y1.7578
G01 X47.6537 Y1.8303
G01 X47.6999 Y1.8234
G01 X47.7275 Y1.8214
G01 X47.7542 Y1.8208
G01 X47.7765 Y1.8214
G01 X47.8055 Y1.8236
G01 X47.8503 Y1.8303
G01 X47.8415 Y1.7578
G01 X47.8378 Y1.7049
G01 X47.8366 Y1.6484
G01 X47.8380 Y1.5937
G01 X47.8415 Y1.5433
G01 X47.8503 Y1.4717
G01 X47.8229 Y1.4763
G01 X47.8034 Y1.4786
G01 X47.7756 Y1.4807
G01 X47.7498 Y1.4812
G01 X47.7275 Y1.4806
G01 X47.6985 Y1.4784
G01 X47.6537 Y1.4717
G00 Z1.9990
G00 X48.0480 Y1.6075
G01 F80.00
G01 Z-0.4665
G01 F80.00
G01 X48.0515 Y1.5581
G01 X48.0570 Y1.5122
G01 X48.0658 Y1.4606
G01 X48.0754 Y1.4176
G01 X48.0888 Y1.3686
G01 X48.1046 Y1.3209
G01 X48.1216 Y1.2769
G01 X48.1423 Y1.2307
G01 X48.1642 Y1.1876
G01 X48.1843 Y1.1521
G01 X48.2090 Y1.1129
G01 X48.2394 Y1.0694
G01 X48.2711 Y1.0292
G01 X48.3008 Y0.9949
G01 X48.3326 Y0.9616
G01 X48.3689 Y0.9270
G01 X48.4068 Y0.8946
G01 X48.4404 Y0.8684
G01 X48.4826 Y0.8388
G01 X48.5204 Y0.8149
G01 X48.5612 Y0.7918
G01 X48.6064 Y0.7690
G01 X48.6504 Y0.7496
G01 X48.6936 Y0.7330
G01 X48.7417 Y0.7172
G01 X48.7809 Y0.7063
G01 X48.8316 Y0.6948
G01 X48.8748 Y0.6872
G01 X48.9239 Y0.6810
G01 X48.9765 Y0.6771
G01 X49.0220 Y0.6760
G01 X49.0678 Y0.6771
G01 X49.1133 Y0.6803
G01 X49.1608 Y0.6860
G01 X49.2124 Y0.6948
G01 X49.2547 Y0.7042
G01 X49.3036 Y0.7175
G01 X49.3530 Y0.7339
G01 X49.3936 Y0.7496
G01 X49.4376 Y0.7690
G01 X49.4854 Y0.7932
G01 X49.5251 Y0.8158
G01 X49.5616 Y0.8389
G01 X49.6036 Y0.8684
G01 X49.6372 Y0.8946
G01 X49.6751 Y0.9270
G01 X49.7114 Y0.9616
G01 X49.7432 Y0.9949
G01 X49.7729 Y1.0292
G01 X49.8046 Y1.0694
G01 X49.8303 Y1.1058
G01 X49.8564 Y1.1467
G01 X49.8807 Y1.1893
G01 X49.9017 Y1.2307
G01 X49.9224 Y1.2769
G01 X49.9394 Y1.3209
G01 X49.9552 Y1.3686
G01 X49.9667 Y1.4099
G01 X49.9782 Y1.4606
G01 X49.9858 Y1.5037
G01 X49.9919 Y1.5514
G01 X49.9956 Y1.5989
G01 X49.9970 Y1.6510
G01 X49.9960 Y1.6945
G01 X49.9925 Y1.7439
G01 X49.9870 Y1.7898
G01 X49.9782 Y1.8414
G01 X49.9686 Y1.8844
G01 X49.9552 Y1.9334
G01 X49.9394 Y1.9811
G01 X49.9224 Y2.0251
G01 X49.9017 Y2.0713
G01 X49.8798 Y2.1144
G01 X49.8597 Y2.1499
G01 X49.8350 Y2.1891
G01 X49.8046 Y2.2326
G01 X49.7729 Y2.2728
G01 X49.7432 Y2.3071
G01 X49.7114 Y2.3404
G01 X49.6751 Y2.3750
G01 X49.6372 Y2.4074
G01 X49.6036 Y2.4336
G01 X49.5616 Y2.4631
G01 X49.5236 Y2.4871
G01 X49.4825 Y2.5104
G01 X49.4383 Y2.5326
G01 X49.3931 Y2.5526
G01 X49.3507 Y2.5689
G01 X49.3026 Y2.5847
G01 X49.2631 Y2.5957
G01 X49.2124 Y2.6072
G01 X49.1693 Y2.6148
G01 X49.1203 Y2.6210
G01 X49.0678 Y2.6249
G01 X49.0220 Y2.6260
G01 X48.9762 Y2.6249
G01 X48.9307 Y2.6217
G01 X48.8832 Y2.6160
G01 X48.8316 Y2.6072
G01 X48.7893 Y2.5978
G01 X48.7404 Y2.5845
G01 X48.6910 Y2.5681
G01 X48.6509 Y2.5526
G01 X48.6057 Y2.5326
G01 X48.5586 Y2.5088
G01 X48.5186 Y2.4860
G01 X48.4824 Y2.4631
G01 X48.4404 Y2.4336
G01 X48.4068 Y2.4074
G01 X48.3689 Y2.3750
G01 X48.3326 Y2.3404
G01 X48.3008 Y2.3071
G01 X48.2708 Y2.2725
G01 X48.2394 Y2.2326
G01 X48.2137 Y2.1962
G01 X48.1876 Y2.1553
G01 X48.1633 Y2.1127
G01 X48.1423 Y2.0713
G01 X48.1216 Y2.0251
G01 X48.1047 Y1.9813
G01 X48.0888 Y1.9334
G01 X48.0773 Y1.8921
G01 X48.0658 Y1.8414
G01 X48.0582 Y1.7983
G01 X48.0521 Y1.7506
G01 X48.0484 Y1.7031
G01 X48.0470 Y1.6510
G01 X48.0480 Y1.6075
G00 Z1.9990
G00 X50.1937 Y1.4717
G01 F80.00
G01 Z-0.4665
G01 F80.00
G01 X50.2025 Y1.5442
G01 X50.2062 Y1.5971
G01 X50.2074 Y1.6536
G01 X50.2062 Y1.7049
G01 X50.2025 Y1.7587
G01 X50.1937 Y1.8303
G01 X50.2399 Y1.8234
G01 X50.2675 Y1.8214
G01 X50.2942 Y1.8208
G01 X50.3165 Y1.8214
G01 X50.3455 Y1.8236
G01 X50.3903 Y1.8303
G01 X50.3815 Y1.7578
G01 X50.3778 Y1.7049
G01 X50.3766 Y1.6484
G01 X50.3780 Y1.5937
G01 X50.3815 Y1.5433
G01 X50.3903 Y1.4717
G01 X50.3629 Y1.4763
G01 X50.3434 Y1.4786
G01 X50.3156 Y1.4807
G01 X50.2942 Y1.4812
G01 X50.2727 Y1.4809
G01 X50.2464 Y1.4792
G01 X50.2211 Y1.4763
G01 X50.1937 Y1.4717
G00 Z1.9990
G00 X50.5880 Y1.6075
G01 F80.00
G01 Z-0.4665
G01 F80.00
G01 X50.5915 Y1.5581
G01 X50.5970 Y1.5122
G01 X50.6058 Y1.4606
G01 X50.6154 Y1.4176
G01 X50.6288 Y1.3686
G01 X50.6446 Y1.3209
G01 X50.6616 Y1.2769
G01 X50.6823 Y1.2307
G01 X50.7042 Y1.1876
G01 X50.7243 Y1.1521
G01 X50.7490 Y1.1129
G01 X50.7794 Y1.0694
G01 X50.8111 Y1.0292
G01 X50.8408 Y0.9949
G01 X50.8726 Y0.9616
G01 X50.9089 Y0.9270
G01 X50.9468 Y0.8946
G01 X50.9804 Y0.8684
G01 X51.0226 Y0.8388
G01 X51.0604 Y0.8149
G01 X51.1012 Y0.7918
G01 X51.1464 Y0.7690
G01 X51.1904 Y0.7496
G01 X51.2336 Y0.7330
G01 X51.2817 Y0.7172
G01 X51.3209 Y0.7063
G01 X51.3716 Y0.6948
G01 X51.4148 Y0.6872
G01 X51.4639 Y0.6810
G01 X51.5165 Y0.6771
G01 X51.5620 Y0.6760
G01 X51.6078 Y0.6771
G01 X51.6533 Y0.6803
G01 X51.7008 Y0.6860
G01 X51.7524 Y0.6948
G01 X51.7947 Y0.7042
G01 X51.8436 Y0.7175
G01 X51.8930 Y0.7339
G01 X51.9336 Y0.7496
G01 X51.9776 Y0.7690
G01 X52.0254 Y0.7932
G01 X52.0651 Y0.8158
G01 X52.1016 Y0.8389
G01 X52.1436 Y0.8684
G01 X52.1772 Y0.8946
G01 X52.2151 Y0.9270
G01 X52.2514 Y0.9616
G01 X52.2832 Y0.9949
G01 X52.3129 Y1.0292
G01 X52.3446 Y1.0694
G01 X52.3703 Y1.1058
G01 X52.3964 Y1.1467
G01 X52.4207 Y1.1893
G01 X52.4417 Y1.2307
G01 X52.4624 Y1.2769
G01 X52.4794 Y1.3209
G01 X52.4952 Y1.3686
G01 X52.5067 Y1.4099
G01 X52.5182 Y1.4606
G01 X52.5258 Y1.5037
G01 X52.5319 Y1.5514
G01 X52.5356 Y1.5989
G01 X52.5370 Y1.6510
G01 X52.5360 Y1.6945
G01 X52.5325 Y1.7439
G01 X52.5270 Y1.7898
G01 X52.5182 Y1.8414
G01 X52.5086 Y1.8844
G01 X52.4952 Y1.9334
G01 X52.4794 Y1.9811
G01 X52.4624 Y2.0251
G01 X52.4417 Y2.0713
G01 X52.4198 Y2.1144
G01 X52.3997 Y2.1499
G01 X52.3750 Y2.1891
G01 X52.3446 Y2.2326
G01 X52.3129 Y2.2728
G01 X52.2832 Y2.3071
G01 X52.2514 Y2.3404
G01 X52.2151 Y2.3750
G01 X52.1772 Y2.4074
G01 X52.1436 Y2.4336
G01 X52.1016 Y2.4631
G01 X52.0636 Y2.4871
G01 X52.0225 Y2.5104
G01 X51.9783 Y2.5326
G01 X51.9331 Y2.5526
G01 X51.8907 Y2.5689
G01 X51.8426 Y2.5847
G01 X51.8031 Y2.5957
G01 X51.7524 Y2.6072
G01 X51.7093 Y2.6148
G01 X51.6603 Y2.6210
G01 X51.6078 Y2.6249
G01 X51.5620 Y2.6260
G01 X51.5162 Y2.6249
G01 X51.4707 Y2.6217
G01 X51.4232 Y2.6160
G01 X51.3716 Y2.6072
G01 X51.3293 Y2.5978
G01 X51.2804 Y2.5845
G01 X51.2310 Y2.5681
G01 X51.1909 Y2.5526
G01 X51.1457 Y2.5326
G01 X51.0986 Y2.5088
G01 X51.0586 Y2.4860
G01 X51.0224 Y2.4631
G01 X50.9804 Y2.4336
G01 X50.9468 Y2.4074
G01 X50.9089 Y2.3750
G01 X50.8726 Y2.3404
G01 X50.8408 Y2.3071
G01 X50.8108 Y2.2725
G01 X50.7794 Y2.2326
G01 X50.7537 Y2.1962
G01 X50.7276 Y2.1553
G01 X50.7033 Y2.1127
G01 X50.6823 Y2.0713
G01 X50.6616 Y2.0251
G01 X50.6447 Y1.9813
G01 X50.6288 Y1.9334
G01 X50.6173 Y1.8921
G01 X50.6058 Y1.8414
G01 X50.5982 Y1.7983
G01 X50.5921 Y1.7506
G01 X50.5884 Y1.7031
G01 X50.5870 Y1.6510
G01 X50.5880 Y1.6075
G00 Z1.9990
G00 X52.7337 Y1.4717
G01 F80.00
G01 Z-0.4665
G01 F80.00
G01 X52.7425 Y1.5442
G01 X52.7462 Y1.5971
G01 X52.7474 Y1.6536
G01 X52.7462 Y1.7049
G01 X52.7425 Y1.7587
G01 X52.7337 Y1.8303
G01 X52.7799 Y1.8234
G01 X52.8075 Y1.8214
G01 X52.8342 Y1.8208
G01 X52.8565 Y1.8214
G01 X52.8855 Y1.8236
G01 X52.9303 Y1.8303
G01 X52.9215 Y1.7578
G01 X52.9178 Y1.7049
G01 X52.9166 Y1.6484
G01 X52.9180 Y1.5937
G01 X52.9215 Y1.5433
G01 X52.9303 Y1.4717
G01 X52.9029 Y1.4763
G01 X52.8834 Y1.4786
G01 X52.8556 Y1.4807
G01 X52.8342 Y1.4812
G01 X52.8127 Y1.4809
G01 X52.7864 Y1.4792
G01 X52.7611 Y1.4763
G01 X52.7337 Y1.4717
G00 Z1.9990
G00 X53.1281 Y1.6066
G01 F80.00
G01 Z-0.4665
G01 F80.00
G01 X53.1315 Y1.5581
G01 X53.1370 Y1.5122
G01 X53.1458 Y1.4606
G01 X53.1554 Y1.4176
G01 X53.1688 Y1.3686
G01 X53.1846 Y1.3209
G01 X53.2016 Y1.2769
G01 X53.2223 Y1.2307
G01 X53.2442 Y1.1876
G01 X53.2643 Y1.1521
G01 X53.2890 Y1.1129
G01 X53.3194 Y1.0694
G01 X53.3511 Y1.0292
G01 X53.3808 Y0.9949
G01 X53.4126 Y0.9616
G01 X53.4489 Y0.9270
G01 X53.4868 Y0.8946
G01 X53.5204 Y0.8684
G01 X53.5626 Y0.8388
G01 X53.6004 Y0.8149
G01 X53.6412 Y0.7918
G01 X53.6864 Y0.7690
G01 X53.7304 Y0.7496
G01 X53.7736 Y0.7330
G01 X53.8217 Y0.7172
G01 X53.8609 Y0.7063
G01 X53.9116 Y0.6948
G01 X53.9548 Y0.6872
G01 X54.0039 Y0.6810
G01 X54.0565 Y0.6771
G01 X54.1020 Y0.6760
G01 X54.1478 Y0.6771
G01 X54.1933 Y0.6803
G01 X54.2408 Y0.6860
G01 X54.2924 Y0.6948
G01 X54.3347 Y0.7042
G01 X54.3836 Y0.7175
G01 X54.4330 Y0.7339
G01 X54.4736 Y0.7496
G01 X54.5176 Y0.7690
G01 X54.5654 Y0.7932
G01 X54.6051 Y0.8158
G01 X54.6416 Y0.8389
G01 X54.6836 Y0.8684
G01 X54.7172 Y0.8946
G01 X54.7551 Y0.9270
G01 X54.7914 Y0.9616
G01 X54.8232 Y0.9949
G01 X54.8529 Y1.0292
G01 X54.8846 Y1.0694
G01 X54.9103 Y1.1058
G01 X54.9364 Y1.1467
G01 X54.9607 Y1.1893
G01 X54.9817 Y1.2307
G01 X55.0024 Y1.2769
G01 X55.0194 Y1.3209
G01 X55.0352 Y1.3686
G01 X55.0467 Y1.4099
G01 X55.0582 Y1.4606
G01 X55.0658 Y1.5037
G01 X55.0719 Y1.5514
G01 X55.0756 Y1.5989
G01 X55.0770 Y1.6510
G01 X55.0760 Y1.6945
G01 X55.0725 Y1.7439
G01 X55.0670 Y1.7898
G01 X55.0582 Y1.8414
G01 X55.0486 Y1.8844
G01 X55.0352 Y1.9334
G01 X55.0194 Y1.9811
G01 X55.0024 Y2.0251
G01 X54.9817 Y2.0713
G01 X54.9598 Y2.1144
G01 X54.9397 Y2.1499
G01 X54.9150 Y2.1891
G01 X54.8846 Y2.2326
G01 X54.8529 Y2.2728
G01 X54.8232 Y2.3071
G01 X54.7914 Y2.3404
G01 X54.7551 Y2.3750
G01 X54.7172 Y2.4074
G01 X54.6836 Y2.4336
G01 X54.6416 Y2.4631
G01 X54.6036 Y2.4871
G01 X54.5625 Y2.5104
G01 X54.5183 Y2.5326
G01 X54.4731 Y2.5526
G01 X54.4307 Y2.5689
G01 X54.3826 Y2.5847
G01 X54.3431 Y2.5957
G01 X54.2924 Y2.6072
G01 X54.2493 Y2.6148
G01 X54.2003 Y2.6210
G01 X54.1478 Y2.6249
G01 X54.1020 Y2.6260
G01 X54.0562 Y2.6249
G01 X54.0107 Y2.6217
G01 X53.9632 Y2.6160
G01 X53.9116 Y2.6072
G01 X53.8693 Y2.5978
G01 X53.8204 Y2.5845
G01 X53.7710 Y2.5681
G01 X53.7309 Y2.5526
G01 X53.6857 Y2.5326
G01 X53.6386 Y2.5088
G01 X53.5986 Y2.4860
G01 X53.5624 Y2.4631
G01 X53.5204 Y2.4336
G01 X53.4868 Y2.4074
G01 X53.4489 Y2.3750
G01 X53.4126 Y2.3404
G01 X53.3808 Y2.3071
G01 X53.3508 Y2.2725
G01 X53.3194 Y2.2326
G01 X53.2937 Y2.1962
G01 X53.2676 Y2.1553
G01 X53.2433 Y2.1127
G01 X53.2223 Y2.0713
G01 X53.2016 Y2.0251
G01 X53.1846 Y1.9811
G01 X53.1688 Y1.9334
G01 X53.1573 Y1.8921
G01 X53.1458 Y1.8414
G01 X53.1382 Y1.7983
G01 X53.1321 Y1.7506
G01 X53.1284 Y1.7031
G01 X53.1270 Y1.6510
G01 X53.1281 Y1.6066
G00 Z1.9990
G00 X55.2737 Y1.4717
G01 F80.00
G01 Z-0.4665
G01 F80.00
G01 X55.2825 Y1.5433
G01 X55.2862 Y1.5971
G01 X55.2874 Y1.6484
G01 X55.2862 Y1.7049
G01 X55.2825 Y1.7578
G01 X55.2737 Y1.8303
G01 X55.3199 Y1.8234
G01 X55.3475 Y1.8214
G01 X55.3742 Y1.8208
G01 X55.3965 Y1.8214
G01 X55.4255 Y1.8236
G01 X55.4703 Y1.8303
G01 X55.4615 Y1.7578
G01 X55.4578 Y1.7049
G01 X55.4566 Y1.6484
G01 X55.4580 Y1.5937
G01 X55.4615 Y1.5433
G01 X55.4703 Y1.4717
G01 X55.4429 Y1.4763
G01 X55.4234 Y1.4786
G01 X55.3956 Y1.4807
G01 X55.3698 Y1.4812
G01 X55.3475 Y1.4806
G01 X55.3185 Y1.4784
G01 X55.2737 Y1.4717
G00 Z1.9990
G00 X55.6680 Y1.6075
G01 F80.00
G01 Z-0.4665
G01 F80.00
G01 X55.6715 Y1.5581
G01 X55.6770 Y1.5122
G01 X55.6858 Y1.4606
G01 X55.6954 Y1.4176
G01 X55.7088 Y1.3686
G01 X55.7246 Y1.3209
G01 X55.7416 Y1.2769
G01 X55.7623 Y1.2307
G01 X55.7842 Y1.1876
G01 X55.8043 Y1.1521
G01 X55.8290 Y1.1129
G01 X55.8594 Y1.0694
G01 X55.8911 Y1.0292
G01 X55.9208 Y0.9949
G01 X55.9526 Y0.9616
G01 X55.9889 Y0.9270
G01 X56.0268 Y0.8946
G01 X56.0604 Y0.8684
G01 X56.1026 Y0.8388
G01 X56.1404 Y0.8149
G01 X56.1812 Y0.7918
G01 X56.2264 Y0.7690
G01 X56.2704 Y0.7496
G01 X56.3136 Y0.7330
G01 X56.3617 Y0.7172
G01 X56.4009 Y0.7063
G01 X56.4516 Y0.6948
G01 X56.4948 Y0.6872
G01 X56.5439 Y0.6810
G01 X56.5965 Y0.6771
G01 X56.6420 Y0.6760
G01 X56.6878 Y0.6771
G01 X56.7333 Y0.6803
G01 X56.7808 Y0.6860
G01 X56.8324 Y0.6948
G01 X56.8747 Y0.7042
G01 X56.9236 Y0.7175
G01 X56.9730 Y0.7339
G01 X57.0136 Y0.7496
G01 X57.0576 Y0.7690
G01 X57.1054 Y0.7932
G01 X57.1451 Y0.8158
G01 X57.1816 Y0.8389
G01 X57.2236 Y0.8684
G01 X57.2572 Y0.8946
G01 X57.2951 Y0.9270
G01 X57.3314 Y0.9616
G01 X57.3632 Y0.9949
G01 X57.3929 Y1.0292
G01 X57.4246 Y1.0694
G01 X57.4503 Y1.1058
G01 X57.4764 Y1.1467
G01 X57.5007 Y1.1893
G01 X57.5217 Y1.2307
G01 X57.5424 Y1.2769
G01 X57.5594 Y1.3209
G01 X57.5752 Y1.3686
G01 X57.5867 Y1.4099
G01 X57.5982 Y1.4606
G01 X57.6058 Y1.5037
G01 X57.6119 Y1.5514
G01 X57.6156 Y1.5989
G01 X57.6170 Y1.6510
G01 X57.6160 Y1.6945
G01 X57.6125 Y1.7439
G01 X57.6070 Y1.7898
G01 X57.5982 Y1.8414
G01 X57.5886 Y1.8844
G01 X57.5752 Y1.9334
G01 X57.5593 Y1.9813
G01 X57.5424 Y2.0251
G01 X57.5217 Y2.0713
G01 X57.4998 Y2.1144
G01 X57.4797 Y2.1499
G01 X57.4550 Y2.1891
G01 X57.4246 Y2.2326
G01 X57.3929 Y2.2728
G01 X57.3632 Y2.3071
G01 X57.3314 Y2.3404
G01 X57.2951 Y2.3750
G01 X57.2572 Y2.4074
G01 X57.2236 Y2.4336
G01 X57.1816 Y2.4631
G01 X57.1436 Y2.4871
G01 X57.1025 Y2.5104
G01 X57.0583 Y2.5326
G01 X57.0131 Y2.5526
G01 X56.9707 Y2.5689
G01 X56.9226 Y2.5847
G01 X56.8831 Y2.5957
G01 X56.8324 Y2.6072
G01 X56.7893 Y2.6148
G01 X56.7403 Y2.6210
G01 X56.6878 Y2.6249
G01 X56.6420 Y2.6260
G01 X56.5962 Y2.6249
G01 X56.5507 Y2.6217
G01 X56.5032 Y2.6160
G01 X56.4516 Y2.6072
G01 X56.4093 Y2.5978
G01 X56.3604 Y2.5845
G01 X56.3110 Y2.5681
G01 X56.2709 Y2.5526
G01 X56.2257 Y2.5326
G01 X56.1786 Y2.5088
G01 X56.1386 Y2.4860
G01 X56.1024 Y2.4631
G01 X56.0604 Y2.4336
G01 X56.0268 Y2.4074
G01 X55.9889 Y2.3750
G01 X55.9526 Y2.3404
G01 X55.9208 Y2.3071
G01 X55.8908 Y2.2725
G01 X55.8594 Y2.2326
G01 X55.8337 Y2.1962
G01 X55.8076 Y2.1553
G01 X55.7833 Y2.1127
G01 X55.7623 Y2.0713
G01 X55.7416 Y2.0251
G01 X55.7246 Y1.9811
G01 X55.7088 Y1.9334
G01 X55.6973 Y1.8921
G01 X55.6858 Y1.8414
G01 X55.6782 Y1.7983
G01 X55.6721 Y1.7506
G01 X55.6684 Y1.7031
G01 X55.6670 Y1.6510
G01 X55.6680 Y1.6075
G00 Z1.9990
G00 X57.8137 Y1.4717
G01 F80.00
G01 Z-0.4665
G01 F80.00
G01 X57.8225 Y1.5433
G01 X57.8262 Y1.5971
G01 X57.8274 Y1.6484
G01 X57.8262 Y1.7049
G01 X57.8225 Y1.7578
G01 X57.8137 Y1.8303
G01 X57.8599 Y1.8234
G01 X57.8875 Y1.8214
G01 X57.9098 Y1.8208
G01 X57.9313 Y1.8211
G01 X57.9576 Y1.8228
G01 X57.9829 Y1.8257
G01 X58.0103 Y1.8303
G01 X58.0015 Y1.7578
G01 X57.9978 Y1.7049
G01 X57.9966 Y1.6484
G01 X57.9980 Y1.5937
G01 X58.0015 Y1.5433
G01 X58.0103 Y1.4717
G01 X57.9829 Y1.4763
G01 X57.9634 Y1.4786
G01 X57.9356 Y1.4807
G01 X57.9098 Y1.4812
G01 X57.8875 Y1.4806
G01 X57.8585 Y1.4784
G01 X57.8137 Y1.4717
G00 Z1.9990
G00 X58.2080 Y1.6075
G01 F80.00
G01 Z-0.4665
G01 F80.00
G01 X58.2115 Y1.5581
G01 X58.2170 Y1.5122
G01 X58.2258 Y1.4606
G01 X58.2354 Y1.4176
G01 X58.2488 Y1.3686
G01 X58.2646 Y1.3209
G01 X58.2816 Y1.2769
G01 X58.3023 Y1.2307
G01 X58.3242 Y1.1876
G01 X58.3443 Y1.1521
G01 X58.3690 Y1.1129
G01 X58.3994 Y1.0694
G01 X58.4311 Y1.0292
G01 X58.4608 Y0.9949
G01 X58.4926 Y0.9616
G01 X58.5289 Y0.9270
G01 X58.5668 Y0.8946
G01 X58.6004 Y0.8684
G01 X58.6426 Y0.8388
G01 X58.6804 Y0.8149
G01 X58.7212 Y0.7918
G01 X58.7664 Y0.7690
G01 X58.8104 Y0.7496
G01 X58.8536 Y0.7330
G01 X58.9017 Y0.7172
G01 X58.9409 Y0.7063
G01 X58.9916 Y0.6948
G01 X59.0348 Y0.6872
G01 X59.0839 Y0.6810
G01 X59.1365 Y0.6771
G01 X59.1820 Y0.6760
G01 X59.2278 Y0.6771
G01 X59.2733 Y0.6803
G01 X59.3208 Y0.6860
G01 X59.3724 Y0.6948
G01 X59.4147 Y0.7042
G01 X59.4636 Y0.7175
G01 X59.5130 Y0.7339
G01 X59.5536 Y0.7496
G01 X59.5976 Y0.7690
G01 X59.6454 Y0.7932
G01 X59.6851 Y0.8158
G01 X59.7216 Y0.8389
G01 X59.7636 Y0.8684
G01 X59.7972 Y0.8946
G01 X59.8351 Y0.9270
G01 X59.8714 Y0.9616
G01 X59.9032 Y0.9949
G01 X59.9329 Y1.0292
G01 X59.9646 Y1.0694
G01 X59.9903 Y1.1058
G01 X60.0164 Y1.1467
G01 X60.0407 Y1.1893
G01 X60.0617 Y1.2307
G01 X60.0824 Y1.2769
G01 X60.0994 Y1.3209
G01 X60.1152 Y1.3686
G01 X60.1267 Y1.4099
G01 X60.1382 Y1.4606
G01 X60.1458 Y1.5037
G01 X60.1519 Y1.5514
G01 X60.1556 Y1.5989
G01 X60.1570 Y1.6510
G01 X60.1560 Y1.6945
G01 X60.1525 Y1.7439
G01 X60.1470 Y1.7898
G01 X60.1382 Y1.8414
G01 X60.1286 Y1.8844
G01 X60.1152 Y1.9334
G01 X60.0993 Y1.9813
G01 X60.0824 Y2.0251
G01 X60.0617 Y2.0713
G01 X60.0398 Y2.1144
G01 X60.0197 Y2.1499
G01 X59.9950 Y2.1891
G01 X59.9646 Y2.2326
G01 X59.9329 Y2.2728
G01 X59.9032 Y2.3071
G01 X59.8714 Y2.3404
G01 X59.8351 Y2.3750
G01 X59.7972 Y2.4074
G01 X59.7636 Y2.4336
G01 X59.7216 Y2.4631
G01 X59.6836 Y2.4871
G01 X59.6425 Y2.5104
G01 X59.5983 Y2.5326
G01 X59.5531 Y2.5526
G01 X59.5107 Y2.5689
G01 X59.4626 Y2.5847
G01 X59.4231 Y2.5957
G01 X59.3724 Y2.6072
G01 X59.3293 Y2.6148
G01 X59.2803 Y2.6210
G01 X59.2278 Y2.6249
G01 X59.1820 Y2.6260
G01 X59.1362 Y2.6249
G01 X59.0907 Y2.6217
G01 X59.0432 Y2.6160
G01 X58.9916 Y2.6072
G01 X58.9493 Y2.5978
G01 X58.9004 Y2.5845
G01 X58.8510 Y2.5681
G01 X58.8109 Y2.5526
G01 X58.7657 Y2.5326
G01 X58.7186 Y2.5088
G01 X58.6786 Y2.4860
G01 X58.6424 Y2.4631
G01 X58.6004 Y2.4336
G01 X58.5668 Y2.4074
G01 X58.5289 Y2.3750
G01 X58.4926 Y2.3404
G01 X58.4608 Y2.3071
G01 X58.4308 Y2.2725
G01 X58.3994 Y2.2326
G01 X58.3737 Y2.1962
G01 X58.3476 Y2.1553
G01 X58.3233 Y2.1127
G01 X58.3023 Y2.0713
G01 X58.2816 Y2.0251
G01 X58.2646 Y1.9811
G01 X58.2488 Y1.9334
G01 X58.2373 Y1.8921
G01 X58.2258 Y1.8414
G01 X58.2182 Y1.7983
G01 X58.2121 Y1.7506
G01 X58.2084 Y1.7031
G01 X58.2070 Y1.6510
G01 X58.2080 Y1.6075
G00 Z1.9990
G00 X60.8914 Y-2.1109
G01 F80.00
G01 Z-0.4665
G01 F80.00
G01 X60.9632 Y-1.9375
G01 X61.2774 Y-1.5927
G01 X61.5469 Y-1.4661
G01 X61.5469 Y-1.6093
G01 X61.4891 Y-1.6381
G01 X61.4475 Y-1.6618
G01 X61.4030 Y-1.6902
G01 X61.3647 Y-1.7173
G01 X61.3225 Y-1.7504
G01 X61.2894 Y-1.7790
G01 X61.2512 Y-1.8152
G01 X61.2178 Y-1.8503
G01 X61.1862 Y-1.8867
G01 X61.1533 Y-1.9287
G01 X61.1262 Y-1.9670
G01 X61.0987 Y-2.0100
G01 X61.0741 Y-2.0531
G01 X61.0453 Y-2.1109
G01 X60.8914 Y-2.1109
G00 Z1.9990
G00 X62.4051 Y-1.6093
G01 F80.00
G01 Z-0.4665
G01 F80.00
G01 X62.4051 Y-1.4661
G01 X62.6746 Y-1.5927
G01 X62.9888 Y-1.9375
G01 X63.0606 Y-2.1109
G01 X62.9067 Y-2.1109
G01 X62.8779 Y-2.0531
G01 X62.8566 Y-2.0154
G01 X62.8258 Y-1.9670
G01 X62.7987 Y-1.9287
G01 X62.7656 Y-1.8865
G01 X62.7342 Y-1.8503
G01 X62.7008 Y-1.8152
G01 X62.6626 Y-1.7790
G01 X62.6295 Y-1.7504
G01 X62.5873 Y-1.7173
G01 X62.5490 Y-1.6902
G01 X62.5030 Y-1.6608
G01 X62.4629 Y-1.6381
G01 X62.4051 Y-1.6093
G00 Z1.9990
G00 X61.4380 Y-3.8446
G01 F80.00
G01 Z-0.4665
G01 F80.00
G01 X61.4559 Y-3.8056
G01 X61.4713 Y-3.7628
G01 X61.4779 Y-3.7392
G01 X61.4830 Y-3.7175
G01 X61.4901 Y-3.6757
G01 X61.5088 Y-3.6836
G01 X61.5570 Y-3.7022
G01 X61.6123 Y-3.7206
G01 X61.6717 Y-3.7373
G01 X61.7322 Y-3.7511
G01 X61.7905 Y-3.7614
G01 X61.8530 Y-3.7693
G01 X61.9161 Y-3.7739
G01 X61.9782 Y-3.7754
G01 X62.0359 Y-3.7739
G01 X62.1004 Y-3.7691
G01 X62.1615 Y-3.7614
G01 X62.2198 Y-3.7511
G01 X62.2803 Y-3.7373
G01 X62.3347 Y-3.7222
G01 X62.3938 Y-3.7026
G01 X62.4432 Y-3.6836
G01 X62.4619 Y-3.6757
G01 X62.4690 Y-3.7175
G01 X62.4741 Y-3.7392
G01 X62.4807 Y-3.7628
G01 X62.4888 Y-3.7868
G01 X62.4971 Y-3.8081
G01 X62.5140 Y-3.8446
G01 X61.4380 Y-3.8446
G00 Z1.9990
G00 X62.4051 Y-8.3403
G01 F80.00
G01 Z-0.4665
G01 F80.00
G01 X62.4051 Y-8.1971
G01 X62.6746 Y-8.3237
G01 X62.9888 Y-8.6685
G01 X63.0606 Y-8.8419
G01 X62.9067 Y-8.8419
G01 X62.8779 Y-8.7841
G01 X62.8529 Y-8.7404
G01 X62.8258 Y-8.6980
G01 X62.7987 Y-8.6597
G01 X62.7656 Y-8.6175
G01 X62.7337 Y-8.5808
G01 X62.7008 Y-8.5462
G01 X62.6621 Y-8.5095
G01 X62.6295 Y-8.4814
G01 X62.5873 Y-8.4483
G01 X62.5490 Y-8.4212
G01 X62.5045 Y-8.3928
G01 X62.4629 Y-8.3691
G01 X62.4051 Y-8.3403
G00 Z1.9990
G00 X60.8914 Y-8.8419
G01 F80.00
G01 Z-0.4665
G01 F80.00
G01 X60.9632 Y-8.6685
G01 X61.2774 Y-8.3237
G01 X61.5469 Y-8.1971
G01 X61.5469 Y-8.3403
G01 X61.4891 Y-8.3691
G01 X61.4475 Y-8.3928
G01 X61.4030 Y-8.4212
G01 X61.3647 Y-8.4483
G01 X61.3225 Y-8.4814
G01 X61.2899 Y-8.5095
G01 X61.2512 Y-8.5462
G01 X61.2183 Y-8.5808
G01 X61.1864 Y-8.6175
G01 X61.1533 Y-8.6597
G01 X61.1262 Y-8.6980
G01 X61.0986 Y-8.7411
G01 X61.0736 Y-8.7850
G01 X61.0453 Y-8.8419
G01 X60.8914 Y-8.8419
G00 Z1.9990
G00 X61.4380 Y-10.5756
G01 F80.00
G01 Z-0.4665
G01 F80.00
G01 X61.4556 Y-10.5372
G01 X61.4630 Y-10.5184
G01 X61.4711 Y-10.4943
G01 X61.4779 Y-10.4702
G01 X61.4830 Y-10.4485
G01 X61.4901 Y-10.4067
G01 X61.5534 Y-10.4318
G01 X61.6133 Y-10.4519
G01 X61.6717 Y-10.4683
G01 X61.7322 Y-10.4821
G01 X61.7905 Y-10.4924
G01 X61.8559 Y-10.5006
G01 X61.9195 Y-10.5051
G01 X61.9786 Y-10.5064
G01 X62.0394 Y-10.5048
G01 X62.1014 Y-10.5000
G01 X62.1615 Y-10.4924
G01 X62.2198 Y-10.4821
G01 X62.2803 Y-10.4683
G01 X62.3387 Y-10.4519
G01 X62.3986 Y-10.4318
G01 X62.4619 Y-10.4067
G01 X62.4690 Y-10.4485
G01 X62.4741 Y-10.4702
G01 X62.4809 Y-10.4943
G01 X62.4890 Y-10.5184
G01 X62.4964 Y-10.5372
G01 X62.5140 Y-10.5756
G01 X61.4380 Y-10.5756
G00 Z1.9990
G00 X56.5838 Y-16.4870
G01 F80.00
G01 Z-0.4665
G01 F80.00
G01 X56.8519 Y-16.3906
G01 X57.3095 Y-16.4124
G01 X57.4702 Y-16.4790
G01 X57.3385 Y-16.6107
G01 X57.3055 Y-16.5998
G01 X57.2557 Y-16.5862
G01 X57.2134 Y-16.5768
G01 X57.1703 Y-16.5692
G01 X57.1143 Y-16.5623
G01 X57.0665 Y-16.5590
G01 X57.0230 Y-16.5580
G01 X56.9795 Y-16.5590
G01 X56.9317 Y-16.5623
G01 X56.8757 Y-16.5692
G01 X56.8326 Y-16.5768
G01 X56.7903 Y-16.5862
G01 X56.7405 Y-16.5998
G01 X56.7075 Y-16.6107
G01 X56.5838 Y-16.4870
G00 Z1.9990
G00 X55.8806 Y-17.7041
G01 F80.00
G01 Z-0.4665
G01 F80.00
G01 X55.9024 Y-17.2465
G01 X55.9690 Y-17.0858
G01 X56.1007 Y-17.2175
G01 X56.0898 Y-17.2505
G01 X56.0762 Y-17.3003
G01 X56.0668 Y-17.3426
G01 X56.0592 Y-17.3857
G01 X56.0523 Y-17.4417
G01 X56.0490 Y-17.4895
G01 X56.0480 Y-17.5330
G01 X56.0490 Y-17.5765
G01 X56.0523 Y-17.6243
G01 X56.0592 Y-17.6803
G01 X56.0668 Y-17.7234
G01 X56.0762 Y-17.7657
G01 X56.0898 Y-17.8155
G01 X56.1007 Y-17.8485
G01 X55.9770 Y-17.9722
G01 X55.8806 Y-17.7041
G00 Z1.9990
G00 X56.5758 Y-18.5870
G01 F80.00
G01 Z-0.4665
G01 F80.00
G01 X56.7075 Y-18.4553
G01 X56.7405 Y-18.4662
G01 X56.7903 Y-18.4798
G01 X56.8326 Y-18.4892
G01 X56.8757 Y-18.4968
G01 X56.9317 Y-18.5037
G01 X56.9795 Y-18.5070
G01 X57.0230 Y-18.5080
G01 X57.0665 Y-18.5070
G01 X57.1143 Y-18.5037
G01 X57.1703 Y-18.4968
G01 X57.2134 Y-18.4892
G01 X57.2557 Y-18.4798
G01 X57.3055 Y-18.4662
G01 X57.3385 Y-18.4553
G01 X57.4622 Y-18.5790
G01 X57.1941 Y-18.6754
G01 X56.7365 Y-18.6536
G01 X56.5758 Y-18.5870
G00 Z1.9990
G00 X57.9453 Y-17.8485
G01 F80.00
G01 Z-0.4665
G01 F80.00
G01 X57.9562 Y-17.8155
G01 X57.9698 Y-17.7657
G01 X57.9792 Y-17.7234
G01 X57.9868 Y-17.6803
G01 X57.9937 Y-17.6243
G01 X57.9970 Y-17.5765
G01 X57.9980 Y-17.5330
G01 X57.9970 Y-17.4895
G01 X57.9937 Y-17.4417
G01 X57.9868 Y-17.3857
G01 X57.9792 Y-17.3426
G01 X57.9698 Y-17.3003
G01 X57.9562 Y-17.2505
G01 X57.9453 Y-17.2175
G01 X58.0690 Y-17.0938
G01 X58.1654 Y-17.3619
G01 X58.1436 Y-17.8195
G01 X58.0770 Y-17.9802
G01 X57.9453 Y-17.8485
G00 Z1.9990
G00 X50.5496 Y-10.5112
G01 F80.00
G01 Z-0.4665
G01 F80.00
G01 X50.5425 Y-10.5111
G01 X50.5460 Y-10.5005
G01 X50.5496 Y-10.5112
G01 X50.5460 Y-9.5655
G01 X50.5425 Y-9.5549
G01 X50.5496 Y-9.5548
G01 X50.5460 Y-9.5655
G00 Z1.9990
G00 X48.0739 Y-9.2479
G01 F80.00
G01 Z-0.4665
G01 F80.00
G01 X48.1047 Y-9.2605
G01 X48.1438 Y-9.2732
G01 X48.1260 Y-9.3018
G01 X48.0997 Y-9.3481
G01 X48.0917 Y-9.3632
G01 X48.0739 Y-9.3985
G01 X48.0739 Y-9.2479
G01 X48.0739 Y-10.6675
G01 X48.1006 Y-10.7195
G01 X48.1268 Y-10.7655
G01 X48.1438 Y-10.7928
G01 X48.1047 Y-10.8055
G01 X48.0739 Y-10.8181
G01 X48.0739 Y-10.6675
G00 Z1.9990
G00 X47.6207 Y-14.5117
G01 F80.00
G01 Z-0.4665
G01 F80.00
G01 X47.5933 Y-14.5203
G01 X47.5657 Y-14.5308
G01 X47.5375 Y-14.5434
G01 X47.5117 Y-14.5568
G01 X47.5117 Y-14.4027
G01 X47.6207 Y-14.5117
G00 Z1.9990
G00 X46.5498 Y-6.6420
G01 F80.00
G01 Z-0.4665
G01 F80.00
G01 X46.6815 Y-6.5103
G01 X46.7164 Y-6.5217
G01 X46.7643 Y-6.5348
G01 X46.8066 Y-6.5442
G01 X46.8497 Y-6.5518
G01 X46.9057 Y-6.5587
G01 X46.9512 Y-6.5619
G01 X46.9970 Y-6.5630
G01 X47.0428 Y-6.5619
G01 X47.0883 Y-6.5587
G01 X47.1443 Y-6.5518
G01 X47.1874 Y-6.5442
G01 X47.2297 Y-6.5348
G01 X47.2776 Y-6.5217
G01 X47.3125 Y-6.5103
G01 X47.4362 Y-6.6340
G01 X47.1681 Y-6.7304
G01 X46.7105 Y-6.7086
G01 X46.5498 Y-6.6420
G00 Z1.9990
G00 X46.1358 Y-4.7737
G01 F80.00
G01 Z-0.4665
G01 F80.00
G01 X46.1210 Y-4.7894
G01 X46.1126 Y-4.7737
G01 X46.1358 Y-4.7737
G00 Z1.9990
G00 X48.2328 Y-5.5539
G01 F80.00
G01 Z-0.4665
G01 F80.00
G01 X48.2055 Y-5.5625
G01 X48.1821 Y-5.5712
G01 X48.1812 Y-5.5341
G01 X48.1789 Y-5.4999
G01 X48.2328 Y-5.5539
G00 Z1.9990
G00 X40.3685 Y-4.7737
G01 F80.00
G01 Z-0.4665
G01 F80.00
G01 X40.3647 Y-4.7806
G01 X40.3582 Y-4.7737
G01 X40.3685 Y-4.7737
G00 Z1.9990
G00 X38.5113 Y-8.4151
G01 F80.00
G01 Z-0.4665
G01 F80.00
G01 X38.4833 Y-8.3817
G01 X38.4557 Y-8.3537
G01 X38.4223 Y-8.3249
G01 X38.3900 Y-8.3013
G01 X38.3545 Y-8.2795
G01 X38.3183 Y-8.2612
G01 X38.2837 Y-8.2468
G01 X38.2449 Y-8.2341
G01 X38.5113 Y-7.9677
G01 X38.5113 Y-8.4151
G00 Z1.9990
G00 X38.2399 Y-15.1130
G01 F80.00
G01 Z-0.4665
G01 F80.00
G01 X38.3356 Y-14.6319
G01 X38.6081 Y-14.2241
G01 X39.0159 Y-13.9516
G01 X39.3756 Y-13.8801
G01 X39.6184 Y-13.8801
G01 X39.9781 Y-13.9516
G01 X40.3859 Y-14.2241
G01 X40.6584 Y-14.6319
G01 X40.7541 Y-15.1130
G01 X40.6584 Y-15.5941
G01 X40.4808 Y-15.8598
G01 X40.4671 Y-15.8824
G01 X40.4521 Y-15.9140
G01 X40.4462 Y-15.9299
G01 X40.4401 Y-15.9501
G01 X40.4339 Y-15.9791
G01 X40.4312 Y-16.0006
G01 X40.4301 Y-16.0171
G01 X40.4299 Y-20.9790
G01 X40.4306 Y-20.9981
G01 X40.4326 Y-21.0191
G01 X40.4358 Y-21.0381
G01 X40.4401 Y-21.0565
G01 X40.4462 Y-21.0767
G01 X40.4521 Y-21.0926
G01 X40.4606 Y-21.1116
G01 X40.4677 Y-21.1252
G01 X40.4752 Y-21.1379
G01 X40.4869 Y-21.1555
G01 X40.4999 Y-21.1723
G01 X40.5099 Y-21.1837
G01 X40.5215 Y-21.1956
G01 X40.5371 Y-21.2097
G01 X40.5513 Y-21.2211
G01 X40.5675 Y-21.2323
G01 X40.5858 Y-21.2433
G01 X40.5994 Y-21.2504
G01 X40.6184 Y-21.2589
G01 X40.6343 Y-21.2648
G01 X40.6545 Y-21.2709
G01 X40.6773 Y-21.2760
G01 X40.6981 Y-21.2791
G01 X40.7215 Y-21.2809
G01 X41.2586 Y-21.2811
G01 X41.9323 Y-21.5601
G01 X42.4479 Y-22.0757
G01 X42.7269 Y-22.7494
G01 X42.7269 Y-23.4786
G01 X42.4479 Y-24.1523
G01 X41.9323 Y-24.6679
G01 X41.2586 Y-24.9469
G01 X40.5294 Y-24.9469
G01 X39.8557 Y-24.6679
G01 X39.3401 Y-24.1523
G01 X39.0611 Y-23.4786
G01 X39.0610 Y-22.7213
G01 X39.0598 Y-22.6986
G01 X39.0560 Y-22.6708
G01 X39.0509 Y-22.6480
G01 X39.0437 Y-22.6245
G01 X39.0304 Y-22.5930
G01 X39.0180 Y-22.5702
G01 X39.0011 Y-22.5449
G01 X38.9811 Y-22.5208
G01 X38.9233 Y-22.4627
G01 X38.9046 Y-22.4456
G01 X38.8811 Y-22.4276
G01 X38.8244 Y-22.3896
G01 X38.6182 Y-22.0810
G01 X38.5458 Y-21.7170
G01 X38.5601 Y-21.6439
G01 X38.5628 Y-21.6224
G01 X38.5641 Y-21.5954
G01 X38.5641 Y-16.0276
G01 X38.5634 Y-16.0085
G01 X38.5621 Y-15.9937
G01 X38.5590 Y-15.9729
G01 X38.5512 Y-15.9404
G01 X38.5407 Y-15.9111
G01 X38.5263 Y-15.8815
G01 X38.5132 Y-15.8598
G01 X38.3356 Y-15.5941
G01 X38.2399 Y-15.1130
G00 Z1.9990
G00 X38.4232 Y-15.1615
G01 F80.00
G01 Z-0.4665
G01 F80.00
G01 X38.4276 Y-15.2226
G01 X38.4343 Y-15.2750
G01 X38.4435 Y-15.3269
G01 X38.4553 Y-15.3784
G01 X38.4681 Y-15.4245
G01 X38.4858 Y-15.4776
G01 X38.5042 Y-15.5253
G01 X38.5269 Y-15.5761
G01 X38.5470 Y-15.6159
G01 X38.5731 Y-15.6625
G01 X38.6010 Y-15.7070
G01 X38.6341 Y-15.7541
G01 X38.6633 Y-15.7916
G01 X38.6976 Y-15.8317
G01 X38.7217 Y-15.8573
G01 X38.7217 Y-21.7170
G01 X38.7229 Y-21.7593
G01 X38.7252 Y-21.7904
G01 X38.7295 Y-21.8265
G01 X38.7375 Y-21.8725
G01 X38.7460 Y-21.9095
G01 X38.7549 Y-21.9415
G01 X38.7668 Y-21.9775
G01 X38.7799 Y-22.0117
G01 X38.7943 Y-22.0446
G01 X38.8113 Y-22.0787
G01 X38.8302 Y-22.1124
G01 X38.8502 Y-22.1445
G01 X38.8748 Y-22.1796
G01 X38.8950 Y-22.2055
G01 X38.9243 Y-22.2395
G01 X38.9488 Y-22.2652
G01 X39.2961 Y-22.6125
G01 X39.2899 Y-22.6319
G01 X39.2703 Y-22.7029
G01 X39.2504 Y-22.7914
G01 X39.2366 Y-22.8725
G01 X39.2275 Y-22.9456
G01 X39.2213 Y-23.0275
G01 X39.2190 Y-23.1140
G01 X39.2213 Y-23.2005
G01 X39.2268 Y-23.2756
G01 X39.2366 Y-23.3555
G01 X39.2521 Y-23.4450
G01 X39.2703 Y-23.5251
G01 X39.2899 Y-23.5961
G01 X39.3167 Y-23.6776
G01 X39.3482 Y-23.7589
G01 X39.3815 Y-23.8336
G01 X39.4148 Y-23.8998
G01 X39.4555 Y-23.9720
G01 X39.5037 Y-24.0481
G01 X39.5492 Y-24.1125
G01 X39.5965 Y-24.1733
G01 X39.6558 Y-24.2420
G01 X39.7096 Y-24.2984
G01 X39.7660 Y-24.3522
G01 X39.8347 Y-24.4115
G01 X39.8955 Y-24.4588
G01 X39.9599 Y-24.5043
G01 X40.0338 Y-24.5513
G01 X40.1006 Y-24.5891
G01 X40.1740 Y-24.6263
G01 X40.2550 Y-24.6623
G01 X40.3338 Y-24.6925
G01 X40.4083 Y-24.7170
G01 X40.4829 Y-24.7377
G01 X40.5670 Y-24.7568
G01 X40.6525 Y-24.7714
G01 X40.7341 Y-24.7813
G01 X40.8075 Y-24.7867
G01 X40.8983 Y-24.7889
G01 X40.9805 Y-24.7867
G01 X41.0539 Y-24.7813
G01 X41.1372 Y-24.7712
G01 X41.2250 Y-24.7559
G01 X41.3051 Y-24.7377
G01 X41.3797 Y-24.7170
G01 X41.4608 Y-24.6902
G01 X41.5330 Y-24.6623
G01 X41.6062 Y-24.6300
G01 X41.6798 Y-24.5932
G01 X41.7588 Y-24.5484
G01 X41.8281 Y-24.5043
G01 X41.8925 Y-24.4588
G01 X41.9533 Y-24.4115
G01 X42.0166 Y-24.3571
G01 X42.0784 Y-24.2984
G01 X42.1322 Y-24.2420
G01 X42.1915 Y-24.1733
G01 X42.2388 Y-24.1125
G01 X42.2888 Y-24.0413
G01 X42.3325 Y-23.9720
G01 X42.3697 Y-23.9064
G01 X42.4065 Y-23.8336
G01 X42.4100 Y-23.8262
G01 X42.4398 Y-23.7589
G01 X42.4725 Y-23.6742
G01 X42.4970 Y-23.5997
G01 X42.5198 Y-23.5168
G01 X42.5368 Y-23.4410
G01 X42.5502 Y-23.3640
G01 X42.5612 Y-23.2756
G01 X42.5667 Y-23.2005
G01 X42.5689 Y-23.1097
G01 X42.5667 Y-23.0275
G01 X42.5612 Y-22.9524
G01 X42.5514 Y-22.8725
G01 X42.5368 Y-22.7870
G01 X42.5177 Y-22.7029
G01 X42.4956 Y-22.6237
G01 X42.4696 Y-22.5457
G01 X42.4423 Y-22.4750
G01 X42.4100 Y-22.4018
G01 X42.3732 Y-22.3282
G01 X42.3325 Y-22.2560
G01 X42.2888 Y-22.1867
G01 X42.2388 Y-22.1155
G01 X42.1874 Y-22.0497
G01 X42.1322 Y-21.9860
G01 X42.0784 Y-21.9296
G01 X42.0156 Y-21.8701
G01 X41.9533 Y-21.8165
G01 X41.8925 Y-21.7692
G01 X41.8281 Y-21.7237
G01 X41.7542 Y-21.6767
G01 X41.6874 Y-21.6389
G01 X41.6136 Y-21.6015
G01 X41.5330 Y-21.5657
G01 X41.4608 Y-21.5378
G01 X41.3797 Y-21.5110
G01 X41.2968 Y-21.4882
G01 X41.2210 Y-21.4712
G01 X41.1355 Y-21.4566
G01 X41.0539 Y-21.4467
G01 X40.9805 Y-21.4413
G01 X40.8940 Y-21.4390
G01 X40.8075 Y-21.4413
G01 X40.7256 Y-21.4475
G01 X40.6508 Y-21.4568
G01 X40.5714 Y-21.4704
G01 X40.4829 Y-21.4903
G01 X40.4119 Y-21.5099
G01 X40.3925 Y-21.5161
G01 X40.2723 Y-21.3959
G01 X40.2723 Y-15.8573
G01 X40.2964 Y-15.8317
G01 X40.3252 Y-15.7983
G01 X40.3599 Y-15.7541
G01 X40.3930 Y-15.7070
G01 X40.4173 Y-15.6686
G01 X40.4435 Y-15.6225
G01 X40.4706 Y-15.5687
G01 X40.4898 Y-15.5253
G01 X40.5077 Y-15.4792
G01 X40.5259 Y-15.4245
G01 X40.5408 Y-15.3700
G01 X40.5513 Y-15.3229
G01 X40.5597 Y-15.2750
G01 X40.5671 Y-15.2155
G01 X40.5709 Y-15.1615
G01 X40.5720 Y-15.1130
G01 X40.5709 Y-15.0645
G01 X40.5671 Y-15.0105
G01 X40.5597 Y-14.9510
G01 X40.5513 Y-14.9031
G01 X40.5408 Y-14.8560
G01 X40.5259 Y-14.8015
G01 X40.5082 Y-14.7484
G01 X40.4898 Y-14.7007
G01 X40.4671 Y-14.6499
G01 X40.4470 Y-14.6101
G01 X40.4168 Y-14.5567
G01 X40.3884 Y-14.5122
G01 X40.3578 Y-14.4692
G01 X40.3252 Y-14.4277
G01 X40.2918 Y-14.3892
G01 X40.2571 Y-14.3529
G01 X40.2166 Y-14.3144
G01 X40.1756 Y-14.2793
G01 X40.1381 Y-14.2501
G01 X40.0933 Y-14.2186
G01 X40.0533 Y-14.1932
G01 X40.0075 Y-14.1670
G01 X39.9605 Y-14.1431
G01 X39.9044 Y-14.1182
G01 X39.8616 Y-14.1018
G01 X39.8049 Y-14.0831
G01 X39.7540 Y-14.0692
G01 X39.7069 Y-14.0587
G01 X39.6590 Y-14.0503
G01 X39.6033 Y-14.0433
G01 X39.5540 Y-14.0396
G01 X39.5013 Y-14.0381
G01 X39.4400 Y-14.0396
G01 X39.3874 Y-14.0436
G01 X39.3350 Y-14.0503
G01 X39.2871 Y-14.0587
G01 X39.2316 Y-14.0713
G01 X39.1808 Y-14.0856
G01 X39.1324 Y-14.1018
G01 X39.0876 Y-14.1190
G01 X39.0393 Y-14.1403
G01 X38.9941 Y-14.1630
G01 X38.9481 Y-14.1888
G01 X38.9007 Y-14.2186
G01 X38.8559 Y-14.2501
G01 X38.8184 Y-14.2793
G01 X38.7783 Y-14.3136
G01 X38.7339 Y-14.3559
G01 X38.7022 Y-14.3892
G01 X38.6633 Y-14.4344
G01 X38.6341 Y-14.4719
G01 X38.6010 Y-14.5190
G01 X38.5767 Y-14.5574
G01 X38.5505 Y-14.6035
G01 X38.5269 Y-14.6499
G01 X38.5042 Y-14.7007
G01 X38.4858 Y-14.7484
G01 X38.4696 Y-14.7968
G01 X38.4532 Y-14.8560
G01 X38.4427 Y-14.9031
G01 X38.4331 Y-14.9595
G01 X38.4269 Y-15.0105
G01 X38.4231 Y-15.0645
G01 X38.4220 Y-15.1130
G01 X38.4232 Y-15.1615
G00 Z1.9990
G00 X29.7252 Y-10.9587
G01 F80.00
G01 Z-0.4665
G01 F80.00
G01 X27.0688 Y-10.9587
G01 X27.0805 Y-10.9811
G01 X27.0929 Y-11.0080
G01 X27.1012 Y-11.0289
G01 X27.1095 Y-11.0530
G01 X27.1158 Y-11.0743
G01 X27.1223 Y-11.1012
G01 X27.1265 Y-11.1235
G01 X27.1300 Y-11.1485
G01 X27.1323 Y-11.1734
G01 X27.1335 Y-11.2011
G01 X27.1333 Y-11.2237
G01 X27.1319 Y-11.2488
G01 X27.1290 Y-11.2760
G01 X27.1254 Y-11.2987
G01 X27.1158 Y-11.3417
G01 X27.1053 Y-11.3757
G01 X27.0929 Y-11.4080
G01 X27.0774 Y-11.4412
G01 X27.0587 Y-11.4746
G01 X26.7744 Y-11.9009
G01 X26.6407 Y-12.5730
G01 X26.7744 Y-13.2451
G01 X27.1551 Y-13.8149
G01 X27.7249 Y-14.1956
G01 X28.2273 Y-14.2955
G01 X28.5667 Y-14.2955
G01 X29.0691 Y-14.1956
G01 X29.6389 Y-13.8149
G01 X30.0196 Y-13.2451
G01 X30.1533 Y-12.5730
G01 X30.0196 Y-11.9009
G01 X29.7353 Y-11.4746
G01 X29.7166 Y-11.4412
G01 X29.7011 Y-11.4080
G01 X29.6887 Y-11.3757
G01 X29.6782 Y-11.3417
G01 X29.6686 Y-11.2987
G01 X29.6650 Y-11.2760
G01 X29.6621 Y-11.2488
G01 X29.6607 Y-11.2237
G01 X29.6605 Y-11.2011
G01 X29.6617 Y-11.1734
G01 X29.6639 Y-11.1486
G01 X29.6675 Y-11.1235
G01 X29.6717 Y-11.1012
G01 X29.6782 Y-11.0743
G01 X29.6845 Y-11.0530
G01 X29.6928 Y-11.0289
G01 X29.7011 Y-11.0080
G01 X29.7135 Y-10.9811
G01 X29.7252 Y-10.9587
G01 X28.1910 Y-12.4320
G01 X28.1619 Y-12.4756
G01 X28.1425 Y-12.5730
G01 X28.1619 Y-12.6704
G01 X28.2171 Y-12.7529
G01 X28.2996 Y-12.8081
G01 X28.3724 Y-12.8226
G01 X28.4216 Y-12.8226
G01 X28.4944 Y-12.8081
G01 X28.5769 Y-12.7529
G01 X28.6321 Y-12.6704
G01 X28.6515 Y-12.5730
G01 X28.6321 Y-12.4756
G01 X28.6029 Y-12.4319
G01 X28.1910 Y-12.4320
G01 X28.0786 Y-12.2216
G01 X27.9637 Y-12.3935
G01 X27.9280 Y-12.5730
G01 X27.9637 Y-12.7525
G01 X28.0654 Y-12.9046
G01 X28.2175 Y-13.0063
G01 X28.3517 Y-13.0330
G01 X28.4423 Y-13.0330
G01 X28.5765 Y-13.0063
G01 X28.7286 Y-12.9046
G01 X28.8303 Y-12.7525
G01 X28.8660 Y-12.5730
G01 X28.8303 Y-12.3935
G01 X28.7153 Y-12.2215
G01 X28.0786 Y-12.2216
G01 X27.9637 Y-12.0112
G01 X27.9253 Y-12.0721
G01 X27.7655 Y-12.3114
G01 X27.7134 Y-12.5730
G01 X27.7655 Y-12.8346
G01 X27.9137 Y-13.0563
G01 X28.1354 Y-13.2045
G01 X28.3310 Y-13.2434
G01 X28.4630 Y-13.2434
G01 X28.6586 Y-13.2045
G01 X28.8803 Y-13.0563
G01 X29.0285 Y-12.8346
G01 X29.0806 Y-12.5730
G01 X29.0285 Y-12.3114
G01 X28.8688 Y-12.0724
G01 X28.8302 Y-12.0110
G01 X27.9637 Y-12.0112
G01 X27.8385 Y-11.8008
G01 X27.8218 Y-11.8341
G01 X27.8042 Y-11.8666
G01 X27.7858 Y-11.8987
G01 X27.7668 Y-11.9298
G01 X27.5673 Y-12.2293
G01 X27.4989 Y-12.5730
G01 X27.5673 Y-12.9167
G01 X27.7620 Y-13.2080
G01 X28.0533 Y-13.4027
G01 X28.3102 Y-13.4538
G01 X28.4838 Y-13.4538
G01 X28.7407 Y-13.4027
G01 X29.0320 Y-13.2080
G01 X29.2267 Y-12.9167
G01 X29.2951 Y-12.5730
G01 X29.2267 Y-12.2293
G01 X29.0272 Y-11.9297
G01 X29.0082 Y-11.8987
G01 X28.9896 Y-11.8663
G01 X28.9722 Y-11.8341
G01 X28.9554 Y-11.8006
G01 X27.8385 Y-11.8008
G01 X27.6989 Y-11.5904
G01 X27.6796 Y-11.6412
G01 X27.6575 Y-11.6915
G01 X27.6335 Y-11.7400
G01 X27.6048 Y-11.7913
G01 X27.5736 Y-11.8410
G01 X27.3691 Y-12.1472
G01 X27.2844 Y-12.5730
G01 X27.3691 Y-12.9988
G01 X27.6102 Y-13.3598
G01 X27.9712 Y-13.6009
G01 X28.2895 Y-13.6643
G01 X28.5045 Y-13.6643
G01 X28.8228 Y-13.6009
G01 X29.1838 Y-13.3598
G01 X29.4249 Y-12.9988
G01 X29.5096 Y-12.5730
G01 X29.4249 Y-12.1472
G01 X29.2204 Y-11.8410
G01 X29.1892 Y-11.7913
G01 X29.1605 Y-11.7400
G01 X29.1365 Y-11.6915
G01 X29.1144 Y-11.6412
G01 X29.0950 Y-11.5901
G01 X27.6989 Y-11.5904
G01 X27.5384 Y-11.3801
G01 X27.5307 Y-11.4168
G01 X27.5217 Y-11.4527
G01 X27.5123 Y-11.4849
G01 X27.4999 Y-11.5221
G01 X27.4861 Y-11.5584
G01 X27.4730 Y-11.5891
G01 X27.4584 Y-11.6202
G01 X27.4426 Y-11.6507
G01 X27.4226 Y-11.6861
G01 X27.4003 Y-11.7217
G01 X27.1708 Y-12.0651
G01 X27.0698 Y-12.5730
G01 X27.1708 Y-13.0809
G01 X27.4585 Y-13.5115
G01 X27.8891 Y-13.7992
G01 X28.2688 Y-13.8747
G01 X28.5252 Y-13.8747
G01 X28.9049 Y-13.7992
G01 X29.3355 Y-13.5115
G01 X29.6232 Y-13.0809
G01 X29.7242 Y-12.5730
G01 X29.6232 Y-12.0651
G01 X29.3937 Y-11.7217
G01 X29.3714 Y-11.6861
G01 X29.3514 Y-11.6507
G01 X29.3356 Y-11.6202
G01 X29.3210 Y-11.5891
G01 X29.3079 Y-11.5584
G01 X29.2941 Y-11.5221
G01 X29.2817 Y-11.4849
G01 X29.2723 Y-11.4527
G01 X29.2633 Y-11.4168
