(G-CODE GENERATED BY FLATCAM v8.96 - www.flatcam.org - Version Date: 2019/08/23)

(Name: carte-radio-raspberry-B.Cu)
(Type: G-code from Geometry)
(Units: MM)

(Created on lundi, 16 décembre 2019 at 19:32)

(TOOL DIAMETER: 0.3 mm)
(Feedrate: 79.9998 mm/min)
(Feedrate_Z: 79.9998 mm/min)
(Feedrate rapids 79.9998 mm/min)

(Z_Cut: -0.3732 mm)
(Z_Move: 1.999 mm)
(Z Toolchange: 12.7 mm)
(X,Y Toolchange: 0.0000, 0.0000 mm)
(Z Start: None mm)
(Z End: 12.7 mm)
(Steps per circle: 128)
(Postprocessor Geometry: default)

(X range:    0.0000 ...    0.0000  mm)
(Y range:    0.0000 ...    0.0000  mm)

(Spindle Speed: None RPM)

G21
G90
G94

G01 F80.00
G00 Z1.9990

M03
G00 X-0.0151 Y0.0030
G01 F80.00
G01 Z-0.3732
G01 F80.00
G01 X-0.0128 Y0.0085
G01 X-0.0085 Y0.0128
G01 X-0.0030 Y0.0151
G01 X0.0030 Y0.0151
G01 X0.0085 Y0.0128
G01 X0.0128 Y0.0085
G01 X0.0151 Y0.0030
G01 X0.0151 Y-0.0030
G01 X0.0128 Y-0.0085
G01 X0.0085 Y-0.0128
G01 X0.0030 Y-0.0151
G01 X-0.0030 Y-0.0151
G01 X-0.0085 Y-0.0128
G01 X-0.0128 Y-0.0085
G01 X-0.0151 Y-0.0030
G01 X-0.0151 Y0.0030
G01 X-0.1954 Y-0.0389
G01 X-0.1954 Y0.0389
G01 X-0.1657 Y0.1107
G01 X-0.1107 Y0.1657
G01 X-0.0389 Y0.1954
G01 X0.0389 Y0.1954
G01 X0.1107 Y0.1657
G01 X0.1657 Y0.1107
G01 X0.1954 Y0.0389
G01 X0.1954 Y-0.0389
G01 X0.1657 Y-0.1107
G01 X0.1107 Y-0.1657
G01 X0.0389 Y-0.1954
G01 X-0.0389 Y-0.1954
G01 X-0.1107 Y-0.1657
G01 X-0.1657 Y-0.1107
G01 X-0.1954 Y-0.0389
G01 X-0.3758 Y-0.0747
G01 X-0.3758 Y0.0747
G01 X-0.3186 Y0.2129
G01 X-0.2129 Y0.3186
G01 X-0.0747 Y0.3758
G01 X0.0747 Y0.3758
G01 X0.2129 Y0.3186
G01 X0.3186 Y0.2129
G01 X0.3758 Y0.0747
G01 X0.3758 Y-0.0747
G01 X0.3186 Y-0.2129
G01 X0.2129 Y-0.3186
G01 X0.0747 Y-0.3758
G01 X-0.0747 Y-0.3758
G01 X-0.2129 Y-0.3186
G01 X-0.3186 Y-0.2129
G01 X-0.3758 Y-0.0747
G01 X-0.5561 Y-0.1106
G01 X-0.5561 Y0.1106
G01 X-0.4715 Y0.3150
G01 X-0.3150 Y0.4715
G01 X-0.1106 Y0.5561
G01 X0.1106 Y0.5561
G01 X0.3150 Y0.4715
G01 X0.4715 Y0.3150
G01 X0.5561 Y0.1106
G01 X0.5561 Y-0.1106
G01 X0.4715 Y-0.3150
G01 X0.3150 Y-0.4715
G01 X0.1106 Y-0.5561
G01 X-0.1106 Y-0.5561
G01 X-0.3150 Y-0.4715
G01 X-0.4715 Y-0.3150
G01 X-0.5561 Y-0.1106
G01 X-0.7245 Y-0.1755
G01 X-0.7365 Y-0.1465
G01 X-0.7365 Y0.1465
G01 X-0.6244 Y0.4172
G01 X-0.4172 Y0.6244
G01 X-0.2676 Y0.6863
G01 X-0.1465 Y0.7365
G01 X0.1465 Y0.7365
G01 X0.4172 Y0.6244
G01 X0.6244 Y0.4172
G01 X0.7365 Y0.1465
G01 X0.7365 Y-0.1465
G01 X0.6244 Y-0.4172
G01 X0.4172 Y-0.6244
G01 X0.1465 Y-0.7365
G01 X-0.1465 Y-0.7365
G01 X-0.4172 Y-0.6244
G01 X-0.6244 Y-0.4172
G01 X-0.7245 Y-0.1755
G01 X-0.8911 Y-0.2445
G01 X-0.9169 Y-0.1824
G01 X-0.9169 Y0.1824
G01 X-0.7773 Y0.5194
G01 X-0.5194 Y0.7773
G01 X-0.3365 Y0.8530
G01 X-0.1824 Y0.9169
G01 X0.1824 Y0.9169
G01 X0.5194 Y0.7773
G01 X0.7773 Y0.5194
G01 X0.9169 Y0.1824
G01 X0.9169 Y-0.1824
G01 X0.7773 Y-0.5194
G01 X0.5194 Y-0.7773
G01 X0.1824 Y-0.9169
G01 X-0.1824 Y-0.9169
G01 X-0.5194 Y-0.7773
G01 X-0.7773 Y-0.5194
G01 X-0.8911 Y-0.2445
G01 X-1.0577 Y-0.3135
G01 X-1.0972 Y-0.2183
G01 X-1.0972 Y0.2183
G01 X-0.9302 Y0.6215
G01 X-0.9218 Y0.6299
G01 X-0.6215 Y0.9302
G01 X-0.2182 Y1.0972
G01 X0.2183 Y1.0972
G01 X0.6215 Y0.9302
G01 X0.9302 Y0.6215
G01 X1.0972 Y0.2182
G01 X1.0972 Y-0.2183
G01 X0.9302 Y-0.6215
G01 X0.6215 Y-0.9302
G01 X0.2182 Y-1.0972
G01 X-0.2183 Y-1.0972
G01 X-0.6215 Y-0.9302
G01 X-0.9302 Y-0.6215
G01 X-1.0577 Y-0.3135
G01 X-1.2244 Y-0.3826
G01 X-1.2776 Y-0.2541
G01 X-1.2776 Y0.2541
G01 X-1.0831 Y0.7237
G01 X-1.0494 Y0.7574
G01 X-0.7237 Y1.0831
G01 X-0.2541 Y1.2776
G01 X0.2541 Y1.2776
G01 X0.7237 Y1.0831
G01 X1.0831 Y0.7237
G01 X1.2776 Y0.2541
G01 X1.2776 Y-0.2541
G01 X1.0831 Y-0.7237
G01 X0.7237 Y-1.0831
G01 X0.2541 Y-1.2776
G01 X-0.2541 Y-1.2776
G01 X-0.7237 Y-1.0831
G01 X-1.0831 Y-0.7237
G01 X-1.2244 Y-0.3826
G00 Z1.9990
G00 X-1.3910 Y-0.4516
G01 F80.00
G01 Z-0.3732
G01 F80.00
G01 X-1.4579 Y-0.2900
G01 X-1.4579 Y0.2900
G01 X-1.2360 Y0.8259
G01 X-0.8259 Y1.2360
G01 X-0.2900 Y1.4579
G01 X0.2900 Y1.4579
G01 X0.8259 Y1.2360
G01 X1.2360 Y0.8259
G01 X1.4579 Y0.2900
G01 X1.4579 Y-0.2900
G01 X1.2360 Y-0.8259
G01 X0.8259 Y-1.2360
G01 X0.2900 Y-1.4579
G01 X-0.2900 Y-1.4579
G01 X-0.8259 Y-1.2360
G01 X-1.2360 Y-0.8259
G01 X-1.3910 Y-0.4516
G00 Z1.9990
G00 X-2.6151 Y2.0967
G01 F80.00
G01 Z-0.3732
G01 F80.00
G01 X-2.6151 Y-27.5832
G01 X-2.6151 Y-27.7380
G01 X-2.6134 Y-27.7683
G01 X-2.6115 Y-27.7823
G01 X-2.6076 Y-27.8017
G01 X-2.5991 Y-27.8307
G01 X-2.5870 Y-27.8594
G01 X-2.5775 Y-27.8773
G01 X-2.5695 Y-27.8901
G01 X-2.5517 Y-27.9143
G01 X-2.5313 Y-27.9365
G01 X-2.5060 Y-27.9583
G01 X-2.4888 Y-27.9704
G01 X-2.4695 Y-27.9818
G01 X-2.4474 Y-27.9925
G01 X-2.4279 Y-28.0001
G01 X-2.4089 Y-28.0058
G01 X-2.3823 Y-28.0115
G01 X-2.3615 Y-28.0140
G01 X-2.3380 Y-28.0151
G01 X30.8380 Y-28.0151
G01 X30.8615 Y-28.0140
G01 X30.8823 Y-28.0115
G01 X30.9018 Y-28.0076
G01 X30.9279 Y-28.0001
G01 X30.9474 Y-27.9925
G01 X30.9690 Y-27.9821
G01 X30.9891 Y-27.9702
G01 X31.0037 Y-27.9601
G01 X31.0213 Y-27.9457
G01 X31.0365 Y-27.9313
G01 X31.0510 Y-27.9152
G01 X31.0663 Y-27.8950
G01 X31.0775 Y-27.8773
G01 X31.0870 Y-27.8594
G01 X31.0954 Y-27.8406
G01 X31.1033 Y-27.8180
G01 X31.1097 Y-27.7922
G01 X31.1141 Y-27.7615
G01 X31.1149 Y-27.7281
G01 X31.1125 Y-27.7002
G01 X31.1076 Y-27.6743
G01 X31.1001 Y-27.6481
G01 X31.0701 Y-27.5742
G01 X31.0701 Y-27.2321
G01 X31.2780 Y-27.2321
G01 X31.2781 Y-27.5082
G01 X31.2802 Y-27.5285
G01 X31.2864 Y-27.5526
G01 X31.2938 Y-27.5701
G01 X31.3068 Y-27.5914
G01 X31.3219 Y-27.6091
G01 X31.3396 Y-27.6242
G01 X31.3609 Y-27.6372
G01 X31.3784 Y-27.6446
G01 X31.3928 Y-27.6488
G01 X31.4160 Y-27.6525
G01 X35.6330 Y-27.6529
G01 X35.6473 Y-27.6518
G01 X35.6644 Y-27.6485
G01 X35.6768 Y-27.6448
G01 X35.6905 Y-27.6394
G01 X35.7027 Y-27.6331
G01 X35.7152 Y-27.6250
G01 X35.7251 Y-27.6173
G01 X35.7372 Y-27.6058
G01 X35.7473 Y-27.5939
G01 X35.7545 Y-27.5835
G01 X35.7610 Y-27.5724
G01 X35.7673 Y-27.5587
G01 X35.7722 Y-27.5442
G01 X35.7755 Y-27.5305
G01 X35.7776 Y-27.5133
G01 X35.7780 Y-27.5030
G01 X35.7776 Y-26.1427
G01 X35.7755 Y-26.1255
G01 X35.7722 Y-26.1118
G01 X35.7673 Y-26.0973
G01 X35.7610 Y-26.0836
G01 X35.7510 Y-26.0672
G01 X35.7427 Y-26.0564
G01 X35.7313 Y-26.0443
G01 X35.7217 Y-26.0359
G01 X35.7027 Y-26.0229
G01 X35.6828 Y-26.0134
G01 X35.6706 Y-26.0092
G01 X35.6544 Y-26.0053
G01 X35.6330 Y-26.0031
G01 X33.9321 Y-26.0030
G01 X33.9321 Y-25.7951
G01 X34.8500 Y-25.7951
G01 X34.8673 Y-25.7945
G01 X34.8885 Y-25.7924
G01 X34.9137 Y-25.7876
G01 X34.9399 Y-25.7801
G01 X34.9651 Y-25.7700
G01 X34.9893 Y-25.7575
G01 X35.0070 Y-25.7463
G01 X35.0286 Y-25.7298
G01 X35.0459 Y-25.7139
G01 X35.0577 Y-25.7013
G01 X35.0721 Y-25.6837
G01 X35.0859 Y-25.6632
G01 X35.0960 Y-25.6453
G01 X35.0990 Y-25.6394
G01 X35.1020 Y-25.6331
G01 X35.1045 Y-25.6274
G01 X35.1121 Y-25.6079
G01 X35.1196 Y-25.5817
G01 X35.1235 Y-25.5623
G01 X35.1259 Y-25.5429
G01 X35.1270 Y-25.5217
G01 X35.1271 Y-25.2854
G01 X35.1259 Y-25.2605
G01 X35.1235 Y-25.2412
G01 X35.1196 Y-25.2217
G01 X35.1140 Y-25.2015
G01 X35.1067 Y-25.1811
G01 X35.0990 Y-25.1640
G01 X35.0926 Y-25.1516
G01 X35.0822 Y-25.1343
G01 X35.0721 Y-25.1197
G01 X35.0577 Y-25.1021
G01 X35.0459 Y-25.0895
G01 X35.0333 Y-25.0777
G01 X35.0157 Y-25.0634
G01 X35.0008 Y-25.0531
G01 X34.9838 Y-25.0429
G01 X34.9651 Y-25.0334
G01 X34.9455 Y-25.0254
G01 X34.9269 Y-25.0193
G01 X34.9077 Y-25.0145
G01 X34.8885 Y-25.0111
G01 X34.8673 Y-25.0089
G01 X34.8500 Y-25.0084
G01 X31.9553 Y-25.0084
G01 X31.7883 Y-24.9752
G01 X31.6979 Y-24.9150
G01 X31.6797 Y-24.9047
G01 X31.6738 Y-24.9017
G01 X31.6675 Y-24.8987
G01 X31.6618 Y-24.8962
G01 X31.6323 Y-24.8854
G01 X31.6065 Y-24.8790
G01 X31.5832 Y-24.8754
G01 X31.5523 Y-24.8736
G01 X29.5225 Y-24.8738
G01 X29.5016 Y-24.8754
G01 X29.4747 Y-24.8797
G01 X29.4524 Y-24.8854
G01 X29.4281 Y-24.8940
G01 X29.4110 Y-24.9017
G01 X29.3899 Y-24.9131
G01 X29.3306 Y-24.9523
G01 X29.1637 Y-24.9855
G01 X26.2185 Y-24.9855
G01 X26.0516 Y-24.9523
G01 X25.9332 Y-24.8732
G01 X25.8540 Y-24.7548
G01 X25.8208 Y-24.5879
G01 X25.8208 Y-23.4435
G01 X25.8540 Y-23.2766
G01 X25.9266 Y-23.1680
G01 X25.9383 Y-23.1482
G01 X25.9462 Y-23.1323
G01 X25.9582 Y-23.1011
G01 X25.9652 Y-23.0748
G01 X25.9695 Y-23.0480
G01 X25.9712 Y-23.0172
G01 X25.9695 Y-22.9863
G01 X25.9659 Y-22.9629
G01 X25.9594 Y-22.9372
G01 X25.9508 Y-22.9128
G01 X25.9383 Y-22.8861
G01 X25.9225 Y-22.8602
G01 X25.9071 Y-22.8399
G01 X25.8878 Y-22.8189
G01 X25.8333 Y-22.6874
G01 X25.8333 Y-22.4208
G01 X26.0412 Y-22.4208
G01 X26.0413 Y-22.6213
G01 X26.0424 Y-22.6349
G01 X26.0454 Y-22.6514
G01 X26.0523 Y-22.6728
G01 X26.0608 Y-22.6902
G01 X26.0700 Y-22.7045
G01 X26.0756 Y-22.7117
G01 X26.0903 Y-22.7271
G01 X26.1029 Y-22.7374
G01 X26.1241 Y-22.7503
G01 X26.1416 Y-22.7577
G01 X26.1560 Y-22.7620
G01 X26.1792 Y-22.7657
G01 X29.1909 Y-22.7662
G01 X29.2097 Y-22.7650
G01 X29.2334 Y-22.7600
G01 X29.2519 Y-22.7532
G01 X29.2718 Y-22.7425
G01 X29.2919 Y-22.7271
G01 X29.3066 Y-22.7117
G01 X29.3173 Y-22.6970
G01 X29.3280 Y-22.6771
G01 X29.3325 Y-22.6657
G01 X29.3368 Y-22.6514
G01 X29.3398 Y-22.6349
G01 X29.3409 Y-22.6213
G01 X29.3410 Y-22.4208
G01 X29.5489 Y-22.4208
G01 X29.5489 Y-22.6874
G01 X29.5076 Y-22.7880
G01 X29.5009 Y-22.8098
G01 X29.4963 Y-22.8303
G01 X29.4926 Y-22.8572
G01 X29.4918 Y-22.8906
G01 X29.4942 Y-22.9185
G01 X29.4970 Y-22.9349
G01 X29.5009 Y-22.9516
G01 X29.5076 Y-22.9734
G01 X29.5167 Y-22.9958
G01 X29.5246 Y-23.0117
G01 X29.5365 Y-23.0318
G01 X29.5466 Y-23.0464
G01 X29.5610 Y-23.0640
G01 X29.5754 Y-23.0792
G01 X29.5915 Y-23.0937
G01 X29.6058 Y-23.1048
G01 X29.6244 Y-23.1172
G01 X29.6414 Y-23.1267
G01 X29.6644 Y-23.1374
G01 X29.6848 Y-23.1447
G01 X29.7050 Y-23.1503
G01 X29.7309 Y-23.1552
G01 X29.7514 Y-23.1572
G01 X29.7687 Y-23.1578
G01 X31.5143 Y-23.1578
G01 X31.5316 Y-23.1572
G01 X31.5586 Y-23.1542
G01 X31.5852 Y-23.1485
G01 X31.6111 Y-23.1403
G01 X31.6357 Y-23.1297
G01 X31.6652 Y-23.1131
G01 X31.7883 Y-23.0308
G01 X31.9553 Y-22.9976
G01 X34.8500 Y-22.9976
G01 X34.8808 Y-22.9959
G01 X34.9042 Y-22.9923
G01 X34.9269 Y-22.9867
G01 X34.9455 Y-22.9806
G01 X34.9651 Y-22.9726
G01 X34.9838 Y-22.9631
G01 X35.0011 Y-22.9528
G01 X35.0157 Y-22.9426
G01 X35.0333 Y-22.9283
G01 X35.0459 Y-22.9165
G01 X35.0577 Y-22.9039
G01 X35.0721 Y-22.8863
G01 X35.0822 Y-22.8717
G01 X35.0930 Y-22.8536
G01 X35.1020 Y-22.8357
G01 X35.1111 Y-22.8133
G01 X35.1178 Y-22.7914
G01 X35.1217 Y-22.7748
G01 X35.1259 Y-22.7455
G01 X35.1271 Y-22.7206
G01 X35.1270 Y-22.4843
G01 X35.1259 Y-22.4631
G01 X35.1235 Y-22.4437
G01 X35.1196 Y-22.4243
G01 X35.1121 Y-22.3981
G01 X35.1045 Y-22.3786
G01 X35.0960 Y-22.3607
G01 X35.0857 Y-22.3424
G01 X35.0721 Y-22.3223
G01 X35.0577 Y-22.3047
G01 X35.0459 Y-22.2921
G01 X35.0286 Y-22.2762
G01 X35.0070 Y-22.2597
G01 X34.9893 Y-22.2485
G01 X34.9651 Y-22.2360
G01 X34.9399 Y-22.2259
G01 X34.9137 Y-22.2184
G01 X34.8885 Y-22.2136
G01 X34.8673 Y-22.2115
G01 X34.8500 Y-22.2109
G01 X33.9321 Y-22.2109
G01 X33.9321 Y-22.0030
G01 X35.6330 Y-22.0029
G01 X35.6544 Y-22.0007
G01 X35.6706 Y-21.9968
G01 X35.6828 Y-21.9926
G01 X35.7027 Y-21.9831
G01 X35.7217 Y-21.9701
G01 X35.7313 Y-21.9617
G01 X35.7427 Y-21.9496
G01 X35.7510 Y-21.9388
G01 X35.7610 Y-21.9224
G01 X35.7673 Y-21.9087
G01 X35.7722 Y-21.8942
G01 X35.7755 Y-21.8805
G01 X35.7776 Y-21.8633
G01 X35.7780 Y-20.5030
G01 X35.7776 Y-20.4927
G01 X35.7755 Y-20.4755
G01 X35.7722 Y-20.4618
G01 X35.7673 Y-20.4473
G01 X35.7610 Y-20.4336
G01 X35.7545 Y-20.4225
G01 X35.7473 Y-20.4121
G01 X35.7372 Y-20.4002
G01 X35.7251 Y-20.3887
G01 X35.7152 Y-20.3810
G01 X35.7027 Y-20.3729
G01 X35.6905 Y-20.3666
G01 X35.6768 Y-20.3612
G01 X35.6644 Y-20.3575
G01 X35.6402 Y-20.3535
G01 X33.9321 Y-20.3530
G01 X33.9321 Y-20.1451
G01 X34.8500 Y-20.1451
G01 X34.8808 Y-20.1433
G01 X34.9042 Y-20.1397
G01 X34.9269 Y-20.1342
G01 X34.9455 Y-20.1281
G01 X34.9651 Y-20.1200
G01 X34.9838 Y-20.1106
G01 X35.0011 Y-20.1002
G01 X35.0229 Y-20.0845
G01 X35.0388 Y-20.0708
G01 X35.0538 Y-20.0557
G01 X35.0703 Y-20.0360
G01 X35.0822 Y-20.0191
G01 X35.0930 Y-20.0010
G01 X35.0990 Y-19.9894
G01 X35.1020 Y-19.9831
G01 X35.1045 Y-19.9774
G01 X35.1111 Y-19.9607
G01 X35.1178 Y-19.9389
G01 X35.1224 Y-19.9184
G01 X35.1259 Y-19.8929
G01 X35.1271 Y-19.8680
G01 X35.1271 Y-7.6601
G01 X35.1253 Y-7.6293
G01 X35.1210 Y-7.6024
G01 X35.1140 Y-7.5762
G01 X35.1020 Y-7.5450
G01 X35.0895 Y-7.5208
G01 X35.0783 Y-7.5031
G01 X35.0618 Y-7.4815
G01 X35.0459 Y-7.4642
G01 X25.2891 Y2.2926
G01 X25.0478 Y2.5339
G01 X25.0248 Y2.5545
G01 X25.0059 Y2.5683
G01 X24.9912 Y2.5775
G01 X24.9721 Y2.5876
G01 X24.9545 Y2.5953
G01 X24.9358 Y2.6020
G01 X24.9189 Y2.6069
G01 X24.8962 Y2.6115
G01 X24.8754 Y2.6140
G01 X24.8519 Y2.6151
G01 X24.2931 Y2.6151
G01 X24.2759 Y2.6145
G01 X24.2427 Y2.6104
G01 X24.2127 Y2.6031
G01 X24.1837 Y2.5925
G01 X24.1658 Y2.5840
G01 X24.1522 Y2.5766
G01 X24.1281 Y2.5605
G01 X24.1050 Y2.5413
G01 X24.0946 Y2.5313
G01 X24.0811 Y2.5164
G01 X24.0628 Y2.4919
G01 X24.0536 Y2.4772
G01 X24.0443 Y2.4598
G01 X24.0323 Y2.4313
G01 X24.0270 Y2.4149
G01 X24.0222 Y2.3957
G01 X24.0191 Y2.3786
G01 X24.0171 Y2.3614
G01 X24.0161 Y2.3417
G01 X24.0164 Y2.3244
G01 X24.0197 Y2.2937
G01 X24.0235 Y2.2743
G01 X24.0280 Y2.2576
G01 X24.0331 Y2.2425
G01 X24.0411 Y2.2229
G01 X24.0506 Y2.2041
G01 X24.0628 Y2.1840
G01 X24.0790 Y2.1622
G01 X24.0946 Y2.1447
G01 X24.1071 Y2.1327
G01 X24.2935 Y1.9638
G01 X24.4273 Y1.6811
G01 X24.2277 Y1.6811
G01 X24.2053 Y1.7258
G01 X24.1847 Y1.7622
G01 X24.1558 Y1.8078
G01 X24.1306 Y1.8436
G01 X24.1000 Y1.8825
G01 X24.0706 Y1.9164
G01 X24.0423 Y1.9461
G01 X24.0032 Y1.9833
G01 X23.9708 Y2.0113
G01 X23.9346 Y2.0396
G01 X23.8938 Y2.0682
G01 X23.8595 Y2.0899
G01 X23.8126 Y2.1165
G01 X23.7737 Y2.1360
G01 X23.7708 Y2.1373
G01 X23.7349 Y2.1532
G01 X23.6915 Y2.1702
G01 X23.6417 Y2.1867
G01 X23.5952 Y2.1994
G01 X23.5535 Y2.2087
G01 X23.5110 Y2.2161
G01 X23.4643 Y2.2221
G01 X23.4126 Y2.2259
G01 X23.3680 Y2.2270
G01 X23.3234 Y2.2259
G01 X23.2717 Y2.2221
G01 X23.2250 Y2.2161
G01 X23.1825 Y2.2087
G01 X23.1408 Y2.1994
G01 X23.0935 Y2.1865
G01 X23.0445 Y2.1702
G01 X23.0011 Y2.1532
G01 X22.9623 Y2.1360
G01 X22.9234 Y2.1165
G01 X22.8765 Y2.0899
G01 X22.8420 Y2.0681
G01 X22.8014 Y2.0396
G01 X22.7648 Y2.0109
G01 X22.7328 Y1.9833
G01 X22.6937 Y1.9461
G01 X22.6652 Y1.9161
G01 X22.6313 Y1.8768
G01 X22.6045 Y1.8423
G01 X22.5802 Y1.8078
G01 X22.5513 Y1.7622
G01 X22.5307 Y1.7258
G01 X22.5083 Y1.6811
G01 X22.3087 Y1.6811
G01 X22.4425 Y1.9638
G01 X22.6289 Y2.1327
G01 X22.6414 Y2.1447
G01 X22.6546 Y2.1594
G01 X22.6654 Y2.1729
G01 X22.6752 Y2.1872
G01 X22.6854 Y2.2041
G01 X22.6933 Y2.2195
G01 X22.7049 Y2.2481
G01 X22.7107 Y2.2671
G01 X22.7146 Y2.2838
G01 X22.7186 Y2.3108
G01 X22.7199 Y2.3380
G01 X22.7186 Y2.3651
G01 X22.7146 Y2.3920
G01 X22.7080 Y2.4184
G01 X22.6989 Y2.4440
G01 X22.6872 Y2.4686
G01 X22.6733 Y2.4919
G01 X22.6571 Y2.5138
G01 X22.6388 Y2.5339
G01 X22.6186 Y2.5522
G01 X22.5968 Y2.5684
G01 X22.5735 Y2.5823
G01 X22.5489 Y2.5940
G01 X22.5233 Y2.6031
G01 X22.4971 Y2.6097
G01 X22.4700 Y2.6137
G01 X22.4429 Y2.6151
G01 X-2.3407 Y2.6150
G01 X-2.3615 Y2.6140
G01 X-2.3823 Y2.6115
G01 X-2.4017 Y2.6076
G01 X-2.4172 Y2.6035
G01 X-2.4348 Y2.5976
G01 X-2.4531 Y2.5900
G01 X-2.4686 Y2.5824
G01 X-2.4830 Y2.5741
G01 X-2.5001 Y2.5627
G01 X-2.5153 Y2.5509
G01 X-2.5268 Y2.5408
G01 X-2.5408 Y2.5268
G01 X-2.5510 Y2.5152
G01 X-2.5627 Y2.5001
G01 X-2.5737 Y2.4836
G01 X-2.5821 Y2.4691
G01 X-2.5935 Y2.4451
G01 X-2.6035 Y2.4171
G01 X-2.6104 Y2.3884
G01 X-2.6140 Y2.3615
G01 X-2.6151 Y2.3380
G01 X-2.6151 Y2.0967
G01 X-2.7954 Y2.0967
G01 X-2.7954 Y-27.7396
G01 X-2.7946 Y-27.7651
G01 X-2.7924 Y-27.7901
G01 X-2.7892 Y-27.8131
G01 X-2.7836 Y-27.8413
G01 X-2.7770 Y-27.8666
G01 X-2.7683 Y-27.8932
G01 X-2.7587 Y-27.9175
G01 X-2.7482 Y-27.9403
G01 X-2.7344 Y-27.9662
G01 X-2.7214 Y-27.9874
G01 X-2.7077 Y-28.0074
G01 X-2.6922 Y-28.0274
G01 X-2.6753 Y-28.0469
G01 X-2.6572 Y-28.0656
G01 X-2.6391 Y-28.0823
G01 X-2.6169 Y-28.1005
G01 X-2.5853 Y-28.1228
G01 X-2.5532 Y-28.1416
G01 X-2.5186 Y-28.1583
G01 X-2.4872 Y-28.1704
G01 X-2.4527 Y-28.1808
G01 X-2.4131 Y-28.1892
G01 X-2.3748 Y-28.1939
G01 X-2.3380 Y-28.1954
G01 X30.8402 Y-28.1954
G01 X30.8792 Y-28.1935
G01 X30.8984 Y-28.1914
G01 X30.9216 Y-28.1877
G01 X30.9630 Y-28.1780
G01 X30.9997 Y-28.1659
G01 X31.0363 Y-28.1502
G01 X31.0562 Y-28.1400
G01 X31.0742 Y-28.1297
G01 X31.1074 Y-28.1077
G01 X31.1391 Y-28.0823
G01 X31.1671 Y-28.0556
G01 X31.1946 Y-28.0245
G01 X31.2077 Y-28.0074
G01 X31.2201 Y-27.9895
G01 X31.2400 Y-27.9562
G01 X31.2574 Y-27.9205
G01 X31.2713 Y-27.8844
G01 X31.2826 Y-27.8456
G01 X31.2870 Y-27.8253
G01 X31.2907 Y-27.8035
G01 X31.3231 Y-27.8162
G01 X31.3563 Y-27.8254
G01 X31.3908 Y-27.8312
G01 X31.4280 Y-27.8334
G01 X35.6360 Y-27.8333
G01 X35.6591 Y-27.8319
G01 X35.6747 Y-27.8300
G01 X35.6921 Y-27.8270
G01 X35.7119 Y-27.8225
G01 X35.7452 Y-27.8119
G01 X35.7755 Y-27.7986
G01 X35.7960 Y-27.7874
G01 X35.8094 Y-27.7790
G01 X35.8365 Y-27.7593
G01 X35.8519 Y-27.7459
G01 X35.8650 Y-27.7331
G01 X35.8881 Y-27.7067
G01 X35.9011 Y-27.6888
G01 X35.9160 Y-27.6649
G01 X35.9275 Y-27.6423
G01 X35.9379 Y-27.6173
G01 X35.9468 Y-27.5897
G01 X35.9519 Y-27.5677
G01 X35.9560 Y-27.5420
G01 X35.9583 Y-27.5092
G01 X35.9584 Y-26.1530
G01 X35.9570 Y-26.1241
G01 X35.9535 Y-26.0967
G01 X35.9468 Y-26.0663
G01 X35.9379 Y-26.0387
G01 X35.9312 Y-26.0219
G01 X35.9234 Y-26.0052
G01 X35.9121 Y-25.9844
G01 X35.9011 Y-25.9672
G01 X35.8881 Y-25.9493
G01 X35.8774 Y-25.9364
G01 X35.8650 Y-25.9229
G01 X35.8519 Y-25.9101
G01 X35.8399 Y-25.8996
G01 X35.8241 Y-25.8872
G01 X35.8094 Y-25.8770
G01 X35.7889 Y-25.8645
G01 X35.7694 Y-25.8544
G01 X35.7525 Y-25.8470
G01 X35.7181 Y-25.8352
G01 X35.6921 Y-25.8290
G01 X35.6747 Y-25.8260
G01 X35.6591 Y-25.8241
G01 X35.6360 Y-25.8227
G01 X35.1912 Y-25.8226
G01 X35.2087 Y-25.8019
G01 X35.2281 Y-25.7753
G01 X35.2439 Y-25.7505
G01 X35.2571 Y-25.7264
G01 X35.2707 Y-25.6975
G01 X35.2818 Y-25.6690
G01 X35.2900 Y-25.6430
G01 X35.2974 Y-25.6131
G01 X35.3012 Y-25.5931
G01 X35.3044 Y-25.5706
G01 X35.3072 Y-25.5323
G01 X35.3074 Y-25.2795
G01 X35.3066 Y-25.2593
G01 X35.3047 Y-25.2361
G01 X35.2981 Y-25.1938
G01 X35.2928 Y-25.1707
G01 X35.2873 Y-25.1512
G01 X35.2803 Y-25.1302
G01 X35.2729 Y-25.1111
G01 X35.2551 Y-25.0731
G01 X35.2437 Y-25.0527
G01 X35.2321 Y-25.0339
G01 X35.2179 Y-25.0137
G01 X35.2066 Y-24.9990
G01 X35.1796 Y-24.9684
G01 X35.5280 Y-24.9684
G01 X35.5505 Y-24.9676
G01 X35.5818 Y-24.9639
G01 X35.6119 Y-24.9575
G01 X35.6452 Y-24.9469
G01 X35.6755 Y-24.9336
G01 X35.6960 Y-24.9224
G01 X35.7161 Y-24.9095
G01 X35.7365 Y-24.8943
G01 X35.7519 Y-24.8809
G01 X35.7650 Y-24.8681
G01 X35.7835 Y-24.8474
G01 X35.7968 Y-24.8301
G01 X35.8088 Y-24.8121
G01 X35.8191 Y-24.7942
G01 X35.8312 Y-24.7691
G01 X35.8379 Y-24.7523
G01 X35.8468 Y-24.7247
G01 X35.8519 Y-24.7027
G01 X35.8546 Y-24.6873
G01 X35.8570 Y-24.6669
G01 X35.8584 Y-24.6380
G01 X35.8584 Y-23.3680
G01 X35.8570 Y-23.3391
G01 X35.8546 Y-23.3187
G01 X35.8519 Y-23.3033
G01 X35.8468 Y-23.2813
G01 X35.8410 Y-23.2624
G01 X35.8334 Y-23.2421
G01 X35.8234 Y-23.2202
G01 X35.8160 Y-23.2061
G01 X35.7968 Y-23.1759
G01 X35.7835 Y-23.1586
G01 X35.7719 Y-23.1452
G01 X35.7592 Y-23.1320
G01 X35.7399 Y-23.1146
G01 X35.7241 Y-23.1022
G01 X35.7094 Y-23.0920
G01 X35.6960 Y-23.0836
G01 X35.6755 Y-23.0724
G01 X35.6585 Y-23.0645
G01 X35.6391 Y-23.0569
G01 X35.6181 Y-23.0502
G01 X35.5921 Y-23.0440
G01 X35.5662 Y-23.0399
G01 X35.5433 Y-23.0380
G01 X35.1796 Y-23.0376
G01 X35.2066 Y-23.0070
G01 X35.2179 Y-22.9923
G01 X35.2321 Y-22.9721
G01 X35.2439 Y-22.9531
G01 X35.2554 Y-22.9324
G01 X35.2729 Y-22.8949
G01 X35.2803 Y-22.8758
G01 X35.2873 Y-22.8548
G01 X35.2928 Y-22.8353
G01 X35.2981 Y-22.8122
G01 X35.3048 Y-22.7696
G01 X35.3066 Y-22.7467
G01 X35.3074 Y-22.7265
G01 X35.3072 Y-22.4737
G01 X35.3043 Y-22.4351
G01 X35.2974 Y-22.3929
G01 X35.2900 Y-22.3630
G01 X35.2818 Y-22.3370
G01 X35.2707 Y-22.3085
G01 X35.2571 Y-22.2796
G01 X35.2437 Y-22.2552
G01 X35.2281 Y-22.2307
G01 X35.2087 Y-22.2041
G01 X35.1912 Y-22.1834
G01 X35.6433 Y-22.1830
G01 X35.6747 Y-22.1800
G01 X35.7021 Y-22.1749
G01 X35.7317 Y-22.1666
G01 X35.7585 Y-22.1565
G01 X35.7828 Y-22.1448
G01 X35.8019 Y-22.1339
G01 X35.8241 Y-22.1188
G01 X35.8399 Y-22.1064
G01 X35.8592 Y-22.0890
G01 X35.8774 Y-22.0696
G01 X35.8931 Y-22.0502
G01 X35.9046 Y-22.0335
G01 X35.9160 Y-22.0149
G01 X35.9275 Y-21.9923
G01 X35.9359 Y-21.9726
G01 X35.9440 Y-21.9493
G01 X35.9505 Y-21.9246
G01 X35.9546 Y-21.9023
G01 X35.9570 Y-21.8819
G01 X35.9584 Y-21.8530
G01 X35.9583 Y-20.4968
G01 X35.9560 Y-20.4640
G01 X35.9505 Y-20.4314
G01 X35.9410 Y-20.3974
G01 X35.9359 Y-20.3834
G01 X35.9275 Y-20.3637
G01 X35.9191 Y-20.3468
G01 X35.9088 Y-20.3289
G01 X35.8881 Y-20.2993
G01 X35.8650 Y-20.2729
G01 X35.8399 Y-20.2496
G01 X35.8241 Y-20.2372
G01 X35.8094 Y-20.2270
G01 X35.7828 Y-20.2112
G01 X35.7647 Y-20.2023
G01 X35.7452 Y-20.1941
G01 X35.7119 Y-20.1835
G01 X35.6921 Y-20.1790
G01 X35.6747 Y-20.1760
G01 X35.6591 Y-20.1741
G01 X35.6360 Y-20.1727
G01 X35.1912 Y-20.1726
G01 X35.2179 Y-20.1397
G01 X35.2406 Y-20.1060
G01 X35.2602 Y-20.0703
G01 X35.2694 Y-20.0505
G01 X35.2779 Y-20.0297
G01 X35.2900 Y-19.9930
G01 X35.2997 Y-19.9515
G01 X35.3053 Y-19.9113
G01 X35.3074 Y-19.8702
G01 X35.3074 Y-7.6601
G01 X35.3057 Y-7.6211
G01 X35.3001 Y-7.5788
G01 X35.2916 Y-7.5411
G01 X35.2806 Y-7.5058
G01 X35.2712 Y-7.4817
G01 X35.2603 Y-7.4580
G01 X35.2495 Y-7.4374
G01 X35.2348 Y-7.4128
G01 X35.2206 Y-7.3920
G01 X35.2059 Y-7.3728
G01 X35.1894 Y-7.3534
G01 X35.1734 Y-7.3366
G01 X25.1754 Y2.6614
G01 X25.1546 Y2.6809
G01 X25.1295 Y2.7016
G01 X25.1043 Y2.7195
G01 X25.0801 Y2.7344
G01 X25.0501 Y2.7502
G01 X25.0216 Y2.7628
G01 X24.9883 Y2.7746
G01 X24.9603 Y2.7824
G01 X24.9270 Y2.7892
G01 X24.8971 Y2.7932
G01 X24.8752 Y2.7948
G01 X24.8519 Y2.7954
G01 X24.2915 Y2.7954
G01 X24.2505 Y2.7934
G01 X24.2119 Y2.7881
G01 X24.1741 Y2.7796
G01 X24.1547 Y2.7740
G01 X24.1335 Y2.7666
G01 X24.0958 Y2.7506
G01 X24.0775 Y2.7414
G01 X24.0572 Y2.7299
G01 X24.0390 Y2.7183
G01 X24.0206 Y2.7054
G01 X24.0029 Y2.6916
G01 X23.9876 Y2.6784
G01 X23.9705 Y2.6623
G01 X23.9559 Y2.6470
G01 X23.9306 Y2.6169
G01 X23.9083 Y2.5853
G01 X23.8978 Y2.5680
G01 X23.8870 Y2.5484
G01 X23.8694 Y2.5103
G01 X23.8553 Y2.4703
G01 X23.8494 Y2.4491
G01 X23.8445 Y2.4275
G01 X23.8385 Y2.3887
G01 X23.8366 Y2.3663
G01 X23.8358 Y2.3461
G01 X23.8369 Y2.3053
G01 X23.7999 Y2.3216
G01 X23.7564 Y2.3385
G01 X23.7039 Y2.3562
G01 X23.6462 Y2.3725
G01 X23.5944 Y2.3844
G01 X23.5375 Y2.3945
G01 X23.4816 Y2.4016
G01 X23.4225 Y2.4060
G01 X23.3664 Y2.4074
G01 X23.3135 Y2.4060
G01 X23.2544 Y2.4016
G01 X23.1985 Y2.3945
G01 X23.1416 Y2.3844
G01 X23.0898 Y2.3725
G01 X23.0321 Y2.3562
G01 X22.9796 Y2.3385
G01 X22.9361 Y2.3216
G01 X22.8991 Y2.3053
G01 X22.9002 Y2.3320
G01 X22.9000 Y2.3545
G01 X22.8983 Y2.3806
G01 X22.8960 Y2.4007
G01 X22.8919 Y2.4250
G01 X22.8871 Y2.4469
G01 X22.8808 Y2.4701
G01 X22.8743 Y2.4900
G01 X22.8655 Y2.5130
G01 X22.8564 Y2.5335
G01 X22.8463 Y2.5536
G01 X22.8352 Y2.5731
G01 X22.8232 Y2.5921
G01 X22.8095 Y2.6115
G01 X22.7965 Y2.6282
G01 X22.7801 Y2.6470
G01 X22.7655 Y2.6623
G01 X22.7484 Y2.6784
G01 X22.7313 Y2.6930
G01 X22.7119 Y2.7079
G01 X22.6941 Y2.7202
G01 X22.6737 Y2.7329
G01 X22.6529 Y2.7443
G01 X22.6311 Y2.7549
G01 X22.6046 Y2.7659
G01 X22.5834 Y2.7733
G01 X22.5597 Y2.7802
G01 X22.5400 Y2.7850
G01 X22.5158 Y2.7895
G01 X22.4927 Y2.7927
G01 X22.4712 Y2.7945
G01 X22.4494 Y2.7954
G01 X-2.3455 Y2.7953
G01 X-2.3748 Y2.7939
G01 X-2.4015 Y2.7910
G01 X-2.4296 Y2.7862
G01 X-2.4570 Y2.7796
G01 X-2.4844 Y2.7713
G01 X-2.5104 Y2.7617
G01 X-2.5333 Y2.7516
G01 X-2.5588 Y2.7386
G01 X-2.5853 Y2.7228
G01 X-2.6061 Y2.7086
G01 X-2.6289 Y2.6910
G01 X-2.6478 Y2.6745
G01 X-2.6671 Y2.6556
G01 X-2.6886 Y2.6317
G01 X-2.7059 Y2.6098
G01 X-2.7217 Y2.5870
G01 X-2.7336 Y2.5676
G01 X-2.7451 Y2.5464
G01 X-2.7574 Y2.5205
G01 X-2.7665 Y2.4981
G01 X-2.7746 Y2.4744
G01 X-2.7805 Y2.4537
G01 X-2.7863 Y2.4289
G01 X-2.7904 Y2.4055
G01 X-2.7939 Y2.3748
G01 X-2.7954 Y2.3446
G01 X-2.7954 Y2.0967
G00 Z1.9990
G00 X1.1036 Y-9.9656
G01 F80.00
G01 Z-0.3732
G01 F80.00
G01 X1.0974 Y-9.9768
G01 X1.0773 Y-10.0194
G01 X1.0566 Y-10.0765
G01 X1.0428 Y-10.1322
G01 X1.0357 Y-10.1793
G01 X1.0342 Y-10.1940
G01 X1.0320 Y-10.2430
G01 X1.0320 Y-11.0930
G01 X1.0345 Y-11.1460
G01 X1.0428 Y-11.2038
G01 X1.0566 Y-11.2595
G01 X1.0751 Y-11.3114
G01 X1.0980 Y-11.3604
G01 X1.1288 Y-11.4123
G01 X1.1615 Y-11.4565
G01 X1.2004 Y-11.4996
G01 X1.2398 Y-11.5354
G01 X1.2815 Y-11.5669
G01 X1.2938 Y-11.5750
G01 X1.3396 Y-11.6020
G01 X1.3876 Y-11.6245
G01 X1.4331 Y-11.6409
G01 X1.4472 Y-11.6452
G01 X1.4979 Y-11.6575
G01 X1.5485 Y-11.6650
G01 X1.6070 Y-11.6680
G01 X2.4644 Y-11.6678
G01 X2.5155 Y-11.6650
G01 X2.5619 Y-11.6582
G01 X2.5764 Y-11.6553
G01 X2.6168 Y-11.6452
G01 X2.6309 Y-11.6409
G01 X2.6766 Y-11.6244
G01 X2.7215 Y-11.6034
G01 X2.7345 Y-11.5965
G01 X2.7757 Y-11.5716
G01 X2.8208 Y-11.5383
G01 X2.8636 Y-11.4996
G01 X2.8994 Y-11.4602
G01 X2.9309 Y-11.4185
G01 X2.9390 Y-11.4062
G01 X2.9660 Y-11.3604
G01 X2.9890 Y-11.3110
G01 X3.0074 Y-11.2595
G01 X3.0193 Y-11.2124
G01 X3.0222 Y-11.1979
G01 X3.0292 Y-11.1496
G01 X3.0320 Y-11.0930
G01 X3.0318 Y-10.2356
G01 X3.0292 Y-10.1864
G01 X3.0222 Y-10.1381
G01 X3.0193 Y-10.1236
G01 X3.0085 Y-10.0805
G01 X3.0049 Y-10.0691
G01 X2.9890 Y-10.0250
G01 X2.9674 Y-9.9785
G01 X2.9605 Y-9.9655
G01 X2.9352 Y-9.9237
G01 X2.9028 Y-9.8798
G01 X2.8636 Y-9.8364
G01 X2.8242 Y-9.8006
G01 X2.7825 Y-9.7691
G01 X2.7702 Y-9.7610
G01 X2.7244 Y-9.7340
G01 X2.6763 Y-9.7114
G01 X2.6235 Y-9.6926
G01 X2.5764 Y-9.6807
G01 X2.5619 Y-9.6778
G01 X2.5136 Y-9.6708
G01 X2.4570 Y-9.6680
G01 X1.6070 Y-9.6680
G01 X1.5504 Y-9.6708
G01 X1.4915 Y-9.6797
G01 X1.4472 Y-9.6908
G01 X1.4331 Y-9.6951
G01 X1.3874 Y-9.7116
G01 X1.3425 Y-9.7326
G01 X1.3295 Y-9.7395
G01 X1.2886 Y-9.7642
G01 X1.2430 Y-9.7979
G01 X1.2057 Y-9.8313
G01 X1.1953 Y-9.8417
G01 X1.1608 Y-9.8804
G01 X1.1331 Y-9.9175
G01 X1.1267 Y-9.9269
G01 X1.1036 Y-9.9656
G00 Z1.9990
G00 X3.6436 Y-9.9656
G01 F80.00
G01 Z-0.3732
G01 F80.00
G01 X3.6380 Y-9.9756
G01 X3.6173 Y-10.0194
G01 X3.5966 Y-10.0765
G01 X3.5827 Y-10.1327
G01 X3.5753 Y-10.1821
G01 X3.5742 Y-10.1940
G01 X3.5720 Y-10.2430
G01 X3.5720 Y-11.0930
G01 X3.5744 Y-11.1453
G01 X3.5827 Y-11.2033
G01 X3.5948 Y-11.2528
G01 X3.5991 Y-11.2669
G01 X3.6131 Y-11.3062
G01 X3.6188 Y-11.3198
G01 X3.6414 Y-11.3667
G01 X3.6688 Y-11.4123
G01 X3.7012 Y-11.4562
G01 X3.7432 Y-11.5023
G01 X3.7837 Y-11.5387
G01 X3.8283 Y-11.5716
G01 X3.8737 Y-11.5989
G01 X3.9277 Y-11.6246
G01 X3.9805 Y-11.6434
G01 X4.0315 Y-11.6563
G01 X4.0885 Y-11.6650
G01 X4.1396 Y-11.6678
G01 X4.9970 Y-11.6680
G01 X5.0492 Y-11.6656
G01 X5.1125 Y-11.6563
G01 X5.1568 Y-11.6452
G01 X5.1709 Y-11.6409
G01 X5.2166 Y-11.6244
G01 X5.2615 Y-11.6034
G01 X5.2745 Y-11.5965
G01 X5.3151 Y-11.5720
G01 X5.3608 Y-11.5383
G01 X5.3983 Y-11.5047
G01 X5.4087 Y-11.4943
G01 X5.4432 Y-11.4556
G01 X5.4709 Y-11.4185
G01 X5.4790 Y-11.4062
G01 X5.5030 Y-11.3660
G01 X5.5290 Y-11.3110
G01 X5.5449 Y-11.2669
G01 X5.5492 Y-11.2528
G01 X5.5611 Y-11.2042
G01 X5.5683 Y-11.1567
G01 X5.5698 Y-11.1420
G01 X5.5718 Y-11.1004
G01 X5.5720 Y-10.2430
G01 X5.5698 Y-10.1940
G01 X5.5683 Y-10.1793
G01 X5.5611 Y-10.1318
G01 X5.5474 Y-10.0765
G01 X5.5290 Y-10.0250
G01 X5.5060 Y-9.9756
G01 X5.4752 Y-9.9237
G01 X5.4460 Y-9.8840
G01 X5.4384 Y-9.8746
G01 X5.4063 Y-9.8392
G01 X5.3878 Y-9.8218
G01 X8.3363 Y-6.8733
G01 X14.7980 Y-6.8733
G01 X14.7982 Y-7.0306
G01 X14.8015 Y-7.0550
G01 X14.8056 Y-7.0702
G01 X14.8109 Y-7.0839
G01 X14.8176 Y-7.0971
G01 X14.8270 Y-7.1116
G01 X14.8407 Y-7.1278
G01 X14.8540 Y-7.1399
G01 X14.8671 Y-7.1493
G01 X14.8871 Y-7.1601
G01 X14.9021 Y-7.1658
G01 X14.9238 Y-7.1710
G01 X14.9480 Y-7.1730
G01 X16.5480 Y-7.1730
G01 X16.5722 Y-7.1710
G01 X16.5940 Y-7.1658
G01 X16.6089 Y-7.1601
G01 X16.6289 Y-7.1493
G01 X16.6428 Y-7.1393
G01 X16.6587 Y-7.1242
G01 X16.6740 Y-7.1044
G01 X16.6827 Y-7.0891
G01 X16.6873 Y-7.0787
G01 X16.6918 Y-7.0657
G01 X16.6958 Y-7.0485
G01 X16.6975 Y-7.0349
G01 X16.6980 Y-6.8733
G01 X22.6757 Y-6.8733
G01 X22.6962 Y-6.8948
G01 X22.7274 Y-6.9245
G01 X22.7625 Y-6.9550
G01 X22.8014 Y-6.9856
G01 X22.8372 Y-7.0108
G01 X22.8767 Y-7.0360
G01 X22.9218 Y-7.0617
G01 X22.9635 Y-7.0826
G01 X23.0011 Y-7.0992
G01 X23.0486 Y-7.1177
G01 X23.0943 Y-7.1327
G01 X23.1408 Y-7.1454
G01 X23.1825 Y-7.1547
G01 X23.2250 Y-7.1621
G01 X23.2712 Y-7.1680
G01 X23.3234 Y-7.1719
G01 X23.3680 Y-7.1730
G01 X23.4126 Y-7.1719
G01 X23.4648 Y-7.1680
G01 X23.5110 Y-7.1621
G01 X23.5535 Y-7.1547
G01 X23.5952 Y-7.1454
G01 X23.6417 Y-7.1327
G01 X23.6874 Y-7.1177
G01 X23.7349 Y-7.0992
G01 X23.7725 Y-7.0826
G01 X23.8142 Y-7.0617
G01 X23.8593 Y-7.0360
G01 X23.8988 Y-7.0108
G01 X23.9346 Y-6.9856
G01 X23.9735 Y-6.9550
G01 X24.0086 Y-6.9245
G01 X24.0398 Y-6.8948
G01 X24.0603 Y-6.8733
G01 X27.3437 Y-6.8733
G01 X29.4407 Y-8.9702
G01 X29.4407 Y-15.0684
G01 X29.2327 Y-15.2763
G01 X29.2140 Y-15.2721
G01 X29.1909 Y-15.2703
G01 X26.1912 Y-15.2703
G01 X26.1758 Y-15.2711
G01 X26.1609 Y-15.2734
G01 X26.1472 Y-15.2769
G01 X26.1303 Y-15.2833
G01 X26.1104 Y-15.2940
G01 X26.0910 Y-15.3087
G01 X26.0756 Y-15.3248
G01 X26.0656 Y-15.3383
G01 X26.0541 Y-15.3594
G01 X26.0474 Y-15.3778
G01 X26.0434 Y-15.3949
G01 X26.0413 Y-15.4153
G01 X26.0412 Y-16.6192
G01 X26.0417 Y-16.6312
G01 X26.0434 Y-16.6447
G01 X26.0473 Y-16.6617
G01 X26.0523 Y-16.6758
G01 X26.0608 Y-16.6933
G01 X26.0700 Y-16.7076
G01 X26.0756 Y-16.7148
G01 X26.0903 Y-16.7302
G01 X26.1029 Y-16.7404
G01 X26.1241 Y-16.7534
G01 X26.1416 Y-16.7608
G01 X26.1657 Y-16.7670
G01 X26.1860 Y-16.7691
G01 X29.1909 Y-16.7692
G01 X29.2097 Y-16.7680
G01 X29.2261 Y-16.7650
G01 X29.2405 Y-16.7608
G01 X29.2580 Y-16.7534
G01 X29.2793 Y-16.7404
G01 X29.2919 Y-16.7302
G01 X29.3066 Y-16.7148
G01 X29.3173 Y-16.7001
G01 X29.3251 Y-16.6863
G01 X29.3321 Y-16.6700
G01 X29.4126 Y-16.6700
G01 X29.4445 Y-16.6690
G01 X29.4763 Y-16.6665
G01 X29.5015 Y-16.6634
G01 X29.5359 Y-16.6575
G01 X29.5704 Y-16.6496
G01 X29.6011 Y-16.6409
G01 X29.6273 Y-16.6322
G01 X29.6560 Y-16.6212
G01 X29.6898 Y-16.6062
G01 X29.7186 Y-16.5915
G01 X29.7463 Y-16.5756
G01 X29.7673 Y-16.5623
G01 X29.7932 Y-16.5442
G01 X29.8228 Y-16.5212
G01 X29.8428 Y-16.5040
G01 X29.8687 Y-16.4796
G01 X30.5507 Y-15.7975
G01 X30.5713 Y-15.7760
G01 X30.5912 Y-15.7530
G01 X30.6128 Y-15.7257
G01 X30.6334 Y-15.6962
G01 X30.6484 Y-15.6725
G01 X30.6626 Y-15.6475
G01 X30.6773 Y-15.6187
G01 X30.6914 Y-15.5873
G01 X30.7044 Y-15.5533
G01 X30.7133 Y-15.5260
G01 X30.7208 Y-15.4993
G01 X30.7287 Y-15.4647
G01 X30.7345 Y-15.4306
G01 X30.7377 Y-15.4050
G01 X30.7402 Y-15.3733
G01 X30.7412 Y-15.3377
G01 X30.7412 Y-8.7009
G01 X30.7402 Y-8.6653
G01 X30.7377 Y-8.6336
G01 X30.7345 Y-8.6080
G01 X30.7279 Y-8.5704
G01 X30.7208 Y-8.5393
G01 X30.7133 Y-8.5125
G01 X30.7019 Y-8.4783
G01 X30.6914 Y-8.4512
G01 X30.6803 Y-8.4262
G01 X30.6661 Y-8.3976
G01 X30.6484 Y-8.3661
G01 X30.6295 Y-8.3366
G01 X30.6110 Y-8.3106
G01 X30.5912 Y-8.2855
G01 X30.5713 Y-8.2626
G01 X30.5533 Y-8.2437
G01 X28.0729 Y-5.7632
G01 X28.0470 Y-5.7388
G01 X28.0262 Y-5.7208
G01 X28.0011 Y-5.7012
G01 X27.9726 Y-5.6812
G01 X27.9503 Y-5.6671
G01 X27.9180 Y-5.6487
G01 X27.8895 Y-5.6344
G01 X27.8653 Y-5.6237
G01 X27.8315 Y-5.6105
G01 X27.7998 Y-5.6001
G01 X27.7746 Y-5.5932
G01 X27.7401 Y-5.5853
G01 X27.7121 Y-5.5804
G01 X27.6805 Y-5.5763
G01 X27.6430 Y-5.5734
G01 X27.6131 Y-5.5727
G01 X24.0603 Y-5.5727
G01 X24.0398 Y-5.5512
G01 X24.0086 Y-5.5215
G01 X23.9735 Y-5.4910
G01 X23.9346 Y-5.4604
G01 X23.8988 Y-5.4352
G01 X23.8593 Y-5.4100
G01 X23.8142 Y-5.3843
G01 X23.7725 Y-5.3634
G01 X23.7349 Y-5.3468
G01 X23.6874 Y-5.3283
G01 X23.6417 Y-5.3133
G01 X23.5952 Y-5.3006
G01 X23.5535 Y-5.2913
G01 X23.5110 Y-5.2839
G01 X23.4648 Y-5.2780
G01 X23.4126 Y-5.2741
G01 X23.3680 Y-5.2730
G01 X23.3234 Y-5.2741
G01 X23.2712 Y-5.2780
G01 X23.2250 Y-5.2839
G01 X23.1825 Y-5.2913
G01 X23.1408 Y-5.3006
G01 X23.0943 Y-5.3133
G01 X23.0486 Y-5.3283
G01 X23.0011 Y-5.3468
G01 X22.9635 Y-5.3634
G01 X22.9218 Y-5.3843
G01 X22.8767 Y-5.4100
G01 X22.8372 Y-5.4352
G01 X22.8014 Y-5.4604
G01 X22.7625 Y-5.4910
G01 X22.7274 Y-5.5215
G01 X22.6962 Y-5.5512
G01 X22.6757 Y-5.5727
G01 X16.6980 Y-5.5727
G01 X16.6975 Y-5.4111
G01 X16.6936 Y-5.3869
G01 X16.6897 Y-5.3737
G01 X16.6851 Y-5.3621
G01 X16.6785 Y-5.3491
G01 X16.6690 Y-5.3344
G01 X16.6587 Y-5.3218
G01 X16.6428 Y-5.3067
G01 X16.6289 Y-5.2967
G01 X16.6089 Y-5.2859
G01 X16.5940 Y-5.2802
G01 X16.5722 Y-5.2750
G01 X16.5480 Y-5.2730
G01 X14.9480 Y-5.2730
G01 X14.9238 Y-5.2750
G01 X14.9021 Y-5.2802
G01 X14.8871 Y-5.2859
G01 X14.8671 Y-5.2967
G01 X14.8540 Y-5.3061
G01 X14.8364 Y-5.3228
G01 X14.8220 Y-5.3416
G01 X14.8136 Y-5.3564
G01 X14.8079 Y-5.3695
G01 X14.8037 Y-5.3821
G01 X14.7998 Y-5.4000
G01 X14.7982 Y-5.4154
G01 X14.7980 Y-5.5727
G01 X8.0670 Y-5.5727
G01 X8.0370 Y-5.5735
G01 X8.0069 Y-5.5756
G01 X7.9752 Y-5.5793
G01 X7.9438 Y-5.5846
G01 X7.9054 Y-5.5932
G01 X7.8803 Y-5.6001
G01 X7.8465 Y-5.6113
G01 X7.8174 Y-5.6226
G01 X7.7923 Y-5.6336
G01 X7.7610 Y-5.6493
G01 X7.7359 Y-5.6634
G01 X7.7088 Y-5.6803
G01 X7.6790 Y-5.7012
G01 X7.6517 Y-5.7227
G01 X7.6286 Y-5.7427
G01 X7.6098 Y-5.7606
G01 X4.1122 Y-9.2582
G01 X4.0926 Y-9.2787
G01 X4.0711 Y-9.3034
G01 X4.0502 Y-9.3300
G01 X4.0302 Y-9.3585
G01 X4.0152 Y-9.3821
G01 X3.9988 Y-9.4109
G01 X3.9834 Y-9.4416
G01 X3.9716 Y-9.4684
G01 X3.9605 Y-9.4968
G01 X3.9491 Y-9.5313
G01 X3.9404 Y-9.5636
G01 X3.9343 Y-9.5910
G01 X3.9294 Y-9.6190
G01 X3.9253 Y-9.6507
G01 X3.9225 Y-9.6880
G01 X3.9218 Y-9.7140
G01 X3.8737 Y-9.7371
G01 X3.8338 Y-9.7610
G01 X3.8215 Y-9.7691
G01 X3.7880 Y-9.7940
G01 X3.7766 Y-9.8033
G01 X3.7404 Y-9.8364
G01 X3.7008 Y-9.8804
G01 X3.6688 Y-9.9237
G01 X3.6436 Y-9.9656
G00 Z1.9990
G00 X3.3020 Y-12.0542
G01 F80.00
G01 Z-0.3732
G01 F80.00
G01 X3.2653 Y-12.0137
G01 X3.2445 Y-11.9922
G01 X3.1858 Y-11.9380
G01 X3.2445 Y-11.8838
G01 X3.2653 Y-11.8623
G01 X3.3020 Y-11.8218
G01 X3.3387 Y-11.8623
G01 X3.3595 Y-11.8838
G01 X3.4182 Y-11.9380
G01 X3.3595 Y-11.9922
G01 X3.3387 Y-12.0137
G01 X3.3020 Y-12.0542
G01 X3.3020 Y-12.3823
G01 X3.2890 Y-12.3550
G01 X3.2747 Y-12.3283
G01 X3.2459 Y-12.2802
G01 X3.2290 Y-12.2543
G01 X3.1948 Y-12.2079
G01 X3.1773 Y-12.1858
G01 X3.1352 Y-12.1387
G01 X3.1170 Y-12.1197
G01 X3.0543 Y-12.0628
G01 X3.0322 Y-12.0452
G01 X2.9874 Y-12.0122
G01 X2.9606 Y-11.9946
G01 X2.9107 Y-11.9647
G01 X2.8849 Y-11.9510
G01 X2.8577 Y-11.9380
G01 X2.8849 Y-11.9250
G01 X2.9107 Y-11.9113
G01 X2.9606 Y-11.8814
G01 X2.9851 Y-11.8654
G01 X3.0323 Y-11.8306
G01 X3.0514 Y-11.8157
G01 X3.0696 Y-11.7999
G01 X3.1170 Y-11.7563
G01 X3.1352 Y-11.7373
G01 X3.1779 Y-11.6895
G01 X3.1949 Y-11.6680
G01 X3.2290 Y-11.6217
G01 X3.2459 Y-11.5958
G01 X3.2755 Y-11.5462
G01 X3.2891 Y-11.5208
G01 X3.3020 Y-11.4937
G01 X3.3150 Y-11.5210
G01 X3.3293 Y-11.5477
G01 X3.3581 Y-11.5958
G01 X3.3750 Y-11.6217
G01 X3.4092 Y-11.6681
G01 X3.4267 Y-11.6902
G01 X3.4688 Y-11.7373
G01 X3.4870 Y-11.7563
G01 X3.5497 Y-11.8132
G01 X3.5718 Y-11.8308
G01 X3.6166 Y-11.8638
G01 X3.6434 Y-11.8814
G01 X3.6933 Y-11.9113
G01 X3.7191 Y-11.9250
G01 X3.7463 Y-11.9380
G01 X3.7191 Y-11.9510
G01 X3.6933 Y-11.9647
G01 X3.6434 Y-11.9946
G01 X3.6189 Y-12.0106
G01 X3.5717 Y-12.0454
G01 X3.5526 Y-12.0603
G01 X3.5344 Y-12.0761
G01 X3.4870 Y-12.1197
G01 X3.4688 Y-12.1387
G01 X3.4261 Y-12.1865
G01 X3.4091 Y-12.2080
G01 X3.3750 Y-12.2543
G01 X3.3581 Y-12.2802
G01 X3.3277 Y-12.3311
G01 X3.3149 Y-12.3552
G01 X3.3020 Y-12.3823
G00 Z1.9990
G00 X3.6436 Y-12.5056
G01 F80.00
G01 Z-0.3732
G01 F80.00
G01 X3.6380 Y-12.5156
G01 X3.6173 Y-12.5594
G01 X3.5966 Y-12.6165
G01 X3.5827 Y-12.6727
G01 X3.5744 Y-12.7307
G01 X3.5720 Y-12.7830
G01 X3.5721 Y-13.6370
G01 X3.5748 Y-13.6896
G01 X3.5818 Y-13.7379
G01 X3.5841 Y-13.7500
G01 X3.5948 Y-13.7928
G01 X3.5991 Y-13.8069
G01 X3.6173 Y-13.8566
G01 X3.6414 Y-13.9067
G01 X3.6688 Y-13.9523
G01 X3.6980 Y-13.9920
G01 X3.7073 Y-14.0034
G01 X3.7404 Y-14.0396
G01 X3.7766 Y-14.0727
G01 X3.7880 Y-14.0820
G01 X3.8215 Y-14.1069
G01 X3.8338 Y-14.1150
G01 X3.8796 Y-14.1420
G01 X3.9277 Y-14.1646
G01 X3.9805 Y-14.1834
G01 X4.0315 Y-14.1963
G01 X4.0904 Y-14.2052
G01 X4.1415 Y-14.2079
G01 X4.6524 Y-14.2080
G01 X4.9251 Y-14.4806
G01 X4.9449 Y-14.4994
G01 X4.9669 Y-14.5185
G01 X4.9943 Y-14.5401
G01 X5.0224 Y-14.5599
G01 X5.0511 Y-14.5779
G01 X5.0743 Y-14.5909
G01 X5.1076 Y-14.6076
G01 X5.1326 Y-14.6187
G01 X5.1597 Y-14.6292
G01 X5.1900 Y-14.6394
G01 X5.2207 Y-14.6481
G01 X5.2552 Y-14.6560
G01 X5.2832 Y-14.6609
G01 X5.3177 Y-14.6653
G01 X5.3505 Y-14.6677
G01 X5.3823 Y-14.6685
G01 X11.0540 Y-14.6685
G01 X11.0614 Y-14.6858
G01 X11.0737 Y-14.7058
G01 X11.0890 Y-14.7238
G01 X11.1069 Y-14.7391
G01 X11.1270 Y-14.7514
G01 X11.1480 Y-14.7601
G01 X11.1632 Y-14.7643
G01 X11.1874 Y-14.7675
G01 X14.1948 Y-14.7677
G01 X14.2178 Y-14.7659
G01 X14.2419 Y-14.7601
G01 X14.2557 Y-14.7548
G01 X14.2700 Y-14.7475
G01 X14.2888 Y-14.7346
G01 X14.3064 Y-14.7179
G01 X14.3204 Y-14.6997
G01 X14.3319 Y-14.6786
G01 X14.3372 Y-14.6648
G01 X14.3414 Y-14.6495
G01 X14.3440 Y-14.6330
G01 X14.3448 Y-14.6177
G01 X14.3448 Y-13.4188
G01 X14.3440 Y-13.4035
G01 X14.3392 Y-13.3783
G01 X14.3319 Y-13.3579
G01 X14.3204 Y-13.3368
G01 X14.3064 Y-13.3186
G01 X14.2888 Y-13.3019
G01 X14.2700 Y-13.2890
G01 X14.2483 Y-13.2787
G01 X14.2266 Y-13.2722
G01 X14.2101 Y-13.2696
G01 X14.1948 Y-13.2688
G01 X11.1874 Y-13.2690
G01 X11.1632 Y-13.2722
G01 X11.1480 Y-13.2764
G01 X11.1270 Y-13.2852
G01 X11.1069 Y-13.2974
G01 X11.0890 Y-13.3128
G01 X11.0737 Y-13.3307
G01 X11.0614 Y-13.3507
G01 X11.0540 Y-13.3680
G01 X5.6516 Y-13.3680
G01 X5.5720 Y-13.2884
G01 X5.5720 Y-12.7830
G01 X5.5698 Y-12.7340
G01 X5.5683 Y-12.7193
G01 X5.5599 Y-12.6660
G01 X5.5474 Y-12.6165
G01 X5.5290 Y-12.5650
G01 X5.5030 Y-12.5100
G01 X5.4752 Y-12.4637
G01 X5.4423 Y-12.4192
G01 X5.4036 Y-12.3764
G01 X5.3608 Y-12.3377
G01 X5.3163 Y-12.3048
G01 X5.2706 Y-12.2773
G01 X5.2206 Y-12.2533
G01 X5.1635 Y-12.2326
G01 X5.1125 Y-12.2197
G01 X5.0536 Y-12.2108
G01 X5.0025 Y-12.2081
G01 X4.1470 Y-12.2080
G01 X4.0904 Y-12.2108
G01 X4.0421 Y-12.2178
G01 X4.0276 Y-12.2207
G01 X3.9805 Y-12.2326
G01 X3.9274 Y-12.2516
G01 X3.8737 Y-12.2771
G01 X3.8246 Y-12.3069
G01 X3.7798 Y-12.3406
G01 X3.7457 Y-12.3713
G01 X3.7353 Y-12.3817
G01 X3.7008 Y-12.4204
G01 X3.6731 Y-12.4575
G01 X3.6661 Y-12.4679
G01 X3.6436 Y-12.5056
G00 Z1.9990
G00 X3.1858 Y-14.4780
G01 F80.00
G01 Z-0.3732
G01 F80.00
G01 X3.2445 Y-14.4238
G01 X3.2653 Y-14.4023
G01 X3.3020 Y-14.3618
G01 X3.3387 Y-14.4023
G01 X3.3595 Y-14.4238
G01 X3.4182 Y-14.4780
G01 X3.3595 Y-14.5322
G01 X3.3387 Y-14.5537
G01 X3.3020 Y-14.5942
G01 X3.2653 Y-14.5537
G01 X3.2445 Y-14.5322
G01 X3.1858 Y-14.4780
G01 X2.8577 Y-14.4780
G01 X2.8849 Y-14.4650
G01 X2.9107 Y-14.4513
G01 X2.9606 Y-14.4214
G01 X2.9851 Y-14.4054
G01 X3.0323 Y-14.3706
G01 X3.0514 Y-14.3557
G01 X3.0696 Y-14.3399
G01 X3.1170 Y-14.2963
G01 X3.1352 Y-14.2773
G01 X3.1779 Y-14.2295
G01 X3.1949 Y-14.2080
G01 X3.2290 Y-14.1617
G01 X3.2459 Y-14.1358
G01 X3.2755 Y-14.0862
G01 X3.2891 Y-14.0608
G01 X3.3020 Y-14.0337
G01 X3.3150 Y-14.0610
G01 X3.3293 Y-14.0877
G01 X3.3581 Y-14.1358
G01 X3.3750 Y-14.1617
G01 X3.4092 Y-14.2081
G01 X3.4267 Y-14.2302
G01 X3.4688 Y-14.2773
G01 X3.4870 Y-14.2963
G01 X3.5497 Y-14.3532
G01 X3.5718 Y-14.3708
G01 X3.6166 Y-14.4038
G01 X3.6434 Y-14.4214
G01 X3.6933 Y-14.4513
G01 X3.7191 Y-14.4650
G01 X3.7463 Y-14.4780
G01 X3.7191 Y-14.4910
G01 X3.6933 Y-14.5047
G01 X3.6434 Y-14.5346
G01 X3.6189 Y-14.5506
G01 X3.5717 Y-14.5854
G01 X3.5526 Y-14.6003
G01 X3.5344 Y-14.6161
G01 X3.4870 Y-14.6597
G01 X3.4688 Y-14.6787
G01 X3.4261 Y-14.7265
G01 X3.4091 Y-14.7480
G01 X3.3750 Y-14.7943
G01 X3.3581 Y-14.8202
G01 X3.3285 Y-14.8698
G01 X3.3149 Y-14.8952
G01 X3.3020 Y-14.9223
G01 X3.2890 Y-14.8950
G01 X3.2747 Y-14.8683
G01 X3.2459 Y-14.8202
G01 X3.2290 Y-14.7943
G01 X3.1948 Y-14.7479
G01 X3.1773 Y-14.7258
G01 X3.1352 Y-14.6787
G01 X3.1170 Y-14.6597
G01 X3.0543 Y-14.6028
G01 X3.0322 Y-14.5852
G01 X2.9874 Y-14.5522
G01 X2.9606 Y-14.5346
G01 X2.9107 Y-14.5047
G01 X2.8849 Y-14.4910
G01 X2.8577 Y-14.4780
G00 Z1.9990
G00 X3.5818 Y-16.2779
G01 F80.00
G01 Z-0.3732
G01 F80.00
G01 X3.5846 Y-16.2923
G01 X3.5951 Y-16.3341
G01 X3.5991 Y-16.3469
G01 X3.6155 Y-16.3923
G01 X3.6405 Y-16.4452
G01 X3.6688 Y-16.4923
G01 X3.6980 Y-16.5320
G01 X3.7056 Y-16.5414
G01 X3.7353 Y-16.5743
G01 X3.7457 Y-16.5847
G01 X3.7856 Y-16.6201
G01 X3.8277 Y-16.6512
G01 X3.8715 Y-16.6776
G01 X3.9202 Y-16.7012
G01 X3.9338 Y-16.7069
G01 X3.9731 Y-16.7209
G01 X3.9872 Y-16.7252
G01 X4.0315 Y-16.7363
G01 X4.0948 Y-16.7456
G01 X4.1470 Y-16.7480
G01 X4.9970 Y-16.7480
G01 X5.0536 Y-16.7452
G01 X5.1024 Y-16.7381
G01 X5.1164 Y-16.7353
G01 X5.1568 Y-16.7252
G01 X5.1709 Y-16.7209
G01 X5.2166 Y-16.7044
G01 X5.2615 Y-16.6834
G01 X5.2732 Y-16.6772
G01 X5.3163 Y-16.6512
G01 X5.3642 Y-16.6154
G01 X5.4036 Y-16.5796
G01 X5.4367 Y-16.5434
G01 X5.4460 Y-16.5320
G01 X5.4752 Y-16.4923
G01 X5.5005 Y-16.4505
G01 X5.5060 Y-16.4404
G01 X5.5260 Y-16.3983
G01 X8.0707 Y-16.3983
G01 X8.0912 Y-16.4198
G01 X8.1234 Y-16.4504
G01 X8.1575 Y-16.4800
G01 X8.1964 Y-16.5106
G01 X8.2380 Y-16.5397
G01 X8.2778 Y-16.5647
G01 X8.3126 Y-16.5844
G01 X8.3535 Y-16.6052
G01 X8.3986 Y-16.6253
G01 X8.4408 Y-16.6417
G01 X8.4877 Y-16.6572
G01 X8.5358 Y-16.6704
G01 X8.5775 Y-16.6797
G01 X8.6273 Y-16.6882
G01 X8.6736 Y-16.6937
G01 X8.7201 Y-16.6970
G01 X8.7630 Y-16.6980
G01 X8.8059 Y-16.6970
G01 X8.8524 Y-16.6937
G01 X8.8999 Y-16.6881
G01 X8.9485 Y-16.6797
G01 X8.9902 Y-16.6704
G01 X9.0383 Y-16.6572
G01 X9.0852 Y-16.6417
G01 X9.1274 Y-16.6253
G01 X9.1721 Y-16.6054
G01 X9.2076 Y-16.5875
G01 X9.2545 Y-16.5609
G01 X9.2938 Y-16.5358
G01 X9.3318 Y-16.5088
G01 X9.3685 Y-16.4800
G01 X9.4026 Y-16.4504
G01 X9.4348 Y-16.4198
G01 X9.4693 Y-16.3832
G01 X9.4961 Y-16.3521
G01 X9.5256 Y-16.3146
G01 X9.5534 Y-16.2750
G01 X9.5797 Y-16.2332
G01 X9.6006 Y-16.1962
G01 X9.6226 Y-16.1525
G01 X9.6414 Y-16.1099
G01 X9.6577 Y-16.0674
G01 X9.6731 Y-16.0202
G01 X9.6854 Y-15.9752
G01 X9.6947 Y-15.9335
G01 X9.7032 Y-15.8837
G01 X9.7084 Y-15.8416
G01 X9.7119 Y-15.7946
G01 X9.7130 Y-15.7480
G01 X9.7116 Y-15.6977
G01 X9.7084 Y-15.6544
G01 X9.7021 Y-15.6050
G01 X9.6947 Y-15.5625
G01 X9.6854 Y-15.5208
G01 X9.6710 Y-15.4687
G01 X9.6567 Y-15.4258
G01 X9.6403 Y-15.3836
G01 X9.6226 Y-15.3435
G01 X9.5994 Y-15.2976
G01 X9.5762 Y-15.2570
G01 X9.5549 Y-15.2233
G01 X9.5238 Y-15.1792
G01 X9.4950 Y-15.1425
G01 X9.4654 Y-15.1084
G01 X9.4348 Y-15.0762
G01 X9.4037 Y-15.0466
G01 X9.3628 Y-15.0113
G01 X9.3296 Y-14.9854
G01 X9.2900 Y-14.9576
G01 X9.2540 Y-14.9348
G01 X9.2134 Y-14.9116
G01 X9.1675 Y-14.8884
G01 X9.1299 Y-14.8718
G01 X9.0796 Y-14.8523
G01 X9.0352 Y-14.8379
G01 X8.9902 Y-14.8256
G01 X8.9485 Y-14.8163
G01 X8.9060 Y-14.8089
G01 X8.8566 Y-14.8026
G01 X8.8059 Y-14.7990
G01 X8.7630 Y-14.7980
G01 X8.7201 Y-14.7990
G01 X8.6694 Y-14.8026
G01 X8.6200 Y-14.8089
G01 X8.5741 Y-14.8170
G01 X8.5286 Y-14.8274
G01 X8.4837 Y-14.8400
G01 X8.4464 Y-14.8523
G01 X8.3986 Y-14.8707
G01 X8.3539 Y-14.8906
G01 X8.3126 Y-14.9116
G01 X8.2778 Y-14.9313
G01 X8.2360 Y-14.9576
G01 X8.1964 Y-14.9854
G01 X8.1575 Y-15.0160
G01 X8.1234 Y-15.0456
G01 X8.0912 Y-15.0762
G01 X8.0707 Y-15.0977
G01 X5.5260 Y-15.0977
G01 X5.5060 Y-15.0556
G01 X5.5005 Y-15.0455
G01 X5.4752 Y-15.0037
G01 X5.4460 Y-14.9640
G01 X5.4367 Y-14.9526
G01 X5.4036 Y-14.9164
G01 X5.3608 Y-14.8777
G01 X5.3151 Y-14.8440
G01 X5.2745 Y-14.8195
G01 X5.2615 Y-14.8126
G01 X5.2166 Y-14.7916
G01 X5.1709 Y-14.7751
G01 X5.1568 Y-14.7708
G01 X5.1125 Y-14.7597
G01 X5.0536 Y-14.7508
G01 X4.9970 Y-14.7480
G01 X4.1470 Y-14.7480
G01 X4.0904 Y-14.7508
G01 X4.0379 Y-14.7585
G01 X3.9805 Y-14.7726
G01 X3.9338 Y-14.7891
G01 X3.9202 Y-14.7948
G01 X3.8737 Y-14.8171
G01 X3.8338 Y-14.8410
G01 X3.8215 Y-14.8491
G01 X3.7832 Y-14.8777
G01 X3.7457 Y-14.9113
G01 X3.7353 Y-14.9217
G01 X3.7008 Y-14.9604
G01 X3.6731 Y-14.9975
G01 X3.6661 Y-15.0079
G01 X3.6410 Y-15.0500
G01 X3.6150 Y-15.1050
G01 X3.5966 Y-15.1565
G01 X3.5827 Y-15.2127
G01 X3.5748 Y-15.2664
G01 X3.5721 Y-15.3190
G01 X3.5720 Y-16.1730
G01 X3.5748 Y-16.2296
G01 X3.5818 Y-16.2779
G01 X3.3020 Y-16.5737
G01 X3.3148 Y-16.6006
G01 X3.3275 Y-16.6244
G01 X3.3580 Y-16.6757
G01 X3.3751 Y-16.7018
G01 X3.4097 Y-16.7487
G01 X3.4267 Y-16.7702
G01 X3.4681 Y-16.8165
G01 X3.4845 Y-16.8338
G01 X3.5035 Y-16.8519
G01 X3.5492 Y-16.8928
G01 X3.5702 Y-16.9095
G01 X3.6166 Y-16.9438
G01 X3.6432 Y-16.9613
G01 X3.6914 Y-16.9901
G01 X3.7184 Y-17.0047
G01 X3.7463 Y-17.0180
G01 X3.7183 Y-17.0314
G01 X3.6906 Y-17.0463
G01 X3.6432 Y-17.0747
G01 X3.6189 Y-17.0906
G01 X3.5709 Y-17.1259
G01 X3.5519 Y-17.1409
G01 X3.5035 Y-17.1841
G01 X3.4853 Y-17.2013
G01 X3.4681 Y-17.2195
G01 X3.4256 Y-17.2670
G01 X3.4095 Y-17.2875
G01 X3.3751 Y-17.3342
G01 X3.3580 Y-17.3603
G01 X3.3275 Y-17.4116
G01 X3.3148 Y-17.4354
G01 X3.3020 Y-17.4623
G01 X3.2892 Y-17.4354
G01 X3.2765 Y-17.4116
G01 X3.2460 Y-17.3603
G01 X3.2289 Y-17.3342
G01 X3.1943 Y-17.2873
G01 X3.1773 Y-17.2658
G01 X3.1359 Y-17.2195
G01 X3.1187 Y-17.2013
G01 X3.1005 Y-17.1841
G01 X3.0548 Y-17.1432
G01 X3.0338 Y-17.1265
G01 X2.9874 Y-17.0922
G01 X2.9608 Y-17.0747
G01 X2.9126 Y-17.0459
G01 X2.9036 Y-17.0408
G01 X2.8955 Y-17.0365
G01 X2.8856 Y-17.0313
G01 X2.8577 Y-17.0180
G01 X2.8857 Y-17.0046
G01 X2.9134 Y-16.9897
G01 X2.9608 Y-16.9613
G01 X2.9888 Y-16.9428
G01 X3.0338 Y-16.9095
G01 X3.0548 Y-16.8928
G01 X3.1005 Y-16.8519
G01 X3.1195 Y-16.8338
G01 X3.1359 Y-16.8165
G01 X3.1784 Y-16.7690
G01 X3.1945 Y-16.7485
G01 X3.2289 Y-16.7018
G01 X3.2460 Y-16.6757
G01 X3.2765 Y-16.6244
G01 X3.2892 Y-16.6006
G01 X3.3020 Y-16.5737
G01 X3.1858 Y-17.0180
G01 X3.2249 Y-16.9826
G01 X3.2475 Y-16.9608
G01 X3.3020 Y-16.9018
G01 X3.3565 Y-16.9608
G01 X3.3791 Y-16.9826
G01 X3.4182 Y-17.0180
G01 X3.3791 Y-17.0534
G01 X3.3578 Y-17.0738
G01 X3.3384 Y-17.0941
G01 X3.3020 Y-17.1342
G01 X3.2656 Y-17.0941
G01 X3.2462 Y-17.0738
G01 X3.2249 Y-17.0534
G01 X3.1858 Y-17.0180
G01 X1.8470 Y-17.1076
G01 X2.0263 Y-16.9284
G01 X2.4570 Y-16.9284
G01 X2.5244 Y-16.9253
G01 X2.5429 Y-16.9233
G01 X2.5892 Y-16.9165
G01 X2.6202 Y-16.9103
G01 X2.6797 Y-16.8947
G01 X2.7474 Y-16.8703
G01 X2.8102 Y-16.8406
G01 X2.8630 Y-16.8097
G01 X2.8881 Y-16.7931
G01 X2.9382 Y-16.7552
G01 X2.9880 Y-16.7102
G01 X3.0303 Y-16.6645
G01 X3.0483 Y-16.6428
G01 X3.0849 Y-16.5929
G01 X3.1170 Y-16.5401
G01 X3.1296 Y-16.5164
G01 X3.1550 Y-16.4617
G01 X3.1755 Y-16.4056
G01 X3.1837 Y-16.3786
G01 X3.1982 Y-16.3183
G01 X3.2072 Y-16.2599
G01 X3.2096 Y-16.2362
G01 X3.2124 Y-16.1730
G01 X3.2123 Y-15.3166
G01 X3.2096 Y-15.2598
G01 X3.2067 Y-15.2329
G01 X3.1980 Y-15.1766
G01 X3.1820 Y-15.1111
G01 X3.1767 Y-15.0939
G01 X3.1607 Y-15.0491
G01 X3.1504 Y-15.0237
G01 X3.1220 Y-14.9648
G01 X3.0937 Y-14.9170
G01 X3.0790 Y-14.8946
G01 X3.0417 Y-14.8448
G01 X3.0009 Y-14.7991
G01 X2.9835 Y-14.7815
G01 X2.9354 Y-14.7384
G01 X2.8899 Y-14.7043
G01 X2.8663 Y-14.6883
G01 X2.8145 Y-14.6576
G01 X2.7557 Y-14.6293
G01 X2.7309 Y-14.6193
G01 X2.6770 Y-14.6004
G01 X2.6202 Y-14.5857
G01 X2.5951 Y-14.5804
G01 X2.5346 Y-14.5717
G01 X2.5149 Y-14.5701
G01 X2.4603 Y-14.5677
G01 X1.5939 Y-14.5679
G01 X1.5295 Y-14.5716
G01 X1.4731 Y-14.5798
G01 X1.4462 Y-14.5851
G01 X1.3970 Y-14.5975
G01 X1.3750 Y-14.6043
G01 X1.3228 Y-14.6232
G01 X1.2817 Y-14.6418
G01 X1.2836 Y-14.6124
G01 X1.2833 Y-14.5764
G01 X1.2809 Y-14.5468
G01 X1.2759 Y-14.5135
G01 X1.2691 Y-14.4833
G01 X1.2597 Y-14.4516
G01 X1.2486 Y-14.4221
G01 X1.2366 Y-14.3957
G01 X1.2228 Y-14.3699
G01 X1.2084 Y-14.3464
G01 X1.1917 Y-14.3227
G01 X1.1707 Y-14.2969
G01 X1.1483 Y-14.2730
G01 X1.1211 Y-14.2483
G01 X1.0315 Y-14.1586
G01 X1.0044 Y-14.0933
G01 X1.0044 Y-14.0877
G01 X1.0258 Y-14.1154
G01 X1.0661 Y-14.1601
G01 X1.0805 Y-14.1745
G01 X1.1221 Y-14.2121
G01 X1.1406 Y-14.2269
G01 X1.1847 Y-14.2593
G01 X1.2432 Y-14.2949
G01 X1.2636 Y-14.3056
G01 X1.3168 Y-14.3304
G01 X1.3869 Y-14.3556
G01 X1.4438 Y-14.3703
G01 X1.4626 Y-14.3744
G01 X1.5351 Y-14.3849
G01 X1.6070 Y-14.3884
G01 X2.4570 Y-14.3884
G01 X2.5289 Y-14.3849
G01 X2.5884 Y-14.3766
G01 X2.6078 Y-14.3731
G01 X2.6670 Y-14.3585
G01 X2.6917 Y-14.3507
G01 X2.7474 Y-14.3303
G01 X2.8004 Y-14.3056
G01 X2.8247 Y-14.2927
G01 X2.8753 Y-14.2619
G01 X2.9361 Y-14.2170
G01 X2.9895 Y-14.1687
G01 X3.0387 Y-14.1149
G01 X3.0509 Y-14.0994
G01 X3.0839 Y-14.0544
G01 X3.1226 Y-13.9901
G01 X3.1553 Y-13.9210
G01 X3.1794 Y-13.8537
G01 X3.1980 Y-13.7794
G01 X3.2089 Y-13.7050
G01 X3.2124 Y-13.6330
G01 X3.2123 Y-12.7806
G01 X3.2089 Y-12.7110
G01 X3.1992 Y-12.6430
G01 X3.1952 Y-12.6236
G01 X3.1838 Y-12.5778
G01 X3.1747 Y-12.5483
G01 X3.1530 Y-12.4895
G01 X3.1220 Y-12.4248
G01 X3.0869 Y-12.3661
G01 X3.0489 Y-12.3140
G01 X3.0303 Y-12.2915
G01 X2.9985 Y-12.2565
G01 X2.9835 Y-12.2415
G01 X2.9354 Y-12.1984
G01 X2.8840 Y-12.1600
G01 X2.8663 Y-12.1483
G01 X2.8272 Y-12.1248
G01 X2.7986 Y-12.1095
G01 X2.7469 Y-12.0855
G01 X2.6770 Y-12.0604
G01 X2.6078 Y-12.0429
G01 X2.5471 Y-12.0333
G01 X2.5199 Y-12.0304
G01 X2.4570 Y-12.0276
G01 X1.6070 Y-12.0276
G01 X1.5313 Y-12.0314
G01 X1.4626 Y-12.0416
G01 X1.4438 Y-12.0457
G01 X1.3903 Y-12.0594
G01 X1.3228 Y-12.0832
G01 X1.3050 Y-12.0908
G01 X1.2553 Y-12.1146
G01 X1.1979 Y-12.1482
G01 X1.1800 Y-12.1600
G01 X1.1406 Y-12.1891
G01 X1.1155 Y-12.2097
G01 X1.0805 Y-12.2415
G01 X1.0661 Y-12.2559
G01 X1.0253 Y-12.3011
G01 X1.0044 Y-12.3283
G01 X1.0044 Y-12.3227
G01 X1.0315 Y-12.2574
G01 X1.1211 Y-12.1677
G01 X1.1483 Y-12.1430
G01 X1.1707 Y-12.1191
G01 X1.1889 Y-12.0969
G01 X1.2046 Y-12.0753
G01 X1.2198 Y-12.0513
G01 X1.2335 Y-12.0264
G01 X1.2473 Y-11.9970
G01 X1.2587 Y-11.9674
G01 X1.2680 Y-11.9370
G01 X1.2755 Y-11.9047
G01 X1.2809 Y-11.8692
G01 X1.2833 Y-11.8396
G01 X1.2836 Y-11.8036
G01 X1.2817 Y-11.7742
G01 X1.3231 Y-11.7929
G01 X1.3750 Y-11.8117
G01 X1.3970 Y-11.8185
G01 X1.4626 Y-11.8344
G01 X1.5200 Y-11.8432
G01 X1.5472 Y-11.8458
G01 X1.6070 Y-11.8484
G01 X2.4570 Y-11.8484
G01 X2.5289 Y-11.8449
G01 X2.6014 Y-11.8344
G01 X2.6202 Y-11.8303
G01 X2.6737 Y-11.8166
G01 X2.7412 Y-11.7928
G01 X2.7986 Y-11.7665
G01 X2.8272 Y-11.7512
G01 X2.8663 Y-11.7277
G01 X2.8881 Y-11.7131
G01 X2.9395 Y-11.6741
G01 X2.9809 Y-11.6369
G01 X2.9954 Y-11.6227
G01 X3.0387 Y-11.5749
G01 X3.0790 Y-11.5214
G01 X3.0919 Y-11.5020
G01 X3.1152 Y-11.4632
G01 X3.1305 Y-11.4346
G01 X3.1553 Y-11.3810
G01 X3.1747 Y-11.3277
G01 X3.1808 Y-11.3089
G01 X3.1980 Y-11.2394
G01 X3.2079 Y-11.1745
G01 X3.2098 Y-11.1529
G01 X3.2124 Y-11.0930
G01 X3.2123 Y-10.2366
G01 X3.2096 Y-10.1798
G01 X3.2074 Y-10.1572
G01 X3.1980 Y-10.0966
G01 X3.1887 Y-10.0575
G01 X3.2147 Y-10.0634
G01 X3.2429 Y-10.0679
G01 X3.2715 Y-10.0708
G01 X3.2998 Y-10.0718
G01 X3.3302 Y-10.0709
G01 X3.3611 Y-10.0679
G01 X3.3893 Y-10.0634
G01 X3.4153 Y-10.0575
G01 X3.4060 Y-10.0966
G01 X3.3966 Y-10.1572
G01 X3.3942 Y-10.1831
G01 X3.3917 Y-10.2406
G01 X3.3917 Y-11.0954
G01 X3.3951 Y-11.1650
G01 X3.4034 Y-11.2244
G01 X3.4082 Y-11.2501
G01 X3.4198 Y-11.2966
G01 X3.4293 Y-11.3277
G01 X3.4510 Y-11.3865
G01 X3.4744 Y-11.4364
G01 X3.4853 Y-11.4572
G01 X3.5201 Y-11.5144
G01 X3.5623 Y-11.5712
G01 X3.6113 Y-11.6255
G01 X3.6574 Y-11.6680
G01 X3.6806 Y-11.6869
G01 X3.7200 Y-11.7160
G01 X3.7377 Y-11.7277
G01 X3.7895 Y-11.7584
G01 X3.8528 Y-11.7887
G01 X3.9147 Y-11.8116
G01 X3.9434 Y-11.8202
G01 X4.0026 Y-11.8344
G01 X4.0713 Y-11.8446
G01 X4.1470 Y-11.8484
G01 X5.0003 Y-11.8483
G01 X5.0568 Y-11.8458
G01 X5.0789 Y-11.8438
G01 X5.1414 Y-11.8344
G01 X5.1825 Y-11.8247
G01 X5.1767 Y-11.8503
G01 X5.1721 Y-11.8789
G01 X5.1692 Y-11.9075
G01 X5.1682 Y-11.9358
G01 X5.1690 Y-11.9652
G01 X5.1721 Y-11.9971
G01 X5.1767 Y-12.0257
G01 X5.1825 Y-12.0513
G01 X5.1414 Y-12.0416
G01 X5.0840 Y-12.0328
G01 X5.0599 Y-12.0304
G01 X5.0057 Y-12.0278
G01 X4.1383 Y-12.0278
G01 X4.0713 Y-12.0314
G01 X4.0156 Y-12.0394
G01 X3.9962 Y-12.0429
G01 X3.9266 Y-12.0605
G01 X3.8731 Y-12.0793
G01 X3.8526 Y-12.0874
G01 X3.8036 Y-12.1104
G01 X3.7835 Y-12.1209
G01 X3.7377 Y-12.1483
G01 X3.7141 Y-12.1643
G01 X3.6679 Y-12.1990
G01 X3.6246 Y-12.2377
G01 X3.6055 Y-12.2565
G01 X3.5709 Y-12.2947
G01 X3.5548 Y-12.3144
G01 X3.5201 Y-12.3616
G01 X3.4814 Y-12.4259
G01 X3.4487 Y-12.4950
G01 X3.4273 Y-12.5539
G01 X3.4198 Y-12.5794
G01 X3.4060 Y-12.6366
G01 X3.3970 Y-12.6945
G01 X3.3944 Y-12.7198
G01 X3.3917 Y-12.7766
G01 X3.3916 Y-13.6330
G01 X3.3944 Y-13.6962
G01 X3.3970 Y-13.7215
G01 X3.4060 Y-13.7794
G01 X3.4209 Y-13.8409
G01 X3.4293 Y-13.8677
G01 X3.4487 Y-13.9210
G01 X3.4758 Y-13.9793
G01 X3.4888 Y-14.0032
G01 X3.5201 Y-14.0544
G01 X3.5623 Y-14.1112
G01 X3.6017 Y-14.1554
G01 X3.6205 Y-14.1745
G01 X3.6686 Y-14.2176
G01 X3.7262 Y-14.2603
G01 X3.7768 Y-14.2912
G01 X3.8007 Y-14.3042
G01 X3.8571 Y-14.3305
G01 X3.9230 Y-14.3544
G01 X3.9838 Y-14.3703
G01 X4.0131 Y-14.3762
G01 X4.0600 Y-14.3832
G01 X4.0796 Y-14.3853
G01 X4.1470 Y-14.3884
G01 X4.5777 Y-14.3884
G01 X4.7570 Y-14.5676
G01 X4.1338 Y-14.5679
G01 X4.0841 Y-14.5704
G01 X4.0569 Y-14.5733
G01 X3.9962 Y-14.5829
G01 X3.9410 Y-14.5965
G01 X3.9185 Y-14.6031
G01 X3.8731 Y-14.6193
G01 X3.8431 Y-14.6317
G01 X3.8007 Y-14.6518
G01 X3.7835 Y-14.6609
G01 X3.7377 Y-14.6883
G01 X3.7190 Y-14.7007
G01 X3.6679 Y-14.7390
G01 X3.6145 Y-14.7873
G01 X3.5653 Y-14.8411
G01 X3.5271 Y-14.8918
G01 X3.5121 Y-14.9140
G01 X3.4814 Y-14.9659
G01 X3.4536 Y-15.0237
G01 X3.4433 Y-15.0491
G01 X3.4246 Y-15.1023
G01 X3.4082 Y-15.1659
G01 X3.4039 Y-15.1884
G01 X3.3973 Y-15.2329
G01 X3.3944 Y-15.2598
G01 X3.3916 Y-15.3230
G01 X3.3918 Y-16.1839
G01 X3.3951 Y-16.2450
G01 X3.4034 Y-16.3044
G01 X3.4091 Y-16.3337
G01 X3.4246 Y-16.3937
G01 X3.4293 Y-16.4077
G01 X3.4433 Y-16.4469
G01 X3.4514 Y-16.4673
G01 X3.4758 Y-16.5193
G01 X3.4888 Y-16.5432
G01 X3.5147 Y-16.5861
G01 X3.5283 Y-16.6059
G01 X3.5647 Y-16.6542
G01 X3.6017 Y-16.6954
G01 X3.6214 Y-16.7153
G01 X3.6658 Y-16.7552
G01 X3.6806 Y-16.7669
G01 X3.7262 Y-16.8003
G01 X3.7768 Y-16.8312
G01 X3.7940 Y-16.8408
G01 X3.8450 Y-16.8652
G01 X3.8633 Y-16.8730
G01 X3.9242 Y-16.8947
G01 X3.9862 Y-16.9109
G01 X4.0148 Y-16.9165
G01 X4.0611 Y-16.9233
G01 X4.0841 Y-16.9256
G01 X4.1470 Y-16.9284
G01 X4.7574 Y-16.9284
G01 X4.5777 Y-17.1076
G01 X4.1470 Y-17.1076
G01 X4.0796 Y-17.1107
G01 X4.0611 Y-17.1127
G01 X4.0148 Y-17.1195
G01 X3.9838 Y-17.1257
G01 X3.9242 Y-17.1413
G01 X3.8566 Y-17.1657
G01 X3.7938 Y-17.1954
G01 X3.7410 Y-17.2263
G01 X3.7159 Y-17.2429
G01 X3.6658 Y-17.2808
G01 X3.6214 Y-17.3207
G01 X3.6017 Y-17.3406
G01 X3.5640 Y-17.3828
G01 X3.5223 Y-17.4385
G01 X3.5119 Y-17.4544
G01 X3.4888 Y-17.4928
G01 X3.4758 Y-17.5167
G01 X3.4490 Y-17.5743
G01 X3.4293 Y-17.6283
G01 X3.4203 Y-17.6574
G01 X3.4069 Y-17.7119
G01 X3.3973 Y-17.7729
G01 X3.3947 Y-17.7953
G01 X3.3916 Y-17.8630
G01 X3.3917 Y-18.7194
G01 X3.3957 Y-18.7906
G01 X3.4034 Y-18.8444
G01 X3.4097 Y-18.8761
G01 X3.4246 Y-18.9337
G01 X3.4433 Y-18.9869
G01 X3.4536 Y-19.0123
G01 X3.4807 Y-19.0688
G01 X3.5119 Y-19.1216
G01 X3.5283 Y-19.1459
G01 X3.5647 Y-19.1942
G01 X3.6055 Y-19.2395
G01 X3.6214 Y-19.2553
G01 X3.6555 Y-19.2863
G01 X3.6766 Y-19.3039
G01 X3.7262 Y-19.3403
G01 X3.7768 Y-19.3712
G01 X3.8007 Y-19.3842
G01 X3.8571 Y-19.4105
G01 X3.9123 Y-19.4307
G01 X3.9393 Y-19.4391
G01 X3.9984 Y-19.4536
G01 X4.0569 Y-19.4627
G01 X4.0841 Y-19.4656
G01 X4.1352 Y-19.4681
G01 X5.0088 Y-19.4681
G01 X5.0758 Y-19.4642
G01 X5.1292 Y-19.4565
G01 X5.1539 Y-19.4518
G01 X5.2047 Y-19.4391
G01 X5.2272 Y-19.4323
G01 X5.2812 Y-19.4128
G01 X5.3223 Y-19.3941
G01 X5.3204 Y-19.4236
G01 X5.3207 Y-19.4594
G01 X5.3233 Y-19.4909
G01 X5.3287 Y-19.5257
G01 X5.3360 Y-19.5570
G01 X5.3459 Y-19.5890
G01 X5.3569 Y-19.6174
G01 X5.3705 Y-19.6464
G01 X5.3842 Y-19.6713
G01 X5.3994 Y-19.6953
G01 X5.4151 Y-19.7169
G01 X5.4333 Y-19.7391
G01 X5.4542 Y-19.7614
G01 X5.4829 Y-19.7877
G01 X5.5725 Y-19.8774
G01 X5.5996 Y-19.9427
G01 X5.5996 Y-19.9483
G01 X5.5777 Y-19.9200
G01 X5.5385 Y-19.8765
G01 X5.5226 Y-19.8607
G01 X5.4821 Y-19.8241
G01 X5.4649 Y-19.8102
G01 X5.4178 Y-19.7757
G01 X5.3581 Y-19.7396
G01 X5.3386 Y-19.7295
G01 X5.2874 Y-19.7057
G01 X5.2198 Y-19.6813
G01 X5.2006 Y-19.6758
G01 X5.1456 Y-19.6624
G01 X5.0871 Y-19.6533
G01 X5.0689 Y-19.6511
G01 X4.9970 Y-19.6476
G01 X4.1470 Y-19.6476
G01 X4.0751 Y-19.6511
G01 X4.0569 Y-19.6533
G01 X3.9984 Y-19.6624
G01 X3.9393 Y-19.6769
G01 X3.9123 Y-19.6853
G01 X3.8566 Y-19.7057
G01 X3.8007 Y-19.7318
G01 X3.7794 Y-19.7433
G01 X3.7258 Y-19.7760
G01 X3.6658 Y-19.8208
G01 X3.6113 Y-19.8705
G01 X3.5640 Y-19.9228
G01 X3.5181 Y-19.9846
G01 X3.4807 Y-20.0472
G01 X3.4490 Y-20.1143
G01 X3.4246 Y-20.1823
G01 X3.4097 Y-20.2399
G01 X3.4058 Y-20.2577
G01 X3.3951 Y-20.3310
G01 X3.3917 Y-20.3966
G01 X3.3916 Y-21.2530
G01 X3.3941 Y-21.3109
G01 X3.3957 Y-21.3306
G01 X3.4034 Y-21.3844
G01 X3.4097 Y-21.4161
G01 X3.4246 Y-21.4737
G01 X3.4495 Y-21.5430
G01 X3.4807 Y-21.6088
G01 X3.5103 Y-21.6590
G01 X3.5283 Y-21.6859
G01 X3.5559 Y-21.7231
G01 X3.5692 Y-21.7395
G01 X3.6129 Y-21.7871
G01 X3.6574 Y-21.8280
G01 X3.6806 Y-21.8469
G01 X3.7200 Y-21.8760
G01 X3.7386 Y-21.8883
G01 X3.7940 Y-21.9208
G01 X3.8528 Y-21.9487
G01 X3.9123 Y-21.9707
G01 X3.9434 Y-21.9802
G01 X3.9984 Y-21.9936
G01 X4.0682 Y-22.0042
G01 X4.0891 Y-22.0059
G01 X4.1470 Y-22.0084
G01 X5.0014 Y-22.0083
G01 X5.0599 Y-22.0056
G01 X5.0871 Y-22.0027
G01 X5.1456 Y-21.9936
G01 X5.2113 Y-21.9773
G01 X5.2317 Y-21.9707
G01 X5.2874 Y-21.9503
G01 X5.3404 Y-21.9256
G01 X5.3593 Y-21.9157
G01 X5.4044 Y-21.8889
G01 X5.4203 Y-21.8786
G01 X5.4674 Y-21.8439
G01 X5.4871 Y-21.8275
G01 X5.5226 Y-21.7953
G01 X5.5423 Y-21.7754
G01 X5.5800 Y-21.7332
G01 X5.6157 Y-21.6859
G01 X5.6317 Y-21.6622
G01 X5.6606 Y-21.6138
G01 X5.6696 Y-21.5964
G01 X5.6908 Y-21.5514
G01 X5.7056 Y-21.5701
G01 X5.7234 Y-21.5903
G01 X5.7394 Y-21.6065
G01 X5.7606 Y-21.6257
G01 X5.7817 Y-21.6426
G01 X5.7997 Y-21.6555
G01 X5.8208 Y-21.6690
G01 X5.8410 Y-21.6805
G01 X5.8650 Y-21.6925
G01 X5.8842 Y-21.7009
G01 X5.9076 Y-21.7097
G01 X5.9320 Y-21.7173
G01 X5.9598 Y-21.7243
G01 X5.9819 Y-21.7285
G01 X6.0041 Y-21.7317
G01 X6.0308 Y-21.7340
G01 X5.7306 Y-22.0343
G01 X5.7012 Y-22.0657
G01 X5.6793 Y-22.0913
G01 X5.6587 Y-22.1176
G01 X5.6340 Y-22.1522
G01 X5.6113 Y-22.1876
G01 X5.5892 Y-22.2265
G01 X5.5730 Y-22.2586
G01 X5.5544 Y-22.3003
G01 X5.5419 Y-22.3325
G01 X5.5285 Y-22.3720
G01 X5.5208 Y-22.3990
G01 X5.4782 Y-22.3608
G01 X5.4240 Y-22.3200
G01 X5.4044 Y-22.3071
G01 X5.3672 Y-22.2848
G01 X5.3433 Y-22.2718
G01 X5.2874 Y-22.2457
G01 X5.2272 Y-22.2237
G01 X5.2047 Y-22.2169
G01 X5.1602 Y-22.2057
G01 X5.1292 Y-22.1995
G01 X5.0689 Y-22.1911
G01 X4.9970 Y-22.1876
G01 X4.1470 Y-22.1876
G01 X4.0751 Y-22.1911
G01 X4.0569 Y-22.1933
G01 X3.9984 Y-22.2024
G01 X3.9434 Y-22.2158
G01 X3.9242 Y-22.2213
G01 X3.8566 Y-22.2457
G01 X3.7938 Y-22.2754
G01 X3.7768 Y-22.2848
G01 X3.7258 Y-22.3160
G01 X3.6658 Y-22.3608
G01 X3.6246 Y-22.3977
G01 X3.6086 Y-22.4133
G01 X3.5640 Y-22.4628
G01 X3.5181 Y-22.5246
G01 X3.4807 Y-22.5872
G01 X3.4490 Y-22.6543
G01 X3.4246 Y-22.7223
G01 X3.4069 Y-22.7919
G01 X3.4034 Y-22.8116
G01 X3.3957 Y-22.8654
G01 X3.3917 Y-22.9366
G01 X3.3916 Y-23.7930
G01 X3.3942 Y-23.8529
G01 X3.3968 Y-23.8799
G01 X3.4060 Y-23.9397
G01 X3.4203 Y-23.9986
G01 X3.4293 Y-24.0277
G01 X3.4447 Y-24.0706
G01 X3.4529 Y-24.0908
G01 X3.4807 Y-24.1488
G01 X3.5147 Y-24.2061
G01 X3.5260 Y-24.2228
G01 X3.5531 Y-24.2594
G01 X3.5763 Y-24.2874
G01 X3.0277 Y-24.2874
G01 X3.0509 Y-24.2594
G01 X3.0780 Y-24.2228
G01 X3.0893 Y-24.2061
G01 X3.1233 Y-24.1488
G01 X3.1511 Y-24.0908
G01 X3.1595 Y-24.0702
G01 X3.1747 Y-24.0277
G01 X3.1837 Y-23.9986
G01 X3.1982 Y-23.9383
G01 X3.2072 Y-23.8799
G01 X3.2098 Y-23.8529
G01 X3.2124 Y-23.7930
G01 X3.2124 Y-22.9430
G01 X3.2099 Y-22.8851
G01 X3.2072 Y-22.8561
G01 X3.1991 Y-22.8026
G01 X3.1949 Y-22.7823
G01 X3.1811 Y-22.7279
G01 X3.1747 Y-22.7083
G01 X3.1545 Y-22.6530
G01 X3.1233 Y-22.5872
G01 X3.0849 Y-22.5231
G01 X3.0393 Y-22.4618
G01 X3.0023 Y-22.4206
G01 X2.9880 Y-22.4058
G01 X2.9466 Y-22.3680
G01 X2.9274 Y-22.3521
G01 X2.8778 Y-22.3157
G01 X2.8260 Y-22.2841
G01 X2.8033 Y-22.2718
G01 X2.7469 Y-22.2455
G01 X2.6915 Y-22.2252
G01 X2.6606 Y-22.2158
G01 X2.6056 Y-22.2024
G01 X2.5429 Y-22.1927
G01 X2.5168 Y-22.1902
G01 X2.4570 Y-22.1876
G01 X1.6070 Y-22.1876
G01 X1.5351 Y-22.1911
G01 X1.5169 Y-22.1933
G01 X1.4584 Y-22.2025
G01 X1.3927 Y-22.2187
G01 X1.3723 Y-22.2253
G01 X1.3292 Y-22.2407
G01 X1.3083 Y-22.2493
G01 X1.2607 Y-22.2718
G01 X1.2391 Y-22.2835
G01 X1.1991 Y-22.3074
G01 X1.1800 Y-22.3200
G01 X1.1406 Y-22.3491
G01 X1.1126 Y-22.3723
G01 X1.1126 Y-21.8237
G01 X1.1391 Y-21.8458
G01 X1.1767 Y-21.8736
G01 X1.1955 Y-21.8863
G01 X1.2540 Y-21.9208
G01 X1.3127 Y-21.9486
G01 X1.3723 Y-21.9707
G01 X1.4034 Y-21.9802
G01 X1.4584 Y-21.9936
G01 X1.5282 Y-22.0042
G01 X1.5491 Y-22.0059
G01 X1.6070 Y-22.0084
G01 X2.4570 Y-22.0084
G01 X2.5149 Y-22.0059
G01 X2.5358 Y-22.0042
G01 X2.5892 Y-21.9965
G01 X2.6139 Y-21.9918
G01 X2.6713 Y-21.9773
G01 X2.7309 Y-21.9567
G01 X2.7590 Y-21.9452
G01 X2.8033 Y-21.9242
G01 X2.8187 Y-21.9161
G01 X2.8782 Y-21.8800
G01 X2.9274 Y-21.8439
G01 X2.9435 Y-21.8307
G01 X2.9794 Y-21.7983
G01 X3.0023 Y-21.7754
G01 X3.0440 Y-21.7283
G01 X3.0849 Y-21.6729
G01 X3.1233 Y-21.6088
G01 X3.1483 Y-21.5569
G01 X3.1607 Y-21.5269
G01 X3.1767 Y-21.4821
G01 X3.1826 Y-21.4626
G01 X3.1982 Y-21.3983
G01 X3.2072 Y-21.3399
G01 X3.2098 Y-21.3129
G01 X3.2124 Y-21.2530
G01 X3.2124 Y-20.4030
G01 X3.2099 Y-20.3451
G01 X3.2083 Y-20.3254
G01 X3.1980 Y-20.2563
G01 X3.1840 Y-20.1986
G01 X3.1755 Y-20.1704
G01 X3.1545 Y-20.1130
G01 X3.1282 Y-20.0567
G01 X3.1152 Y-20.0328
G01 X3.0843 Y-19.9822
G01 X3.0433 Y-19.9268
G01 X3.0314 Y-19.9127
G01 X2.9927 Y-19.8705
G01 X2.9485 Y-19.8297
G01 X2.9234 Y-19.8091
G01 X2.8840 Y-19.7800
G01 X2.8654 Y-19.7677
G01 X2.8100 Y-19.7352
G01 X2.7469 Y-19.7055
G01 X2.6797 Y-19.6813
G01 X2.6139 Y-19.6642
G01 X2.5892 Y-19.6595
G01 X2.5358 Y-19.6518
G01 X2.5168 Y-19.6502
G01 X2.4614 Y-19.6477
G01 X1.8470 Y-19.6476
G01 X2.0263 Y-19.4684
G01 X2.4570 Y-19.4684
G01 X2.5244 Y-19.4653
G01 X2.5429 Y-19.4633
G01 X2.5892 Y-19.4565
G01 X2.6202 Y-19.4503
G01 X2.6797 Y-19.4347
G01 X2.7474 Y-19.4103
G01 X2.8102 Y-19.3806
G01 X2.8630 Y-19.3497
G01 X2.8881 Y-19.3331
G01 X2.9382 Y-19.2952
G01 X2.9880 Y-19.2502
G01 X3.0303 Y-19.2045
G01 X3.0483 Y-19.1828
G01 X3.0859 Y-19.1314
G01 X3.1170 Y-19.0801
G01 X3.1296 Y-19.0564
G01 X3.1550 Y-19.0017
G01 X3.1755 Y-18.9456
G01 X3.1837 Y-18.9186
G01 X3.1982 Y-18.8583
G01 X3.2072 Y-18.7999
G01 X3.2096 Y-18.7762
G01 X3.2124 Y-18.7130
G01 X3.2122 Y-17.8521
G01 X3.2089 Y-17.7910
G01 X3.2001 Y-17.7282
G01 X3.1943 Y-17.6999
G01 X3.1782 Y-17.6384
G01 X3.1607 Y-17.5891
G01 X3.1526 Y-17.5687
G01 X3.1282 Y-17.5167
G01 X3.1152 Y-17.4928
G01 X3.0849 Y-17.4431
G01 X3.0509 Y-17.3966
G01 X3.0348 Y-17.3765
G01 X3.0009 Y-17.3391
G01 X2.9826 Y-17.3207
G01 X2.9382 Y-17.2808
G01 X2.9234 Y-17.2691
G01 X2.8778 Y-17.2357
G01 X2.8272 Y-17.2048
G01 X2.8100 Y-17.1952
G01 X2.7590 Y-17.1708
G01 X2.7407 Y-17.1630
G01 X2.6797 Y-17.1413
G01 X2.6178 Y-17.1251
G01 X2.5892 Y-17.1195
G01 X2.5429 Y-17.1127
G01 X2.5199 Y-17.1104
G01 X2.4570 Y-17.1076
G01 X1.8470 Y-17.1076
G00 Z1.9990
G00 X0.3721 Y-18.2536
G01 F80.00
G01 Z-0.3732
G01 F80.00
G01 X0.8580 Y-17.7677
G01 X0.8545 Y-17.7987
G01 X0.8517 Y-17.8606
G01 X0.8516 Y-18.2536
G01 X0.3721 Y-18.2536
G00 Z1.9990
G00 X-1.9865 Y-18.6008
G01 F80.00
G01 Z-0.3732
G01 F80.00
G01 X-1.9928 Y-18.5691
G01 X-1.9262 Y-18.2344
G01 X-1.7366 Y-17.9506
G01 X-1.6771 Y-17.9105
G01 X-1.6630 Y-17.8993
G01 X-1.6456 Y-17.8834
G01 X0.2212 Y-16.0166
G01 X0.2330 Y-16.0040
G01 X0.2473 Y-15.9864
G01 X0.2883 Y-15.9257
G01 X0.5721 Y-15.7361
G01 X0.6054 Y-15.7289
G01 X0.6314 Y-15.7206
G01 X0.6619 Y-15.7071
G01 X0.6871 Y-15.6923
G01 X0.7131 Y-15.6729
G01 X0.7278 Y-15.6595
G01 X0.7380 Y-15.6491
G01 X0.7592 Y-15.6232
G01 X0.7771 Y-15.5949
G01 X0.7855 Y-15.5785
G01 X0.7949 Y-15.5558
G01 X0.8024 Y-15.5319
G01 X0.8070 Y-15.5115
G01 X0.8100 Y-15.4908
G01 X0.8114 Y-15.4710
G01 X0.8116 Y-15.3503
G01 X0.8772 Y-15.0207
G01 X1.0568 Y-14.7519
G01 X1.0704 Y-14.7292
G01 X1.0831 Y-14.7024
G01 X1.0885 Y-14.6879
G01 X1.0942 Y-14.6689
G01 X1.0981 Y-14.6522
G01 X1.1009 Y-14.6350
G01 X1.1034 Y-14.6017
G01 X1.1032 Y-14.5863
G01 X1.1017 Y-14.5672
G01 X1.0984 Y-14.5456
G01 X1.0942 Y-14.5271
G01 X1.0885 Y-14.5082
G01 X1.0819 Y-14.4908
G01 X1.0724 Y-14.4707
G01 X1.0640 Y-14.4555
G01 X1.0467 Y-14.4300
G01 X1.0249 Y-14.4047
G01 X1.0134 Y-14.3936
G01 X0.9997 Y-14.3819
G01 X0.8786 Y-14.2608
G01 X0.8241 Y-14.1292
G01 X0.8241 Y-13.6121
G01 X1.0320 Y-13.6121
G01 X1.0322 Y-13.6404
G01 X1.0342 Y-13.6820
G01 X1.0357 Y-13.6967
G01 X1.0437 Y-13.7485
G01 X1.0579 Y-13.8034
G01 X1.0751 Y-13.8514
G01 X1.1012 Y-13.9064
G01 X1.1288 Y-13.9523
G01 X1.1646 Y-14.0002
G01 X1.2004 Y-14.0396
G01 X1.2437 Y-14.0787
G01 X1.2877 Y-14.1112
G01 X1.3336 Y-14.1388
G01 X1.3876 Y-14.1645
G01 X1.4405 Y-14.1834
G01 X1.4979 Y-14.1975
G01 X1.5504 Y-14.2052
G01 X1.6070 Y-14.2080
G01 X2.4625 Y-14.2079
G01 X2.5136 Y-14.2052
G01 X2.5619 Y-14.1982
G01 X2.5764 Y-14.1953
G01 X2.6208 Y-14.1841
G01 X2.6766 Y-14.1644
G01 X2.7215 Y-14.1434
G01 X2.7345 Y-14.1365
G01 X2.7763 Y-14.1112
G01 X2.8160 Y-14.0820
G01 X2.8274 Y-14.0727
G01 X2.8636 Y-14.0396
G01 X2.9032 Y-13.9956
G01 X2.9309 Y-13.9585
G01 X2.9390 Y-13.9462
G01 X2.9630 Y-13.9060
G01 X2.9852 Y-13.8598
G01 X2.9909 Y-13.8462
G01 X3.0061 Y-13.8034
G01 X3.0193 Y-13.7524
G01 X3.0222 Y-13.7379
G01 X3.0292 Y-13.6896
G01 X3.0320 Y-13.6330
G01 X3.0320 Y-12.7830
G01 X3.0292 Y-12.7264
G01 X3.0203 Y-12.6675
G01 X3.0085 Y-12.6205
G01 X3.0049 Y-12.6091
G01 X2.9890 Y-12.5650
G01 X2.9674 Y-12.5185
G01 X2.9605 Y-12.5055
G01 X2.9352 Y-12.4637
G01 X2.9028 Y-12.4198
G01 X2.8636 Y-12.3764
G01 X2.8274 Y-12.3433
G01 X2.8160 Y-12.3340
G01 X2.7763 Y-12.3048
G01 X2.7345 Y-12.2795
G01 X2.7244 Y-12.2740
G01 X2.6806 Y-12.2533
G01 X2.6235 Y-12.2326
G01 X2.5725 Y-12.2197
G01 X2.5136 Y-12.2108
G01 X2.4570 Y-12.2080
G01 X1.6016 Y-12.2081
G01 X1.5504 Y-12.2108
G01 X1.5021 Y-12.2178
G01 X1.4876 Y-12.2207
G01 X1.4405 Y-12.2326
G01 X1.3874 Y-12.2516
G01 X1.3425 Y-12.2726
G01 X1.3295 Y-12.2795
G01 X1.2938 Y-12.3010
G01 X1.2815 Y-12.3091
G01 X1.2430 Y-12.3379
G01 X1.2004 Y-12.3764
G01 X1.1646 Y-12.4158
G01 X1.1308 Y-12.4608
G01 X1.1035 Y-12.5055
G01 X1.0966 Y-12.5185
G01 X1.0751 Y-12.5646
G01 X1.0566 Y-12.6165
G01 X1.0428 Y-12.6722
G01 X1.0351 Y-12.7234
G01 X1.0322 Y-12.7756
G01 X1.0320 Y-12.8039
G01 X0.8241 Y-12.8039
G01 X0.8241 Y-12.2868
G01 X0.8786 Y-12.1552
G01 X0.9997 Y-12.0341
G01 X1.0136 Y-12.0222
G01 X1.0243 Y-12.0118
G01 X1.0429 Y-11.9909
G01 X1.0621 Y-11.9636
G01 X1.0773 Y-11.9354
G01 X1.0837 Y-11.9206
G01 X1.0904 Y-11.9019
G01 X1.0984 Y-11.8704
G01 X1.1009 Y-11.8550
G01 X1.1029 Y-11.8353
G01 X1.1035 Y-11.8180
G01 X1.1029 Y-11.8007
G01 X1.1009 Y-11.7810
G01 X1.0978 Y-11.7621
G01 X1.0925 Y-11.7411
G01 X1.0867 Y-11.7232
G01 X1.0809 Y-11.7086
G01 X1.0724 Y-11.6906
G01 X1.0568 Y-11.6641
G01 X0.8772 Y-11.3953
G01 X0.8116 Y-11.0657
G01 X0.8116 Y-10.2703
G01 X0.8772 Y-9.9407
G01 X1.0484 Y-9.6844
G01 X1.3047 Y-9.5132
G01 X1.6343 Y-9.4476
G01 X2.4297 Y-9.4476
G01 X2.7593 Y-9.5132
G01 X3.0156 Y-9.6844
G01 X3.0779 Y-9.7773
G01 X3.0896 Y-9.7922
G01 X3.1048 Y-9.8089
G01 X3.1291 Y-9.8309
G01 X3.1512 Y-9.8468
G01 X3.1747 Y-9.8604
G01 X3.1994 Y-9.8717
G01 X3.2311 Y-9.8822
G01 X3.2478 Y-9.8861
G01 X3.2650 Y-9.8889
G01 X3.2983 Y-9.8914
G01 X3.3299 Y-9.8900
G01 X3.3463 Y-9.8879
G01 X3.3657 Y-9.8840
G01 X3.3968 Y-9.8747
G01 X3.4234 Y-9.8634
G01 X3.4528 Y-9.8468
G01 X3.4677 Y-9.8364
G01 X3.4853 Y-9.8221
G01 X3.4992 Y-9.8089
G01 X3.5148 Y-9.7918
G01 X3.5324 Y-9.7683
G01 X3.5884 Y-9.6844
G01 X3.6373 Y-9.6514
G01 X3.6595 Y-9.6330
G01 X3.6708 Y-9.6221
G01 X3.6851 Y-9.6062
G01 X3.7042 Y-9.5804
G01 X3.7149 Y-9.5626
G01 X3.7230 Y-9.5468
G01 X3.7319 Y-9.5256
G01 X3.7378 Y-9.5080
G01 X3.7440 Y-9.4828
G01 X3.7638 Y-9.3832
G01 X3.9535 Y-9.0995
G01 X4.0135 Y-9.0590
G01 X4.0271 Y-9.0482
G01 X4.0444 Y-9.0323
G01 X7.3813 Y-5.6954
G01 X7.3931 Y-5.6828
G01 X7.4074 Y-5.6652
G01 X7.4485 Y-5.6045
G01 X7.7323 Y-5.4148
G01 X8.0670 Y-5.3483
G01 X8.1345 Y-5.3615
G01 X8.1553 Y-5.3640
G01 X8.1788 Y-5.3651
G01 X14.4199 Y-5.3648
G01 X14.4388 Y-5.3633
G01 X14.4593 Y-5.3603
G01 X14.4790 Y-5.3558
G01 X14.4980 Y-5.3501
G01 X14.5150 Y-5.3436
G01 X14.5355 Y-5.3340
G01 X14.5522 Y-5.3247
G01 X14.5702 Y-5.3127
G01 X14.5860 Y-5.3004
G01 X14.5969 Y-5.2908
G01 X14.6128 Y-5.2748
G01 X14.6246 Y-5.2609
G01 X14.6385 Y-5.2419
G01 X14.6899 Y-5.1649
G01 X14.8083 Y-5.0858
G01 X14.9753 Y-5.0526
G01 X16.5207 Y-5.0526
G01 X16.6877 Y-5.0858
G01 X16.8061 Y-5.1649
G01 X16.8596 Y-5.2450
G01 X16.8761 Y-5.2666
G01 X16.8992 Y-5.2909
G01 X16.9150 Y-5.3045
G01 X16.9309 Y-5.3163
G01 X16.9486 Y-5.3275
G01 X16.9665 Y-5.3370
G01 X16.9835 Y-5.3447
G01 X17.0039 Y-5.3520
G01 X17.0241 Y-5.3576
G01 X17.0436 Y-5.3615
G01 X17.0644 Y-5.3640
G01 X17.0842 Y-5.3650
G01 X22.4852 Y-5.3648
G01 X22.5106 Y-5.3626
G01 X22.5373 Y-5.3576
G01 X22.5663 Y-5.3491
G01 X22.5904 Y-5.3392
G01 X22.6190 Y-5.3238
G01 X22.6357 Y-5.3127
G01 X22.6499 Y-5.3017
G01 X22.6669 Y-5.2865
G01 X22.7121 Y-5.2413
G01 X23.1377 Y-5.0651
G01 X23.5983 Y-5.0651
G01 X24.0239 Y-5.2413
G01 X24.0691 Y-5.2865
G01 X24.0861 Y-5.3017
G01 X24.1003 Y-5.3127
G01 X24.1170 Y-5.3238
G01 X24.1456 Y-5.3392
G01 X24.1697 Y-5.3491
G01 X24.1915 Y-5.3558
G01 X24.2181 Y-5.3615
G01 X24.2451 Y-5.3645
G01 X24.2624 Y-5.3651
G01 X27.5013 Y-5.3651
G01 X27.5248 Y-5.3640
G01 X27.5456 Y-5.3615
G01 X27.6131 Y-5.3483
G01 X27.9478 Y-5.4148
G01 X28.2316 Y-5.6045
G01 X28.2706 Y-5.6624
G01 X28.2901 Y-5.6863
G01 X28.4242 Y-5.8208
G01 X30.6186 Y-8.0152
G01 X30.6312 Y-8.0270
G01 X30.6488 Y-8.0413
G01 X30.7095 Y-8.0823
G01 X30.8991 Y-8.3661
G01 X30.9657 Y-8.7009
G01 X30.9515 Y-8.7745
G01 X30.9494 Y-8.7954
G01 X30.9489 Y-8.8126
G01 X30.9489 Y-15.2259
G01 X30.9494 Y-15.2432
G01 X30.9515 Y-15.2641
G01 X30.9657 Y-15.3377
G01 X30.8991 Y-15.6724
G01 X30.7095 Y-15.9562
G01 X30.6516 Y-15.9952
G01 X30.6372 Y-16.0064
G01 X30.6212 Y-16.0208
G01 X30.0946 Y-16.5474
G01 X30.0828 Y-16.5600
G01 X30.0684 Y-16.5776
G01 X30.0274 Y-16.6383
G01 X29.7436 Y-16.8279
G01 X29.6855 Y-16.8397
G01 X29.6692 Y-16.8440
G01 X29.6524 Y-16.8497
G01 X29.6341 Y-16.8573
G01 X29.6182 Y-16.8652
G01 X29.5981 Y-16.8771
G01 X29.5835 Y-16.8873
G01 X29.5615 Y-16.9055
G01 X29.5454 Y-16.9216
G01 X29.5289 Y-16.9413
G01 X29.5170 Y-16.9582
G01 X29.5051 Y-16.9783
G01 X29.5002 Y-16.9879
G01 X29.4972 Y-16.9942
G01 X29.4947 Y-16.9999
G01 X29.4872 Y-17.0195
G01 X29.4796 Y-17.0456
G01 X29.4747 Y-17.0723
G01 X29.4722 Y-17.1056
G01 X29.4732 Y-17.1328
G01 X29.4775 Y-17.1635
G01 X29.4852 Y-17.1933
G01 X29.4972 Y-17.2244
G01 X29.5116 Y-17.2518
G01 X29.5281 Y-17.2771
G01 X29.5613 Y-17.4441
G01 X29.5613 Y-18.5884
G01 X29.5281 Y-18.7553
G01 X29.4541 Y-18.8661
G01 X29.4424 Y-18.8860
G01 X29.4345 Y-18.9019
G01 X29.4225 Y-18.9330
G01 X29.4148 Y-18.9628
G01 X29.4105 Y-18.9935
G01 X29.4095 Y-19.0207
G01 X29.4112 Y-19.0478
G01 X29.4155 Y-19.0746
G01 X29.4244 Y-19.1068
G01 X29.4345 Y-19.1321
G01 X29.4424 Y-19.1480
G01 X29.4541 Y-19.1678
G01 X29.5281 Y-19.2786
G01 X29.5613 Y-19.4456
G01 X29.5613 Y-20.5899
G01 X29.5281 Y-20.7568
G01 X29.4556 Y-20.8654
G01 X29.4439 Y-20.8853
G01 X29.4360 Y-20.9012
G01 X29.4240 Y-20.9323
G01 X29.4163 Y-20.9621
G01 X29.4119 Y-20.9928
G01 X29.4110 Y-21.0200
G01 X29.4127 Y-21.0471
G01 X29.4170 Y-21.0739
G01 X29.4240 Y-21.1002
G01 X29.4335 Y-21.1257
G01 X29.4439 Y-21.1473
G01 X29.4597 Y-21.1733
G01 X29.4750 Y-21.1935
G01 X29.4944 Y-21.2145
G01 X29.5489 Y-21.3461
G01 X29.5489 Y-21.6127
G01 X29.3410 Y-21.6127
G01 X29.3409 Y-21.4121
G01 X29.3398 Y-21.3985
G01 X29.3368 Y-21.3821
G01 X29.3299 Y-21.3607
G01 X29.3214 Y-21.3432
G01 X29.3122 Y-21.3289
G01 X29.3066 Y-21.3217
G01 X29.2919 Y-21.3063
G01 X29.2793 Y-21.2961
G01 X29.2580 Y-21.2831
G01 X29.2405 Y-21.2757
G01 X29.2261 Y-21.2715
G01 X29.2029 Y-21.2678
G01 X26.1912 Y-21.2673
G01 X26.1725 Y-21.2685
G01 X26.1488 Y-21.2734
G01 X26.1303 Y-21.2802
G01 X26.1104 Y-21.2909
G01 X26.0903 Y-21.3063
G01 X26.0756 Y-21.3217
G01 X26.0649 Y-21.3364
G01 X26.0541 Y-21.3564
G01 X26.0496 Y-21.3677
G01 X26.0454 Y-21.3821
G01 X26.0424 Y-21.3985
G01 X26.0413 Y-21.4121
G01 X26.0412 Y-21.6127
G01 X25.8333 Y-21.6127
G01 X25.8333 Y-21.3461
G01 X25.8878 Y-21.2145
G01 X25.9071 Y-21.1935
G01 X25.9225 Y-21.1733
G01 X25.9383 Y-21.1473
G01 X25.9508 Y-21.1206
G01 X25.9594 Y-21.0963
G01 X25.9659 Y-21.0705
G01 X25.9695 Y-21.0471
G01 X25.9712 Y-21.0163
G01 X25.9695 Y-20.9855
G01 X25.9652 Y-20.9586
G01 X25.9582 Y-20.9323
G01 X25.9462 Y-20.9012
G01 X25.9383 Y-20.8853
G01 X25.9266 Y-20.8654
G01 X25.8540 Y-20.7568
G01 X25.8208 Y-20.5899
G01 X25.8208 Y-19.4456
G01 X25.8540 Y-19.2786
G01 X25.9280 Y-19.1678
G01 X25.9398 Y-19.1480
G01 X25.9477 Y-19.1321
G01 X25.9577 Y-19.1068
G01 X25.9666 Y-19.0746
G01 X25.9710 Y-19.0478
G01 X25.9727 Y-19.0170
G01 X25.9710 Y-18.9862
G01 X25.9666 Y-18.9593
G01 X25.9577 Y-18.9271
G01 X25.9477 Y-18.9019
G01 X25.9398 Y-18.8860
G01 X25.9280 Y-18.8661
G01 X25.8540 Y-18.7553
G01 X25.8208 Y-18.5884
G01 X25.8208 Y-17.4441
G01 X25.8540 Y-17.2771
G01 X25.9263 Y-17.1688
G01 X25.9381 Y-17.1490
G01 X25.9460 Y-17.1331
G01 X25.9580 Y-17.1019
G01 X25.9649 Y-17.0757
G01 X25.9693 Y-17.0488
G01 X25.9710 Y-17.0180
G01 X25.9693 Y-16.9872
G01 X25.9649 Y-16.9603
G01 X25.9580 Y-16.9341
G01 X25.9460 Y-16.9029
G01 X25.9381 Y-16.8870
G01 X25.9263 Y-16.8672
G01 X25.8540 Y-16.7589
G01 X25.8208 Y-16.5919
G01 X25.8208 Y-15.4476
G01 X25.8540 Y-15.2807
G01 X25.9280 Y-15.1699
G01 X25.9386 Y-15.1522
G01 X25.9477 Y-15.1341
G01 X25.9577 Y-15.1089
G01 X25.9666 Y-15.0767
G01 X25.9710 Y-15.0497
G01 X25.9727 Y-15.0190
G01 X25.9710 Y-14.9883
G01 X25.9666 Y-14.9614
G01 X25.9577 Y-14.9292
G01 X25.9477 Y-14.9039
G01 X25.9386 Y-14.8858
G01 X25.9280 Y-14.8682
G01 X25.8540 Y-14.7574
G01 X25.8208 Y-14.5904
G01 X25.8208 Y-13.4461
G01 X25.8540 Y-13.2792
G01 X25.9272 Y-13.1696
G01 X25.9377 Y-13.1520
G01 X25.9468 Y-13.1339
G01 X25.9569 Y-13.1086
G01 X25.9658 Y-13.0764
G01 X25.9701 Y-13.0495
G01 X25.9719 Y-13.0188
G01 X25.9701 Y-12.9881
G01 X25.9658 Y-12.9611
G01 X25.9569 Y-12.9289
G01 X25.9468 Y-12.9037
G01 X25.9377 Y-12.8856
G01 X25.9272 Y-12.8679
G01 X25.8540 Y-12.7584
G01 X25.8208 Y-12.5914
G01 X25.8208 Y-11.4471
G01 X25.8540 Y-11.2802
G01 X25.9272 Y-11.1706
G01 X25.9377 Y-11.1530
G01 X25.9468 Y-11.1349
G01 X25.9569 Y-11.1096
G01 X25.9658 Y-11.0774
G01 X25.9701 Y-11.0505
G01 X25.9719 Y-11.0198
G01 X25.9701 Y-10.9891
G01 X25.9658 Y-10.9621
G01 X25.9569 Y-10.9299
G01 X25.9468 Y-10.9047
G01 X25.9377 Y-10.8866
G01 X25.9272 Y-10.8689
G01 X25.8540 Y-10.7594
G01 X25.8208 Y-10.5925
G01 X25.8208 Y-9.4481
G01 X25.8540 Y-9.2812
G01 X25.9332 Y-9.1628
G01 X26.0516 Y-9.0837
G01 X26.2185 Y-9.0505
G01 X28.5584 Y-9.0505
G01 X28.5819 Y-9.0495
G01 X28.6027 Y-9.0469
G01 X28.6221 Y-9.0430
G01 X28.6482 Y-9.0355
G01 X28.6678 Y-9.0279
G01 X28.6894 Y-9.0176
G01 X28.7092 Y-9.0058
G01 X28.7264 Y-8.9937
G01 X28.7461 Y-8.9772
G01 X28.7622 Y-8.9611
G01 X28.7787 Y-8.9414
G01 X28.7906 Y-8.9245
G01 X28.8013 Y-8.9066
G01 X28.8129 Y-8.8828
G01 X28.8224 Y-8.8574
G01 X28.8280 Y-8.8372
G01 X28.8319 Y-8.8177
G01 X28.8344 Y-8.7969
G01 X28.8352 Y-8.7635
G01 X28.8328 Y-8.7353
G01 X28.8280 Y-8.7097
G01 X28.8236 Y-8.6934
G01 X28.8185 Y-8.6779
G01 X28.8074 Y-8.6520
G01 X28.7941 Y-8.6278
G01 X28.7749 Y-8.6005
G01 X28.7569 Y-8.5801
G01 X27.3316 Y-7.1551
G01 X27.3159 Y-7.1415
G01 X27.2951 Y-7.1265
G01 X27.2720 Y-7.1128
G01 X27.2598 Y-7.1068
G01 X27.2581 Y-7.1060
G01 X27.2524 Y-7.1035
G01 X27.2328 Y-7.0959
G01 X27.2067 Y-7.0884
G01 X27.1872 Y-7.0845
G01 X27.1664 Y-7.0820
G01 X27.1430 Y-7.0809
G01 X24.2624 Y-7.0809
G01 X24.2389 Y-7.0820
G01 X24.2082 Y-7.0863
G01 X24.1785 Y-7.0940
G01 X24.1473 Y-7.1060
G01 X24.1231 Y-7.1185
G01 X24.1003 Y-7.1333
G01 X24.0791 Y-7.1503
G01 X24.0239 Y-7.2047
G01 X23.5983 Y-7.3809
G01 X23.1377 Y-7.3809
G01 X22.7121 Y-7.2047
G01 X22.6669 Y-7.1595
G01 X22.6499 Y-7.1443
G01 X22.6357 Y-7.1333
G01 X22.6190 Y-7.1222
G01 X22.5904 Y-7.1068
G01 X22.5663 Y-7.0969
G01 X22.5373 Y-7.0884
G01 X22.5106 Y-7.0834
G01 X22.4773 Y-7.0810
G01 X17.0763 Y-7.0812
G01 X17.0571 Y-7.0827
G01 X17.0337 Y-7.0863
G01 X17.0170 Y-7.0902
G01 X16.9951 Y-7.0969
G01 X16.9785 Y-7.1035
G01 X16.9588 Y-7.1128
G01 X16.9425 Y-7.1222
G01 X16.9258 Y-7.1333
G01 X16.9115 Y-7.1443
G01 X16.8991 Y-7.1552
G01 X16.8832 Y-7.1712
G01 X16.8714 Y-7.1851
G01 X16.8575 Y-7.2041
G01 X16.8061 Y-7.2811
G01 X16.6877 Y-7.3602
G01 X16.5207 Y-7.3934
G01 X14.9753 Y-7.3934
G01 X14.8083 Y-7.3602
G01 X14.6899 Y-7.2811
G01 X14.6385 Y-7.2041
G01 X14.6246 Y-7.1851
G01 X14.6128 Y-7.1712
G01 X14.5969 Y-7.1552
G01 X14.5860 Y-7.1456
G01 X14.5702 Y-7.1333
G01 X14.5522 Y-7.1213
G01 X14.5355 Y-7.1120
G01 X14.5150 Y-7.1024
G01 X14.4980 Y-7.0959
G01 X14.4790 Y-7.0902
G01 X14.4593 Y-7.0857
G01 X14.4388 Y-7.0827
G01 X14.4180 Y-7.0811
G01 X8.5334 Y-7.0810
G01 X8.5064 Y-7.0827
G01 X8.4829 Y-7.0863
G01 X8.4588 Y-7.0922
G01 X8.4303 Y-7.1024
G01 X8.4060 Y-7.1140
G01 X8.3850 Y-7.1265
G01 X8.3642 Y-7.1415
G01 X8.3412 Y-7.1621
G01 X5.8043 Y-9.6990
G01 X5.7837 Y-9.7220
G01 X5.7687 Y-9.7428
G01 X5.7562 Y-9.7638
G01 X5.7435 Y-9.7906
G01 X5.7381 Y-9.8051
G01 X5.7324 Y-9.8240
G01 X5.7285 Y-9.8407
G01 X5.7256 Y-9.8579
G01 X5.7237 Y-9.8777
G01 X5.7231 Y-9.8949
G01 X5.7249 Y-9.9256
G01 X5.7285 Y-9.9490
G01 X5.7924 Y-10.2703
G01 X5.7924 Y-11.0657
G01 X5.7268 Y-11.3953
G01 X5.5556 Y-11.6516
G01 X5.4687 Y-11.7097
G01 X5.4470 Y-11.7262
G01 X5.4297 Y-11.7421
G01 X5.4179 Y-11.7547
G01 X5.4036 Y-11.7723
G01 X5.3941 Y-11.7859
G01 X5.3816 Y-11.8068
G01 X5.3736 Y-11.8229
G01 X5.3655 Y-11.8425
G01 X5.3578 Y-11.8671
G01 X5.3533 Y-11.8868
G01 X5.3503 Y-11.9073
G01 X5.3486 Y-11.9343
G01 X5.3491 Y-11.9553
G01 X5.3511 Y-11.9750
G01 X5.3539 Y-11.9922
G01 X5.3595 Y-12.0149
G01 X5.3655 Y-12.0335
G01 X5.3736 Y-12.0531
G01 X5.3816 Y-12.0692
G01 X5.3899 Y-12.0836
G01 X5.4009 Y-12.1001
G01 X5.4132 Y-12.1158
G01 X5.4228 Y-12.1268
G01 X5.4388 Y-12.1426
G01 X5.4527 Y-12.1545
G01 X5.4717 Y-12.1684
G01 X5.5556 Y-12.2244
G01 X5.7268 Y-12.4807
G01 X5.7924 Y-12.8103
G01 X5.7924 Y-12.8833
G01 X5.7934 Y-12.9067
G01 X5.7977 Y-12.9375
G01 X5.8016 Y-12.9541
G01 X5.8074 Y-12.9731
G01 X5.8182 Y-13.0001
G01 X5.8299 Y-13.0225
G01 X5.8447 Y-13.0453
G01 X5.8617 Y-13.0666
G01 X5.8762 Y-13.0817
G01 X5.8965 Y-13.0997
G01 X5.9170 Y-13.1146
G01 X5.9421 Y-13.1293
G01 X5.9600 Y-13.1378
G01 X5.9747 Y-13.1436
G01 X6.0057 Y-13.1529
G01 X6.0386 Y-13.1586
G01 X6.0694 Y-13.1603
G01 X9.3743 Y-13.1601
G01 X9.3921 Y-13.1589
G01 X9.4087 Y-13.1567
G01 X9.4353 Y-13.1511
G01 X9.4542 Y-13.1453
G01 X9.4687 Y-13.1399
G01 X9.4976 Y-13.1262
G01 X9.5152 Y-13.1156
G01 X9.5272 Y-13.1074
G01 X9.5521 Y-13.0871
G01 X9.5629 Y-13.0765
G01 X9.5762 Y-13.0618
G01 X9.5953 Y-13.0364
G01 X9.6073 Y-13.0164
G01 X9.6156 Y-13.0001
G01 X9.6245 Y-12.9787
G01 X9.6305 Y-12.9602
G01 X9.6361 Y-12.9375
G01 X9.6389 Y-12.9203
G01 X9.6411 Y-12.8968
G01 X9.6414 Y-12.8796
G01 X9.6404 Y-12.8598
G01 X9.6379 Y-12.8390
G01 X9.6322 Y-12.8124
G01 X9.6264 Y-12.7934
G01 X9.6200 Y-12.7764
G01 X9.6104 Y-12.7559
G01 X9.6004 Y-12.7382
G01 X9.5885 Y-12.7204
G01 X9.5682 Y-12.6956
G01 X9.5477 Y-12.6755
G01 X9.5272 Y-12.6591
G01 X9.4957 Y-12.6378
G01 X9.4568 Y-12.5799
G01 X9.4445 Y-12.5642
G01 X9.4312 Y-12.5495
G01 X8.7816 Y-11.8999
G01 X8.7690 Y-11.8881
G01 X8.7537 Y-11.8755
G01 X8.7389 Y-11.8650
G01 X8.7250 Y-11.8563
G01 X8.7071 Y-11.8468
G01 X8.6926 Y-11.8402
G01 X8.6626 Y-11.8297
G01 X8.6399 Y-11.8241
G01 X8.3112 Y-11.7588
G01 X7.9282 Y-11.5028
G01 X7.6722 Y-11.1198
G01 X7.5824 Y-10.6680
G01 X7.6722 Y-10.2162
G01 X7.9282 Y-9.8332
G01 X8.3112 Y-9.5772
G01 X8.6490 Y-9.5101
G01 X8.8770 Y-9.5101
G01 X8.9074 Y-9.5161
G01 X9.2148 Y-9.5772
G01 X9.5978 Y-9.8332
G01 X9.8538 Y-10.2162
G01 X9.9191 Y-10.5449
G01 X9.9230 Y-10.5616
G01 X9.9308 Y-10.5862
G01 X9.9396 Y-10.6075
G01 X9.9513 Y-10.6300
G01 X9.9667 Y-10.6536
G01 X9.9790 Y-10.6693
G01 X9.9949 Y-10.6866
G01 X10.3885 Y-11.0802
G01 X10.4011 Y-11.0920
G01 X10.4164 Y-11.1046
G01 X10.4313 Y-11.1152
G01 X10.4512 Y-11.1272
G01 X10.4676 Y-11.1355
G01 X10.4889 Y-11.1444
G01 X10.5075 Y-11.1504
G01 X10.5302 Y-11.1560
G01 X10.5474 Y-11.1588
G01 X10.5745 Y-11.1611
G01 X10.6173 Y-11.1613
G01 X10.6346 Y-11.1608
G01 X10.6543 Y-11.1588
G01 X10.6750 Y-11.1553
G01 X10.7012 Y-11.1483
G01 X10.7241 Y-11.1399
G01 X10.7446 Y-11.1303
G01 X10.7624 Y-11.1203
G01 X10.7830 Y-11.1063
G01 X10.8050 Y-11.0881
G01 X10.8211 Y-11.0720
G01 X10.8376 Y-11.0523
G01 X10.8497 Y-11.0351
G01 X10.8634 Y-11.0116
G01 X10.8740 Y-10.9886
G01 X10.8835 Y-10.9612
G01 X10.8908 Y-10.9286
G01 X10.8940 Y-10.8978
G01 X10.8938 Y-10.8670
G01 X10.8919 Y-10.8473
G01 X10.8890 Y-10.8301
G01 X10.8813 Y-10.8003
G01 X10.8733 Y-10.7783
G01 X10.8371 Y-10.6909
G01 X10.8371 Y-10.4244
G01 X11.0450 Y-10.4244
G01 X11.0452 Y-10.6274
G01 X11.0485 Y-10.6516
G01 X11.0549 Y-10.6732
G01 X11.0614 Y-10.6878
G01 X11.0737 Y-10.7079
G01 X11.0890 Y-10.7258
G01 X11.1010 Y-10.7366
G01 X11.1199 Y-10.7496
G01 X11.1415 Y-10.7599
G01 X11.1632 Y-10.7663
G01 X11.1797 Y-10.7690
G01 X11.1951 Y-10.7697
G01 X14.1948 Y-10.7697
G01 X14.2178 Y-10.7680
G01 X14.2353 Y-10.7642
G01 X14.2557 Y-10.7568
G01 X14.2768 Y-10.7453
G01 X14.2950 Y-10.7314
G01 X14.3064 Y-10.7199
G01 X14.3204 Y-10.7018
G01 X14.3319 Y-10.6807
G01 X14.3372 Y-10.6668
G01 X14.3414 Y-10.6516
G01 X14.3446 Y-10.6274
G01 X14.3448 Y-10.4244
G01 X14.5527 Y-10.4244
G01 X14.5527 Y-10.6909
G01 X14.4982 Y-10.8225
G01 X14.4800 Y-10.8421
G01 X14.4609 Y-10.8676
G01 X14.4489 Y-10.8875
G01 X14.4362 Y-10.9139
G01 X14.4278 Y-10.9368
G01 X14.4201 Y-10.9665
G01 X14.4161 Y-10.9931
G01 X14.4148 Y-11.0207
G01 X14.4161 Y-11.0484
G01 X14.4208 Y-11.0784
G01 X14.4298 Y-11.1106
G01 X14.4406 Y-11.1376
G01 X14.4489 Y-11.1539
G01 X14.4594 Y-11.1716
G01 X14.5320 Y-11.2802
G01 X14.5652 Y-11.4471
G01 X14.5652 Y-12.5914
G01 X14.5320 Y-12.7584
G01 X14.4588 Y-12.8679
G01 X14.4483 Y-12.8856
G01 X14.4400 Y-12.9019
G01 X14.4291 Y-12.9289
G01 X14.4202 Y-12.9611
G01 X14.4155 Y-12.9911
G01 X14.4141 Y-13.0188
G01 X14.4155 Y-13.0465
G01 X14.4202 Y-13.0764
G01 X14.4291 Y-13.1086
G01 X14.4400 Y-13.1356
G01 X14.4483 Y-13.1520
G01 X14.4588 Y-13.1696
G01 X14.5320 Y-13.2792
G01 X14.5652 Y-13.4461
G01 X14.5652 Y-14.5904
G01 X14.5320 Y-14.7574
G01 X14.4580 Y-14.8682
G01 X14.4474 Y-14.8858
G01 X14.4391 Y-14.9022
G01 X14.4283 Y-14.9292
G01 X14.4194 Y-14.9614
G01 X14.4147 Y-14.9913
G01 X14.4133 Y-15.0190
G01 X14.4147 Y-15.0467
G01 X14.4194 Y-15.0767
G01 X14.4283 Y-15.1089
G01 X14.4391 Y-15.1358
G01 X14.4474 Y-15.1522
G01 X14.4580 Y-15.1699
G01 X14.5320 Y-15.2807
G01 X14.5652 Y-15.4476
G01 X14.5652 Y-16.5919
G01 X14.5320 Y-16.7589
G01 X14.4597 Y-16.8672
G01 X14.4495 Y-16.8842
G01 X14.4408 Y-16.9012
G01 X14.4300 Y-16.9281
G01 X14.4211 Y-16.9603
G01 X14.4164 Y-16.9900
G01 X14.4150 Y-17.0180
G01 X14.4164 Y-17.0460
G01 X14.4211 Y-17.0757
G01 X14.4300 Y-17.1079
G01 X14.4408 Y-17.1348
G01 X14.4495 Y-17.1518
G01 X14.4597 Y-17.1688
G01 X14.5320 Y-17.2771
G01 X14.5652 Y-17.4441
G01 X14.5652 Y-18.5884
G01 X14.5320 Y-18.7553
G01 X14.4580 Y-18.8661
G01 X14.4478 Y-18.8831
G01 X14.4391 Y-18.9002
G01 X14.4283 Y-18.9271
G01 X14.4194 Y-18.9593
G01 X14.4147 Y-18.9890
G01 X14.4133 Y-19.0170
G01 X14.4147 Y-19.0450
G01 X14.4194 Y-19.0746
G01 X14.4283 Y-19.1068
G01 X14.4391 Y-19.1338
G01 X14.4478 Y-19.1508
G01 X14.4580 Y-19.1678
G01 X14.5320 Y-19.2786
G01 X14.5652 Y-19.4456
G01 X14.5652 Y-20.5899
G01 X14.5320 Y-20.7568
G01 X14.4588 Y-20.8664
G01 X14.4486 Y-20.8834
G01 X14.4400 Y-20.9004
G01 X14.4291 Y-20.9274
G01 X14.4202 Y-20.9596
G01 X14.4155 Y-20.9892
G01 X14.4141 Y-21.0172
G01 X14.4155 Y-21.0452
G01 X14.4202 Y-21.0749
G01 X14.4291 Y-21.1071
G01 X14.4400 Y-21.1341
G01 X14.4486 Y-21.1511
G01 X14.4588 Y-21.1681
G01 X14.5320 Y-21.2776
G01 X14.5652 Y-21.4446
G01 X14.5652 Y-22.5889
G01 X14.5320 Y-22.7558
G01 X14.4594 Y-22.8644
G01 X14.4493 Y-22.8814
G01 X14.4406 Y-22.8984
G01 X14.4298 Y-22.9254
G01 X14.4208 Y-22.9576
G01 X14.4162 Y-22.9873
G01 X14.4148 Y-23.0153
G01 X14.4162 Y-23.0433
G01 X14.4201 Y-23.0695
G01 X14.4257 Y-23.0922
G01 X14.4352 Y-23.1196
G01 X14.4477 Y-23.1463
G01 X14.4609 Y-23.1684
G01 X14.4789 Y-23.1925
G01 X14.4982 Y-23.2135
G01 X14.5527 Y-23.3451
G01 X14.5527 Y-23.6116
G01 X14.3448 Y-23.6116
G01 X14.3446 Y-23.4085
G01 X14.3417 Y-23.3859
G01 X14.3361 Y-23.3659
G01 X14.3279 Y-23.3471
G01 X14.3166 Y-23.3287
G01 X14.3064 Y-23.3161
G01 X14.2903 Y-23.3006
G01 X14.2768 Y-23.2907
G01 X14.2557 Y-23.2792
G01 X14.2373 Y-23.2724
G01 X14.2135 Y-23.2674
G01 X14.1948 Y-23.2663
G01 X11.1951 Y-23.2663
G01 X11.1763 Y-23.2674
G01 X11.1525 Y-23.2724
G01 X11.1341 Y-23.2792
G01 X11.1130 Y-23.2907
G01 X11.0995 Y-23.3006
G01 X11.0834 Y-23.3161
G01 X11.0687 Y-23.3354
G01 X11.0580 Y-23.3553
G01 X11.0498 Y-23.3787
G01 X11.0468 Y-23.3933
G01 X11.0453 Y-23.4085
G01 X11.0450 Y-23.6116
G01 X10.8371 Y-23.6116
G01 X10.8371 Y-23.3451
G01 X10.8916 Y-23.2135
G01 X10.9110 Y-23.1925
G01 X10.9289 Y-23.1684
G01 X10.9421 Y-23.1463
G01 X10.9547 Y-23.1196
G01 X10.9642 Y-23.0922
G01 X10.9697 Y-23.0695
G01 X10.9737 Y-23.0433
G01 X10.9751 Y-23.0153
G01 X10.9737 Y-22.9873
G01 X10.9690 Y-22.9576
G01 X10.9601 Y-22.9254
G01 X10.9492 Y-22.8984
G01 X10.9406 Y-22.8814
G01 X10.9304 Y-22.8644
G01 X10.8579 Y-22.7558
G01 X10.8247 Y-22.5889
G01 X10.8247 Y-22.0498
G01 X10.8233 Y-22.0219
G01 X10.8186 Y-21.9922
G01 X10.8097 Y-21.9600
G01 X10.7988 Y-21.9330
G01 X10.7833 Y-21.9043
G01 X10.7679 Y-21.8819
G01 X10.7553 Y-21.8665
G01 X10.7435 Y-21.8539
G01 X10.7205 Y-21.8334
G01 X10.6985 Y-21.8175
G01 X10.6694 Y-21.8010
G01 X10.6431 Y-21.7898
G01 X10.6276 Y-21.7846
G01 X10.6113 Y-21.7802
G01 X10.5846 Y-21.7753
G01 X10.5513 Y-21.7728
G01 X10.5241 Y-21.7738
G01 X10.4934 Y-21.7781
G01 X10.4637 Y-21.7858
G01 X10.4325 Y-21.7979
G01 X10.4084 Y-21.8103
G01 X10.3906 Y-21.8216
G01 X10.3690 Y-21.8380
G01 X10.3517 Y-21.8539
G01 X8.6611 Y-23.5445
G01 X8.6493 Y-23.5571
G01 X8.6350 Y-23.5747
G01 X8.6246 Y-23.5896
G01 X8.6144 Y-23.6066
G01 X8.6004 Y-23.6361
G01 X8.5950 Y-23.6506
G01 X8.5892 Y-23.6696
G01 X8.5853 Y-23.6862
G01 X8.5825 Y-23.7034
G01 X8.5800 Y-23.7368
G01 X8.5800 Y-24.8136
G01 X8.5810 Y-24.8334
G01 X8.5835 Y-24.8542
G01 X8.5968 Y-24.9217
G01 X8.5302 Y-25.2565
G01 X8.3406 Y-25.5403
G01 X8.2798 Y-25.5813
G01 X8.2622 Y-25.5956
G01 X8.2496 Y-25.6074
G01 X6.8768 Y-26.9803
G01 X6.8114 Y-27.0456
G01 X6.7956 Y-27.0630
G01 X6.7791 Y-27.0846
G01 X6.7443 Y-27.1366
G01 X6.4609 Y-27.3259
G01 X6.1257 Y-27.3928
G01 X6.0520 Y-27.3786
G01 X6.0312 Y-27.3765
G01 X6.0140 Y-27.3760
G01 X0.5900 Y-27.3760
G01 X0.5728 Y-27.3765
G01 X0.5521 Y-27.3786
G01 X0.4783 Y-27.3928
G01 X0.1435 Y-27.3262
G01 X-0.1403 Y-27.1366
G01 X-0.1813 Y-27.0758
G01 X-0.1956 Y-27.0582
G01 X-0.2074 Y-27.0456
G01 X-1.6456 Y-25.6074
G01 X-1.6630 Y-25.5915
G01 X-1.6771 Y-25.5804
G01 X-1.7366 Y-25.5403
G01 X-1.9262 Y-25.2565
G01 X-1.9928 Y-24.9217
G01 X-1.9795 Y-24.8542
G01 X-1.9770 Y-24.8334
G01 X-1.9760 Y-24.8100
G01 X-1.9760 Y-21.7920
G01 X-1.9760 Y-21.5507
G01 X-1.9760 Y-18.8964
G01 X-1.9760 Y-18.6809
G01 X-1.9765 Y-18.6636
G01 X-1.9785 Y-18.6439
G01 X-1.9865 Y-18.6008
G00 Z1.9990
G00 X1.0966 Y-21.5175
G01 F80.00
G01 Z-0.3732
G01 F80.00
G01 X1.1035 Y-21.5305
G01 X1.1288 Y-21.5723
G01 X1.1580 Y-21.6120
G01 X1.1673 Y-21.6234
G01 X1.2004 Y-21.6596
G01 X1.2366 Y-21.6927
G01 X1.2480 Y-21.7020
G01 X1.2858 Y-21.7299
G01 X1.3396 Y-21.7620
G01 X1.3802 Y-21.7812
G01 X1.3938 Y-21.7869
G01 X1.4405 Y-21.8034
G01 X1.4876 Y-21.8153
G01 X1.5016 Y-21.8181
G01 X1.5504 Y-21.8252
G01 X1.6070 Y-21.8280
G01 X2.4570 Y-21.8280
G01 X2.5136 Y-21.8252
G01 X2.5624 Y-21.8181
G01 X2.5764 Y-21.8153
G01 X2.6235 Y-21.8034
G01 X2.6766 Y-21.7844
G01 X2.7244 Y-21.7620
G01 X2.7702 Y-21.7350
G01 X2.7825 Y-21.7269
G01 X2.8242 Y-21.6954
G01 X2.8636 Y-21.6596
G01 X2.9017 Y-21.6175
G01 X2.9363 Y-21.5707
G01 X2.9605 Y-21.5305
G01 X2.9674 Y-21.5175
G01 X2.9889 Y-21.4715
G01 X3.0049 Y-21.4269
G01 X3.0089 Y-21.4141
G01 X3.0193 Y-21.3724
G01 X3.0222 Y-21.3579
G01 X3.0292 Y-21.3096
G01 X3.0318 Y-21.2604
G01 X3.0320 Y-20.4030
G01 X3.0292 Y-20.3464
G01 X3.0222 Y-20.2981
G01 X3.0194 Y-20.2837
G01 X3.0074 Y-20.2365
G01 X2.9885 Y-20.1837
G01 X2.9674 Y-20.1385
G01 X2.9605 Y-20.1255
G01 X2.9346 Y-20.0828
G01 X2.9012 Y-20.0379
G01 X2.8636 Y-19.9964
G01 X2.8184 Y-19.9559
G01 X2.7763 Y-19.9248
G01 X2.7325 Y-19.8984
G01 X2.7215 Y-19.8926
G01 X2.6763 Y-19.8714
G01 X2.6309 Y-19.8551
G01 X2.6168 Y-19.8508
G01 X2.5764 Y-19.8407
G01 X2.5624 Y-19.8379
G01 X2.5136 Y-19.8308
G01 X2.4644 Y-19.8282
G01 X1.6070 Y-19.8280
G01 X1.5504 Y-19.8308
G01 X1.5015 Y-19.8379
G01 X1.4876 Y-19.8407
G01 X1.4405 Y-19.8526
G01 X1.3874 Y-19.8716
G01 X1.3396 Y-19.8940
G01 X1.2938 Y-19.9210
G01 X1.2815 Y-19.9291
G01 X1.2398 Y-19.9606
G01 X1.2004 Y-19.9964
G01 X1.1623 Y-20.0385
G01 X1.1288 Y-20.0837
G01 X1.1003 Y-20.1311
G01 X1.0753 Y-20.1841
G01 X1.0566 Y-20.2365
G01 X1.0427 Y-20.2929
G01 X1.0348 Y-20.3464
G01 X1.0320 Y-20.4030
G01 X1.0320 Y-21.2530
G01 X1.0342 Y-21.3020
G01 X1.0357 Y-21.3167
G01 X1.0427 Y-21.3631
G01 X1.0566 Y-21.4195
G01 X1.0756 Y-21.4727
G01 X1.0966 Y-21.5175
G00 Z1.9990
G00 X3.1858 Y-22.0980
G01 F80.00
G01 Z-0.3732
G01 F80.00
G01 X3.2249 Y-22.0626
G01 X3.2462 Y-22.0422
G01 X3.2656 Y-22.0219
G01 X3.3020 Y-21.9818
G01 X3.3384 Y-22.0219
G01 X3.3578 Y-22.0422
G01 X3.3791 Y-22.0626
G01 X3.4182 Y-22.0980
G01 X3.3791 Y-22.1334
G01 X3.3565 Y-22.1552
G01 X3.3020 Y-22.2142
G01 X3.2475 Y-22.1552
G01 X3.2249 Y-22.1334
G01 X3.1858 Y-22.0980
G01 X3.3020 Y-21.6537
G01 X3.3148 Y-21.6806
G01 X3.3275 Y-21.7044
G01 X3.3580 Y-21.7557
G01 X3.3751 Y-21.7818
G01 X3.4097 Y-21.8287
G01 X3.4267 Y-21.8502
G01 X3.4681 Y-21.8965
G01 X3.4853 Y-21.9147
G01 X3.5035 Y-21.9319
G01 X3.5492 Y-21.9728
G01 X3.5702 Y-21.9895
G01 X3.6166 Y-22.0238
G01 X3.6432 Y-22.0413
G01 X3.6914 Y-22.0701
G01 X3.7184 Y-22.0847
G01 X3.7463 Y-22.0980
G01 X3.7183 Y-22.1114
G01 X3.6906 Y-22.1263
G01 X3.6432 Y-22.1547
G01 X3.6152 Y-22.1732
G01 X3.5702 Y-22.2065
G01 X3.5492 Y-22.2232
G01 X3.5035 Y-22.2641
G01 X3.4845 Y-22.2822
G01 X3.4681 Y-22.2995
G01 X3.4256 Y-22.3470
G01 X3.4095 Y-22.3675
G01 X3.3751 Y-22.4142
G01 X3.3580 Y-22.4403
G01 X3.3275 Y-22.4916
G01 X3.3148 Y-22.5154
G01 X3.3020 Y-22.5423
G01 X3.2892 Y-22.5154
G01 X3.2765 Y-22.4916
G01 X3.2460 Y-22.4403
G01 X3.2289 Y-22.4142
G01 X3.1943 Y-22.3673
G01 X3.1773 Y-22.3458
G01 X3.1359 Y-22.2995
G01 X3.1195 Y-22.2822
G01 X3.1005 Y-22.2641
G01 X3.0548 Y-22.2232
G01 X3.0338 Y-22.2065
G01 X2.9874 Y-22.1722
G01 X2.9608 Y-22.1547
G01 X2.9126 Y-22.1259
G01 X2.8856 Y-22.1113
G01 X2.8577 Y-22.0980
G01 X2.8857 Y-22.0846
G01 X2.9134 Y-22.0697
G01 X2.9608 Y-22.0413
G01 X2.9888 Y-22.0228
G01 X3.0338 Y-21.9895
G01 X3.0548 Y-21.9728
G01 X3.1005 Y-21.9319
G01 X3.1219 Y-21.9114
G01 X3.1784 Y-21.8490
G01 X3.1957 Y-21.8269
G01 X3.2302 Y-21.7800
G01 X3.2460 Y-21.7557
G01 X3.2765 Y-21.7044
G01 X3.2892 Y-21.6806
G01 X3.3020 Y-21.6537
G01 X3.5818 Y-21.3579
G01 X3.5846 Y-21.3723
G01 X3.5951 Y-21.4141
G01 X3.5991 Y-21.4269
G01 X3.6155 Y-21.4723
G01 X3.6405 Y-21.5252
G01 X3.6688 Y-21.5723
G01 X3.6980 Y-21.6120
G01 X3.7056 Y-21.6214
G01 X3.7353 Y-21.6543
G01 X3.7457 Y-21.6647
G01 X3.7856 Y-21.7001
G01 X3.8277 Y-21.7312
G01 X3.8796 Y-21.7620
G01 X3.9234 Y-21.7827
G01 X3.9805 Y-21.8034
G01 X4.0276 Y-21.8153
G01 X4.0416 Y-21.8181
G01 X4.0833 Y-21.8243
G01 X4.0980 Y-21.8258
G01 X4.1470 Y-21.8280
G01 X5.0044 Y-21.8278
G01 X5.0536 Y-21.8252
G01 X5.1125 Y-21.8163
G01 X5.1635 Y-21.8034
G01 X5.2166 Y-21.7844
G01 X5.2644 Y-21.7620
G01 X5.3102 Y-21.7350
G01 X5.3225 Y-21.7269
G01 X5.3642 Y-21.6954
G01 X5.4036 Y-21.6596
G01 X5.4367 Y-21.6234
G01 X5.4460 Y-21.6120
G01 X5.4756 Y-21.5717
G01 X5.5038 Y-21.5246
G01 X5.5252 Y-21.4798
G01 X5.5309 Y-21.4662
G01 X5.5485 Y-21.4154
G01 X5.5613 Y-21.3636
G01 X5.5690 Y-21.3119
G01 X5.5718 Y-21.2604
G01 X5.5720 Y-21.2321
G01 X5.7799 Y-21.2321
G01 X5.7802 Y-21.2889
G01 X5.7817 Y-21.3082
G01 X5.7853 Y-21.3315
G01 X5.7892 Y-21.3482
G01 X5.7959 Y-21.3701
G01 X5.8050 Y-21.3925
G01 X5.8144 Y-21.4112
G01 X5.8255 Y-21.4295
G01 X5.8405 Y-21.4502
G01 X5.8541 Y-21.4660
G01 X5.8702 Y-21.4820
G01 X5.8890 Y-21.4977
G01 X5.9059 Y-21.5095
G01 X5.9249 Y-21.5209
G01 X5.9419 Y-21.5293
G01 X5.9731 Y-21.5414
G01 X5.9933 Y-21.5470
G01 X6.0066 Y-21.5498
G01 X6.0397 Y-21.5538
G01 X6.0570 Y-21.5544
G01 X6.0743 Y-21.5538
G01 X6.1074 Y-21.5498
G01 X6.1370 Y-21.5426
G01 X6.1538 Y-21.5369
G01 X6.1721 Y-21.5293
G01 X6.2013 Y-21.5139
G01 X6.2140 Y-21.5056
G01 X6.2299 Y-21.4938
G01 X6.2529 Y-21.4733
G01 X8.8718 Y-18.8543
G01 X8.8898 Y-18.8339
G01 X8.9057 Y-18.8118
G01 X8.9222 Y-18.7828
G01 X8.9329 Y-18.7578
G01 X8.9420 Y-18.7286
G01 X8.9468 Y-18.7053
G01 X8.9498 Y-18.6783
G01 X8.9502 Y-18.6511
G01 X8.9487 Y-18.6307
G01 X8.9446 Y-18.6048
G01 X8.9382 Y-18.5797
G01 X8.9290 Y-18.5543
G01 X8.9177 Y-18.5304
G01 X8.9050 Y-18.5090
G01 X8.8898 Y-18.4881
G01 X8.8761 Y-18.4722
G01 X8.8598 Y-18.4561
G01 X8.8378 Y-18.4380
G01 X8.8158 Y-18.4234
G01 X8.7934 Y-18.4113
G01 X8.7682 Y-18.4007
G01 X8.7442 Y-18.3932
G01 X8.7176 Y-18.3875
G01 X8.6968 Y-18.3850
G01 X8.6733 Y-18.3839
G01 X6.0694 Y-18.3839
G01 X6.0386 Y-18.3857
G01 X6.0057 Y-18.3914
G01 X5.9747 Y-18.4006
G01 X5.9600 Y-18.4065
G01 X5.9421 Y-18.4150
G01 X5.9252 Y-18.4245
G01 X5.9037 Y-18.4389
G01 X5.8827 Y-18.4564
G01 X5.8665 Y-18.4724
G01 X5.8530 Y-18.4881
G01 X5.8379 Y-18.5089
G01 X5.8243 Y-18.5320
G01 X5.8182 Y-18.5442
G01 X5.8174 Y-18.5459
G01 X5.8149 Y-18.5516
G01 X5.8054 Y-18.5771
G01 X5.7977 Y-18.6068
G01 X5.7949 Y-18.6240
G01 X5.7929 Y-18.6437
G01 X5.7924 Y-18.6857
G01 X5.7268 Y-19.0153
G01 X5.5472 Y-19.2841
G01 X5.5350 Y-19.3041
G01 X5.5210 Y-19.3336
G01 X5.5119 Y-19.3597
G01 X5.5053 Y-19.3868
G01 X5.5016 Y-19.4145
G01 X5.5005 Y-19.4380
G01 X5.5011 Y-19.4553
G01 X5.5031 Y-19.4750
G01 X5.5066 Y-19.4956
G01 X5.5119 Y-19.5163
G01 X5.5180 Y-19.5348
G01 X5.5264 Y-19.5548
G01 X5.5350 Y-19.5718
G01 X5.5529 Y-19.6000
G01 X5.5639 Y-19.6143
G01 X5.5747 Y-19.6266
G01 X5.5908 Y-19.6426
G01 X5.6043 Y-19.6541
G01 X5.7254 Y-19.7752
G01 X5.7799 Y-19.9068
G01 X5.7799 Y-20.4239
G01 X5.5720 Y-20.4239
G01 X5.5718 Y-20.3956
G01 X5.5690 Y-20.3441
G01 X5.5613 Y-20.2924
G01 X5.5474 Y-20.2365
G01 X5.5285 Y-20.1837
G01 X5.5074 Y-20.1385
G01 X5.5005 Y-20.1255
G01 X5.4790 Y-20.0898
G01 X5.4709 Y-20.0775
G01 X5.4417 Y-20.0385
G01 X5.4036 Y-19.9964
G01 X5.3642 Y-19.9606
G01 X5.3225 Y-19.9291
G01 X5.3111 Y-19.9215
G01 X5.2745 Y-19.8995
G01 X5.2615 Y-19.8926
G01 X5.2166 Y-19.8716
G01 X5.1635 Y-19.8526
G01 X5.1125 Y-19.8397
G01 X5.0607 Y-19.8317
G01 X5.0460 Y-19.8302
G01 X4.9970 Y-19.8280
G01 X4.1470 Y-19.8280
G01 X4.0904 Y-19.8308
G01 X4.0315 Y-19.8397
G01 X3.9805 Y-19.8526
G01 X3.9274 Y-19.8716
G01 X3.8711 Y-19.8986
G01 X3.8323 Y-19.9219
G01 X3.8215 Y-19.9291
G01 X3.7798 Y-19.9606
G01 X3.7457 Y-19.9913
G01 X3.7353 Y-20.0017
G01 X3.7023 Y-20.0385
G01 X3.6677 Y-20.0853
G01 X3.6435 Y-20.1255
G01 X3.6366 Y-20.1385
G01 X3.6151 Y-20.1845
G01 X3.5991 Y-20.2291
G01 X3.5951 Y-20.2419
G01 X3.5837 Y-20.2875
G01 X3.5748 Y-20.3464
G01 X3.5720 Y-20.4030
G01 X3.5720 Y-21.2530
G01 X3.5748 Y-21.3096
G01 X3.5757 Y-21.3167
G01 X3.5818 Y-21.3579
G01 X3.5818 Y-21.3579
G01 X3.1858 Y-19.5580
G01 X3.2249 Y-19.5226
G01 X3.2475 Y-19.5008
G01 X3.3020 Y-19.4418
G01 X3.3565 Y-19.5008
G01 X3.3791 Y-19.5226
G01 X3.4182 Y-19.5580
G01 X3.3791 Y-19.5934
G01 X3.3565 Y-19.6152
G01 X3.3020 Y-19.6742
G01 X3.2475 Y-19.6152
G01 X3.2249 Y-19.5934
G01 X3.1858 Y-19.5580
G01 X3.3020 Y-19.1137
G01 X3.3148 Y-19.1406
G01 X3.3275 Y-19.1644
G01 X3.3580 Y-19.2157
G01 X3.3751 Y-19.2418
G01 X3.4097 Y-19.2887
G01 X3.4267 Y-19.3102
G01 X3.4681 Y-19.3565
G01 X3.4845 Y-19.3738
G01 X3.5035 Y-19.3919
G01 X3.5492 Y-19.4328
G01 X3.5702 Y-19.4495
G01 X3.6166 Y-19.4838
G01 X3.6432 Y-19.5013
G01 X3.6914 Y-19.5301
G01 X3.7184 Y-19.5447
G01 X3.7463 Y-19.5580
G01 X3.7183 Y-19.5714
G01 X3.6906 Y-19.5863
G01 X3.6432 Y-19.6147
G01 X3.6152 Y-19.6332
G01 X3.5702 Y-19.6665
G01 X3.5492 Y-19.6832
G01 X3.5035 Y-19.7241
G01 X3.4845 Y-19.7422
G01 X3.4681 Y-19.7595
G01 X3.4256 Y-19.8070
G01 X3.4095 Y-19.8275
G01 X3.3751 Y-19.8742
G01 X3.3580 Y-19.9003
G01 X3.3275 Y-19.9516
G01 X3.3148 Y-19.9754
G01 X3.3020 Y-20.0023
G01 X3.2892 Y-19.9754
G01 X3.2765 Y-19.9516
G01 X3.2699 Y-19.9401
G01 X3.2484 Y-19.9043
G01 X3.2460 Y-19.9003
G01 X3.2289 Y-19.8742
G01 X3.1943 Y-19.8273
G01 X3.1773 Y-19.8058
G01 X3.1359 Y-19.7595
G01 X3.1195 Y-19.7422
G01 X3.1005 Y-19.7241
G01 X3.0548 Y-19.6832
G01 X3.0338 Y-19.6665
G01 X2.9874 Y-19.6322
G01 X2.9608 Y-19.6147
G01 X2.9126 Y-19.5859
G01 X2.8856 Y-19.5713
G01 X2.8577 Y-19.5580
G01 X2.8857 Y-19.5446
G01 X2.9134 Y-19.5297
G01 X2.9608 Y-19.5013
G01 X2.9888 Y-19.4828
G01 X3.0338 Y-19.4495
G01 X3.0548 Y-19.4328
G01 X3.1005 Y-19.3919
G01 X3.1219 Y-19.3714
G01 X3.1784 Y-19.3090
G01 X3.1957 Y-19.2869
G01 X3.2302 Y-19.2400
G01 X3.2460 Y-19.2157
G01 X3.2765 Y-19.1644
G01 X3.2892 Y-19.1406
G01 X3.3020 Y-19.1137
G01 X3.5818 Y-18.8179
G01 X3.5846 Y-18.8323
G01 X3.5966 Y-18.8795
G01 X3.6131 Y-18.9262
G01 X3.6188 Y-18.9398
G01 X3.6405 Y-18.9852
G01 X3.6650 Y-19.0262
G01 X3.6731 Y-19.0385
G01 X3.6980 Y-19.0720
G01 X3.7073 Y-19.0834
G01 X3.7404 Y-19.1196
G01 X3.7766 Y-19.1527
G01 X3.7880 Y-19.1620
G01 X3.8277 Y-19.1912
G01 X3.8715 Y-19.2176
G01 X3.9202 Y-19.2412
G01 X3.9338 Y-19.2469
G01 X3.9805 Y-19.2634
G01 X4.0315 Y-19.2763
G01 X4.0833 Y-19.2843
G01 X4.0980 Y-19.2858
G01 X4.1470 Y-19.2880
G01 X4.9970 Y-19.2880
G01 X5.0536 Y-19.2852
G01 X5.1125 Y-19.2763
G01 X5.1568 Y-19.2652
G01 X5.1709 Y-19.2609
G01 X5.2166 Y-19.2444
G01 X5.2615 Y-19.2234
G01 X5.2732 Y-19.2172
G01 X5.3163 Y-19.1912
G01 X5.3642 Y-19.1554
G01 X5.4036 Y-19.1196
G01 X5.4367 Y-19.0834
G01 X5.4460 Y-19.0720
G01 X5.4752 Y-19.0323
G01 X5.5005 Y-18.9905
G01 X5.5060 Y-18.9804
G01 X5.5267 Y-18.9366
G01 X5.5465 Y-18.8823
G01 X5.5594 Y-18.8323
G01 X5.5622 Y-18.8179
G01 X5.5683 Y-18.7767
G01 X5.5698 Y-18.7620
G01 X5.5720 Y-18.7130
G01 X5.5720 Y-18.2076
G01 X5.6033 Y-18.1763
G01 X9.4336 Y-18.1763
G01 X9.4618 Y-18.1756
G01 X9.4936 Y-18.1734
G01 X9.5326 Y-18.1686
G01 X9.5606 Y-18.1637
G01 X9.5880 Y-18.1576
G01 X9.6219 Y-18.1484
G01 X9.6548 Y-18.1375
G01 X9.6790 Y-18.1281
G01 X9.7145 Y-18.1124
G01 X9.7433 Y-18.0977
G01 X9.7684 Y-18.0834
G01 X9.7920 Y-18.0685
G01 X9.8238 Y-18.0461
G01 X9.8489 Y-18.0263
G01 X9.8675 Y-18.0102
G01 X9.8934 Y-17.9858
G01 X11.1266 Y-16.7526
G01 X11.1393 Y-16.7585
G01 X11.1593 Y-16.7649
G01 X11.1763 Y-16.7680
G01 X11.1951 Y-16.7692
G01 X14.1948 Y-16.7692
G01 X14.2135 Y-16.7680
G01 X14.2373 Y-16.7631
G01 X14.2557 Y-16.7563
G01 X14.2768 Y-16.7448
G01 X14.2957 Y-16.7302
G01 X14.3117 Y-16.7132
G01 X14.3247 Y-16.6943
G01 X14.3346 Y-16.6736
G01 X14.3417 Y-16.6495
G01 X14.3446 Y-16.6270
G01 X14.3448 Y-15.4203
G01 X14.3430 Y-15.3973
G01 X14.3372 Y-15.3733
G01 X14.3284 Y-15.3523
G01 X14.3162 Y-15.3322
G01 X14.3009 Y-15.3143
G01 X14.2829 Y-15.2990
G01 X14.2629 Y-15.2867
G01 X14.2419 Y-15.2779
G01 X14.2266 Y-15.2738
G01 X14.2024 Y-15.2705
G01 X11.1951 Y-15.2703
G01 X11.1720 Y-15.2721
G01 X11.1545 Y-15.2759
G01 X11.1341 Y-15.2833
G01 X11.1199 Y-15.2905
G01 X11.1069 Y-15.2990
G01 X11.0949 Y-15.3087
G01 X11.0834 Y-15.3202
G01 X11.0695 Y-15.3383
G01 X11.0614 Y-15.3523
G01 X11.0540 Y-15.3695
G01 X10.9361 Y-15.3696
G01 X10.9079 Y-15.3703
G01 X10.8755 Y-15.3727
G01 X10.8407 Y-15.3772
G01 X10.8128 Y-15.3821
G01 X10.7854 Y-15.3882
G01 X10.7546 Y-15.3965
G01 X10.7186 Y-15.4083
G01 X10.6926 Y-15.4183
G01 X10.6634 Y-15.4312
G01 X10.6365 Y-15.4446
G01 X10.6087 Y-15.4602
G01 X10.5793 Y-15.4786
G01 X10.5518 Y-15.4980
G01 X10.5301 Y-15.5148
G01 X10.5015 Y-15.5395
G01 X10.4800 Y-15.5600
G01 X9.1642 Y-16.8757
G01 X5.3340 Y-16.8757
G01 X5.2984 Y-16.8768
G01 X5.2666 Y-16.8793
G01 X5.2412 Y-16.8824
G01 X5.2070 Y-16.8883
G01 X5.1796 Y-16.8944
G01 X5.1417 Y-16.9049
G01 X5.1135 Y-16.9143
G01 X5.0844 Y-16.9256
G01 X5.0530 Y-16.9396
G01 X5.0260 Y-16.9533
G01 X4.9979 Y-16.9694
G01 X4.9755 Y-16.9835
G01 X4.9460 Y-17.0042
G01 X4.9244 Y-17.0210
G01 X4.8966 Y-17.0448
G01 X4.8742 Y-17.0662
G01 X4.6524 Y-17.2880
G01 X4.1470 Y-17.2880
G01 X4.0904 Y-17.2908
G01 X4.0315 Y-17.2997
G01 X3.9805 Y-17.3126
G01 X3.9274 Y-17.3316
G01 X3.8796 Y-17.3540
G01 X3.8338 Y-17.3810
G01 X3.8215 Y-17.3891
G01 X3.7856 Y-17.4159
G01 X3.7766 Y-17.4233
G01 X3.7404 Y-17.4564
G01 X3.7023 Y-17.4985
G01 X3.6694 Y-17.5428
G01 X3.6435 Y-17.5855
G01 X3.6366 Y-17.5985
G01 X3.6151 Y-17.6445
G01 X3.5966 Y-17.6965
G01 X3.5846 Y-17.7437
G01 X3.5818 Y-17.7581
G01 X3.5748 Y-17.8064
G01 X3.5720 Y-17.8630
G01 X3.5720 Y-18.7130
G01 X3.5748 Y-18.7696
G01 X3.5818 Y-18.8179
G00 Z1.9990
G00 X5.3977 Y-22.0980
G01 F80.00
G01 Z-0.3732
G01 F80.00
G01 X5.4364 Y-22.0790
G01 X5.4847 Y-22.0510
G01 X5.4600 Y-22.0894
G01 X5.4421 Y-22.1200
G01 X5.3977 Y-22.0980
G00 Z1.9990
G00 X3.5818 Y-23.8979
G01 F80.00
G01 Z-0.3732
G01 F80.00
G01 X3.5846 Y-23.9123
G01 X3.5951 Y-23.9541
G01 X3.5991 Y-23.9669
G01 X3.6155 Y-24.0123
G01 X3.6405 Y-24.0652
G01 X3.6688 Y-24.1123
G01 X3.6980 Y-24.1520
G01 X3.7073 Y-24.1634
G01 X3.7404 Y-24.1996
G01 X3.7798 Y-24.2354
G01 X3.8215 Y-24.2669
G01 X3.8338 Y-24.2750
G01 X3.8796 Y-24.3020
G01 X3.9277 Y-24.3246
G01 X3.9731 Y-24.3409
G01 X3.9872 Y-24.3452
G01 X4.0315 Y-24.3563
G01 X4.0904 Y-24.3652
G01 X4.1470 Y-24.3680
G01 X4.9970 Y-24.3680
G01 X5.0492 Y-24.3656
G01 X5.1125 Y-24.3563
G01 X5.1568 Y-24.3452
G01 X5.1709 Y-24.3409
