(G-CODE GENERATED BY FLATCAM v8.96 - www.flatcam.org - Version Date: 2019/08/23)

(Name: carte-radio-raspberry-drill-800)
(Type: G-code from Excellon)
(Units: MM)

(Created on lundi, 16 décembre 2019 at 19:36)

(Feedrate: 79.9998 mm/min)
(Feedrate rapids 800.0009 mm/min)

(Z_Cut: -3.0 mm)
(Z_Move: 1.999 mm)
(Z Toolchange: 12.7 mm)
(X,Y Toolchange: 0.0000, 0.0000 mm)
(Z Start: None mm)
(Z End: 12.7 mm)
(Steps per circle: 128)
(Postprocessor Excellon: default)

(X range:   -1.1000 ...   23.7680  mm)
(Y range:  -23.7680 ...    1.6770  mm)

(Spindle Speed: None RPM)

G21
G90
G94

G01 F80.00
G00 Z1.9990

M03
G00 X15.7480 Y-1.2230
G01 Z-3.0000
G01 Z0
G00 Z1.9990
G00 X23.3680 Y1.2770
G01 Z-3.0000
G01 Z0
G00 Z1.9990
G00 X23.3680 Y-6.2230
G01 Z-3.0000
G01 Z0
G00 Z1.9990
G00 X15.7480 Y-6.2230
G01 Z-3.0000
G01 Z0
G00 Z1.9990
G00 X8.7630 Y-15.7480
G01 Z-3.0000
G01 Z0
G00 Z1.9990
G00 X4.5720 Y-13.2080
G01 Z-3.0000
G01 Z0
G00 Z1.9990
G00 X4.5720 Y-15.7480
G01 Z-3.0000
G01 Z0
G00 Z1.9990
G00 X4.5720 Y-18.2880
G01 Z-3.0000
G01 Z0
G00 Z1.9990
G00 X4.5720 Y-20.8280
G01 Z-3.0000
G01 Z0
G00 Z1.9990
G00 X4.5720 Y-23.3680
G01 Z-3.0000
G01 Z0
G00 Z1.9990
G00 X2.0320 Y-23.3680
G01 Z-3.0000
G01 Z0
G00 Z1.9990
G00 X2.0320 Y-20.8280
G01 Z-3.0000
G01 Z0
G00 Z1.9990
G00 X2.0320 Y-18.2880
G01 Z-3.0000
G01 Z0
G00 Z1.9990
G00 X2.0320 Y-15.7480
G01 Z-3.0000
G01 Z0
G00 Z1.9990
G00 X2.0320 Y-13.2080
G01 Z-3.0000
G01 Z0
G00 Z1.9990
G00 X2.0320 Y-10.6680
G01 Z-3.0000
G01 Z0
G00 Z1.9990
G00 X4.5720 Y-10.6680
G01 Z-3.0000
G01 Z0
G00 Z1.9990
G00 X8.7630 Y-10.6680
G01 Z-3.0000
G01 Z0
G00 Z1.9990
M05
G00 Z12.70
G00 X0.0 Y0.0

M02