(G-CODE GENERATED BY FLATCAM v8.96 - www.flatcam.org - Version Date: 2019/08/23)

(Name: carte-radio-raspberry-Edge-2400.Cuts)
(Type: G-code from Geometry)
(Units: MM)

(Created on lundi, 16 décembre 2019 at 19:37)

(TOOL DIAMETER: 2.4 mm)
(Feedrate: 79.9998 mm/min)
(Feedrate_Z: 79.9998 mm/min)
(Feedrate rapids 79.9998 mm/min)

(Z_Cut: -4.0 mm)
(DepthPerCut: 0.8001 mm <=>5 passes)
(Z_Move: 1.999 mm)
(Z Toolchange: 12.7 mm)
(X,Y Toolchange: 0.0000, 0.0000 mm)
(Z Start: None mm)
(Z End: 12.7 mm)
(Steps per circle: 128)
(Postprocessor Geometry: default)

(X range:   -4.4223 ...   36.9343  mm)
(Y range:  -29.8223 ...    4.4223  mm)

(Spindle Speed: None RPM)

G21
G90
G94

G01 F80.00
G00 Z1.9990

M03
G00 X-4.4223 Y-10.4008
G01 F80.00
G01 Z-0.8001
G01 F80.00
G01 X-4.4218 Y3.0836
G01 X-4.4187 Y3.1473
G01 X-4.4157 Y3.1827
G01 X-4.4074 Y3.2496
G01 X-4.3959 Y3.3161
G01 X-4.3811 Y3.3819
G01 X-4.3631 Y3.4469
G01 X-4.3523 Y3.4808
G01 X-4.3308 Y3.5409
G01 X-4.3036 Y3.6066
G01 X-4.2747 Y3.6675
G01 X-4.2446 Y3.7238
G01 X-4.2268 Y3.7545
G01 X-4.1907 Y3.8115
G01 X-4.1518 Y3.8667
G01 X-4.1103 Y3.9198
G01 X-4.0663 Y3.9709
G01 X-4.0198 Y4.0198
G01 X-3.9709 Y4.0663
G01 X-3.9442 Y4.0898
G01 X-3.8949 Y4.1303
G01 X-3.8667 Y4.1518
G01 X-3.8115 Y4.1907
G01 X-3.7545 Y4.2268
G01 X-3.7238 Y4.2446
G01 X-3.6675 Y4.2747
G01 X-3.6066 Y4.3036
G01 X-3.5739 Y4.3177
G01 X-3.5110 Y4.3420
G01 X-3.4469 Y4.3631
G01 X-3.4128 Y4.3730
G01 X-3.3509 Y4.3885
G01 X-3.2848 Y4.4017
G01 X-3.2496 Y4.4074
G01 X-3.1827 Y4.4157
G01 X-3.1154 Y4.4206
G01 X-3.0639 Y4.4222
G01 X14.1549 Y4.4223
G00 X14.1549 Y4.4223
G01 F80.00
G01 Z-1.6002
G01 F80.00
G01 X-3.0639 Y4.4222
G01 X-3.1154 Y4.4206
G01 X-3.1827 Y4.4157
G01 X-3.2496 Y4.4074
G01 X-3.2848 Y4.4017
G01 X-3.3509 Y4.3885
G01 X-3.4128 Y4.3730
G01 X-3.4469 Y4.3631
G01 X-3.5110 Y4.3420
G01 X-3.5739 Y4.3177
G01 X-3.6066 Y4.3036
G01 X-3.6675 Y4.2747
G01 X-3.7238 Y4.2446
G01 X-3.7545 Y4.2268
G01 X-3.8115 Y4.1907
G01 X-3.8667 Y4.1518
G01 X-3.8949 Y4.1303
G01 X-3.9442 Y4.0898
G01 X-3.9709 Y4.0663
G01 X-4.0198 Y4.0198
G01 X-4.0663 Y3.9709
G01 X-4.1103 Y3.9198
G01 X-4.1518 Y3.8667
G01 X-4.1907 Y3.8115
G01 X-4.2268 Y3.7545
G01 X-4.2446 Y3.7238
G01 X-4.2747 Y3.6675
G01 X-4.3036 Y3.6066
G01 X-4.3308 Y3.5409
G01 X-4.3523 Y3.4808
G01 X-4.3631 Y3.4469
G01 X-4.3811 Y3.3819
G01 X-4.3959 Y3.3161
G01 X-4.4074 Y3.2496
G01 X-4.4157 Y3.1827
G01 X-4.4187 Y3.1473
G01 X-4.4218 Y3.0836
G01 X-4.4223 Y-10.4008
G00 X-4.4223 Y-10.4008
G01 F80.00
G01 Z-2.4003
G01 F80.00
G01 X-4.4218 Y3.0836
G01 X-4.4187 Y3.1473
G01 X-4.4157 Y3.1827
G01 X-4.4074 Y3.2496
G01 X-4.3959 Y3.3161
G01 X-4.3811 Y3.3819
G01 X-4.3631 Y3.4469
G01 X-4.3523 Y3.4808
G01 X-4.3308 Y3.5409
G01 X-4.3036 Y3.6066
G01 X-4.2747 Y3.6675
G01 X-4.2446 Y3.7238
G01 X-4.2268 Y3.7545
G01 X-4.1907 Y3.8115
G01 X-4.1518 Y3.8667
G01 X-4.1103 Y3.9198
G01 X-4.0663 Y3.9709
G01 X-4.0198 Y4.0198
G01 X-3.9709 Y4.0663
G01 X-3.9442 Y4.0898
G01 X-3.8949 Y4.1303
G01 X-3.8667 Y4.1518
G01 X-3.8115 Y4.1907
G01 X-3.7545 Y4.2268
G01 X-3.7238 Y4.2446
G01 X-3.6675 Y4.2747
G01 X-3.6066 Y4.3036
G01 X-3.5739 Y4.3177
G01 X-3.5110 Y4.3420
G01 X-3.4469 Y4.3631
G01 X-3.4128 Y4.3730
G01 X-3.3509 Y4.3885
G01 X-3.2848 Y4.4017
G01 X-3.2496 Y4.4074
G01 X-3.1827 Y4.4157
G01 X-3.1154 Y4.4206
G01 X-3.0639 Y4.4222
G01 X14.1549 Y4.4223
G00 X14.1549 Y4.4223
G01 F80.00
G01 Z-3.2004
G01 F80.00
G01 X-3.0639 Y4.4222
G01 X-3.1154 Y4.4206
G01 X-3.1827 Y4.4157
G01 X-3.2496 Y4.4074
G01 X-3.2848 Y4.4017
G01 X-3.3509 Y4.3885
G01 X-3.4128 Y4.3730
G01 X-3.4469 Y4.3631
G01 X-3.5110 Y4.3420
G01 X-3.5739 Y4.3177
G01 X-3.6066 Y4.3036
G01 X-3.6675 Y4.2747
G01 X-3.7238 Y4.2446
G01 X-3.7545 Y4.2268
G01 X-3.8115 Y4.1907
G01 X-3.8667 Y4.1518
G01 X-3.8949 Y4.1303
G01 X-3.9442 Y4.0898
G01 X-3.9709 Y4.0663
G01 X-4.0198 Y4.0198
G01 X-4.0663 Y3.9709
G01 X-4.1103 Y3.9198
G01 X-4.1518 Y3.8667
G01 X-4.1907 Y3.8115
G01 X-4.2268 Y3.7545
G01 X-4.2446 Y3.7238
G01 X-4.2747 Y3.6675
G01 X-4.3036 Y3.6066
G01 X-4.3308 Y3.5409
G01 X-4.3523 Y3.4808
G01 X-4.3631 Y3.4469
G01 X-4.3811 Y3.3819
G01 X-4.3959 Y3.3161
G01 X-4.4074 Y3.2496
G01 X-4.4157 Y3.1827
G01 X-4.4187 Y3.1473
G01 X-4.4218 Y3.0836
G01 X-4.4223 Y-10.4008
G00 X-4.4223 Y-10.4008
G01 F80.00
G01 Z-4.0000
G01 F80.00
G01 X-4.4218 Y3.0836
G01 X-4.4187 Y3.1473
G01 X-4.4157 Y3.1827
G01 X-4.4074 Y3.2496
G01 X-4.3959 Y3.3161
G01 X-4.3811 Y3.3819
G01 X-4.3631 Y3.4469
G01 X-4.3523 Y3.4808
G01 X-4.3308 Y3.5409
G01 X-4.3036 Y3.6066
G01 X-4.2747 Y3.6675
G01 X-4.2446 Y3.7238
G01 X-4.2268 Y3.7545
G01 X-4.1907 Y3.8115
G01 X-4.1518 Y3.8667
G01 X-4.1103 Y3.9198
G01 X-4.0663 Y3.9709
G01 X-4.0198 Y4.0198
G01 X-3.9709 Y4.0663
G01 X-3.9442 Y4.0898
G01 X-3.8949 Y4.1303
G01 X-3.8667 Y4.1518
G01 X-3.8115 Y4.1907
G01 X-3.7545 Y4.2268
G01 X-3.7238 Y4.2446
G01 X-3.6675 Y4.2747
G01 X-3.6066 Y4.3036
G01 X-3.5739 Y4.3177
G01 X-3.5110 Y4.3420
G01 X-3.4469 Y4.3631
G01 X-3.4128 Y4.3730
G01 X-3.3509 Y4.3885
G01 X-3.2848 Y4.4017
G01 X-3.2496 Y4.4074
G01 X-3.1827 Y4.4157
G01 X-3.1154 Y4.4206
G01 X-3.0639 Y4.4222
G01 X14.1549 Y4.4223
G00 Z1.9990
G00 X18.5553 Y4.4223
G01 F80.00
G01 Z-0.8001
G01 F80.00
G01 X25.1460 Y4.4223
G01 X25.2134 Y4.4206
G01 X25.2489 Y4.4184
G01 X25.3124 Y4.4122
G01 X25.3476 Y4.4074
G01 X25.4141 Y4.3959
G01 X25.4799 Y4.3811
G01 X25.5143 Y4.3720
G01 X25.5753 Y4.3535
G01 X25.6389 Y4.3308
G01 X25.6719 Y4.3177
G01 X25.7336 Y4.2903
G01 X25.7938 Y4.2600
G01 X25.8250 Y4.2428
G01 X25.8828 Y4.2081
G01 X25.9358 Y4.1726
G01 X25.9647 Y4.1518
G01 X26.0178 Y4.1103
G01 X26.0689 Y4.0663
G01 X26.1178 Y4.0198
G01 X36.5318 Y-6.3942
G01 X36.5783 Y-6.4431
G01 X36.6018 Y-6.4698
G01 X36.6423 Y-6.5191
G01 X36.6638 Y-6.5473
G01 X36.7027 Y-6.6025
G01 X36.7220 Y-6.6323
G01 X36.7548 Y-6.6870
G01 X36.7720 Y-6.7182
G01 X36.8023 Y-6.7784
G01 X36.8171 Y-6.8108
G01 X36.8415 Y-6.8697
G01 X36.8540 Y-6.9030
G01 X36.8751 Y-6.9671
G01 X36.8850 Y-7.0012
G01 X36.9005 Y-7.0631
G01 X36.9079 Y-7.0979
G01 X36.9143 Y-7.1329
G01 X36.9237 Y-7.1959
G01 X36.9307 Y-7.2667
G01 X36.9338 Y-7.3304
G01 X36.9343 Y-7.3660
G01 X36.9343 Y-10.4008
G00 X36.9343 Y-10.4008
G01 F80.00
G01 Z-1.6002
G01 F80.00
G01 X36.9343 Y-7.3660
G01 X36.9338 Y-7.3304
G01 X36.9307 Y-7.2667
G01 X36.9237 Y-7.1959
G01 X36.9143 Y-7.1329
G01 X36.9079 Y-7.0979
G01 X36.9005 Y-7.0631
G01 X36.8850 Y-7.0012
G01 X36.8751 Y-6.9671
G01 X36.8540 Y-6.9030
G01 X36.8415 Y-6.8697
G01 X36.8171 Y-6.8108
G01 X36.8023 Y-6.7784
G01 X36.7720 Y-6.7182
G01 X36.7548 Y-6.6870
G01 X36.7220 Y-6.6323
G01 X36.7027 Y-6.6025
G01 X36.6638 Y-6.5473
G01 X36.6423 Y-6.5191
G01 X36.6018 Y-6.4698
G01 X36.5783 Y-6.4431
G01 X36.5318 Y-6.3942
G01 X26.1178 Y4.0198
G01 X26.0689 Y4.0663
G01 X26.0178 Y4.1103
G01 X25.9647 Y4.1518
G01 X25.9358 Y4.1726
G01 X25.8828 Y4.2081
G01 X25.8250 Y4.2428
G01 X25.7938 Y4.2600
G01 X25.7336 Y4.2903
G01 X25.6719 Y4.3177
G01 X25.6389 Y4.3308
G01 X25.5753 Y4.3535
G01 X25.5143 Y4.3720
G01 X25.4799 Y4.3811
G01 X25.4141 Y4.3959
G01 X25.3476 Y4.4074
G01 X25.3124 Y4.4122
G01 X25.2489 Y4.4184
G01 X25.2134 Y4.4206
G01 X25.1460 Y4.4223
G01 X18.5553 Y4.4223
G00 X18.5553 Y4.4223
G01 F80.00
G01 Z-2.4003
G01 F80.00
G01 X25.1460 Y4.4223
G01 X25.2134 Y4.4206
G01 X25.2489 Y4.4184
G01 X25.3124 Y4.4122
G01 X25.3476 Y4.4074
G01 X25.4141 Y4.3959
G01 X25.4799 Y4.3811
G01 X25.5143 Y4.3720
G01 X25.5753 Y4.3535
G01 X25.6389 Y4.3308
G01 X25.6719 Y4.3177
G01 X25.7336 Y4.2903
G01 X25.7938 Y4.2600
G01 X25.8250 Y4.2428
G01 X25.8828 Y4.2081
G01 X25.9358 Y4.1726
G01 X25.9647 Y4.1518
G01 X26.0178 Y4.1103
G01 X26.0689 Y4.0663
G01 X26.1178 Y4.0198
G01 X36.5318 Y-6.3942
G01 X36.5783 Y-6.4431
G01 X36.6018 Y-6.4698
G01 X36.6423 Y-6.5191
G01 X36.6638 Y-6.5473
G01 X36.7027 Y-6.6025
G01 X36.7220 Y-6.6323
G01 X36.7548 Y-6.6870
G01 X36.7720 Y-6.7182
G01 X36.8023 Y-6.7784
G01 X36.8171 Y-6.8108
G01 X36.8415 Y-6.8697
G01 X36.8540 Y-6.9030
G01 X36.8751 Y-6.9671
G01 X36.8850 Y-7.0012
G01 X36.9005 Y-7.0631
G01 X36.9079 Y-7.0979
G01 X36.9143 Y-7.1329
G01 X36.9237 Y-7.1959
G01 X36.9307 Y-7.2667
G01 X36.9338 Y-7.3304
G01 X36.9343 Y-7.3660
G01 X36.9343 Y-10.4008
G00 X36.9343 Y-10.4008
G01 F80.00
G01 Z-3.2004
G01 F80.00
G01 X36.9343 Y-7.3660
G01 X36.9338 Y-7.3304
G01 X36.9307 Y-7.2667
G01 X36.9237 Y-7.1959
G01 X36.9143 Y-7.1329
G01 X36.9079 Y-7.0979
G01 X36.9005 Y-7.0631
G01 X36.8850 Y-7.0012
G01 X36.8751 Y-6.9671
G01 X36.8540 Y-6.9030
G01 X36.8415 Y-6.8697
G01 X36.8171 Y-6.8108
G01 X36.8023 Y-6.7784
G01 X36.7720 Y-6.7182
G01 X36.7548 Y-6.6870
G01 X36.7220 Y-6.6323
G01 X36.7027 Y-6.6025
G01 X36.6638 Y-6.5473
G01 X36.6423 Y-6.5191
G01 X36.6018 Y-6.4698
G01 X36.5783 Y-6.4431
G01 X36.5318 Y-6.3942
G01 X26.1178 Y4.0198
G01 X26.0689 Y4.0663
G01 X26.0178 Y4.1103
G01 X25.9647 Y4.1518
G01 X25.9358 Y4.1726
G01 X25.8828 Y4.2081
G01 X25.8250 Y4.2428
G01 X25.7938 Y4.2600
G01 X25.7336 Y4.2903
G01 X25.6719 Y4.3177
G01 X25.6389 Y4.3308
G01 X25.5753 Y4.3535
G01 X25.5143 Y4.3720
G01 X25.4799 Y4.3811
G01 X25.4141 Y4.3959
G01 X25.3476 Y4.4074
G01 X25.3124 Y4.4122
G01 X25.2489 Y4.4184
G01 X25.2134 Y4.4206
G01 X25.1460 Y4.4223
G01 X18.5553 Y4.4223
G00 X18.5553 Y4.4223
G01 F80.00
G01 Z-4.0000
G01 F80.00
G01 X25.1460 Y4.4223
G01 X25.2134 Y4.4206
G01 X25.2489 Y4.4184
G01 X25.3124 Y4.4122
G01 X25.3476 Y4.4074
G01 X25.4141 Y4.3959
G01 X25.4799 Y4.3811
G01 X25.5143 Y4.3720
G01 X25.5753 Y4.3535
G01 X25.6389 Y4.3308
G01 X25.6719 Y4.3177
G01 X25.7336 Y4.2903
G01 X25.7938 Y4.2600
G01 X25.8250 Y4.2428
G01 X25.8828 Y4.2081
G01 X25.9358 Y4.1726
G01 X25.9647 Y4.1518
G01 X26.0178 Y4.1103
G01 X26.0689 Y4.0663
G01 X26.1178 Y4.0198
G01 X36.5318 Y-6.3942
G01 X36.5783 Y-6.4431
G01 X36.6018 Y-6.4698
G01 X36.6423 Y-6.5191
G01 X36.6638 Y-6.5473
G01 X36.7027 Y-6.6025
G01 X36.7220 Y-6.6323
G01 X36.7548 Y-6.6870
G01 X36.7720 Y-6.7182
G01 X36.8023 Y-6.7784
G01 X36.8171 Y-6.8108
G01 X36.8415 Y-6.8697
G01 X36.8540 Y-6.9030
G01 X36.8751 Y-6.9671
G01 X36.8850 Y-7.0012
G01 X36.9005 Y-7.0631
G01 X36.9079 Y-7.0979
G01 X36.9143 Y-7.1329
G01 X36.9237 Y-7.1959
G01 X36.9307 Y-7.2667
G01 X36.9338 Y-7.3304
G01 X36.9343 Y-7.3660
G01 X36.9343 Y-10.4008
G00 Z1.9990
G00 X36.9343 Y-14.8011
G01 F80.00
G01 Z-0.8001
G01 F80.00
G01 X36.9339 Y-28.4799
G00 X36.9339 Y-28.4799
G01 F80.00
G01 Z-1.6002
G01 F80.00
G01 X36.9343 Y-14.8011
G00 X36.9343 Y-14.8011
G01 F80.00
G01 Z-2.4003
G01 F80.00
G01 X36.9339 Y-28.4799
G00 X36.9339 Y-28.4799
G01 F80.00
G01 Z-3.2004
G01 F80.00
G01 X36.9343 Y-14.8011
G00 X36.9343 Y-14.8011
G01 F80.00
G01 Z-4.0000
G01 F80.00
G01 X36.9339 Y-28.4799
G00 Z1.9990
G00 X36.9339 Y-28.4799
G01 F80.00
G01 Z-0.8001
G01 F80.00
G01 X36.9326 Y-28.5154
G01 X36.9277 Y-28.5827
G01 X36.9194 Y-28.6497
G01 X36.9079 Y-28.7161
G01 X36.8931 Y-28.7819
G01 X36.8751 Y-28.8469
G01 X36.8540 Y-28.9110
G01 X36.8297 Y-28.9739
G01 X36.8023 Y-29.0356
G01 X36.7720 Y-29.0958
G01 X36.7388 Y-29.1545
G01 X36.7201 Y-29.1848
G01 X36.6846 Y-29.2378
G01 X36.6445 Y-29.2920
G01 X36.6018 Y-29.3442
G01 X36.5566 Y-29.3943
G01 X36.5318 Y-29.4198
G01 X36.4829 Y-29.4663
G01 X36.4318 Y-29.5103
G01 X36.3787 Y-29.5518
G01 X36.3235 Y-29.5907
G01 X36.2665 Y-29.6268
G01 X36.2078 Y-29.6600
G01 X36.1476 Y-29.6903
G01 X36.0859 Y-29.7177
G01 X36.0230 Y-29.7419
G01 X35.9589 Y-29.7631
G01 X35.8939 Y-29.7811
G01 X35.8281 Y-29.7959
G01 X35.7617 Y-29.8074
G01 X35.6947 Y-29.8157
G01 X35.6593 Y-29.8187
G01 X35.5956 Y-29.8218
G01 X35.5600 Y-29.8223
G01 X18.5553 Y-29.8223
G00 X18.5553 Y-29.8223
G01 F80.00
G01 Z-1.6002
G01 F80.00
G01 X35.5600 Y-29.8223
G01 X35.5956 Y-29.8218
G01 X35.6593 Y-29.8187
G01 X35.6947 Y-29.8157
G01 X35.7617 Y-29.8074
G01 X35.8281 Y-29.7959
G01 X35.8939 Y-29.7811
G01 X35.9589 Y-29.7631
G01 X36.0230 Y-29.7419
G01 X36.0859 Y-29.7177
G01 X36.1476 Y-29.6903
G01 X36.2078 Y-29.6600
G01 X36.2665 Y-29.6268
G01 X36.3235 Y-29.5907
G01 X36.3787 Y-29.5518
G01 X36.4318 Y-29.5103
G01 X36.4829 Y-29.4663
G01 X36.5318 Y-29.4198
G01 X36.5566 Y-29.3943
G01 X36.6018 Y-29.3442
G01 X36.6445 Y-29.2920
G01 X36.6846 Y-29.2378
G01 X36.7201 Y-29.1848
G01 X36.7388 Y-29.1545
G01 X36.7720 Y-29.0958
G01 X36.8023 Y-29.0356
G01 X36.8297 Y-28.9739
G01 X36.8540 Y-28.9110
G01 X36.8751 Y-28.8469
G01 X36.8931 Y-28.7819
G01 X36.9079 Y-28.7161
G01 X36.9194 Y-28.6497
G01 X36.9277 Y-28.5827
G01 X36.9326 Y-28.5154
G01 X36.9339 Y-28.4799
G00 X36.9339 Y-28.4799
G01 F80.00
G01 Z-2.4003
G01 F80.00
G01 X36.9326 Y-28.5154
G01 X36.9277 Y-28.5827
G01 X36.9194 Y-28.6497
G01 X36.9079 Y-28.7161
G01 X36.8931 Y-28.7819
G01 X36.8751 Y-28.8469
G01 X36.8540 Y-28.9110
G01 X36.8297 Y-28.9739
G01 X36.8023 Y-29.0356
G01 X36.7720 Y-29.0958
G01 X36.7388 Y-29.1545
G01 X36.7201 Y-29.1848
G01 X36.6846 Y-29.2378
G01 X36.6445 Y-29.2920
G01 X36.6018 Y-29.3442
G01 X36.5566 Y-29.3943
G01 X36.5318 Y-29.4198
G01 X36.4829 Y-29.4663
G01 X36.4318 Y-29.5103
G01 X36.3787 Y-29.5518
G01 X36.3235 Y-29.5907
G01 X36.2665 Y-29.6268
G01 X36.2078 Y-29.6600
G01 X36.1476 Y-29.6903
G01 X36.0859 Y-29.7177
G01 X36.0230 Y-29.7419
G01 X35.9589 Y-29.7631
G01 X35.8939 Y-29.7811
G01 X35.8281 Y-29.7959
G01 X35.7617 Y-29.8074
G01 X35.6947 Y-29.8157
G01 X35.6593 Y-29.8187
G01 X35.5956 Y-29.8218
G01 X35.5600 Y-29.8223
G01 X18.5553 Y-29.8223
G00 X18.5553 Y-29.8223
G01 F80.00
G01 Z-3.2004
G01 F80.00
G01 X35.5600 Y-29.8223
G01 X35.5956 Y-29.8218
G01 X35.6593 Y-29.8187
G01 X35.6947 Y-29.8157
G01 X35.7617 Y-29.8074
G01 X35.8281 Y-29.7959
G01 X35.8939 Y-29.7811
G01 X35.9589 Y-29.7631
G01 X36.0230 Y-29.7419
G01 X36.0859 Y-29.7177
G01 X36.1476 Y-29.6903
G01 X36.2078 Y-29.6600
G01 X36.2665 Y-29.6268
G01 X36.3235 Y-29.5907
G01 X36.3787 Y-29.5518
G01 X36.4318 Y-29.5103
G01 X36.4829 Y-29.4663
G01 X36.5318 Y-29.4198
G01 X36.5566 Y-29.3943
G01 X36.6018 Y-29.3442
G01 X36.6445 Y-29.2920
G01 X36.6846 Y-29.2378
G01 X36.7201 Y-29.1848
G01 X36.7388 Y-29.1545
G01 X36.7720 Y-29.0958
G01 X36.8023 Y-29.0356
G01 X36.8297 Y-28.9739
G01 X36.8540 Y-28.9110
G01 X36.8751 Y-28.8469
G01 X36.8931 Y-28.7819
G01 X36.9079 Y-28.7161
G01 X36.9194 Y-28.6497
G01 X36.9277 Y-28.5827
G01 X36.9326 Y-28.5154
G01 X36.9339 Y-28.4799
G00 X36.9339 Y-28.4799
G01 F80.00
G01 Z-4.0000
G01 F80.00
G01 X36.9326 Y-28.5154
G01 X36.9277 Y-28.5827
G01 X36.9194 Y-28.6497
G01 X36.9079 Y-28.7161
G01 X36.8931 Y-28.7819
G01 X36.8751 Y-28.8469
G01 X36.8540 Y-28.9110
G01 X36.8297 Y-28.9739
G01 X36.8023 Y-29.0356
G01 X36.7720 Y-29.0958
G01 X36.7388 Y-29.1545
G01 X36.7201 Y-29.1848
G01 X36.6846 Y-29.2378
G01 X36.6445 Y-29.2920
G01 X36.6018 Y-29.3442
G01 X36.5566 Y-29.3943
G01 X36.5318 Y-29.4198
G01 X36.4829 Y-29.4663
G01 X36.4318 Y-29.5103
G01 X36.3787 Y-29.5518
G01 X36.3235 Y-29.5907
G01 X36.2665 Y-29.6268
G01 X36.2078 Y-29.6600
G01 X36.1476 Y-29.6903
G01 X36.0859 Y-29.7177
G01 X36.0230 Y-29.7419
G01 X35.9589 Y-29.7631
G01 X35.8939 Y-29.7811
G01 X35.8281 Y-29.7959
G01 X35.7617 Y-29.8074
G01 X35.6947 Y-29.8157
G01 X35.6593 Y-29.8187
G01 X35.5956 Y-29.8218
G01 X35.5600 Y-29.8223
G01 X18.5553 Y-29.8223
G00 Z1.9990
G00 X14.1549 Y-29.8223
G01 F80.00
G01 Z-0.8001
G01 F80.00
G01 X-3.0639 Y-29.8222
G01 X-3.1154 Y-29.8206
G01 X-3.1827 Y-29.8157
G01 X-3.2496 Y-29.8074
G01 X-3.2848 Y-29.8017
G01 X-3.3509 Y-29.7885
G01 X-3.4128 Y-29.7730
G01 X-3.4469 Y-29.7631
G01 X-3.5110 Y-29.7420
G01 X-3.5739 Y-29.7177
G01 X-3.6066 Y-29.7036
G01 X-3.6642 Y-29.6764
G01 X-3.7238 Y-29.6446
G01 X-3.7545 Y-29.6268
G01 X-3.8115 Y-29.5907
G01 X-3.8667 Y-29.5518
G01 X-3.9198 Y-29.5103
G01 X-3.9709 Y-29.4663
G01 X-4.0198 Y-29.4198
G01 X-4.0663 Y-29.3709
G01 X-4.0898 Y-29.3442
G01 X-4.1303 Y-29.2949
G01 X-4.1705 Y-29.2408
G01 X-4.2081 Y-29.1848
G01 X-4.2446 Y-29.1238
G01 X-4.2764 Y-29.0642
G01 X-4.3036 Y-29.0066
G01 X-4.3177 Y-28.9739
G01 X-4.3420 Y-28.9110
G01 X-4.3631 Y-28.8469
G01 X-4.3811 Y-28.7819
G01 X-4.3959 Y-28.7161
G01 X-4.4074 Y-28.6496
G01 X-4.4157 Y-28.5827
G01 X-4.4187 Y-28.5473
G01 X-4.4218 Y-28.4836
G01 X-4.4223 Y-14.8011
G00 X-4.4223 Y-14.8011
G01 F80.00
G01 Z-1.6002
G01 F80.00
G01 X-4.4218 Y-28.4836
G01 X-4.4187 Y-28.5473
G01 X-4.4157 Y-28.5827
G01 X-4.4074 Y-28.6496
G01 X-4.3959 Y-28.7161
G01 X-4.3811 Y-28.7819
G01 X-4.3631 Y-28.8469
G01 X-4.3420 Y-28.9110
G01 X-4.3177 Y-28.9739
G01 X-4.3036 Y-29.0066
G01 X-4.2764 Y-29.0642
G01 X-4.2446 Y-29.1238
G01 X-4.2081 Y-29.1848
G01 X-4.1705 Y-29.2408
G01 X-4.1303 Y-29.2949
G01 X-4.0898 Y-29.3442
G01 X-4.0663 Y-29.3709
G01 X-4.0198 Y-29.4198
G01 X-3.9709 Y-29.4663
G01 X-3.9198 Y-29.5103
G01 X-3.8667 Y-29.5518
G01 X-3.8115 Y-29.5907
G01 X-3.7545 Y-29.6268
G01 X-3.7238 Y-29.6446
G01 X-3.6642 Y-29.6764
G01 X-3.6066 Y-29.7036
G01 X-3.5739 Y-29.7177
G01 X-3.5110 Y-29.7420
G01 X-3.4469 Y-29.7631
G01 X-3.4128 Y-29.7730
G01 X-3.3509 Y-29.7885
G01 X-3.2848 Y-29.8017
G01 X-3.2496 Y-29.8074
G01 X-3.1827 Y-29.8157
G01 X-3.1154 Y-29.8206
G01 X-3.0639 Y-29.8222
G01 X14.1549 Y-29.8223
G00 X14.1549 Y-29.8223
G01 F80.00
G01 Z-2.4003
G01 F80.00
G01 X-3.0639 Y-29.8222
G01 X-3.1154 Y-29.8206
G01 X-3.1827 Y-29.8157
G01 X-3.2496 Y-29.8074
G01 X-3.2848 Y-29.8017
G01 X-3.3509 Y-29.7885
G01 X-3.4128 Y-29.7730
G01 X-3.4469 Y-29.7631
G01 X-3.5110 Y-29.7420
G01 X-3.5739 Y-29.7177
G01 X-3.6066 Y-29.7036
G01 X-3.6642 Y-29.6764
G01 X-3.7238 Y-29.6446
G01 X-3.7545 Y-29.6268
G01 X-3.8115 Y-29.5907
G01 X-3.8667 Y-29.5518
G01 X-3.9198 Y-29.5103
G01 X-3.9709 Y-29.4663
G01 X-4.0198 Y-29.4198
G01 X-4.0663 Y-29.3709
G01 X-4.0898 Y-29.3442
G01 X-4.1303 Y-29.2949
G01 X-4.1705 Y-29.2408
G01 X-4.2081 Y-29.1848
G01 X-4.2446 Y-29.1238
G01 X-4.2764 Y-29.0642
G01 X-4.3036 Y-29.0066
G01 X-4.3177 Y-28.9739
G01 X-4.3420 Y-28.9110
G01 X-4.3631 Y-28.8469
G01 X-4.3811 Y-28.7819
G01 X-4.3959 Y-28.7161
G01 X-4.4074 Y-28.6496
G01 X-4.4157 Y-28.5827
G01 X-4.4187 Y-28.5473
G01 X-4.4218 Y-28.4836
G01 X-4.4223 Y-14.8011
G00 X-4.4223 Y-14.8011
G01 F80.00
G01 Z-3.2004
G01 F80.00
G01 X-4.4218 Y-28.4836
G01 X-4.4187 Y-28.5473
G01 X-4.4157 Y-28.5827
G01 X-4.4074 Y-28.6496
G01 X-4.3959 Y-28.7161
G01 X-4.3811 Y-28.7819
G01 X-4.3631 Y-28.8469
G01 X-4.3420 Y-28.9110
G01 X-4.3177 Y-28.9739
G01 X-4.3036 Y-29.0066
G01 X-4.2764 Y-29.0642
G01 X-4.2446 Y-29.1238
G01 X-4.2081 Y-29.1848
G01 X-4.1705 Y-29.2408
G01 X-4.1303 Y-29.2949
G01 X-4.0898 Y-29.3442
G01 X-4.0663 Y-29.3709
G01 X-4.0198 Y-29.4198
G01 X-3.9709 Y-29.4663
G01 X-3.9198 Y-29.5103
G01 X-3.8667 Y-29.5518
G01 X-3.8115 Y-29.5907
G01 X-3.7545 Y-29.6268
G01 X-3.7238 Y-29.6446
G01 X-3.6642 Y-29.6764
G01 X-3.6066 Y-29.7036
G01 X-3.5739 Y-29.7177
G01 X-3.5110 Y-29.7420
G01 X-3.4469 Y-29.7631
G01 X-3.4128 Y-29.7730
G01 X-3.3509 Y-29.7885
G01 X-3.2848 Y-29.8017
G01 X-3.2496 Y-29.8074
G01 X-3.1827 Y-29.8157
G01 X-3.1154 Y-29.8206
G01 X-3.0639 Y-29.8222
G01 X14.1549 Y-29.8223
G00 X14.1549 Y-29.8223
G01 F80.00
G01 Z-4.0000
G01 F80.00
G01 X-3.0639 Y-29.8222
G01 X-3.1154 Y-29.8206
G01 X-3.1827 Y-29.8157
G01 X-3.2496 Y-29.8074
G01 X-3.2848 Y-29.8017
G01 X-3.3509 Y-29.7885
G01 X-3.4128 Y-29.7730
G01 X-3.4469 Y-29.7631
G01 X-3.5110 Y-29.7420
G01 X-3.5739 Y-29.7177
G01 X-3.6066 Y-29.7036
G01 X-3.6642 Y-29.6764
G01 X-3.7238 Y-29.6446
G01 X-3.7545 Y-29.6268
G01 X-3.8115 Y-29.5907
G01 X-3.8667 Y-29.5518
G01 X-3.9198 Y-29.5103
G01 X-3.9709 Y-29.4663
G01 X-4.0198 Y-29.4198
G01 X-4.0663 Y-29.3709
G01 X-4.0898 Y-29.3442
G01 X-4.1303 Y-29.2949
G01 X-4.1705 Y-29.2408
G01 X-4.2081 Y-29.1848
G01 X-4.2446 Y-29.1238
G01 X-4.2764 Y-29.0642
G01 X-4.3036 Y-29.0066
G01 X-4.3177 Y-28.9739
G01 X-4.3420 Y-28.9110
G01 X-4.3631 Y-28.8469
G01 X-4.3811 Y-28.7819
G01 X-4.3959 Y-28.7161
G01 X-4.4074 Y-28.6496
G01 X-4.4157 Y-28.5827
G01 X-4.4187 Y-28.5473
G01 X-4.4218 Y-28.4836
G01 X-4.4223 Y-14.8011
G00 Z1.9990
M05
G00 Z1.9990
G00 Z12.70
G00 X0.0 Y0.0

M02