(Exported by FreeCAD)
(Post Processor: grbl_post)
(Output Time:2020-11-23 21:57:53.770365)
(begin preamble)
G17 G90
G21
(begin operation: Default Tool)
(Path: Default Tool)
(Default Tool)
(begin toolchange)
; M6 T1
M3 S800.0000
(finish operation: Default Tool)
(begin operation: Pocket_Shape)
(Path: Pocket_Shape)
(Pocket_Shape)
G0 Z6.0000
G0 X17.4240 Y-9.5760
G0 Z4.0000
G1 X17.4240 Y-9.5760 Z-0.5000 F180.00
G2 X10.0000 Y-27.4991 Z-0.5000 I-7.4240 J-7.4240 F180.00
G2 X10.0000 Y-6.5009 Z-0.5000 I0.0000 J10.4991 F180.00
G2 X17.4240 Y-9.5760 Z-0.5000 I0.0000 J-10.4991 F180.00
G0 X17.4240 Y-9.5760 Z6.0000
G0 X17.1109 Y-24.7245 Z6.0000
G0 X17.1109 Y-24.7245 Z3.5000
G1 X17.1109 Y-24.7245 Z-0.5000 F180.00
G3 X20.3669 Y-18.6400 Z-0.5000 I-7.0791 J7.7018 F180.00
G1 X11.6400 Y-27.3669 Z-0.5000 F180.00
G2 X8.7615 Y-27.4170 Z-0.5000 I-1.6086 J9.7160 F180.00
G1 X20.4170 Y-15.7615 Z-0.5000 F180.00
G3 X19.8822 Y-13.4678 Z-0.5000 I-9.5022 J-1.0061 F180.00
G1 X6.4678 Y-26.8822 Z-0.5000 F180.00
G2 X4.5549 Y-25.9667 Z-0.5000 I2.8207 J8.3500 F180.00
G1 X18.9667 Y-11.5549 Z-0.5000 F180.00
G3 X17.7610 Y-9.9322 Z-0.5000 I-8.2108 J-4.8419 F180.00
G1 X2.9322 Y-24.7610 Z-0.5000 F180.00
G2 X1.5903 Y-23.2745 Z-0.5000 I6.4449 J7.1670 F180.00
G1 X16.2745 Y-8.5903 Z-0.5000 F180.00
G3 X14.5088 Y-7.5276 Z-0.5000 I-5.3577 J-6.9035 F180.00
G1 X0.5276 Y-21.5088 Z-0.5000 F180.00
G2 X-0.2111 Y-19.4190 Z-0.5000 I8.4339 J4.1565 F180.00
G1 X12.4190 Y-6.7889 Z-0.5000 F180.00
G3 X9.8734 Y-6.5061 Z-0.5000 I-2.3521 J-9.5728 F180.00
G1 X-0.4939 Y-16.8734 Z-0.5000 F180.00
G2 X0.1398 Y-13.4112 Z-0.5000 I10.0430 J-0.0493 F180.00
G1 X6.4112 Y-7.1398 Z-0.5000 F180.00
G3 X0.1398 Y-13.4112 Z-0.5000 I3.5418 J-9.8132 F180.00
G1 X0.1398 Y-13.4112 Z-1.0000 F180.00
G2 X6.4112 Y-7.1398 Z-1.0000 I9.8132 J-3.5418 F180.00
G1 X0.1398 Y-13.4112 Z-1.0000 F180.00
G3 X-0.4939 Y-16.8734 Z-1.0000 I9.4092 J-3.5115 F180.00
G1 X9.8734 Y-6.5061 Z-1.0000 F180.00
G2 X12.4190 Y-6.7889 Z-1.0000 I0.1935 J-9.8557 F180.00
G1 X-0.2111 Y-19.4190 Z-1.0000 F180.00
G3 X0.5276 Y-21.5088 Z-1.0000 I9.1726 J2.0668 F180.00
G1 X14.5088 Y-7.5276 Z-1.0000 F180.00
G2 X16.2745 Y-8.5903 Z-1.0000 I-3.5920 J-7.9663 F180.00
G1 X1.5903 Y-23.2745 Z-1.0000 F180.00
G3 X2.9322 Y-24.7610 Z-1.0000 I7.7868 J5.6805 F180.00
G1 X17.7610 Y-9.9322 Z-1.0000 F180.00
G2 X18.9667 Y-11.5549 Z-1.0000 I-7.0051 J-6.4646 F180.00
G1 X4.5549 Y-25.9667 Z-1.0000 F180.00
G3 X6.4678 Y-26.8822 Z-1.0000 I4.7336 J7.4345 F180.00
G1 X19.8822 Y-13.4678 Z-1.0000 F180.00
G2 X20.4170 Y-15.7615 Z-1.0000 I-8.9675 J-3.2998 F180.00
G1 X8.7615 Y-27.4170 Z-1.0000 F180.00
G3 X11.6400 Y-27.3669 Z-1.0000 I1.2699 J9.7661 F180.00
G1 X20.3669 Y-18.6400 Z-1.0000 F180.00
G2 X17.1109 Y-24.7245 Z-1.0000 I-10.3352 J1.6173 F180.00
G0 X17.1109 Y-24.7245 Z6.0000
G0 X17.1109 Y-24.7245 Z6.0000
G0 X17.1109 Y-24.7245 Z3.0000
G1 X17.1109 Y-24.7245 Z-1.0000 F180.00
G2 X10.0000 Y-27.4991 Z-1.0000 I-7.1109 J7.7245 F180.00
G2 X10.0000 Y-6.5009 Z-1.0000 I0.0000 J10.4991 F180.00
G2 X17.1109 Y-24.7245 Z-1.0000 I0.0000 J-10.4991 F180.00
G1 X17.1109 Y-24.7245 Z-1.5000 F180.00
G2 X10.0000 Y-27.4991 Z-1.5000 I-7.1109 J7.7245 F180.00
G2 X10.0000 Y-6.5009 Z-1.5000 I0.0000 J10.4991 F180.00
G2 X17.1109 Y-24.7245 Z-1.5000 I0.0000 J-10.4991 F180.00
G0 X17.1109 Y-24.7245 Z6.0000
G0 X17.1109 Y-24.7245 Z6.0000
G0 X17.1109 Y-24.7245 Z2.5000
G1 X17.1109 Y-24.7245 Z-1.5000 F180.00
G3 X20.3669 Y-18.6400 Z-1.5000 I-7.0791 J7.7018 F180.00
G1 X11.6400 Y-27.3669 Z-1.5000 F180.00
G2 X8.7615 Y-27.4170 Z-1.5000 I-1.6086 J9.7160 F180.00
G1 X20.4170 Y-15.7615 Z-1.5000 F180.00
G3 X19.8822 Y-13.4678 Z-1.5000 I-9.5022 J-1.0061 F180.00
G1 X6.4678 Y-26.8822 Z-1.5000 F180.00
G2 X4.5549 Y-25.9667 Z-1.5000 I2.8207 J8.3500 F180.00
G1 X18.9667 Y-11.5549 Z-1.5000 F180.00
G3 X17.7610 Y-9.9322 Z-1.5000 I-8.2108 J-4.8419 F180.00
G1 X2.9322 Y-24.7610 Z-1.5000 F180.00
G2 X1.5903 Y-23.2745 Z-1.5000 I6.4449 J7.1670 F180.00
G1 X16.2745 Y-8.5903 Z-1.5000 F180.00
G3 X14.5088 Y-7.5276 Z-1.5000 I-5.3577 J-6.9035 F180.00
G1 X0.5276 Y-21.5088 Z-1.5000 F180.00
G2 X-0.2111 Y-19.4190 Z-1.5000 I8.4339 J4.1565 F180.00
G1 X12.4190 Y-6.7889 Z-1.5000 F180.00
G3 X9.8734 Y-6.5061 Z-1.5000 I-2.3521 J-9.5728 F180.00
G1 X-0.4939 Y-16.8734 Z-1.5000 F180.00
G2 X0.1398 Y-13.4112 Z-1.5000 I10.0430 J-0.0493 F180.00
G1 X6.4112 Y-7.1398 Z-1.5000 F180.00
G3 X0.1398 Y-13.4112 Z-1.5000 I3.5418 J-9.8132 F180.00
G1 X0.1398 Y-13.4112 Z-2.0000 F180.00
G2 X6.4112 Y-7.1398 Z-2.0000 I9.8132 J-3.5418 F180.00
G1 X0.1398 Y-13.4112 Z-2.0000 F180.00
G3 X-0.4939 Y-16.8734 Z-2.0000 I9.4092 J-3.5115 F180.00
G1 X9.8734 Y-6.5061 Z-2.0000 F180.00
G2 X12.4190 Y-6.7889 Z-2.0000 I0.1935 J-9.8557 F180.00
G1 X-0.2111 Y-19.4190 Z-2.0000 F180.00
G3 X0.5276 Y-21.5088 Z-2.0000 I9.1726 J2.0668 F180.00
G1 X14.5088 Y-7.5276 Z-2.0000 F180.00
G2 X16.2745 Y-8.5903 Z-2.0000 I-3.5920 J-7.9663 F180.00
G1 X1.5903 Y-23.2745 Z-2.0000 F180.00
G3 X2.9322 Y-24.7610 Z-2.0000 I7.7868 J5.6805 F180.00
G1 X17.7610 Y-9.9322 Z-2.0000 F180.00
G2 X18.9667 Y-11.5549 Z-2.0000 I-7.0051 J-6.4646 F180.00
G1 X4.5549 Y-25.9667 Z-2.0000 F180.00
G3 X6.4678 Y-26.8822 Z-2.0000 I4.7336 J7.4345 F180.00
G1 X19.8822 Y-13.4678 Z-2.0000 F180.00
G2 X20.4170 Y-15.7615 Z-2.0000 I-8.9675 J-3.2998 F180.00
G1 X8.7615 Y-27.4170 Z-2.0000 F180.00
G3 X11.6400 Y-27.3669 Z-2.0000 I1.2699 J9.7661 F180.00
G1 X20.3669 Y-18.6400 Z-2.0000 F180.00
G2 X17.1109 Y-24.7245 Z-2.0000 I-10.3352 J1.6173 F180.00
G0 X17.1109 Y-24.7245 Z6.0000
G0 X17.1109 Y-24.7245 Z6.0000
G0 X17.1109 Y-24.7245 Z2.0000
G1 X17.1109 Y-24.7245 Z-2.0000 F180.00
G2 X10.0000 Y-27.4991 Z-2.0000 I-7.1109 J7.7245 F180.00
G2 X10.0000 Y-6.5009 Z-2.0000 I0.0000 J10.4991 F180.00
G2 X17.1109 Y-24.7245 Z-2.0000 I0.0000 J-10.4991 F180.00
G1 X17.1109 Y-24.7245 Z-2.5000 F180.00
G2 X10.0000 Y-27.4991 Z-2.5000 I-7.1109 J7.7245 F180.00
G2 X10.0000 Y-6.5009 Z-2.5000 I0.0000 J10.4991 F180.00
G2 X17.1109 Y-24.7245 Z-2.5000 I0.0000 J-10.4991 F180.00
G0 X17.1109 Y-24.7245 Z6.0000
G0 X17.1109 Y-24.7245 Z6.0000
G0 X17.1109 Y-24.7245 Z1.5000
G1 X17.1109 Y-24.7245 Z-2.5000 F180.00
G3 X20.3669 Y-18.6400 Z-2.5000 I-7.0791 J7.7018 F180.00
G1 X11.6400 Y-27.3669 Z-2.5000 F180.00
G2 X8.7615 Y-27.4170 Z-2.5000 I-1.6086 J9.7160 F180.00
G1 X20.4170 Y-15.7615 Z-2.5000 F180.00
G3 X19.8822 Y-13.4678 Z-2.5000 I-9.5022 J-1.0061 F180.00
G1 X6.4678 Y-26.8822 Z-2.5000 F180.00
G2 X4.5549 Y-25.9667 Z-2.5000 I2.8207 J8.3500 F180.00
G1 X18.9667 Y-11.5549 Z-2.5000 F180.00
G3 X17.7610 Y-9.9322 Z-2.5000 I-8.2108 J-4.8419 F180.00
G1 X2.9322 Y-24.7610 Z-2.5000 F180.00
G2 X1.5903 Y-23.2745 Z-2.5000 I6.4449 J7.1670 F180.00
G1 X16.2745 Y-8.5903 Z-2.5000 F180.00
G3 X14.5088 Y-7.5276 Z-2.5000 I-5.3577 J-6.9035 F180.00
G1 X0.5276 Y-21.5088 Z-2.5000 F180.00
G2 X-0.2111 Y-19.4190 Z-2.5000 I8.4339 J4.1565 F180.00
G1 X12.4190 Y-6.7889 Z-2.5000 F180.00
G3 X9.8734 Y-6.5061 Z-2.5000 I-2.3521 J-9.5728 F180.00
G1 X-0.4939 Y-16.8734 Z-2.5000 F180.00
G2 X0.1398 Y-13.4112 Z-2.5000 I10.0430 J-0.0493 F180.00
G1 X6.4112 Y-7.1398 Z-2.5000 F180.00
G3 X0.1398 Y-13.4112 Z-2.5000 I3.5418 J-9.8132 F180.00
G1 X0.1398 Y-13.4112 Z-3.0000 F180.00
G2 X6.4112 Y-7.1398 Z-3.0000 I9.8132 J-3.5418 F180.00
G1 X0.1398 Y-13.4112 Z-3.0000 F180.00
G3 X-0.4939 Y-16.8734 Z-3.0000 I9.4092 J-3.5115 F180.00
G1 X9.8734 Y-6.5061 Z-3.0000 F180.00
G2 X12.4190 Y-6.7889 Z-3.0000 I0.1935 J-9.8557 F180.00
G1 X-0.2111 Y-19.4190 Z-3.0000 F180.00
G3 X0.5276 Y-21.5088 Z-3.0000 I9.1726 J2.0668 F180.00
G1 X14.5088 Y-7.5276 Z-3.0000 F180.00
G2 X16.2745 Y-8.5903 Z-3.0000 I-3.5920 J-7.9663 F180.00
G1 X1.5903 Y-23.2745 Z-3.0000 F180.00
G3 X2.9322 Y-24.7610 Z-3.0000 I7.7868 J5.6805 F180.00
G1 X17.7610 Y-9.9322 Z-3.0000 F180.00
G2 X18.9667 Y-11.5549 Z-3.0000 I-7.0051 J-6.4646 F180.00
G1 X4.5549 Y-25.9667 Z-3.0000 F180.00
G3 X6.4678 Y-26.8822 Z-3.0000 I4.7336 J7.4345 F180.00
G1 X19.8822 Y-13.4678 Z-3.0000 F180.00
G2 X20.4170 Y-15.7615 Z-3.0000 I-8.9675 J-3.2998 F180.00
G1 X8.7615 Y-27.4170 Z-3.0000 F180.00
G3 X11.6400 Y-27.3669 Z-3.0000 I1.2699 J9.7661 F180.00
G1 X20.3669 Y-18.6400 Z-3.0000 F180.00
G2 X17.1109 Y-24.7245 Z-3.0000 I-10.3352 J1.6173 F180.00
G0 X17.1109 Y-24.7245 Z6.0000
G0 X17.1109 Y-24.7245 Z6.0000
G0 X17.1109 Y-24.7245 Z1.0000
G1 X17.1109 Y-24.7245 Z-3.0000 F180.00
G2 X10.0000 Y-27.4991 Z-3.0000 I-7.1109 J7.7245 F180.00
G2 X10.0000 Y-6.5009 Z-3.0000 I0.0000 J10.4991 F180.00
G2 X17.1109 Y-24.7245 Z-3.0000 I0.0000 J-10.4991 F180.00
G0 Z6.0000
(finish operation: Pocket_Shape)
(begin operation: Pocket_Shape001)
(Path: Pocket_Shape001)
(Pocket_Shape001)
G0 Z6.0000
G0 X11.4120 Y3.4120
G0 Z4.0000
G1 X11.4120 Y3.4120 Z-0.5000 F180.00
G2 X11.9969 Y2.0000 Z-0.5000 I-1.4120 J-1.4120 F180.00
G2 X8.0031 Y2.0000 Z-0.5000 I-1.9969 J0.0000 F180.00
G2 X11.4120 Y3.4120 Z-0.5000 I1.9969 J0.0000 F180.00
G0 X11.4120 Y3.4120 Z6.0000
G0 X11.4120 Y3.4120 Z6.0000
G0 X11.4120 Y3.4120 Z3.5000
G1 X11.4120 Y3.4120 Z-0.5000 F180.00
G3 X8.5860 Y3.4097 Z-0.5000 I-1.4119 J-1.4115 F180.00
G1 X11.4097 Y0.5860 Z-0.5000 F180.00
G2 X8.5860 Y3.4097 Z-0.5000 I-1.4098 J1.4139 F180.00
G1 X8.5860 Y3.4097 Z-1.0000 F180.00
G3 X11.4097 Y0.5860 Z-1.0000 I1.4139 J-1.4098 F180.00
G1 X8.5860 Y3.4097 Z-1.0000 F180.00
G2 X11.4120 Y3.4120 Z-1.0000 I1.4142 J-1.4091 F180.00
G0 X11.4120 Y3.4120 Z6.0000
G0 X11.4120 Y3.4120 Z6.0000
G0 X11.4120 Y3.4120 Z3.0000
G1 X11.4120 Y3.4120 Z-1.0000 F180.00
G2 X11.9969 Y2.0000 Z-1.0000 I-1.4120 J-1.4120 F180.00
G2 X8.0031 Y2.0000 Z-1.0000 I-1.9969 J0.0000 F180.00
G2 X11.4120 Y3.4120 Z-1.0000 I1.9969 J0.0000 F180.00
G1 X11.4120 Y3.4120 Z-1.5000 F180.00
G2 X11.9969 Y2.0000 Z-1.5000 I-1.4120 J-1.4120 F180.00
G2 X8.0031 Y2.0000 Z-1.5000 I-1.9969 J0.0000 F180.00
G2 X11.4120 Y3.4120 Z-1.5000 I1.9969 J0.0000 F180.00
G0 X11.4120 Y3.4120 Z6.0000
G0 X11.4120 Y3.4120 Z6.0000
G0 X11.4120 Y3.4120 Z2.5000
G1 X11.4120 Y3.4120 Z-1.5000 F180.00
G3 X8.5860 Y3.4097 Z-1.5000 I-1.4119 J-1.4115 F180.00
G1 X11.4097 Y0.5860 Z-1.5000 F180.00
G2 X8.5860 Y3.4097 Z-1.5000 I-1.4098 J1.4139 F180.00
G1 X8.5860 Y3.4097 Z-1.8000 F180.00
G3 X11.4097 Y0.5860 Z-1.8000 I1.4139 J-1.4098 F180.00
G1 X8.5860 Y3.4097 Z-1.8000 F180.00
G2 X11.4120 Y3.4120 Z-1.8000 I1.4142 J-1.4091 F180.00
G0 X11.4120 Y3.4120 Z6.0000
G0 X11.4120 Y3.4120 Z6.0000
G0 X11.4120 Y3.4120 Z2.2000
G1 X11.4120 Y3.4120 Z-1.8000 F180.00
G2 X11.9969 Y2.0000 Z-1.8000 I-1.4120 J-1.4120 F180.00
G2 X8.0031 Y2.0000 Z-1.8000 I-1.9969 J0.0000 F180.00
G2 X11.4120 Y3.4120 Z-1.8000 I1.9969 J0.0000 F180.00
G0 Z6.0000
G0 X11.4120 Y-34.5880
G0 Z4.0000
G1 X11.4120 Y-34.5880 Z-0.5000 F180.00
G2 X10.0000 Y-37.9969 Z-0.5000 I-1.4120 J-1.4120 F180.00
G2 X10.0000 Y-34.0031 Z-0.5000 I0.0000 J1.9969 F180.00
G2 X11.4120 Y-34.5880 Z-0.5000 I0.0000 J-1.9969 F180.00
G0 X11.4120 Y-34.5880 Z6.0000
G0 X11.4097 Y-34.5860 Z6.0000
G0 X11.4097 Y-34.5860 Z3.5000
G1 X11.4097 Y-34.5860 Z-0.5000 F180.00
G3 X8.5860 Y-37.4097 Z-0.5000 I-1.4098 J-1.4139 F180.00
G1 X11.4097 Y-34.5860 Z-0.5000 F180.00
G2 X11.4120 Y-37.4120 Z-0.5000 I-1.4091 J-1.4142 F180.00
G1 X11.4120 Y-37.4120 Z-1.0000 F180.00
G3 X11.4097 Y-34.5860 Z-1.0000 I-1.4115 J1.4119 F180.00
G1 X8.5860 Y-37.4097 Z-1.0000 F180.00
G2 X11.4097 Y-34.5860 Z-1.0000 I1.4139 J1.4098 F180.00
G0 X11.4097 Y-34.5860 Z6.0000
G0 X11.4098 Y-34.5858 Z6.0000
G0 X11.4098 Y-34.5858 Z3.0000
G1 X11.4098 Y-34.5858 Z-1.0000 F180.00
G2 X10.0000 Y-37.9969 Z-1.0000 I-1.4098 J-1.4142 F180.00
G2 X10.0000 Y-34.0031 Z-1.0000 I0.0000 J1.9969 F180.00
G2 X11.4098 Y-34.5858 Z-1.0000 I0.0000 J-1.9969 F180.00
G1 X11.4098 Y-34.5858 Z-1.5000 F180.00
G2 X10.0000 Y-37.9969 Z-1.5000 I-1.4098 J-1.4142 F180.00
G2 X10.0000 Y-34.0031 Z-1.5000 I0.0000 J1.9969 F180.00
G2 X11.4098 Y-34.5858 Z-1.5000 I0.0000 J-1.9969 F180.00
G0 X11.4098 Y-34.5858 Z6.0000
G0 X11.4097 Y-34.5860 Z6.0000
G0 X11.4097 Y-34.5860 Z2.5000
G1 X11.4097 Y-34.5860 Z-1.5000 F180.00
G3 X8.5860 Y-37.4097 Z-1.5000 I-1.4098 J-1.4139 F180.00
G1 X11.4097 Y-34.5860 Z-1.5000 F180.00
G2 X11.4120 Y-37.4120 Z-1.5000 I-1.4091 J-1.4142 F180.00
G1 X11.4120 Y-37.4120 Z-1.8000 F180.00
G3 X11.4097 Y-34.5860 Z-1.8000 I-1.4115 J1.4119 F180.00
G1 X8.5860 Y-37.4097 Z-1.8000 F180.00
G2 X11.4097 Y-34.5860 Z-1.8000 I1.4139 J1.4098 F180.00
G0 X11.4097 Y-34.5860 Z6.0000
G0 X11.4098 Y-34.5858 Z6.0000
G0 X11.4098 Y-34.5858 Z2.2000
G1 X11.4098 Y-34.5858 Z-1.8000 F180.00
G2 X10.0000 Y-37.9969 Z-1.8000 I-1.4098 J-1.4142 F180.00
G2 X10.0000 Y-34.0031 Z-1.8000 I0.0000 J1.9969 F180.00
G2 X11.4098 Y-34.5858 Z-1.8000 I0.0000 J-1.9969 F180.00
G0 Z6.0000
(finish operation: Pocket_Shape001)
(begin operation: Pocket_Shape002)
(Path: Pocket_Shape002)
(Pocket_Shape002)
G0 Z6.0000
G0 X10.4557 Y2.4557
G0 Z4.0000
G1 X10.4557 Y2.4557 Z0.5000 F180.00
G3 X9.4112 Y1.7379 Z0.5000 I-0.4557 J-0.4557 F180.00
G3 X10.2621 Y1.4112 Z0.5000 I0.5888 J0.2621 F180.00
G3 X10.5888 Y2.2621 Z0.5000 I-0.2621 J0.5888 F180.00
G3 X10.4557 Y2.4557 Z0.5000 I-0.5888 J-0.2621 F180.00
G0 X10.4557 Y2.4557 Z6.0000
G0 X10.1002 Y2.1002 Z6.0000
G0 X10.1002 Y2.1002 Z4.5000
G1 X10.1002 Y2.1002 Z0.5000 F180.00
G3 X9.8705 Y1.9423 Z0.5000 I-0.1002 J-0.1002 F180.00
G3 X10.0577 Y1.8705 Z0.5000 I0.1295 J0.0577 F180.00
G3 X10.1295 Y2.0577 Z0.5000 I-0.0577 J0.1295 F180.00
G3 X10.1002 Y2.1002 Z0.5000 I-0.1295 J-0.0577 F180.00
G1 X10.1002 Y2.1002 Z-0.0000 F180.00
G3 X9.8705 Y1.9423 Z0.0000 I-0.1002 J-0.1002 F180.00
G3 X10.0577 Y1.8705 Z0.0000 I0.1295 J0.0577 F180.00
G3 X10.1295 Y2.0577 Z-0.0000 I-0.0577 J0.1295 F180.00
G3 X10.1002 Y2.1002 Z-0.0000 I-0.1295 J-0.0577 F180.00
G0 X10.1002 Y2.1002 Z6.0000
G0 X10.4557 Y2.4557 Z6.0000
G0 X10.4557 Y2.4557 Z4.0000
G1 X10.4557 Y2.4557 Z-0.0000 F180.00
G3 X9.4112 Y1.7379 Z0.0000 I-0.4557 J-0.4557 F180.00
G3 X10.2621 Y1.4112 Z0.0000 I0.5888 J0.2621 F180.00
G3 X10.5888 Y2.2621 Z-0.0000 I-0.2621 J0.5888 F180.00
G3 X10.4557 Y2.4557 Z-0.0000 I-0.5888 J-0.2621 F180.00
G1 X10.4557 Y2.4557 Z-0.5000 F180.00
G3 X9.4112 Y1.7379 Z-0.5000 I-0.4557 J-0.4557 F180.00
G3 X10.2621 Y1.4112 Z-0.5000 I0.5888 J0.2621 F180.00
G3 X10.5888 Y2.2621 Z-0.5000 I-0.2621 J0.5888 F180.00
G3 X10.4557 Y2.4557 Z-0.5000 I-0.5888 J-0.2621 F180.00
G0 X10.4557 Y2.4557 Z6.0000
G0 X10.1002 Y2.1002 Z6.0000
G0 X10.1002 Y2.1002 Z3.5000
G1 X10.1002 Y2.1002 Z-0.5000 F180.00
G3 X9.8705 Y1.9423 Z-0.5000 I-0.1002 J-0.1002 F180.00
G3 X10.0577 Y1.8705 Z-0.5000 I0.1295 J0.0577 F180.00
G3 X10.1295 Y2.0577 Z-0.5000 I-0.0577 J0.1295 F180.00
G3 X10.1002 Y2.1002 Z-0.5000 I-0.1295 J-0.0577 F180.00
G1 X10.1002 Y2.1002 Z-1.0000 F180.00
G3 X9.8705 Y1.9423 Z-1.0000 I-0.1002 J-0.1002 F180.00
G3 X10.0577 Y1.8705 Z-1.0000 I0.1295 J0.0577 F180.00
G3 X10.1295 Y2.0577 Z-1.0000 I-0.0577 J0.1295 F180.00
G3 X10.1002 Y2.1002 Z-1.0000 I-0.1295 J-0.0577 F180.00
G0 X10.1002 Y2.1002 Z6.0000
G0 X10.4557 Y2.4557 Z6.0000
G0 X10.4557 Y2.4557 Z3.0000
G1 X10.4557 Y2.4557 Z-1.0000 F180.00
G3 X9.4112 Y1.7379 Z-1.0000 I-0.4557 J-0.4557 F180.00
G3 X10.2621 Y1.4112 Z-1.0000 I0.5888 J0.2621 F180.00
G3 X10.5888 Y2.2621 Z-1.0000 I-0.2621 J0.5888 F180.00
G3 X10.4557 Y2.4557 Z-1.0000 I-0.5888 J-0.2621 F180.00
G1 X10.4557 Y2.4557 Z-1.5000 F180.00
G3 X9.4112 Y1.7379 Z-1.5000 I-0.4557 J-0.4557 F180.00
G3 X10.2621 Y1.4112 Z-1.5000 I0.5888 J0.2621 F180.00
G3 X10.5888 Y2.2621 Z-1.5000 I-0.2621 J0.5888 F180.00
G3 X10.4557 Y2.4557 Z-1.5000 I-0.5888 J-0.2621 F180.00
G0 X10.4557 Y2.4557 Z6.0000
G0 X10.1002 Y2.1002 Z6.0000
G0 X10.1002 Y2.1002 Z2.5000
G1 X10.1002 Y2.1002 Z-1.5000 F180.00
G3 X9.8705 Y1.9423 Z-1.5000 I-0.1002 J-0.1002 F180.00
G3 X10.0577 Y1.8705 Z-1.5000 I0.1295 J0.0577 F180.00
G3 X10.1295 Y2.0577 Z-1.5000 I-0.0577 J0.1295 F180.00
G3 X10.1002 Y2.1002 Z-1.5000 I-0.1295 J-0.0577 F180.00
G1 X10.1002 Y2.1002 Z-2.0000 F180.00
G3 X9.8705 Y1.9423 Z-2.0000 I-0.1002 J-0.1002 F180.00
G3 X10.0577 Y1.8705 Z-2.0000 I0.1295 J0.0577 F180.00
G3 X10.1295 Y2.0577 Z-2.0000 I-0.0577 J0.1295 F180.00
G3 X10.1002 Y2.1002 Z-2.0000 I-0.1295 J-0.0577 F180.00
G0 X10.1002 Y2.1002 Z6.0000
G0 X10.4557 Y2.4557 Z6.0000
G0 X10.4557 Y2.4557 Z2.0000
G1 X10.4557 Y2.4557 Z-2.0000 F180.00
G3 X9.4112 Y1.7379 Z-2.0000 I-0.4557 J-0.4557 F180.00
G3 X10.2621 Y1.4112 Z-2.0000 I0.5888 J0.2621 F180.00
G3 X10.5888 Y2.2621 Z-2.0000 I-0.2621 J0.5888 F180.00
G3 X10.4557 Y2.4557 Z-2.0000 I-0.5888 J-0.2621 F180.00
G1 X10.4557 Y2.4557 Z-2.5000 F180.00
G3 X9.4112 Y1.7379 Z-2.5000 I-0.4557 J-0.4557 F180.00
G3 X10.2621 Y1.4112 Z-2.5000 I0.5888 J0.2621 F180.00
G3 X10.5888 Y2.2621 Z-2.5000 I-0.2621 J0.5888 F180.00
G3 X10.4557 Y2.4557 Z-2.5000 I-0.5888 J-0.2621 F180.00
G0 X10.4557 Y2.4557 Z6.0000
G0 X10.1002 Y2.1002 Z6.0000
G0 X10.1002 Y2.1002 Z1.5000
G1 X10.1002 Y2.1002 Z-2.5000 F180.00
G3 X9.8705 Y1.9423 Z-2.5000 I-0.1002 J-0.1002 F180.00
G3 X10.0577 Y1.8705 Z-2.5000 I0.1295 J0.0577 F180.00
G3 X10.1295 Y2.0577 Z-2.5000 I-0.0577 J0.1295 F180.00
G3 X10.1002 Y2.1002 Z-2.5000 I-0.1295 J-0.0577 F180.00
G1 X10.1002 Y2.1002 Z-3.0000 F180.00
G3 X9.8705 Y1.9423 Z-3.0000 I-0.1002 J-0.1002 F180.00
G3 X10.0577 Y1.8705 Z-3.0000 I0.1295 J0.0577 F180.00
G3 X10.1295 Y2.0577 Z-3.0000 I-0.0577 J0.1295 F180.00
G3 X10.1002 Y2.1002 Z-3.0000 I-0.1295 J-0.0577 F180.00
G0 X10.1002 Y2.1002 Z6.0000
G0 X10.4557 Y2.4557 Z6.0000
G0 X10.4557 Y2.4557 Z1.0000
G1 X10.4557 Y2.4557 Z-3.0000 F180.00
G3 X9.4112 Y1.7379 Z-3.0000 I-0.4557 J-0.4557 F180.00
G3 X10.2621 Y1.4112 Z-3.0000 I0.5888 J0.2621 F180.00
G3 X10.5888 Y2.2621 Z-3.0000 I-0.2621 J0.5888 F180.00
G3 X10.4557 Y2.4557 Z-3.0000 I-0.5888 J-0.2621 F180.00
G1 X10.4557 Y2.4557 Z-3.5000 F180.00
G3 X9.4112 Y1.7379 Z-3.5000 I-0.4557 J-0.4557 F180.00
G3 X10.2621 Y1.4112 Z-3.5000 I0.5888 J0.2621 F180.00
G3 X10.5888 Y2.2621 Z-3.5000 I-0.2621 J0.5888 F180.00
G3 X10.4557 Y2.4557 Z-3.5000 I-0.5888 J-0.2621 F180.00
G0 X10.4557 Y2.4557 Z6.0000
G0 X10.1002 Y2.1002 Z6.0000
G0 X10.1002 Y2.1002 Z0.5000
G1 X10.1002 Y2.1002 Z-3.5000 F180.00
G3 X9.8705 Y1.9423 Z-3.5000 I-0.1002 J-0.1002 F180.00
G3 X10.0577 Y1.8705 Z-3.5000 I0.1295 J0.0577 F180.00
G3 X10.1295 Y2.0577 Z-3.5000 I-0.0577 J0.1295 F180.00
G3 X10.1002 Y2.1002 Z-3.5000 I-0.1295 J-0.0577 F180.00
G1 X10.1002 Y2.1002 Z-4.0000 F180.00
G3 X9.8705 Y1.9423 Z-4.0000 I-0.1002 J-0.1002 F180.00
G3 X10.0577 Y1.8705 Z-4.0000 I0.1295 J0.0577 F180.00
G3 X10.1295 Y2.0577 Z-4.0000 I-0.0577 J0.1295 F180.00
G3 X10.1002 Y2.1002 Z-4.0000 I-0.1295 J-0.0577 F180.00
G0 X10.1002 Y2.1002 Z6.0000
G0 X10.4557 Y2.4557 Z6.0000
G0 X10.4557 Y2.4557 Z0.0000
G1 X10.4557 Y2.4557 Z-4.0000 F180.00
G3 X9.4112 Y1.7379 Z-4.0000 I-0.4557 J-0.4557 F180.00
G3 X10.2621 Y1.4112 Z-4.0000 I0.5888 J0.2621 F180.00
G3 X10.5888 Y2.2621 Z-4.0000 I-0.2621 J0.5888 F180.00
G3 X10.4557 Y2.4557 Z-4.0000 I-0.5888 J-0.2621 F180.00
G1 X10.4557 Y2.4557 Z-4.5000 F180.00
G3 X9.4112 Y1.7379 Z-4.5000 I-0.4557 J-0.4557 F180.00
G3 X10.2621 Y1.4112 Z-4.5000 I0.5888 J0.2621 F180.00
G3 X10.5888 Y2.2621 Z-4.5000 I-0.2621 J0.5888 F180.00
G3 X10.4557 Y2.4557 Z-4.5000 I-0.5888 J-0.2621 F180.00
G0 X10.4557 Y2.4557 Z6.0000
G0 X10.1002 Y2.1002 Z6.0000
G0 X10.1002 Y2.1002 Z-0.5000
G1 X10.1002 Y2.1002 Z-4.5000 F180.00
G3 X9.8705 Y1.9423 Z-4.5000 I-0.1002 J-0.1002 F180.00
G3 X10.0577 Y1.8705 Z-4.5000 I0.1295 J0.0577 F180.00
G3 X10.1295 Y2.0577 Z-4.5000 I-0.0577 J0.1295 F180.00
G3 X10.1002 Y2.1002 Z-4.5000 I-0.1295 J-0.0577 F180.00
G1 X10.1002 Y2.1002 Z-5.0000 F180.00
G3 X9.8705 Y1.9423 Z-5.0000 I-0.1002 J-0.1002 F180.00
G3 X10.0577 Y1.8705 Z-5.0000 I0.1295 J0.0577 F180.00
G3 X10.1295 Y2.0577 Z-5.0000 I-0.0577 J0.1295 F180.00
G3 X10.1002 Y2.1002 Z-5.0000 I-0.1295 J-0.0577 F180.00
G0 X10.1002 Y2.1002 Z6.0000
G0 X10.4557 Y2.4557 Z6.0000
G0 X10.4557 Y2.4557 Z-1.0000
G1 X10.4557 Y2.4557 Z-5.0000 F180.00
G3 X9.4112 Y1.7379 Z-5.0000 I-0.4557 J-0.4557 F180.00
G3 X10.2621 Y1.4112 Z-5.0000 I0.5888 J0.2621 F180.00
G3 X10.5888 Y2.2621 Z-5.0000 I-0.2621 J0.5888 F180.00
G3 X10.4557 Y2.4557 Z-5.0000 I-0.5888 J-0.2621 F180.00
G1 X10.4557 Y2.4557 Z-5.5000 F180.00
G3 X9.4112 Y1.7379 Z-5.5000 I-0.4557 J-0.4557 F180.00
G3 X10.2621 Y1.4112 Z-5.5000 I0.5888 J0.2621 F180.00
G3 X10.5888 Y2.2621 Z-5.5000 I-0.2621 J0.5888 F180.00
G3 X10.4557 Y2.4557 Z-5.5000 I-0.5888 J-0.2621 F180.00
G0 X10.4557 Y2.4557 Z6.0000
G0 X10.1002 Y2.1002 Z6.0000
G0 X10.1002 Y2.1002 Z-1.5000
G1 X10.1002 Y2.1002 Z-5.5000 F180.00
G3 X9.8705 Y1.9423 Z-5.5000 I-0.1002 J-0.1002 F180.00
G3 X10.0577 Y1.8705 Z-5.5000 I0.1295 J0.0577 F180.00
G3 X10.1295 Y2.0577 Z-5.5000 I-0.0577 J0.1295 F180.00
G3 X10.1002 Y2.1002 Z-5.5000 I-0.1295 J-0.0577 F180.00
G0 Z6.0000
G0 X10.4557 Y-35.5443
G0 Z4.0000
G1 X10.4557 Y-35.5443 Z0.5000 F180.00
G3 X9.6778 Y-35.4419 Z0.5000 I-0.4557 J-0.4557 F180.00
G3 X10.3222 Y-36.5581 Z0.5000 I0.3222 J-0.5581 F180.00
G3 X10.4557 Y-35.5443 Z0.5000 I-0.3222 J0.5581 F180.00
G0 X10.4557 Y-35.5443 Z6.0000
G0 X10.1002 Y-35.8998 Z6.0000
G0 X10.1002 Y-35.8998 Z4.5000
G1 X10.1002 Y-35.8998 Z0.5000 F180.00
G3 X9.9291 Y-35.8773 Z0.5000 I-0.1002 J-0.1002 F180.00
G3 X9.8773 Y-36.0709 Z0.5000 I0.0709 J-0.1227 F180.00
G3 X10.0709 Y-36.1227 Z0.5000 I0.1227 J0.0709 F180.00
G3 X10.1002 Y-35.8998 Z0.5000 I-0.0709 J0.1227 F180.00
G1 X10.1002 Y-35.8998 Z0.0000 F180.00
G3 X9.9291 Y-35.8773 Z0.0000 I-0.1002 J-0.1002 F180.00
G3 X9.8773 Y-36.0709 Z0.0000 I0.0709 J-0.1227 F180.00
G3 X10.0709 Y-36.1227 Z0.0000 I0.1227 J0.0709 F180.00
G3 X10.1002 Y-35.8998 Z0.0000 I-0.0709 J0.1227 F180.00
G0 X10.1002 Y-35.8998 Z6.0000
G0 X10.4557 Y-35.5443 Z6.0000
G0 X10.4557 Y-35.5443 Z4.0000
G1 X10.4557 Y-35.5443 Z0.0000 F180.00
G3 X9.6778 Y-35.4419 Z0.0000 I-0.4557 J-0.4557 F180.00
G3 X10.3222 Y-36.5581 Z0.0000 I0.3222 J-0.5581 F180.00
G3 X10.4557 Y-35.5443 Z0.0000 I-0.3222 J0.5581 F180.00
G1 X10.4557 Y-35.5443 Z-0.5000 F180.00
G3 X9.6778 Y-35.4419 Z-0.5000 I-0.4557 J-0.4557 F180.00
G3 X10.3222 Y-36.5581 Z-0.5000 I0.3222 J-0.5581 F180.00
G3 X10.4557 Y-35.5443 Z-0.5000 I-0.3222 J0.5581 F180.00
G0 X10.4557 Y-35.5443 Z6.0000
G0 X10.1002 Y-35.8998 Z6.0000
G0 X10.1002 Y-35.8998 Z3.5000
G1 X10.1002 Y-35.8998 Z-0.5000 F180.00
G3 X9.9291 Y-35.8773 Z-0.5000 I-0.1002 J-0.1002 F180.00
G3 X9.8773 Y-36.0709 Z-0.5000 I0.0709 J-0.1227 F180.00
G3 X10.0709 Y-36.1227 Z-0.5000 I0.1227 J0.0709 F180.00
G3 X10.1002 Y-35.8998 Z-0.5000 I-0.0709 J0.1227 F180.00
G1 X10.1002 Y-35.8998 Z-1.0000 F180.00
G3 X9.9291 Y-35.8773 Z-1.0000 I-0.1002 J-0.1002 F180.00
G3 X9.8773 Y-36.0709 Z-1.0000 I0.0709 J-0.1227 F180.00
G3 X10.0709 Y-36.1227 Z-1.0000 I0.1227 J0.0709 F180.00
G3 X10.1002 Y-35.8998 Z-1.0000 I-0.0709 J0.1227 F180.00
G0 X10.1002 Y-35.8998 Z6.0000
G0 X10.4557 Y-35.5443 Z6.0000
G0 X10.4557 Y-35.5443 Z3.0000
G1 X10.4557 Y-35.5443 Z-1.0000 F180.00
G3 X9.6778 Y-35.4419 Z-1.0000 I-0.4557 J-0.4557 F180.00
G3 X10.3222 Y-36.5581 Z-1.0000 I0.3222 J-0.5581 F180.00
G3 X10.4557 Y-35.5443 Z-1.0000 I-0.3222 J0.5581 F180.00
G1 X10.4557 Y-35.5443 Z-1.5000 F180.00
G3 X9.6778 Y-35.4419 Z-1.5000 I-0.4557 J-0.4557 F180.00
G3 X10.3222 Y-36.5581 Z-1.5000 I0.3222 J-0.5581 F180.00
G3 X10.4557 Y-35.5443 Z-1.5000 I-0.3222 J0.5581 F180.00
G0 X10.4557 Y-35.5443 Z6.0000
G0 X10.1002 Y-35.8998 Z6.0000
G0 X10.1002 Y-35.8998 Z2.5000
G1 X10.1002 Y-35.8998 Z-1.5000 F180.00
G3 X9.9291 Y-35.8773 Z-1.5000 I-0.1002 J-0.1002 F180.00
G3 X9.8773 Y-36.0709 Z-1.5000 I0.0709 J-0.1227 F180.00
G3 X10.0709 Y-36.1227 Z-1.5000 I0.1227 J0.0709 F180.00
G3 X10.1002 Y-35.8998 Z-1.5000 I-0.0709 J0.1227 F180.00
G1 X10.1002 Y-35.8998 Z-2.0000 F180.00
G3 X9.9291 Y-35.8773 Z-2.0000 I-0.1002 J-0.1002 F180.00
G3 X9.8773 Y-36.0709 Z-2.0000 I0.0709 J-0.1227 F180.00
G3 X10.0709 Y-36.1227 Z-2.0000 I0.1227 J0.0709 F180.00
G3 X10.1002 Y-35.8998 Z-2.0000 I-0.0709 J0.1227 F180.00
G0 X10.1002 Y-35.8998 Z6.0000
G0 X10.4557 Y-35.5443 Z6.0000
G0 X10.4557 Y-35.5443 Z2.0000
G1 X10.4557 Y-35.5443 Z-2.0000 F180.00
G3 X9.6778 Y-35.4419 Z-2.0000 I-0.4557 J-0.4557 F180.00
G3 X10.3222 Y-36.5581 Z-2.0000 I0.3222 J-0.5581 F180.00
G3 X10.4557 Y-35.5443 Z-2.0000 I-0.3222 J0.5581 F180.00
G1 X10.4557 Y-35.5443 Z-2.5000 F180.00
G3 X9.6778 Y-35.4419 Z-2.5000 I-0.4557 J-0.4557 F180.00
G3 X10.3222 Y-36.5581 Z-2.5000 I0.3222 J-0.5581 F180.00
G3 X10.4557 Y-35.5443 Z-2.5000 I-0.3222 J0.5581 F180.00
G0 X10.4557 Y-35.5443 Z6.0000
G0 X10.1002 Y-35.8998 Z6.0000
G0 X10.1002 Y-35.8998 Z1.5000
G1 X10.1002 Y-35.8998 Z-2.5000 F180.00
G3 X9.9291 Y-35.8773 Z-2.5000 I-0.1002 J-0.1002 F180.00
G3 X9.8773 Y-36.0709 Z-2.5000 I0.0709 J-0.1227 F180.00
G3 X10.0709 Y-36.1227 Z-2.5000 I0.1227 J0.0709 F180.00
G3 X10.1002 Y-35.8998 Z-2.5000 I-0.0709 J0.1227 F180.00
G1 X10.1002 Y-35.8998 Z-3.0000 F180.00
G3 X9.9291 Y-35.8773 Z-3.0000 I-0.1002 J-0.1002 F180.00
G3 X9.8773 Y-36.0709 Z-3.0000 I0.0709 J-0.1227 F180.00
G3 X10.0709 Y-36.1227 Z-3.0000 I0.1227 J0.0709 F180.00
G3 X10.1002 Y-35.8998 Z-3.0000 I-0.0709 J0.1227 F180.00
G0 X10.1002 Y-35.8998 Z6.0000
G0 X10.4557 Y-35.5443 Z6.0000
G0 X10.4557 Y-35.5443 Z1.0000
G1 X10.4557 Y-35.5443 Z-3.0000 F180.00
G3 X9.6778 Y-35.4419 Z-3.0000 I-0.4557 J-0.4557 F180.00
G3 X10.3222 Y-36.5581 Z-3.0000 I0.3222 J-0.5581 F180.00
G3 X10.4557 Y-35.5443 Z-3.0000 I-0.3222 J0.5581 F180.00
G1 X10.4557 Y-35.5443 Z-3.5000 F180.00
G3 X9.6778 Y-35.4419 Z-3.5000 I-0.4557 J-0.4557 F180.00
G3 X10.3222 Y-36.5581 Z-3.5000 I0.3222 J-0.5581 F180.00
G3 X10.4557 Y-35.5443 Z-3.5000 I-0.3222 J0.5581 F180.00
G0 X10.4557 Y-35.5443 Z6.0000
G0 X10.1002 Y-35.8998 Z6.0000
G0 X10.1002 Y-35.8998 Z0.5000
G1 X10.1002 Y-35.8998 Z-3.5000 F180.00
G3 X9.9291 Y-35.8773 Z-3.5000 I-0.1002 J-0.1002 F180.00
G3 X9.8773 Y-36.0709 Z-3.5000 I0.0709 J-0.1227 F180.00
G3 X10.0709 Y-36.1227 Z-3.5000 I0.1227 J0.0709 F180.00
G3 X10.1002 Y-35.8998 Z-3.5000 I-0.0709 J0.1227 F180.00
G1 X10.1002 Y-35.8998 Z-4.0000 F180.00
G3 X9.9291 Y-35.8773 Z-4.0000 I-0.1002 J-0.1002 F180.00
G3 X9.8773 Y-36.0709 Z-4.0000 I0.0709 J-0.1227 F180.00
G3 X10.0709 Y-36.1227 Z-4.0000 I0.1227 J0.0709 F180.00
G3 X10.1002 Y-35.8998 Z-4.0000 I-0.0709 J0.1227 F180.00
G0 X10.1002 Y-35.8998 Z6.0000
G0 X10.4557 Y-35.5443 Z6.0000
G0 X10.4557 Y-35.5443 Z0.0000
G1 X10.4557 Y-35.5443 Z-4.0000 F180.00
G3 X9.6778 Y-35.4419 Z-4.0000 I-0.4557 J-0.4557 F180.00
G3 X10.3222 Y-36.5581 Z-4.0000 I0.3222 J-0.5581 F180.00
G3 X10.4557 Y-35.5443 Z-4.0000 I-0.3222 J0.5581 F180.00
G1 X10.4557 Y-35.5443 Z-4.5000 F180.00
G3 X9.6778 Y-35.4419 Z-4.5000 I-0.4557 J-0.4557 F180.00
G3 X10.3222 Y-36.5581 Z-4.5000 I0.3222 J-0.5581 F180.00
G3 X10.4557 Y-35.5443 Z-4.5000 I-0.3222 J0.5581 F180.00
G0 X10.4557 Y-35.5443 Z6.0000
G0 X10.1002 Y-35.8998 Z6.0000
G0 X10.1002 Y-35.8998 Z-0.5000
G1 X10.1002 Y-35.8998 Z-4.5000 F180.00
G3 X9.9291 Y-35.8773 Z-4.5000 I-0.1002 J-0.1002 F180.00
G3 X9.8773 Y-36.0709 Z-4.5000 I0.0709 J-0.1227 F180.00
G3 X10.0709 Y-36.1227 Z-4.5000 I0.1227 J0.0709 F180.00
G3 X10.1002 Y-35.8998 Z-4.5000 I-0.0709 J0.1227 F180.00
G1 X10.1002 Y-35.8998 Z-5.0000 F180.00
G3 X9.9291 Y-35.8773 Z-5.0000 I-0.1002 J-0.1002 F180.00
G3 X9.8773 Y-36.0709 Z-5.0000 I0.0709 J-0.1227 F180.00
G3 X10.0709 Y-36.1227 Z-5.0000 I0.1227 J0.0709 F180.00
G3 X10.1002 Y-35.8998 Z-5.0000 I-0.0709 J0.1227 F180.00
G0 X10.1002 Y-35.8998 Z6.0000
G0 X10.4557 Y-35.5443 Z6.0000
G0 X10.4557 Y-35.5443 Z-1.0000
G1 X10.4557 Y-35.5443 Z-5.0000 F180.00
G3 X9.6778 Y-35.4419 Z-5.0000 I-0.4557 J-0.4557 F180.00
G3 X10.3222 Y-36.5581 Z-5.0000 I0.3222 J-0.5581 F180.00
G3 X10.4557 Y-35.5443 Z-5.0000 I-0.3222 J0.5581 F180.00
G1 X10.4557 Y-35.5443 Z-5.5000 F180.00
G3 X9.6778 Y-35.4419 Z-5.5000 I-0.4557 J-0.4557 F180.00
G3 X10.3222 Y-36.5581 Z-5.5000 I0.3222 J-0.5581 F180.00
G3 X10.4557 Y-35.5443 Z-5.5000 I-0.3222 J0.5581 F180.00
G0 X10.4557 Y-35.5443 Z6.0000
G0 X10.1002 Y-35.8998 Z6.0000
G0 X10.1002 Y-35.8998 Z-1.5000
G1 X10.1002 Y-35.8998 Z-5.5000 F180.00
G3 X9.9291 Y-35.8773 Z-5.5000 I-0.1002 J-0.1002 F180.00
G3 X9.8773 Y-36.0709 Z-5.5000 I0.0709 J-0.1227 F180.00
G3 X10.0709 Y-36.1227 Z-5.5000 I0.1227 J0.0709 F180.00
G3 X10.1002 Y-35.8998 Z-5.5000 I-0.0709 J0.1227 F180.00
G0 Z6.0000
(finish operation: Pocket_Shape002)
(begin operation: TagDressup)
(Path: TagDressup)
G0 Z6.0000
G0 X19.1144 Y6.1568 Z6.0000
G0 X19.1144 Y6.1568 Z4.0000
G1 X19.1144 Y6.1568 Z0.0000 F180.00
G2 X20.9990 Y0.0436 Z0.0000 I-9.1147 J-6.1571 F180.00
G3 X22.9973 Y-7.1929 Z0.0000 I11.2417 J-0.7899 F180.00
G2 X22.9980 Y-26.8061 Z0.0000 I-12.9936 J-9.8070 F180.00
G3 X20.9768 Y-33.1003 Z0.0000 I9.1833 J-6.4206 F180.00
G2 X11.9529 Y-44.8244 Z0.0000 I-10.9940 J-0.8729 F180.00
G2 X-0.9990 Y-34.0436 Z0.0000 I-1.9529 J10.8244 F180.00
G3 X-2.9973 Y-26.8071 Z0.0000 I-11.2417 J0.7899 F180.00
G2 X-2.9980 Y-7.1939 Z0.0000 I12.9936 J9.8070 F180.00
G3 X-0.9997 Y-0.0262 Z0.0000 I-9.1931 J6.4254 F180.00
G2 X19.1144 Y6.1568 Z0.0000 I10.9994 J0.0259 F180.00
G1 X19.1144 Y6.1568 Z-0.5000 F180.00
G2 X20.9990 Y0.0436 Z-0.5000 I-9.1147 J-6.1571 F180.00
G3 X22.9973 Y-7.1929 Z-0.5000 I11.2417 J-0.7899 F180.00
G2 X22.9980 Y-26.8061 Z-0.5000 I-12.9936 J-9.8070 F180.00
G3 X20.9768 Y-33.1003 Z-0.5000 I9.1833 J-6.4206 F180.00
G2 X11.9529 Y-44.8244 Z-0.5000 I-10.9940 J-0.8729 F180.00
G2 X-0.9990 Y-34.0436 Z-0.5000 I-1.9529 J10.8244 F180.00
G3 X-2.9973 Y-26.8071 Z-0.5000 I-11.2417 J0.7899 F180.00
G2 X-2.9980 Y-7.1939 Z-0.5000 I12.9936 J9.8070 F180.00
G3 X-0.9997 Y-0.0262 Z-0.5000 I-9.1931 J6.4254 F180.00
G2 X19.1144 Y6.1568 Z-0.5000 I10.9994 J0.0259 F180.00
G1 X19.1144 Y6.1568 Z-1.0000 F180.00
G2 X20.9990 Y0.0436 Z-1.0000 I-9.1147 J-6.1571 F180.00
G3 X22.9973 Y-7.1929 Z-1.0000 I11.2417 J-0.7899 F180.00
G2 X22.9980 Y-26.8061 Z-1.0000 I-12.9936 J-9.8070 F180.00
G3 X20.9768 Y-33.1003 Z-1.0000 I9.1833 J-6.4206 F180.00
G2 X11.9529 Y-44.8244 Z-1.0000 I-10.9940 J-0.8729 F180.00
G2 X-0.9990 Y-34.0436 Z-1.0000 I-1.9529 J10.8244 F180.00
G3 X-2.9973 Y-26.8071 Z-1.0000 I-11.2417 J0.7899 F180.00
G2 X-2.9980 Y-7.1939 Z-1.0000 I12.9936 J9.8070 F180.00
G3 X-0.9997 Y-0.0262 Z-1.0000 I-9.1931 J6.4254 F180.00
G2 X19.1144 Y6.1568 Z-1.0000 I10.9994 J0.0259 F180.00
G1 X19.1144 Y6.1568 Z-1.5000 F180.00
G2 X20.9990 Y0.0436 Z-1.5000 I-9.1147 J-6.1571 F180.00
G3 X22.9973 Y-7.1929 Z-1.5000 I11.2417 J-0.7899 F180.00
G2 X22.9980 Y-26.8061 Z-1.5000 I-12.9936 J-9.8070 F180.00
G3 X20.9768 Y-33.1003 Z-1.5000 I9.1833 J-6.4206 F180.00
G2 X11.9529 Y-44.8244 Z-1.5000 I-10.9940 J-0.8729 F180.00
G2 X-0.9990 Y-34.0436 Z-1.5000 I-1.9529 J10.8244 F180.00
G3 X-2.9973 Y-26.8071 Z-1.5000 I-11.2417 J0.7899 F180.00
G2 X-2.9980 Y-7.1939 Z-1.5000 I12.9936 J9.8070 F180.00
G3 X-0.9997 Y-0.0262 Z-1.5000 I-9.1931 J6.4254 F180.00
G2 X19.1144 Y6.1568 Z-1.5000 I10.9994 J0.0259 F180.00
G1 X19.1144 Y6.1568 Z-2.0000 F180.00
G2 X20.9990 Y0.0436 Z-2.0000 I-9.1147 J-6.1571 F180.00
G3 X22.9973 Y-7.1929 Z-2.0000 I11.2417 J-0.7899 F180.00
G2 X22.9980 Y-26.8061 Z-2.0000 I-12.9936 J-9.8070 F180.00
G3 X20.9768 Y-33.1003 Z-2.0000 I9.1833 J-6.4206 F180.00
G2 X11.9529 Y-44.8244 Z-2.0000 I-10.9940 J-0.8729 F180.00
G2 X-0.9990 Y-34.0436 Z-2.0000 I-1.9529 J10.8244 F180.00
G3 X-2.9973 Y-26.8071 Z-2.0000 I-11.2417 J0.7899 F180.00
G2 X-2.9980 Y-7.1939 Z-2.0000 I12.9936 J9.8070 F180.00
G3 X-0.9997 Y-0.0262 Z-2.0000 I-9.1931 J6.4254 F180.00
G2 X19.1144 Y6.1568 Z-2.0000 I10.9994 J0.0259 F180.00
G1 X19.1144 Y6.1568 Z-2.5000 F180.00
G2 X20.9990 Y0.0436 Z-2.5000 I-9.1147 J-6.1571 F180.00
G3 X22.9973 Y-7.1929 Z-2.5000 I11.2417 J-0.7899 F180.00
G2 X22.9980 Y-26.8061 Z-2.5000 I-12.9936 J-9.8070 F180.00
G3 X20.9768 Y-33.1003 Z-2.5000 I9.1833 J-6.4206 F180.00
G2 X11.9529 Y-44.8244 Z-2.5000 I-10.9940 J-0.8729 F180.00
G2 X-0.9990 Y-34.0436 Z-2.5000 I-1.9529 J10.8244 F180.00
G3 X-2.9973 Y-26.8071 Z-2.5000 I-11.2417 J0.7899 F180.00
G2 X-2.9980 Y-7.1939 Z-2.5000 I12.9936 J9.8070 F180.00
G3 X-0.9997 Y-0.0262 Z-2.5000 I-9.1931 J6.4254 F180.00
G2 X19.1144 Y6.1568 Z-2.5000 I10.9994 J0.0259 F180.00
G1 X19.1144 Y6.1568 Z-3.0000 F180.00
G2 X20.9990 Y0.0436 Z-3.0000 I-9.1147 J-6.1571 F180.00
G3 X22.9973 Y-7.1929 Z-3.0000 I11.2417 J-0.7899 F180.00
G2 X22.9980 Y-26.8061 Z-3.0000 I-12.9936 J-9.8070 F180.00
G3 X20.9768 Y-33.1003 Z-3.0000 I9.1833 J-6.4206 F180.00
G2 X11.9529 Y-44.8244 Z-3.0000 I-10.9940 J-0.8729 F180.00
G2 X-0.9990 Y-34.0436 Z-3.0000 I-1.9529 J10.8244 F180.00
G3 X-2.9973 Y-26.8071 Z-3.0000 I-11.2417 J0.7899 F180.00
G2 X-2.9980 Y-7.1939 Z-3.0000 I12.9936 J9.8070 F180.00
G3 X-0.9997 Y-0.0262 Z-3.0000 I-9.1931 J6.4254 F180.00
G2 X19.1144 Y6.1568 Z-3.0000 I10.9994 J0.0259 F180.00
G1 X19.1144 Y6.1568 Z-3.5000 F180.00
G2 X20.9990 Y0.0436 Z-3.5000 I-9.1147 J-6.1571 F180.00
G3 X22.9973 Y-7.1929 Z-3.5000 I11.2417 J-0.7899 F180.00
G2 X22.9980 Y-26.8061 Z-3.5000 I-12.9936 J-9.8070 F180.00
G3 X20.9768 Y-33.1003 Z-3.5000 I9.1833 J-6.4206 F180.00
G2 X11.9529 Y-44.8244 Z-3.5000 I-10.9940 J-0.8729 F180.00
G2 X-0.9990 Y-34.0436 Z-3.5000 I-1.9529 J10.8244 F180.00
G3 X-2.9973 Y-26.8071 Z-3.5000 I-11.2417 J0.7899 F180.00
G2 X-2.9980 Y-7.1939 Z-3.5000 I12.9936 J9.8070 F180.00
G3 X-0.9997 Y-0.0262 Z-3.5000 I-9.1931 J6.4254 F180.00
G2 X19.1144 Y6.1568 Z-3.5000 I10.9994 J0.0259 F180.00
G1 X19.1144 Y6.1568 Z-4.0000 F180.00
G2 X20.9990 Y0.0436 Z-4.0000 I-9.1147 J-6.1571 F180.00
G3 X22.9973 Y-7.1929 Z-4.0000 I11.2417 J-0.7899 F180.00
G2 X26.2780 Y-16.6036 Z-4.0000 I-12.9936 J-9.8070 F180.00
G1 X26.2829 Y-16.9994 Z-3.6002
G1 X26.2781 Y-17.3952 Z-4.0000
G2 X22.9980 Y-26.8061 Z-4.0000 I-16.2744 J0.3952 F180.00
G3 X20.9768 Y-33.1003 Z-4.0000 I9.1833 J-6.4206 F180.00
G2 X18.9581 Y-40.3820 Z-4.0000 I-10.9940 J-0.8729 F180.00
G1 X18.7224 Y-40.6999 Z-3.6002
G1 X18.4754 Y-41.0092 Z-4.0000
G2 X11.9529 Y-44.8244 Z-4.0000 I-8.4926 J7.0360 F180.00
G2 X-0.9990 Y-34.0436 Z-4.0000 I-1.9529 J10.8244 F180.00
G3 X-2.9973 Y-26.8071 Z-4.0000 I-11.2417 J0.7899 F180.00
G2 X-6.2780 Y-17.3964 Z-4.0000 I12.9936 J9.8070 F180.00
G1 X-6.2829 Y-17.0006 Z-3.6002
G1 X-6.2781 Y-16.6048 Z-4.0000
G2 X-2.9980 Y-7.1939 Z-4.0000 I16.2744 J-0.3952 F180.00
G3 X-0.9997 Y-0.0262 Z-4.0000 I-9.1931 J6.4254 F180.00
G2 X6.3916 Y10.3905 Z-4.0000 I10.9994 J0.0259 F180.00
G1 X6.7678 Y10.5136 Z-3.6002
G1 X7.1482 Y10.6231 Z-4.0000
G2 X19.1144 Y6.1568 Z-4.0000 I2.8516 J-10.6234 F180.00
G1 X19.1144 Y6.1568 Z-4.5000 F180.00
G2 X20.9990 Y0.0436 Z-4.5000 I-9.1147 J-6.1571 F180.00
G3 X22.9973 Y-7.1929 Z-4.5000 I11.2417 J-0.7899 F180.00
G2 X26.2585 Y-16.1089 Z-4.5000 I-12.9936 J-9.8070 F180.00
G1 X26.2829 Y-16.9994 Z-3.6002
G1 X26.2585 Y-17.8899 Z-4.5000
G2 X22.9980 Y-26.8061 Z-4.5000 I-16.2548 J0.8900 F180.00
G3 X20.9768 Y-33.1003 Z-4.5000 I9.1833 J-6.4206 F180.00
G2 X19.2368 Y-39.9726 Z-4.5000 I-10.9940 J-0.8729 F180.00
G1 X18.7224 Y-40.6999 Z-3.6002
G1 X18.1509 Y-41.3834 Z-4.5000
G2 X11.9529 Y-44.8244 Z-4.5000 I-8.1682 J7.4102 F180.00
G2 X-0.9990 Y-34.0436 Z-4.5000 I-1.9529 J10.8244 F180.00
G3 X-2.9973 Y-26.8071 Z-4.5000 I-11.2417 J0.7899 F180.00
G2 X-6.2585 Y-17.8911 Z-4.5000 I12.9936 J9.8070 F180.00
G1 X-6.2829 Y-17.0006 Z-3.6002
G1 X-6.2585 Y-16.1101 Z-4.5000
G2 X-2.9980 Y-7.1939 Z-4.5000 I16.2548 J-0.8900 F180.00
G3 X-0.9997 Y-0.0262 Z-4.5000 I-9.1931 J6.4254 F180.00
G2 X5.9276 Y10.2176 Z-4.5000 I10.9994 J0.0259 F180.00
G1 X6.7678 Y10.5136 Z-3.6002
G1 X7.6292 Y10.7407 Z-4.5000
G2 X19.1144 Y6.1568 Z-4.5000 I2.3705 J-10.7409 F180.00
G1 X19.1144 Y6.1568 Z-5.0000 F180.00
G2 X20.9990 Y0.0436 Z-5.0000 I-9.1147 J-6.1571 F180.00
G3 X22.9973 Y-7.1929 Z-5.0000 I11.2417 J-0.7899 F180.00
G2 X26.2238 Y-15.6148 Z-5.0000 I-12.9936 J-9.8070 F180.00
G1 X26.2829 Y-16.9994 Z-3.6002
G1 X26.2239 Y-18.3840 Z-5.0000
G2 X22.9980 Y-26.8061 Z-5.0000 I-16.2202 J1.3841 F180.00
G3 X20.9768 Y-33.1003 Z-5.0000 I9.1833 J-6.4206 F180.00
G2 X19.4970 Y-39.5507 Z-5.0000 I-10.9940 J-0.8729 F180.00
G1 X18.7224 Y-40.6999 Z-3.6002
G1 X17.8097 Y-41.7429 Z-5.0000
G2 X11.9529 Y-44.8244 Z-5.0000 I-7.8270 J7.7698 F180.00
G2 X-0.9990 Y-34.0436 Z-5.0000 I-1.9529 J10.8244 F180.00
G3 X-2.9973 Y-26.8071 Z-5.0000 I-11.2417 J0.7899 F180.00
G2 X-6.2238 Y-18.3852 Z-5.0000 I12.9936 J9.8070 F180.00
G1 X-6.2829 Y-17.0006 Z-3.6002
G1 X-6.2239 Y-15.6160 Z-5.0000
G2 X-2.9980 Y-7.1939 Z-5.0000 I16.2202 J-1.3841 F180.00
G3 X-0.9997 Y-0.0262 Z-5.0000 I-9.1931 J6.4254 F180.00
G2 X5.4714 Y10.0237 Z-5.0000 I10.9994 J0.0259 F180.00
G1 X6.7678 Y10.5136 Z-3.6002
G1 X8.1156 Y10.8366 Z-5.0000
G2 X19.1144 Y6.1568 Z-5.0000 I1.8842 J-10.8368 F180.00
G1 X19.1144 Y6.1568 Z-5.5000 F180.00
G2 X20.9990 Y0.0436 Z-5.5000 I-9.1147 J-6.1571 F180.00
G3 X22.9973 Y-7.1929 Z-5.5000 I11.2417 J-0.7899 F180.00
G2 X26.1741 Y-15.1216 Z-5.5000 I-12.9936 J-9.8070 F180.00
G1 X26.2829 Y-16.9994 Z-3.6002
G1 X26.1743 Y-18.8772 Z-5.5000
G2 X22.9980 Y-26.8061 Z-5.5000 I-16.1706 J1.8773 F180.00
G3 X20.9768 Y-33.1003 Z-5.5000 I9.1833 J-6.4206 F180.00
G2 X19.7384 Y-39.1170 Z-5.5000 I-10.9940 J-0.8729 F180.00
G1 X18.7224 Y-40.6999 Z-3.6002
G1 X17.4522 Y-42.0872 Z-5.5000
G2 X11.9529 Y-44.8244 Z-5.5000 I-7.4694 J8.1141 F180.00
G2 X-0.9990 Y-34.0436 Z-5.5000 I-1.9529 J10.8244 F180.00
G3 X-2.9973 Y-26.8071 Z-5.5000 I-11.2417 J0.7899 F180.00
G2 X-6.1741 Y-18.8784 Z-5.5000 I12.9936 J9.8070 F180.00
G1 X-6.2829 Y-17.0006 Z-3.6002
G1 X-6.1743 Y-15.1228 Z-5.5000
G2 X-2.9980 Y-7.1939 Z-5.5000 I16.1706 J-1.8773 F180.00
G3 X-0.9997 Y-0.0262 Z-5.5000 I-9.1931 J6.4254 F180.00
G2 X5.0237 Y9.8092 Z-5.5000 I10.9994 J0.0259 F180.00
G1 X6.7678 Y10.5136 Z-3.6002
G1 X8.6064 Y10.9105 Z-5.5000
G2 X19.1144 Y6.1568 Z-5.5000 I1.3933 J-10.9108 F180.00
G1 X19.1144 Y6.1568 Z-6.0000 F180.00
G2 X20.9990 Y0.0436 Z-6.0000 I-9.1147 J-6.1571 F180.00
G3 X22.9973 Y-7.1929 Z-6.0000 I11.2417 J-0.7899 F180.00
G2 X26.1094 Y-14.6297 Z-6.0000 I-12.9936 J-9.8070 F180.00
G1 X26.2829 Y-16.9994 Z-3.6002
G1 X26.1096 Y-19.3691 Z-6.0000
G2 X22.9980 Y-26.8061 Z-6.0000 I-16.1059 J2.3691 F180.00
G3 X20.9768 Y-33.1003 Z-6.0000 I9.1833 J-6.4206 F180.00
G2 X19.9603 Y-38.6719 Z-6.0000 I-10.9940 J-0.8729 F180.00
G1 X18.7224 Y-40.6999 Z-3.6002
G1 X17.0788 Y-42.4157 Z-6.0000
G2 X11.9529 Y-44.8244 Z-6.0000 I-7.0960 J8.4426 F180.00
G2 X-0.9990 Y-34.0436 Z-6.0000 I-1.9529 J10.8244 F180.00
G3 X-2.9973 Y-26.8071 Z-6.0000 I-11.2417 J0.7899 F180.00
G2 X-6.1094 Y-19.3703 Z-6.0000 I12.9936 J9.8070 F180.00
G1 X-6.2829 Y-17.0006 Z-3.6002
G1 X-6.1096 Y-14.6309 Z-6.0000
G2 X-2.9980 Y-7.1939 Z-6.0000 I16.1059 J-2.3691 F180.00
G3 X-0.9997 Y-0.0262 Z-6.0000 I-9.1931 J6.4254 F180.00
G2 X4.5854 Y9.5743 Z-6.0000 I10.9994 J0.0259 F180.00
G1 X6.7678 Y10.5136 Z-3.6002
G1 X9.1010 Y10.9624 Z-6.0000
G2 X19.1144 Y6.1568 Z-6.0000 I0.8987 J-10.9626 F180.00
G0 X19.1144 Y6.1568 Z6.0000
(finish operation: TagDressup)
(begin postamble)
M5
G17 G90
; M2
