(G-CODE GENERATED BY FLATCAM v8.96 - www.flatcam.org - Version Date: 2019/08/23)

(Name: robot-antenna-B.Cu)
(Type: G-code from Geometry)
(Units: MM)

(Created on jeudi, 30 janvier 2020 at 15:05)

(TOOL DIAMETER: 0.3 mm)
(Feedrate: 79.9998 mm/min)
(Feedrate_Z: 79.9998 mm/min)
(Feedrate rapids 79.9998 mm/min)

(Z_Cut: -0.3732 mm)
(Z_Move: 1.999 mm)
(Z Toolchange: 12.7 mm)
(X,Y Toolchange: 0.0000, 0.0000 mm)
(Z Start: None mm)
(Z End: 12.7 mm)
(Steps per circle: 128)
(Postprocessor Geometry: default)

(X range:    0.0000 ...    0.0000  mm)
(Y range:    0.0000 ...    0.0000  mm)

(Spindle Speed: None RPM)

G21
G90
G94

G01 F80.00
G00 Z1.9990

M03
G00 X1.2921 Y-2.6603
G01 F80.00
G01 Z-0.3732
G01 F80.00
G01 X1.5521 Y-2.0325
G01 X2.0325 Y-1.5521
G01 X2.6603 Y-1.2921
G01 X3.3397 Y-1.2921
G01 X3.9675 Y-1.5521
G01 X4.4479 Y-2.0325
G01 X4.7079 Y-2.6603
G01 X4.7079 Y-3.3397
G01 X4.4479 Y-3.9675
G01 X3.9675 Y-4.4479
G01 X3.3397 Y-4.7079
G01 X2.6603 Y-4.7079
G01 X2.0325 Y-4.4479
G01 X1.5521 Y-3.9675
G01 X1.2921 Y-3.3397
G01 X1.2921 Y-2.6603
G01 X1.4724 Y-2.6961
G01 X1.7050 Y-2.1347
G01 X2.1347 Y-1.7050
G01 X2.6961 Y-1.4724
G01 X3.3039 Y-1.4724
G01 X3.8653 Y-1.7050
G01 X4.2950 Y-2.1347
G01 X4.5276 Y-2.6961
G01 X4.5276 Y-3.3039
G01 X4.2950 Y-3.8653
G01 X3.8653 Y-4.2950
G01 X3.3039 Y-4.5276
G01 X2.6961 Y-4.5276
G01 X2.1347 Y-4.2950
G01 X1.7050 Y-3.8653
G01 X1.4724 Y-3.3039
G01 X1.4724 Y-2.6961
G01 X1.6528 Y-2.7320
G01 X1.8579 Y-2.2369
G01 X2.2369 Y-1.8579
G01 X2.7320 Y-1.6528
G01 X3.2680 Y-1.6528
G01 X3.7631 Y-1.8579
G01 X4.1421 Y-2.2369
G01 X4.3472 Y-2.7320
G01 X4.3472 Y-3.2680
G01 X4.1421 Y-3.7631
G01 X3.7631 Y-4.1421
G01 X3.2680 Y-4.3472
G01 X2.7320 Y-4.3472
G01 X2.2369 Y-4.1421
G01 X1.8579 Y-3.7631
G01 X1.6528 Y-3.2680
G01 X1.6528 Y-2.7320
G01 X1.8331 Y-2.7679
G01 X2.0108 Y-2.3390
G01 X2.3390 Y-2.0108
G01 X2.7679 Y-1.8331
G01 X3.2321 Y-1.8331
G01 X3.6610 Y-2.0108
G01 X3.9892 Y-2.3390
G01 X4.1669 Y-2.7679
G01 X4.1669 Y-3.2321
G01 X3.9892 Y-3.6610
G01 X3.6610 Y-3.9892
G01 X3.2321 Y-4.1669
G01 X2.7679 Y-4.1669
G01 X2.3390 Y-3.9892
G01 X2.0108 Y-3.6610
G01 X1.8331 Y-3.2321
G01 X1.8331 Y-2.7679
G01 X2.0135 Y-2.8038
G01 X2.1637 Y-2.4412
G01 X2.4412 Y-2.1637
G01 X2.8038 Y-2.0135
G01 X3.1962 Y-2.0135
G01 X3.5588 Y-2.1637
G01 X3.8363 Y-2.4412
G01 X3.9865 Y-2.8038
G01 X3.9865 Y-3.1962
G01 X3.8363 Y-3.5588
G01 X3.5588 Y-3.8363
G01 X3.1962 Y-3.9865
G01 X2.8038 Y-3.9865
G01 X2.4412 Y-3.8363
G01 X2.1637 Y-3.5588
G01 X2.0135 Y-3.1962
G01 X2.0135 Y-2.8038
G01 X2.1939 Y-2.8397
G01 X2.3166 Y-2.5434
G01 X2.5434 Y-2.3166
G01 X2.8397 Y-2.1939
G01 X3.1603 Y-2.1939
G01 X3.4566 Y-2.3166
G01 X3.6834 Y-2.5434
G01 X3.8061 Y-2.8397
G01 X3.8061 Y-3.1603
G01 X3.6834 Y-3.4566
G01 X3.4566 Y-3.6834
G01 X3.1603 Y-3.8061
G01 X2.8397 Y-3.8061
G01 X2.5434 Y-3.6834
G01 X2.3166 Y-3.4566
G01 X2.1939 Y-3.1603
G01 X2.1939 Y-2.8397
G01 X2.3742 Y-2.8755
G01 X2.4695 Y-2.6455
G01 X2.6455 Y-2.4695
G01 X2.8755 Y-2.3742
G01 X3.1245 Y-2.3742
G01 X3.3545 Y-2.4695
G01 X3.5305 Y-2.6455
G01 X3.6258 Y-2.8755
G01 X3.6258 Y-3.1245
G01 X3.5305 Y-3.3545
G01 X3.3545 Y-3.5305
G01 X3.1245 Y-3.6258
G01 X2.8755 Y-3.6258
G01 X2.6455 Y-3.5305
G01 X2.4695 Y-3.3545
G01 X2.3742 Y-3.1245
G01 X2.3742 Y-2.8755
G01 X2.5546 Y-2.9114
G01 X2.6224 Y-2.7477
G01 X2.7477 Y-2.6224
G01 X2.9114 Y-2.5546
G01 X3.0886 Y-2.5546
G01 X3.2523 Y-2.6224
G01 X3.3776 Y-2.7477
G01 X3.4454 Y-2.9114
G01 X3.4454 Y-3.0886
G01 X3.3776 Y-3.2523
G01 X3.2523 Y-3.3776
G01 X3.0886 Y-3.4454
G01 X2.9114 Y-3.4454
G01 X2.7477 Y-3.3776
G01 X2.6224 Y-3.2523
G01 X2.5546 Y-3.0886
G01 X2.5546 Y-2.9114
G01 X2.7349 Y-2.9473
G01 X2.7753 Y-2.8499
G01 X2.8499 Y-2.7753
G01 X2.9473 Y-2.7349
G01 X3.0527 Y-2.7349
G01 X3.1501 Y-2.7753
G01 X3.2247 Y-2.8499
G01 X3.2651 Y-2.9473
G01 X3.2651 Y-3.0527
G01 X3.2247 Y-3.1501
G01 X3.1501 Y-3.2247
G01 X3.0527 Y-3.2651
G01 X2.9473 Y-3.2651
G01 X2.8499 Y-3.2247
G01 X2.7753 Y-3.1501
G01 X2.7349 Y-3.0527
G01 X2.7349 Y-2.9473
G01 X2.9153 Y-2.9832
G01 X2.9282 Y-2.9520
G01 X2.9520 Y-2.9282
G01 X2.9832 Y-2.9153
G01 X3.0168 Y-2.9153
G01 X3.0480 Y-2.9282
G01 X3.0718 Y-2.9520
G01 X3.0847 Y-2.9832
G01 X3.0847 Y-3.0168
G01 X3.0718 Y-3.0480
G01 X3.0480 Y-3.0718
G01 X3.0168 Y-3.0847
G01 X2.9832 Y-3.0847
G01 X2.9520 Y-3.0718
G01 X2.9282 Y-3.0480
G01 X2.9153 Y-3.0168
G01 X2.9153 Y-2.9832
G00 Z1.9990
G00 X0.0929 Y-46.0522
G01 F80.00
G01 Z-0.3732
G01 F80.00
G01 X0.1028 Y-46.0864
G01 X0.1131 Y-46.1159
G01 X0.1248 Y-46.1449
G01 X0.1380 Y-46.1733
G01 X0.1525 Y-46.2011
G01 X0.1684 Y-46.2281
G01 X0.1855 Y-46.2542
G01 X0.2040 Y-46.2795
G01 X0.2236 Y-46.3039
G01 X0.2444 Y-46.3273
G01 X0.2664 Y-46.3496
G01 X0.2894 Y-46.3708
G01 X0.3134 Y-46.3909
G01 X0.3387 Y-46.4099
G01 X0.3643 Y-46.4273
G01 X0.3924 Y-46.4444
G01 X0.3902 Y-46.4705
G01 X0.3893 Y-46.5000
G01 X0.3893 Y-47.8500
G01 X0.3910 Y-47.8912
G01 X0.3955 Y-47.9293
G01 X0.4009 Y-47.9583
G01 X0.4088 Y-47.9898
G01 X0.4177 Y-48.0179
G01 X0.4299 Y-48.0495
G01 X0.4422 Y-48.0763
G01 X0.4575 Y-48.1049
G01 X0.4729 Y-48.1300
G01 X0.4925 Y-48.1578
G01 X0.5109 Y-48.1808
G01 X0.5327 Y-48.2048
G01 X0.5505 Y-48.2224
G01 X0.5726 Y-48.2419
G01 X0.5994 Y-48.2628
G01 X0.6237 Y-48.2795
G01 X0.6515 Y-48.2961
G01 X0.6777 Y-48.3097
G01 X0.7087 Y-48.3235
G01 X0.7321 Y-48.3323
G01 X0.7602 Y-48.3412
G01 X0.7845 Y-48.3475
G01 X0.8163 Y-48.3538
G01 X0.8411 Y-48.3573
G01 X0.8705 Y-48.3598
G01 X0.8978 Y-48.3607
G01 X4.8453 Y-48.3607
G01 X4.8459 Y-48.3926
G01 X4.8480 Y-48.4243
G01 X4.8517 Y-48.4549
G01 X4.8574 Y-48.4888
G01 X2.7967 Y-48.4888
G01 X2.7133 Y-48.4914
G01 X2.6482 Y-48.4965
G01 X2.5865 Y-48.5040
G01 X2.5175 Y-48.5155
G01 X2.4929 Y-48.5204
G01 X2.4292 Y-48.5350
G01 X2.3649 Y-48.5528
G01 X2.3018 Y-48.5734
G01 X2.2791 Y-48.5815
G01 X2.2183 Y-48.6053
G01 X2.1632 Y-48.6296
G01 X2.0987 Y-48.6614
G01 X2.0786 Y-48.6722
G01 X2.0263 Y-48.7019
G01 X1.9691 Y-48.7378
G01 X1.8951 Y-48.7897
G01 X1.8455 Y-48.8285
G01 X1.8150 Y-48.8543
G01 X1.0000 Y-48.8543
G01 X0.9661 Y-48.8554
G01 X0.9338 Y-48.8586
G01 X0.9047 Y-48.8633
G01 X0.8716 Y-48.8707
G01 X0.8433 Y-48.8789
G01 X0.8128 Y-48.8899
G01 X0.7857 Y-48.9015
G01 X0.7554 Y-48.9167
G01 X0.7299 Y-48.9316
G01 X0.7029 Y-48.9496
G01 X0.6795 Y-48.9674
G01 X0.6538 Y-48.9896
G01 X0.6327 Y-49.0102
G01 X0.6109 Y-49.0342
G01 X0.5925 Y-49.0572
G01 X0.5779 Y-49.0776
G01 X0.5597 Y-49.1063
G01 X0.5455 Y-49.1321
G01 X0.5422 Y-49.1387
G01 X0.5403 Y-49.1427
G01 X0.5316 Y-49.1614
G01 X0.5207 Y-49.1888
G01 X0.5100 Y-49.2210
G01 X0.5025 Y-49.2495
G01 X0.4962 Y-49.2813
G01 X0.4927 Y-49.3061
G01 X0.4902 Y-49.3355
G01 X0.4893 Y-49.3650
G01 X0.4893 Y-50.6350
G01 X0.4910 Y-50.6762
G01 X0.4955 Y-50.7143
G01 X0.5036 Y-50.7548
G01 X0.5088 Y-50.7748
G01 X0.5163 Y-50.7987
G01 X0.5299 Y-50.8345
G01 X0.5475 Y-50.8718
G01 X0.5666 Y-50.9051
G01 X0.5804 Y-50.9260
G01 X0.5925 Y-50.9428
G01 X0.6157 Y-50.9713
G01 X0.6452 Y-51.0023
G01 X0.6538 Y-51.0104
G01 X0.6603 Y-51.0164
G01 X0.6637 Y-51.0193
G01 X0.6795 Y-51.0326
G01 X0.7126 Y-51.0571
G01 X0.7337 Y-51.0707
G01 X0.7554 Y-51.0833
G01 X0.7737 Y-51.0928
G01 X0.7964 Y-51.1034
G01 X0.8363 Y-51.1187
G01 X0.8602 Y-51.1262
G01 X0.8845 Y-51.1325
G01 X0.9091 Y-51.1375
G01 X0.9294 Y-51.1408
G01 X0.9661 Y-51.1446
G01 X1.0000 Y-51.1457
G01 X1.8150 Y-51.1457
G01 X1.8459 Y-51.1719
G01 X1.8951 Y-51.2103
G01 X1.9691 Y-51.2622
G01 X2.0263 Y-51.2981
G01 X2.0786 Y-51.3278
G01 X2.0987 Y-51.3386
G01 X2.1632 Y-51.3704
G01 X2.2183 Y-51.3947
G01 X2.2791 Y-51.4185
G01 X2.3027 Y-51.4270
G01 X2.3670 Y-51.4478
G01 X2.4292 Y-51.4650
G01 X2.4951 Y-51.4801
G01 X2.5659 Y-51.4929
G01 X2.5907 Y-51.4966
G01 X2.6555 Y-51.5043
G01 X2.7133 Y-51.5086
G01 X2.7967 Y-51.5112
G01 X4.8574 Y-51.5112
G01 X4.8517 Y-51.5451
G01 X4.8480 Y-51.5762
G01 X4.8458 Y-51.6096
G01 X4.8453 Y-51.6393
G01 X0.8934 Y-51.6393
G01 X0.8661 Y-51.6404
G01 X0.8338 Y-51.6436
G01 X0.8091 Y-51.6475
G01 X0.7802 Y-51.6536
G01 X0.7475 Y-51.6626
G01 X0.7238 Y-51.6707
G01 X0.6964 Y-51.6816
G01 X0.6671 Y-51.6955
G01 X0.6413 Y-51.7097
G01 X0.6126 Y-51.7279
G01 X0.5887 Y-51.7451
G01 X0.5637 Y-51.7657
G01 X0.5420 Y-51.7858
G01 X0.5186 Y-51.8103
G01 X0.4997 Y-51.8329
G01 X0.4846 Y-51.8529
G01 X0.4666 Y-51.8799
G01 X0.4517 Y-51.9054
G01 X0.4365 Y-51.9357
G01 X0.4249 Y-51.9628
G01 X0.4139 Y-51.9933
G01 X0.4057 Y-52.0216
G01 X0.3983 Y-52.0547
G01 X0.3942 Y-52.0794
G01 X0.3904 Y-52.1161
G01 X0.3893 Y-52.1500
G01 X0.3893 Y-53.5000
G01 X0.3902 Y-53.5295
G01 X0.3924 Y-53.5556
G01 X0.3643 Y-53.5727
G01 X0.3384 Y-53.5903
G01 X0.3134 Y-53.6091
G01 X0.2894 Y-53.6292
G01 X0.2664 Y-53.6504
G01 X0.2617 Y-53.6551
G01 X0.2564 Y-53.6603
G01 X0.2549 Y-53.6618
G01 X0.2444 Y-53.6727
G01 X0.2236 Y-53.6961
G01 X0.2040 Y-53.7205
G01 X0.1855 Y-53.7458
G01 X0.1682 Y-53.7722
G01 X0.1525 Y-53.7989
G01 X0.1380 Y-53.8267
G01 X0.1248 Y-53.8551
G01 X0.1130 Y-53.8844
G01 X0.1028 Y-53.9136
G01 X0.0929 Y-53.9478
G01 X0.0929 Y-46.0522
G01 X0.4536 Y-48.6862
G01 X0.4536 Y-48.5983
G01 X0.4853 Y-48.6164
G01 X0.5231 Y-48.6357
G01 X0.4880 Y-48.6598
G01 X0.4536 Y-48.6862
G01 X0.8500 Y-50.6350
G01 X0.8507 Y-50.6497
G01 X0.8529 Y-50.6643
G01 X0.8588 Y-50.6855
G01 X0.8677 Y-50.7057
G01 X0.8795 Y-50.7244
G01 X0.8889 Y-50.7357
G01 X0.8993 Y-50.7461
G01 X0.9167 Y-50.7597
G01 X0.9359 Y-50.7706
G01 X0.9495 Y-50.7762
G01 X0.9707 Y-50.7821
G01 X0.9926 Y-50.7848
G01 X1.9593 Y-50.7850
G01 X1.9865 Y-50.8135
G01 X2.0301 Y-50.8549
G01 X2.0730 Y-50.8916
G01 X2.1176 Y-50.9262
G01 X2.1639 Y-50.9586
G01 X2.2117 Y-50.9887
G01 X2.2544 Y-51.0129
G01 X2.3048 Y-51.0384
G01 X2.3563 Y-51.0615
G01 X2.4090 Y-51.0820
G01 X2.4696 Y-51.1020
G01 X2.5240 Y-51.1169
G01 X2.5792 Y-51.1291
G01 X2.6348 Y-51.1385
G01 X2.6836 Y-51.1446
G01 X2.7399 Y-51.1489
G01 X2.8000 Y-51.1505
G01 X34.1180 Y-51.1505
G01 X34.1392 Y-51.1668
G01 X34.1975 Y-51.2076
G01 X34.2577 Y-51.2456
G01 X34.3197 Y-51.2805
G01 X34.3834 Y-51.3123
G01 X34.4485 Y-51.3410
G01 X34.5150 Y-51.3664
G01 X34.5756 Y-51.3865
G01 X34.6513 Y-51.4074
G01 X34.7207 Y-51.4228
G01 X34.7909 Y-51.4348
G01 X34.8615 Y-51.4433
G01 X34.9252 Y-51.4480
G01 X34.9963 Y-51.4500
G01 X35.0675 Y-51.4484
G01 X35.1397 Y-51.4432
G01 X35.2091 Y-51.4348
G01 X35.2793 Y-51.4228
G01 X35.3487 Y-51.4074
G01 X35.4174 Y-51.3886
G01 X35.4854 Y-51.3663
G01 X35.5515 Y-51.3410
G01 X35.6166 Y-51.3123
G01 X35.6803 Y-51.2805
G01 X35.7425 Y-51.2454
G01 X35.8025 Y-51.2076
G01 X35.8608 Y-51.1668
G01 X35.9227 Y-51.1185
G01 X35.9765 Y-51.0719
G01 X36.0279 Y-51.0227
G01 X36.0768 Y-50.9710
G01 X36.1232 Y-50.9170
G01 X36.1668 Y-50.8608
G01 X36.2076 Y-50.8025
G01 X36.2456 Y-50.7423
G01 X36.2805 Y-50.6803
G01 X36.3123 Y-50.6166
G01 X36.3410 Y-50.5515
G01 X36.3664 Y-50.4850
G01 X36.3886 Y-50.4174
G01 X36.4074 Y-50.3487
G01 X36.4228 Y-50.2793
G01 X36.4348 Y-50.2091
G01 X36.4433 Y-50.1385
G01 X36.4484 Y-50.0675
G01 X36.4500 Y-49.9963
G01 X36.4480 Y-49.9252
G01 X36.4432 Y-49.8603
G01 X36.4348 Y-49.7909
G01 X36.4228 Y-49.7207
G01 X36.4074 Y-49.6513
G01 X36.3886 Y-49.5826
G01 X36.3663 Y-49.5146
G01 X36.3410 Y-49.4485
G01 X36.3123 Y-49.3834
G01 X36.2805 Y-49.3197
G01 X36.2454 Y-49.2575
G01 X36.2076 Y-49.1975
G01 X36.1668 Y-49.1392
G01 X36.1230 Y-49.0828
G01 X36.0768 Y-49.0290
G01 X36.0279 Y-48.9773
G01 X35.9765 Y-48.9281
G01 X35.9227 Y-48.8815
G01 X35.8608 Y-48.8332
G01 X35.8025 Y-48.7924
G01 X35.7423 Y-48.7544
G01 X35.6803 Y-48.7195
G01 X35.6166 Y-48.6877
G01 X35.5515 Y-48.6590
G01 X35.4850 Y-48.6336
G01 X35.4174 Y-48.6114
G01 X35.3487 Y-48.5926
G01 X35.2793 Y-48.5772
G01 X35.2091 Y-48.5652
G01 X35.1385 Y-48.5567
G01 X35.0675 Y-48.5516
G01 X34.9963 Y-48.5500
G01 X34.9252 Y-48.5520
G01 X34.8603 Y-48.5568
G01 X34.7909 Y-48.5652
G01 X34.7135 Y-48.5786
G01 X34.6441 Y-48.5944
G01 X34.5756 Y-48.6135
G01 X34.5146 Y-48.6337
G01 X34.4485 Y-48.6590
G01 X34.3834 Y-48.6877
G01 X34.3197 Y-48.7195
G01 X34.2575 Y-48.7546
G01 X34.1975 Y-48.7924
G01 X34.1392 Y-48.8332
G01 X34.1180 Y-48.8495
G01 X2.8000 Y-48.8495
G01 X2.7454 Y-48.8508
G01 X2.6909 Y-48.8547
G01 X2.6339 Y-48.8616
G01 X2.5792 Y-48.8709
G01 X2.5240 Y-48.8831
G01 X2.4696 Y-48.8980
G01 X2.4155 Y-48.9157
G01 X2.3631 Y-48.9357
G01 X2.3114 Y-48.9584
G01 X2.2609 Y-48.9837
G01 X2.2117 Y-49.0113
G01 X2.1639 Y-49.0414
G01 X2.1176 Y-49.0738
G01 X2.0728 Y-49.1085
G01 X2.0301 Y-49.1451
G01 X1.9865 Y-49.1865
G01 X1.9593 Y-49.2150
G01 X0.9926 Y-49.2152
G01 X0.9780 Y-49.2166
G01 X0.9636 Y-49.2195
G01 X0.9495 Y-49.2238
G01 X0.9293 Y-49.2327
G01 X0.9167 Y-49.2403
G01 X0.9048 Y-49.2490
G01 X0.8939 Y-49.2589
G01 X0.8840 Y-49.2698
G01 X0.8713 Y-49.2879
G01 X0.8644 Y-49.3009
G01 X0.8588 Y-49.3145
G01 X0.8529 Y-49.3357
G01 X0.8502 Y-49.3576
G01 X0.8500 Y-50.6350
G01 X0.4536 Y-51.4017
G01 X0.4536 Y-51.3138
G01 X0.4703 Y-51.3269
G01 X0.4774 Y-51.3323
G01 X0.4845 Y-51.3375
G01 X0.4854 Y-51.3382
G01 X0.4871 Y-51.3395
G01 X0.4880 Y-51.3402
G01 X0.5231 Y-51.3643
G01 X0.4853 Y-51.3836
G01 X0.4536 Y-51.4017
G01 X0.2732 Y-51.8590
G01 X0.2732 Y-48.1410
G01 X0.2885 Y-48.1718
G01 X0.3096 Y-48.2091
G01 X0.3316 Y-48.2431
G01 X0.3530 Y-48.2722
G01 X0.3791 Y-48.3042
G01 X0.3925 Y-48.3190
G01 X0.3970 Y-48.3238
G01 X0.4021 Y-48.3292
G01 X0.4036 Y-48.3308
G01 X0.4067 Y-48.3339
G01 X0.4327 Y-48.3590
G01 X0.4650 Y-48.3870
G01 X0.4973 Y-48.4116
G01 X0.5272 Y-48.4319
G01 X0.5626 Y-48.4531
G01 X0.5946 Y-48.4699
G01 X0.6294 Y-48.4859
G01 X0.6630 Y-48.4991
G01 X0.7036 Y-48.5126
G01 X0.7385 Y-48.5219
G01 X0.7761 Y-48.5298
G01 X0.8118 Y-48.5354
G01 X0.8528 Y-48.5394
G01 X0.8900 Y-48.5410
G01 X1.9441 Y-48.5411
G01 X1.9159 Y-48.5580
G01 X1.8535 Y-48.5981
G01 X1.7962 Y-48.6385
G01 X1.7502 Y-48.6739
G01 X1.0000 Y-48.6739
G01 X0.9550 Y-48.6754
G01 X0.9213 Y-48.6785
G01 X0.8877 Y-48.6831
G01 X0.8543 Y-48.6895
G01 X0.8214 Y-48.6974
G01 X0.7888 Y-48.7070
G01 X0.7568 Y-48.7182
G01 X0.7254 Y-48.7309
G01 X0.6946 Y-48.7451
G01 X0.6543 Y-48.7667
G01 X0.6124 Y-48.7929
G01 X0.5778 Y-48.8180
G01 X0.5409 Y-48.8485
G01 X0.5067 Y-48.8811
G01 X0.4970 Y-48.8912
G01 X0.4955 Y-48.8928
G01 X0.4910 Y-48.8977
G01 X0.4743 Y-48.9164
G01 X0.4476 Y-48.9498
G01 X0.4193 Y-48.9903
G01 X0.3958 Y-49.0295
G01 X0.3734 Y-49.0735
G01 X0.3566 Y-49.1129
G01 X0.3407 Y-49.1581
G01 X0.3281 Y-49.2035
G01 X0.3185 Y-49.2505
G01 X0.3127 Y-49.2929
G01 X0.3093 Y-49.3444
G01 X0.3089 Y-50.6350
G01 X0.3095 Y-50.6623
G01 X0.3113 Y-50.6917
G01 X0.3174 Y-50.7430
G01 X0.3271 Y-50.7922
G01 X0.3407 Y-50.8419
G01 X0.3566 Y-50.8871
G01 X0.3772 Y-50.9345
G01 X0.4006 Y-50.9788
G01 X0.4230 Y-51.0152
G01 X0.4530 Y-51.0572
G01 X0.4729 Y-51.0819
G01 X0.4910 Y-51.1023
G01 X0.5082 Y-51.1205
G01 X0.5310 Y-51.1425
G01 X0.5514 Y-51.1607
G01 X0.5582 Y-51.1664
G01 X0.5668 Y-51.1734
G01 X0.5702 Y-51.1761
G01 X0.5720 Y-51.1775
G01 X0.5973 Y-51.1966
G01 X0.6198 Y-51.2120
G01 X0.6409 Y-51.2254
G01 X0.6684 Y-51.2413
G01 X0.6926 Y-51.2539
G01 X0.7166 Y-51.2653
G01 X0.7458 Y-51.2776
G01 X0.7714 Y-51.2871
G01 X0.8214 Y-51.3026
G01 X0.8608 Y-51.3119
G01 X0.9030 Y-51.3192
G01 X0.9433 Y-51.3237
G01 X0.9794 Y-51.3257
G01 X1.7502 Y-51.3261
G01 X1.7962 Y-51.3615
G01 X1.8535 Y-51.4019
G01 X1.9159 Y-51.4420
G01 X1.9438 Y-51.4588
G01 X0.8900 Y-51.4590
G01 X0.8528 Y-51.4606
G01 X0.8118 Y-51.4646
G01 X0.7761 Y-51.4702
G01 X0.7385 Y-51.4781
G01 X0.7036 Y-51.4874
G01 X0.6630 Y-51.5009
G01 X0.6294 Y-51.5141
G01 X0.5946 Y-51.5301
G01 X0.5626 Y-51.5469
G01 X0.5272 Y-51.5681
G01 X0.4973 Y-51.5884
G01 X0.4650 Y-51.6130
G01 X0.4327 Y-51.6410
G01 X0.4067 Y-51.6661
G01 X0.3791 Y-51.6958
G01 X0.3530 Y-51.7278
G01 X0.3316 Y-51.7569
G01 X0.3096 Y-51.7909
G01 X0.2885 Y-51.8282
G01 X0.2732 Y-51.8590
G01 X0.2527 Y-54.1005
G01 X0.2526 Y-54.1086
G01 X0.2526 Y-99.2900
G01 X0.2534 Y-99.3161
G01 X0.2557 Y-99.3429
G01 X0.2599 Y-99.3713
G01 X0.2644 Y-99.3933
G01 X0.2712 Y-99.4192
G01 X0.2784 Y-99.4413
G01 X0.2889 Y-99.4687
G01 X0.3001 Y-99.4929
G01 X0.3105 Y-99.5127
G01 X0.3252 Y-99.5373
G01 X0.3381 Y-99.5563
G01 X0.3541 Y-99.5773
G01 X0.3689 Y-99.5947
G01 X0.3892 Y-99.6160
G01 X0.4089 Y-99.6343
G01 X0.4311 Y-99.6525
G01 X0.4590 Y-99.6724
G01 X0.4911 Y-99.6916
G01 X0.5275 Y-99.7094
G01 X0.5636 Y-99.7233
G01 X0.6024 Y-99.7346
G01 X0.6349 Y-99.7412
G01 X0.6732 Y-99.7459
G01 X0.7100 Y-99.7474
G01 X69.2900 Y-99.7474
G01 X69.3205 Y-99.7464
G01 X69.3549 Y-99.7428
G01 X69.3872 Y-99.7370
G01 X69.4201 Y-99.7285
G01 X69.4517 Y-99.7179
G01 X69.4828 Y-99.7048
G01 X69.5127 Y-99.6895
G01 X69.5410 Y-99.6723
G01 X69.5655 Y-99.6551
G01 X69.5864 Y-99.6384
G01 X69.6076 Y-99.6191
G01 X69.6254 Y-99.6010
G01 X69.6460 Y-99.5772
G01 X69.6622 Y-99.5559
G01 X69.6782 Y-99.5318
G01 X69.6916 Y-99.5089
G01 X69.7052 Y-99.4820
G01 X69.7156 Y-99.4575
G01 X69.7253 Y-99.4305
G01 X69.7328 Y-99.4047
G01 X69.7393 Y-99.3756
G01 X69.7436 Y-99.3491
G01 X69.7464 Y-99.3205
G01 X69.7474 Y-99.2900
G01 X69.7474 Y-0.7100
G01 X69.7464 Y-0.6795
G01 X69.7428 Y-0.6451
G01 X69.7370 Y-0.6128
G01 X69.7288 Y-0.5808
G01 X69.7179 Y-0.5483
G01 X69.7050 Y-0.5178
G01 X69.6895 Y-0.4873
G01 X69.6723 Y-0.4590
G01 X69.6552 Y-0.4346
G01 X69.6384 Y-0.4136
G01 X69.6191 Y-0.3924
G01 X69.5999 Y-0.3736
G01 X69.5773 Y-0.3541
G01 X69.5559 Y-0.3378
G01 X69.5321 Y-0.3219
G01 X69.5089 Y-0.3084
G01 X69.4822 Y-0.2950
G01 X69.4575 Y-0.2844
G01 X69.4305 Y-0.2747
G01 X69.4047 Y-0.2672
G01 X69.3756 Y-0.2607
G01 X69.3491 Y-0.2564
G01 X69.3205 Y-0.2536
G01 X69.2900 Y-0.2526
G01 X0.7100 Y-0.2526
G01 X0.6688 Y-0.2545
G01 X0.6465 Y-0.2570
G01 X0.6244 Y-0.2607
G01 X0.6024 Y-0.2654
G01 X0.5808 Y-0.2712
G01 X0.5587 Y-0.2784
G01 X0.5378 Y-0.2863
G01 X0.5178 Y-0.2950
G01 X0.4976 Y-0.3049
G01 X0.4780 Y-0.3158
G01 X0.4590 Y-0.3277
G01 X0.4402 Y-0.3407
G01 X0.4227 Y-0.3541
G01 X0.4053 Y-0.3689
G01 X0.3892 Y-0.3840
G01 X0.3736 Y-0.4001
G01 X0.3588 Y-0.4170
G01 X0.3448 Y-0.4346
G01 X0.3316 Y-0.4531
G01 X0.3194 Y-0.4719
G01 X0.3084 Y-0.4911
G01 X0.2981 Y-0.5111
G01 X0.2888 Y-0.5316
G01 X0.2806 Y-0.5524
G01 X0.2734 Y-0.5737
G01 X0.2672 Y-0.5953
G01 X0.2621 Y-0.6172
G01 X0.2581 Y-0.6392
G01 X0.2552 Y-0.6615
G01 X0.2534 Y-0.6839
G01 X0.2526 Y-0.7100
G01 X0.2526 Y-45.8914
G01 X0.2534 Y-45.9175
G01 X0.2552 Y-45.9399
G01 X0.2607 Y-45.9770
G01 X0.2684 Y-46.0104
G01 X0.2806 Y-46.0489
G01 X0.2931 Y-46.0796
G01 X0.3084 Y-46.1102
G01 X0.3252 Y-46.1387
G01 X0.3448 Y-46.1668
G01 X0.3686 Y-46.1958
G01 X0.3924 Y-46.2205
G01 X0.4170 Y-46.2426
G01 X0.4492 Y-46.2671
G01 X0.4780 Y-46.2856
G01 X0.5111 Y-46.3033
G01 X0.5425 Y-46.3170
G01 X0.5737 Y-46.3280
G01 X0.6120 Y-46.3382
G01 X0.5965 Y-46.3695
G01 X0.5875 Y-46.3929
G01 X0.5826 Y-46.4084
G01 X0.5785 Y-46.4240
G01 X0.5739 Y-46.4472
G01 X0.5717 Y-46.4632
G01 X0.5699 Y-46.4882
G01 X0.5696 Y-47.8500
G01 X0.5703 Y-47.8706
G01 X0.5726 Y-47.8941
G01 X0.5752 Y-47.9101
G01 X0.5785 Y-47.9260
G01 X0.5852 Y-47.9501
G01 X0.5905 Y-47.9654
G01 X0.5995 Y-47.9872
G01 X0.6108 Y-48.0096
G01 X0.6190 Y-48.0236
G01 X0.6321 Y-48.0432
G01 X0.6475 Y-48.0630
G01 X0.6582 Y-48.0751
G01 X0.6749 Y-48.0918
G01 X0.6870 Y-48.1025
G01 X0.7068 Y-48.1179
G01 X0.7202 Y-48.1271
G01 X0.7404 Y-48.1392
G01 X0.7548 Y-48.1467
G01 X0.7777 Y-48.1569
G01 X0.7929 Y-48.1625
G01 X0.8154 Y-48.1693
G01 X0.8312 Y-48.1731
G01 X0.8559 Y-48.1774
G01 X0.8794 Y-48.1797
G01 X0.9000 Y-48.1804
G01 X5.0646 Y-48.1804
G01 X5.0536 Y-48.2074
G01 X5.0430 Y-48.2400
G01 X5.0351 Y-48.2726
G01 X5.0295 Y-48.3059
G01 X5.0264 Y-48.3389
G01 X5.0257 Y-48.3731
G01 X5.0273 Y-48.4037
G01 X5.0311 Y-48.4358
G01 X5.0374 Y-48.4683
G01 X5.0443 Y-48.4942
G01 X5.0552 Y-48.5267
G01 X5.0680 Y-48.5572
G01 X5.0835 Y-48.5877
G01 X5.1007 Y-48.6160
G01 X5.1205 Y-48.6439
G01 X5.1414 Y-48.6691
G01 X2.8000 Y-48.6691
G01 X2.7266 Y-48.6712
G01 X2.6659 Y-48.6760
G01 X2.6069 Y-48.6832
G01 X2.5440 Y-48.6940
G01 X2.4845 Y-48.7072
G01 X2.4102 Y-48.7276
G01 X2.3544 Y-48.7460
G01 X2.2982 Y-48.7674
G01 X2.2277 Y-48.7985
G01 X2.1759 Y-48.8246
G01 X2.1228 Y-48.8544
G01 X2.0539 Y-48.8980
G01 X2.0043 Y-48.9333
G01 X1.9583 Y-48.9692
G01 X1.9090 Y-49.0115
G01 X1.8843 Y-49.0346
G01 X0.9956 Y-49.0347
G01 X0.9720 Y-49.0359
G01 X0.9472 Y-49.0389
G01 X0.9240 Y-49.0435
G01 X0.8929 Y-49.0525
G01 X0.8695 Y-49.0615
G01 X0.8482 Y-49.0716
G01 X0.8264 Y-49.0840
G01 X0.8068 Y-49.0971
G01 X0.7870 Y-49.1125
G01 X0.7749 Y-49.1232
G01 X0.7582 Y-49.1399
G01 X0.7419 Y-49.1589
G01 X0.7278 Y-49.1778
G01 X0.7144 Y-49.1990
G01 X0.7033 Y-49.2198
G01 X0.6931 Y-49.2427
G01 X0.6852 Y-49.2649
G01 X0.6785 Y-49.2890
G01 X0.6739 Y-49.3122
G01 X0.6709 Y-49.3370
G01 X0.6696 Y-49.3650
G01 X0.6696 Y-50.6350
G01 X0.6717 Y-50.6718
G01 X0.6739 Y-50.6878
G01 X0.6785 Y-50.7110
G01 X0.6852 Y-50.7351
G01 X0.6905 Y-50.7504
G01 X0.6995 Y-50.7722
G01 X0.7108 Y-50.7946
G01 X0.7190 Y-50.8086
G01 X0.7321 Y-50.8282
G01 X0.7419 Y-50.8411
G01 X0.7475 Y-50.8480
G01 X0.7582 Y-50.8601
G01 X0.7749 Y-50.8768
G01 X0.7939 Y-50.8931
G01 X0.8128 Y-50.9072
G01 X0.8264 Y-50.9160
G01 X0.8482 Y-50.9284
G01 X0.8628 Y-50.9355
G01 X0.8929 Y-50.9475
G01 X0.9240 Y-50.9565
G01 X0.9559 Y-50.9624
G01 X0.9882 Y-50.9651
G01 X1.8843 Y-50.9654
G01 X1.9090 Y-50.9885
G01 X1.9586 Y-51.0311
G01 X2.0043 Y-51.0667
G01 X2.0576 Y-51.1045
G01 X2.1127 Y-51.1396
G01 X2.1655 Y-51.1698
G01 X2.2384 Y-51.2065
G01 X2.2941 Y-51.2309
G01 X2.3551 Y-51.2543
G01 X2.4102 Y-51.2724
G01 X2.4688 Y-51.2889
G01 X2.5483 Y-51.3068
G01 X2.6084 Y-51.3170
G01 X2.6732 Y-51.3248
G01 X2.7384 Y-51.3294
G01 X2.8000 Y-51.3309
G01 X5.1414 Y-51.3309
G01 X5.1205 Y-51.3561
G01 X5.1007 Y-51.3840
G01 X5.0835 Y-51.4123
G01 X5.0680 Y-51.4428
G01 X5.0552 Y-51.4733
G01 X5.0443 Y-51.5058
G01 X5.0374 Y-51.5317
G01 X5.0311 Y-51.5642
G01 X5.0275 Y-51.5938
G01 X5.0257 Y-51.6269
G01 X5.0264 Y-51.6611
G01 X5.0295 Y-51.6941
G01 X5.0352 Y-51.7278
G01 X5.0430 Y-51.7600
G01 X5.0536 Y-51.7926
G01 X5.0646 Y-51.8196
G01 X0.9000 Y-51.8196
G01 X0.8794 Y-51.8203
G01 X0.8559 Y-51.8226
G01 X0.8312 Y-51.8269
G01 X0.8154 Y-51.8307
G01 X0.7929 Y-51.8375
G01 X0.7777 Y-51.8431
G01 X0.7548 Y-51.8533
G01 X0.7404 Y-51.8608
G01 X0.7202 Y-51.8729
G01 X0.7068 Y-51.8821
G01 X0.6870 Y-51.8975
G01 X0.6749 Y-51.9082
G01 X0.6582 Y-51.9249
G01 X0.6475 Y-51.9370
G01 X0.6321 Y-51.9568
G01 X0.6190 Y-51.9764
G01 X0.6108 Y-51.9904
G01 X0.5995 Y-52.0128
G01 X0.5905 Y-52.0346
G01 X0.5852 Y-52.0499
G01 X0.5807 Y-52.0654
G01 X0.5752 Y-52.0899
G01 X0.5726 Y-52.1059
G01 X0.5703 Y-52.1294
G01 X0.5696 Y-52.1500
G01 X0.5699 Y-53.5118
G01 X0.5717 Y-53.5368
G01 X0.5739 Y-53.5528
G01 X0.5785 Y-53.5760
G01 X0.5826 Y-53.5916
G01 X0.5905 Y-53.6154
G01 X0.5965 Y-53.6305
G01 X0.6120 Y-53.6618
G01 X0.5799 Y-53.6701
G01 X0.5419 Y-53.6832
G01 X0.5071 Y-53.6987
G01 X0.4780 Y-53.7144
G01 X0.4492 Y-53.7329
G01 X0.4170 Y-53.7574
G01 X0.3892 Y-53.7826
G01 X0.3657 Y-53.8075
G01 X0.3404 Y-53.8391
G01 X0.3218 Y-53.8668
G01 X0.3049 Y-53.8963
G01 X0.2888 Y-53.9302
G01 X0.2767 Y-53.9622
G01 X0.2672 Y-53.9941
G01 X0.2588 Y-54.0335
G01 X0.2545 Y-54.0675
G01 X0.2527 Y-54.1005
G01 X0.4330 Y-54.1049
G01 X0.4329 Y-99.2900
G01 X0.4340 Y-99.3135
G01 X0.4365 Y-99.3343
G01 X0.4404 Y-99.3537
G01 X0.4460 Y-99.3739
G01 X0.4528 Y-99.3930
G01 X0.4612 Y-99.4118
G01 X0.4705 Y-99.4293
G01 X0.4817 Y-99.4470
G01 X0.5024 Y-99.4735
G01 X0.5167 Y-99.4885
G01 X0.5267 Y-99.4977
G01 X0.5532 Y-99.5184
G01 X0.5646 Y-99.5258
G01 X0.5827 Y-99.5360
G01 X0.6132 Y-99.5496
G01 X0.6261 Y-99.5540
G01 X0.6463 Y-99.5596
G01 X0.6792 Y-99.5653
G01 X0.7100 Y-99.5671
G01 X69.2900 Y-99.5671
G01 X69.3147 Y-99.5660
G01 X69.3343 Y-99.5635
G01 X69.3543 Y-99.5595
G01 X69.3803 Y-99.5519
G01 X69.4051 Y-99.5420
G01 X69.4238 Y-99.5326
G01 X69.4408 Y-99.5224
G01 X69.4580 Y-99.5103
G01 X69.4735 Y-99.4976
G01 X69.4859 Y-99.4859
G01 X69.5065 Y-99.4629
G01 X69.5258 Y-99.4354
G01 X69.5391 Y-99.4114
G01 X69.5497 Y-99.3864
G01 X69.5562 Y-99.3669
G01 X69.5596 Y-99.3537
G01 X69.5653 Y-99.3208
G01 X69.5671 Y-99.2900
G01 X69.5671 Y-0.7100
G01 X69.5665 Y-0.6927
G01 X69.5644 Y-0.6721
G01 X69.5578 Y-0.6391
G01 X69.5473 Y-0.6074
G01 X69.5388 Y-0.5882
G01 X69.5326 Y-0.5762
G01 X69.5147 Y-0.5479
G01 X69.5065 Y-0.5371
G01 X69.4928 Y-0.5212
G01 X69.4686 Y-0.4982
G01 X69.4580 Y-0.4897
G01 X69.4408 Y-0.4776
G01 X69.4238 Y-0.4674
G01 X69.4051 Y-0.4580
G01 X69.3868 Y-0.4504
G01 X69.3669 Y-0.4438
G01 X69.3477 Y-0.4390
G01 X69.3270 Y-0.4354
G01 X69.3073 Y-0.4335
G01 X69.2900 Y-0.4329
G01 X0.7100 Y-0.4329
G01 X0.6865 Y-0.4340
G01 X0.6657 Y-0.4365
G01 X0.6391 Y-0.4422
G01 X0.6197 Y-0.4481
G01 X0.5949 Y-0.4580
G01 X0.5762 Y-0.4674
G01 X0.5592 Y-0.4776
G01 X0.5420 Y-0.4897
G01 X0.5167 Y-0.5115
G01 X0.5072 Y-0.5212
G01 X0.4935 Y-0.5371
G01 X0.4776 Y-0.5592
G01 X0.4612 Y-0.5882
G01 X0.4527 Y-0.6074
G01 X0.4479 Y-0.6201
G01 X0.4404 Y-0.6463
G01 X0.4347 Y-0.6792
G01 X0.4329 Y-0.7100
G01 X0.4331 Y-45.9013
G01 X0.4354 Y-45.9284
G01 X0.4390 Y-45.9490
G01 X0.4438 Y-45.9683
G01 X0.4527 Y-45.9940
G01 X0.4640 Y-46.0187
G01 X0.4776 Y-46.0422
G01 X0.4935 Y-46.0643
G01 X0.5072 Y-46.0801
G01 X0.5267 Y-46.0991
G01 X0.5428 Y-46.1123
G01 X0.5644 Y-46.1271
G01 X0.5882 Y-46.1402
G01 X0.6074 Y-46.1487
G01 X0.6331 Y-46.1575
G01 X0.6523 Y-46.1624
G01 X0.6792 Y-46.1667
G01 X0.7001 Y-46.1682
G01 X0.7137 Y-46.1684
G01 X0.7335 Y-46.1674
G01 X0.7543 Y-46.1649
G01 X0.7737 Y-46.1610
G01 X0.7939 Y-46.1554
G01 X0.8288 Y-46.1421
G01 X2.5959 Y-46.1421
G01 X2.5959 Y-46.3500
G01 X0.9000 Y-46.3500
G01 X0.8853 Y-46.3507
G01 X0.8707 Y-46.3529
G01 X0.8565 Y-46.3565
G01 X0.8426 Y-46.3614
G01 X0.8293 Y-46.3677
G01 X0.8167 Y-46.3753
G01 X0.8048 Y-46.3840
G01 X0.7939 Y-46.3939
G01 X0.7840 Y-46.4048
G01 X0.7753 Y-46.4167
G01 X0.7677 Y-46.4293
G01 X0.7614 Y-46.4426
G01 X0.7565 Y-46.4565
G01 X0.7529 Y-46.4707
G01 X0.7507 Y-46.4853
G01 X0.7500 Y-46.5000
G01 X0.7500 Y-47.8500
G01 X0.7507 Y-47.8647
G01 X0.7529 Y-47.8793
G01 X0.7588 Y-47.9005
G01 X0.7677 Y-47.9207
G01 X0.7795 Y-47.9394
G01 X0.7889 Y-47.9507
G01 X0.8048 Y-47.9660
G01 X0.8167 Y-47.9747
G01 X0.8359 Y-47.9856
G01 X0.8495 Y-47.9912
G01 X0.8636 Y-47.9955
G01 X0.8780 Y-47.9984
G01 X0.9000 Y-48.0000
G01 X5.1000 Y-48.0000
G01 X5.1147 Y-47.9993
G01 X5.1364 Y-47.9955
G01 X5.1574 Y-47.9886
G01 X5.1771 Y-47.9787
G01 X5.1952 Y-47.9660
G01 X5.2111 Y-47.9507
G01 X5.2247 Y-47.9333
G01 X5.2356 Y-47.9141
G01 X5.2435 Y-47.8935
G01 X5.2484 Y-47.8720
G01 X5.2500 Y-47.8500
G01 X5.2500 Y-47.5791
G01 X5.4579 Y-47.5791
G01 X5.4579 Y-47.9212
G01 X5.4034 Y-48.0528
G01 X5.2802 Y-48.1762
G01 X5.2712 Y-48.1864
G01 X5.2583 Y-48.2029
G01 X5.2405 Y-48.2312
G01 X5.2310 Y-48.2499
G01 X5.2257 Y-48.2624
G01 X5.2152 Y-48.2941
G01 X5.2106 Y-48.3146
G01 X5.2077 Y-48.3342
G01 X5.2065 Y-48.3477
G01 X5.2060 Y-48.3687
G01 X5.2077 Y-48.3958
G01 X5.2120 Y-48.4227
G01 X5.2190 Y-48.4489
G01 X5.2285 Y-48.4744
G01 X5.2405 Y-48.4988
G01 X5.2547 Y-48.5220
G01 X5.2712 Y-48.5436
G01 X5.2897 Y-48.5635
G01 X5.3101 Y-48.5815
G01 X5.3322 Y-48.5974
G01 X5.3557 Y-48.6110
G01 X5.3804 Y-48.6223
G01 X5.4061 Y-48.6312
G01 X5.4326 Y-48.6374
G01 X5.4595 Y-48.6410
G01 X5.4830 Y-48.6421
G01 X33.8985 Y-48.6421
G01 X33.9220 Y-48.6410
G01 X33.9489 Y-48.6374
G01 X33.9754 Y-48.6312
G01 X34.0015 Y-48.6222
G01 X34.0203 Y-48.6138
G01 X34.0402 Y-48.6030
G01 X34.6702 Y-48.3421
G01 X35.3298 Y-48.3421
G01 X35.9391 Y-48.5945
G01 X36.4055 Y-49.0609
G01 X36.6579 Y-49.6702
G01 X36.6579 Y-50.3298
G01 X36.4055 Y-50.9391
G01 X35.9391 Y-51.4055
G01 X35.3298 Y-51.6579
G01 X34.6702 Y-51.6579
G01 X34.0403 Y-51.3970
G01 X34.0203 Y-51.3862
G01 X34.0011 Y-51.3777
G01 X33.9754 Y-51.3688
G01 X33.9489 Y-51.3626
G01 X33.9220 Y-51.3590
G01 X33.8985 Y-51.3579
G01 X5.4830 Y-51.3579
G01 X5.4522 Y-51.3597
G01 X5.4326 Y-51.3626
G01 X5.4061 Y-51.3688
G01 X5.3804 Y-51.3777
G01 X5.3557 Y-51.3890
G01 X5.3375 Y-51.3993
G01 X5.3150 Y-51.4147
G01 X5.2943 Y-51.4322
G01 X5.2753 Y-51.4517
G01 X5.2583 Y-51.4729
G01 X5.2435 Y-51.4957
G01 X5.2310 Y-51.5199
G01 X5.2234 Y-51.5382
G01 X5.2152 Y-51.5641
G01 X5.2095 Y-51.5907
G01 X5.2070 Y-51.6115
G01 X5.2060 Y-51.6387
G01 X5.2085 Y-51.6720
G01 X5.2120 Y-51.6927
G01 X5.2152 Y-51.7059
G01 X5.2210 Y-51.7249
G01 X5.2285 Y-51.7444
G01 X5.2435 Y-51.7743
G01 X5.2506 Y-51.7858
G01 X5.2627 Y-51.8030
G01 X5.2802 Y-51.8238
G01 X5.4034 Y-51.9472
G01 X5.4579 Y-52.0788
G01 X5.4579 Y-52.4209
G01 X5.2500 Y-52.4209
G01 X5.2500 Y-52.1500
G01 X5.2484 Y-52.1280
G01 X5.2435 Y-52.1065
G01 X5.2356 Y-52.0859
G01 X5.2247 Y-52.0667
G01 X5.2111 Y-52.0493
G01 X5.1952 Y-52.0340
G01 X5.1771 Y-52.0213
G01 X5.1574 Y-52.0114
G01 X5.1364 Y-52.0045
G01 X5.1147 Y-52.0007
G01 X5.1000 Y-52.0000
G01 X0.9000 Y-52.0000
G01 X0.8780 Y-52.0016
G01 X0.8636 Y-52.0045
G01 X0.8495 Y-52.0088
G01 X0.8293 Y-52.0177
G01 X0.8167 Y-52.0253
G01 X0.7993 Y-52.0389
G01 X0.7840 Y-52.0548
G01 X0.7713 Y-52.0729
G01 X0.7614 Y-52.0926
G01 X0.7565 Y-52.1065
G01 X0.7516 Y-52.1280
G01 X0.7500 Y-52.1500
G01 X0.7502 Y-53.5074
G01 X0.7516 Y-53.5220
G01 X0.7545 Y-53.5364
G01 X0.7614 Y-53.5574
G01 X0.7677 Y-53.5707
G01 X0.7753 Y-53.5833
G01 X0.7840 Y-53.5952
G01 X0.7939 Y-53.6061
G01 X0.8048 Y-53.6160
G01 X0.8167 Y-53.6247
G01 X0.8293 Y-53.6323
G01 X0.8426 Y-53.6386
G01 X0.8565 Y-53.6435
G01 X0.8707 Y-53.6471
G01 X0.8853 Y-53.6493
G01 X0.9000 Y-53.6500
G01 X2.5959 Y-53.6500
G01 X2.5959 Y-53.8579
G01 X0.8288 Y-53.8579
G01 X0.7939 Y-53.8446
G01 X0.7737 Y-53.8390
G01 X0.7543 Y-53.8351
G01 X0.7335 Y-53.8326
G01 X0.7137 Y-53.8316
G01 X0.7001 Y-53.8318
G01 X0.6792 Y-53.8333
G01 X0.6588 Y-53.8363
G01 X0.6326 Y-53.8426
G01 X0.6070 Y-53.8514
G01 X0.5824 Y-53.8627
G01 X0.5592 Y-53.8762
G01 X0.5371 Y-53.8921
G01 X0.5212 Y-53.9058
G01 X0.5023 Y-53.9253
G01 X0.4853 Y-53.9466
G01 X0.4742 Y-53.9632
G01 X0.4612 Y-53.9869
G01 X0.4527 Y-54.0060
G01 X0.4460 Y-54.0247
G01 X0.4390 Y-54.0510
G01 X0.4347 Y-54.0778
G01 X0.4330 Y-54.1049
G00 Z1.9990
G00 X3.4041 Y-53.8579
G01 F80.00
G01 Z-0.3732
G01 F80.00
G01 X3.4041 Y-53.6500
G01 X5.1000 Y-53.6500
G01 X5.1220 Y-53.6484
G01 X5.1435 Y-53.6435
G01 X5.1641 Y-53.6356
G01 X5.1833 Y-53.6247
G01 X5.2007 Y-53.6111
G01 X5.2111 Y-53.6007
G01 X5.2205 Y-53.5894
G01 X5.2323 Y-53.5707
G01 X5.2386 Y-53.5574
G01 X5.2455 Y-53.5364
G01 X5.2484 Y-53.5220
G01 X5.2500 Y-53.5000
G01 X5.2500 Y-53.2291
G01 X5.4579 Y-53.2291
G01 X5.4579 Y-53.5712
G01 X5.4034 Y-53.7028
G01 X5.3028 Y-53.8034
G01 X5.1712 Y-53.8579
G01 X3.4041 Y-53.8579
G00 Z1.9990
G00 X3.4041 Y-46.1421
G01 F80.00
G01 Z-0.3732
G01 F80.00
G01 X5.1712 Y-46.1421
G01 X5.3028 Y-46.1966
G01 X5.4034 Y-46.2972
G01 X5.4579 Y-46.4288
G01 X5.4579 Y-46.7709
G01 X5.2500 Y-46.7709
G01 X5.2500 Y-46.5000
G01 X5.2493 Y-46.4853
G01 X5.2455 Y-46.4636
G01 X5.2412 Y-46.4495
G01 X5.2323 Y-46.4293
G01 X5.2205 Y-46.4106
G01 X5.2111 Y-46.3993
G01 X5.1952 Y-46.3840
G01 X5.1771 Y-46.3713
G01 X5.1574 Y-46.3614
G01 X5.1435 Y-46.3565
G01 X5.1220 Y-46.3516
G01 X5.1000 Y-46.3500
G01 X3.4041 Y-46.3500
G01 X3.4041 Y-46.1421
G00 Z1.9990
G00 X1.2921 Y-96.6603
G01 F80.00
G01 Z-0.3732
G01 F80.00
G01 X1.5521 Y-96.0325
G01 X2.0325 Y-95.5521
G01 X2.6603 Y-95.2921
G01 X3.3397 Y-95.2921
G01 X3.9675 Y-95.5521
G01 X4.4479 Y-96.0325
G01 X4.7079 Y-96.6603
G01 X4.7079 Y-97.3397
G01 X4.4479 Y-97.9675
G01 X3.9675 Y-98.4479
G01 X3.3397 Y-98.7079
G01 X2.6603 Y-98.7079
G01 X2.0325 Y-98.4479
G01 X1.5521 Y-97.9675
G01 X1.2921 Y-97.3397
G01 X1.2921 Y-96.6603
G01 X1.4724 Y-96.6961
G01 X1.7050 Y-96.1347
G01 X2.1347 Y-95.7050
G01 X2.6961 Y-95.4724
G01 X3.3039 Y-95.4724
G01 X3.8653 Y-95.7050
G01 X4.2950 Y-96.1347
G01 X4.5276 Y-96.6961
G01 X4.5276 Y-97.3039
G01 X4.2950 Y-97.8653
G01 X3.8653 Y-98.2950
G01 X3.3039 Y-98.5276
G01 X2.6961 Y-98.5276
G01 X2.1347 Y-98.2950
G01 X1.7050 Y-97.8653
G01 X1.4724 Y-97.3039
G01 X1.4724 Y-96.6961
G01 X1.6528 Y-96.7320
G01 X1.8579 Y-96.2369
G01 X2.2369 Y-95.8579
G01 X2.7320 Y-95.6528
G01 X3.2680 Y-95.6528
G01 X3.7631 Y-95.8579
G01 X4.1421 Y-96.2369
G01 X4.3472 Y-96.7320
G01 X4.3472 Y-97.2680
G01 X4.1421 Y-97.7631
G01 X3.7631 Y-98.1421
G01 X3.2680 Y-98.3472
G01 X2.7320 Y-98.3472
G01 X2.2369 Y-98.1421
G01 X1.8579 Y-97.7631
G01 X1.6528 Y-97.2680
G01 X1.6528 Y-96.7320
G01 X1.8331 Y-96.7679
G01 X2.0108 Y-96.3390
G01 X2.3390 Y-96.0108
G01 X2.7679 Y-95.8331
G01 X3.2321 Y-95.8331
G01 X3.6610 Y-96.0108
G01 X3.9892 Y-96.3390
G01 X4.1669 Y-96.7679
G01 X4.1669 Y-97.2321
G01 X3.9892 Y-97.6610
G01 X3.6610 Y-97.9892
G01 X3.2321 Y-98.1669
G01 X2.7679 Y-98.1669
G01 X2.3390 Y-97.9892
G01 X2.0108 Y-97.6610
G01 X1.8331 Y-97.2321
G01 X1.8331 Y-96.7679
G01 X2.0135 Y-96.8038
G01 X2.1637 Y-96.4412
G01 X2.4412 Y-96.1637
G01 X2.8038 Y-96.0135
G01 X3.1962 Y-96.0135
G01 X3.5588 Y-96.1637
G01 X3.8363 Y-96.4412
G01 X3.9865 Y-96.8038
G01 X3.9865 Y-97.1962
G01 X3.8363 Y-97.5588
G01 X3.5588 Y-97.8363
G01 X3.1962 Y-97.9865
G01 X2.8038 Y-97.9865
G01 X2.4412 Y-97.8363
G01 X2.1637 Y-97.5588
G01 X2.0135 Y-97.1962
G01 X2.0135 Y-96.8038
G01 X2.1939 Y-96.8397
G01 X2.3166 Y-96.5434
G01 X2.5434 Y-96.3166
G01 X2.8397 Y-96.1939
G01 X3.1603 Y-96.1939
G01 X3.4566 Y-96.3166
G01 X3.6834 Y-96.5434
G01 X3.8061 Y-96.8397
G01 X3.8061 Y-97.1603
G01 X3.6834 Y-97.4566
G01 X3.4566 Y-97.6834
G01 X3.1603 Y-97.8061
G01 X2.8397 Y-97.8061
G01 X2.5434 Y-97.6834
G01 X2.3166 Y-97.4566
G01 X2.1939 Y-97.1603
G01 X2.1939 Y-96.8397
G01 X2.3742 Y-96.8755
G01 X2.4695 Y-96.6455
G01 X2.6455 Y-96.4695
G01 X2.8755 Y-96.3742
G01 X3.1245 Y-96.3742
G01 X3.3545 Y-96.4695
G01 X3.5305 Y-96.6455
G01 X3.6258 Y-96.8755
G01 X3.6258 Y-97.1245
G01 X3.5305 Y-97.3545
G01 X3.3545 Y-97.5305
G01 X3.1245 Y-97.6258
G01 X2.8755 Y-97.6258
G01 X2.6455 Y-97.5305
G01 X2.4695 Y-97.3545
G01 X2.3742 Y-97.1245
G01 X2.3742 Y-96.8755
G01 X2.5546 Y-96.9114
G01 X2.6224 Y-96.7477
G01 X2.7477 Y-96.6224
G01 X2.9114 Y-96.5546
G01 X3.0886 Y-96.5546
G01 X3.2523 Y-96.6224
G01 X3.3776 Y-96.7477
G01 X3.4454 Y-96.9114
G01 X3.4454 Y-97.0886
G01 X3.3776 Y-97.2523
G01 X3.2523 Y-97.3776
G01 X3.0886 Y-97.4454
G01 X2.9114 Y-97.4454
G01 X2.7477 Y-97.3776
G01 X2.6224 Y-97.2523
G01 X2.5546 Y-97.0886
G01 X2.5546 Y-96.9114
G01 X2.7349 Y-96.9473
G01 X2.7753 Y-96.8499
G01 X2.8499 Y-96.7753
G01 X2.9473 Y-96.7349
G01 X3.0527 Y-96.7349
G01 X3.1501 Y-96.7753
G01 X3.2247 Y-96.8499
G01 X3.2651 Y-96.9473
G01 X3.2651 Y-97.0527
G01 X3.2247 Y-97.1501
G01 X3.1501 Y-97.2247
G01 X3.0527 Y-97.2651
G01 X2.9473 Y-97.2651
G01 X2.8499 Y-97.2247
G01 X2.7753 Y-97.1501
G01 X2.7349 Y-97.0527
G01 X2.7349 Y-96.9473
G01 X2.9153 Y-96.9832
G01 X2.9282 Y-96.9520
G01 X2.9520 Y-96.9282
G01 X2.9832 Y-96.9153
G01 X3.0168 Y-96.9153
G01 X3.0480 Y-96.9282
G01 X3.0718 Y-96.9520
G01 X3.0847 Y-96.9832
G01 X3.0847 Y-97.0168
G01 X3.0718 Y-97.0480
G01 X3.0480 Y-97.0718
G01 X3.0168 Y-97.0847
G01 X2.9832 Y-97.0847
G01 X2.9520 Y-97.0718
G01 X2.9282 Y-97.0480
G01 X2.9153 Y-97.0168
G01 X2.9153 Y-96.9832
G00 Z1.9990
G00 X0.7107 Y-100.0875
G01 F80.00
G01 Z-0.3732
G01 F80.00
G01 X0.6772 Y-100.0869
G01 X0.6401 Y-100.0845
G01 X0.6011 Y-100.0801
G01 X0.5628 Y-100.0738
G01 X0.5242 Y-100.0656
G01 X0.4865 Y-100.0556
G01 X0.4489 Y-100.0436
G01 X0.4126 Y-100.0300
G01 X0.3764 Y-100.0144
G01 X0.3412 Y-99.9972
G01 X0.3071 Y-99.9783
G01 X0.2737 Y-99.9576
G01 X0.2416 Y-99.9355
G01 X0.2104 Y-99.9117
G01 X0.1806 Y-99.8865
G01 X0.1519 Y-99.8598
G01 X0.1246 Y-99.8317
G01 X0.0989 Y-99.8024
G01 X0.0746 Y-99.7721
G01 X0.0515 Y-99.7399
G01 X0.0302 Y-99.7070
G01 X0.0105 Y-99.6731
G01 X-0.0072 Y-99.6387
G01 X-0.0235 Y-99.6031
G01 X-0.0382 Y-99.5662
G01 X-0.0508 Y-99.5293
G01 X-0.0615 Y-99.4921
G01 X-0.0705 Y-99.4539
G01 X-0.0776 Y-99.4155
G01 X-0.0828 Y-99.3765
G01 X-0.0862 Y-99.3370
G01 X-0.0875 Y-99.2959
G01 X-0.0875 Y-0.7059
G01 X-0.0869 Y-0.6791
G01 X-0.0845 Y-0.6400
G01 X-0.0777 Y-0.5848
G01 X-0.0738 Y-0.5625
G01 X-0.0656 Y-0.5242
G01 X-0.0508 Y-0.4706
G01 X-0.0381 Y-0.4336
G01 X-0.0299 Y-0.4124
G01 X-0.0074 Y-0.3616
G01 X0.0028 Y-0.3413
G01 X0.0217 Y-0.3071
G01 X0.0515 Y-0.2601
G01 X0.0743 Y-0.2283
G01 X0.0883 Y-0.2104
G01 X0.1136 Y-0.1805
G01 X0.1403 Y-0.1519
G01 X0.1805 Y-0.1136
G01 X0.2104 Y-0.0883
G01 X0.2283 Y-0.0743
G01 X0.2601 Y-0.0515
G01 X0.2929 Y-0.0302
G01 X0.3413 Y-0.0028
G01 X0.3765 Y0.0145
G01 X0.3972 Y0.0236
G01 X0.4336 Y0.0381
G01 X0.4706 Y0.0508
G01 X0.5242 Y0.0656
G01 X0.5625 Y0.0738
G01 X0.5848 Y0.0777
G01 X0.6236 Y0.0829
G01 X0.6627 Y0.0861
G01 X0.7059 Y0.0875
G01 X69.2939 Y0.0875
G01 X69.3208 Y0.0869
G01 X69.3598 Y0.0845
G01 X69.3988 Y0.0801
G01 X69.4376 Y0.0738
G01 X69.4761 Y0.0655
G01 X69.5132 Y0.0557
G01 X69.5512 Y0.0436
G01 X69.5874 Y0.0300
G01 X69.6235 Y0.0145
G01 X69.6582 Y-0.0026
G01 X69.6929 Y-0.0217
G01 X69.7261 Y-0.0423
G01 X69.7584 Y-0.0645
G01 X69.7895 Y-0.0882
G01 X69.8195 Y-0.1136
G01 X69.8481 Y-0.1402
G01 X69.8754 Y-0.1683
G01 X69.9013 Y-0.1977
G01 X69.9256 Y-0.2283
G01 X69.9485 Y-0.2600
G01 X69.9698 Y-0.2929
G01 X69.9894 Y-0.3267
G01 X70.0076 Y-0.3619
G01 X70.0235 Y-0.3970
G01 X70.0382 Y-0.4338
G01 X70.0508 Y-0.4706
G01 X70.0616 Y-0.5082
G01 X70.0707 Y-0.5471
G01 X70.0778 Y-0.5854
G01 X70.0829 Y-0.6238
G01 X70.0861 Y-0.6623
G01 X70.0875 Y-0.7038
G01 X70.0875 Y-99.2059
G01 X70.0872 Y-99.3118
G01 X70.0835 Y-99.3702
G01 X70.0798 Y-99.4012
G01 X70.0729 Y-99.4424
G01 X70.0624 Y-99.4890
G01 X70.0529 Y-99.5222
G01 X70.0404 Y-99.5600
G01 X70.0288 Y-99.5907
G01 X70.0133 Y-99.6261
G01 X69.9939 Y-99.6647
G01 X69.9830 Y-99.6841
G01 X69.9728 Y-99.7020
G01 X69.9531 Y-99.7330
G01 X69.9268 Y-99.7702
G01 X69.9029 Y-99.8004
G01 X69.8850 Y-99.8211
G01 X69.8589 Y-99.8489
G01 X69.8295 Y-99.8775
G01 X69.8006 Y-99.9027
G01 X69.7635 Y-99.9318
G01 X69.7331 Y-99.9530
G01 X69.7049 Y-99.9712
G01 X69.6660 Y-99.9935
G01 X69.6361 Y-100.0086
G01 X69.6150 Y-100.0182
G01 X69.5681 Y-100.0374
G01 X69.5231 Y-100.0529
G01 X69.4826 Y-100.0639
G01 X69.4259 Y-100.0758
G01 X69.3957 Y-100.0805
G01 X69.3742 Y-100.0831
G01 X69.3138 Y-100.0871
G01 X0.7107 Y-100.0875
G01 X0.7096 Y-100.2679
G01 X0.6706 Y-100.2672
G01 X0.6246 Y-100.2642
G01 X0.5769 Y-100.2588
G01 X0.5298 Y-100.2512
G01 X0.4825 Y-100.2411
G01 X0.4363 Y-100.2288
G01 X0.3902 Y-100.2142
G01 X0.3457 Y-100.1975
G01 X0.3013 Y-100.1784
G01 X0.2582 Y-100.1573
G01 X0.2162 Y-100.1341
G01 X0.1754 Y-100.1088
G01 X0.1359 Y-100.0817
G01 X0.0977 Y-100.0525
G01 X0.0611 Y-100.0216
G01 X0.0260 Y-99.9889
G01 X-0.0075 Y-99.9545
G01 X-0.0391 Y-99.9186
G01 X-0.0689 Y-99.8813
G01 X-0.0972 Y-99.8420
G01 X-0.1234 Y-99.8016
G01 X-0.1475 Y-99.7601
G01 X-0.1693 Y-99.7179
G01 X-0.1893 Y-99.6741
G01 X-0.2073 Y-99.6290
G01 X-0.2228 Y-99.5837
G01 X-0.2359 Y-99.5380
G01 X-0.2470 Y-99.4913
G01 X-0.2557 Y-99.4441
G01 X-0.2621 Y-99.3964
G01 X-0.2662 Y-99.3481
G01 X-0.2679 Y-99.2970
G01 X-0.2679 Y-0.7048
G01 X-0.2672 Y-0.6724
G01 X-0.2642 Y-0.6245
G01 X-0.2621 Y-0.6038
G01 X-0.2557 Y-0.5562
G01 X-0.2511 Y-0.5295
G01 X-0.2411 Y-0.4825
G01 X-0.2288 Y-0.4361
G01 X-0.2227 Y-0.4161
G01 X-0.2072 Y-0.3707
G01 X-0.1974 Y-0.3454
G01 X-0.1894 Y-0.3261
G01 X-0.1695 Y-0.2825
G01 X-0.1573 Y-0.2582
G01 X-0.1341 Y-0.2162
G01 X-0.1089 Y-0.1754
G01 X-0.0973 Y-0.1580
G01 X-0.0692 Y-0.1191
G01 X-0.0525 Y-0.0977
G01 X-0.0216 Y-0.0610
G01 X0.0112 Y-0.0259
G01 X0.0456 Y0.0075
G01 X0.0610 Y0.0216
G01 X0.0977 Y0.0525
G01 X0.1191 Y0.0692
G01 X0.1580 Y0.0973
G01 X0.1983 Y0.1234
G01 X0.2162 Y0.1341
G01 X0.2582 Y0.1573
G01 X0.3013 Y0.1784
G01 X0.3261 Y0.1894
G01 X0.3707 Y0.2072
G01 X0.4162 Y0.2227
G01 X0.4623 Y0.2360
G01 X0.4825 Y0.2411
G01 X0.5295 Y0.2511
G01 X0.5562 Y0.2557
G01 X0.6038 Y0.2621
G01 X0.6516 Y0.2662
G01 X0.7048 Y0.2679
G01 X69.2950 Y0.2679
G01 X69.3274 Y0.2672
G01 X69.3753 Y0.2642
G01 X69.3964 Y0.2621
G01 X69.4439 Y0.2557
G01 X69.4909 Y0.2471
G01 X69.5178 Y0.2410
G01 X69.5635 Y0.2289
G01 X69.5842 Y0.2226
G01 X69.6290 Y0.2073
G01 X69.6543 Y0.1975
G01 X69.6741 Y0.1893
G01 X69.7175 Y0.1695
G01 X69.7413 Y0.1576
G01 X69.7838 Y0.1341
G01 X69.8245 Y0.1089
G01 X69.8420 Y0.0972
G01 X69.8810 Y0.0691
G01 X69.9022 Y0.0526
G01 X69.9390 Y0.0215
G01 X69.9741 Y-0.0111
G01 X69.9889 Y-0.0260
G01 X70.0216 Y-0.0610
G01 X70.0525 Y-0.0977
G01 X70.0816 Y-0.1359
G01 X70.0972 Y-0.1580
G01 X70.1233 Y-0.1983
G01 X70.1341 Y-0.2163
G01 X70.1574 Y-0.2583
G01 X70.1697 Y-0.2828
G01 X70.1893 Y-0.3259
G01 X70.2072 Y-0.3709
G01 X70.2227 Y-0.4162
G01 X70.2288 Y-0.4361
G01 X70.2411 Y-0.4826
G01 X70.2510 Y-0.5287
G01 X70.2559 Y-0.5568
G01 X70.2622 Y-0.6039
G01 X70.2661 Y-0.6512
G01 X70.2679 Y-0.7027
G01 X70.2679 Y-99.2061
G01 X70.2674 Y-99.3184
G01 X70.2655 Y-99.3575
G01 X70.2631 Y-99.3868
G01 X70.2582 Y-99.4284
G01 X70.2503 Y-99.4754
G01 X70.2374 Y-99.5326
G01 X70.2257 Y-99.5741
G01 X70.2105 Y-99.6200
G01 X70.1957 Y-99.6590
G01 X70.1766 Y-99.7027
G01 X70.1527 Y-99.7504
G01 X70.1399 Y-99.7730
G01 X70.1267 Y-99.7961
G01 X70.1031 Y-99.8332
G01 X70.0708 Y-99.8788
G01 X70.0429 Y-99.9143
G01 X70.0188 Y-99.9422
G01 X69.9884 Y-99.9745
G01 X69.9506 Y-100.0111
G01 X69.9145 Y-100.0427
G01 X69.8701 Y-100.0775
G01 X69.8333 Y-100.1030
G01 X69.7972 Y-100.1262
G01 X69.7511 Y-100.1526
G01 X69.7127 Y-100.1719
G01 X69.6891 Y-100.1827
G01 X69.6559 Y-100.1969
G01 X69.6310 Y-100.2065
G01 X69.5751 Y-100.2256
G01 X69.5271 Y-100.2387
G01 X69.5025 Y-100.2444
G01 X69.4589 Y-100.2531
G01 X69.4194 Y-100.2593
G01 X69.3910 Y-100.2628
G01 X69.3402 Y-100.2666
G01 X69.3172 Y-100.2674
G01 X0.7096 Y-100.2679
G00 Z1.9990
G00 X65.2921 Y-96.6603
G01 F80.00
G01 Z-0.3732
G01 F80.00
G01 X65.5521 Y-96.0325
G01 X66.0325 Y-95.5521
G01 X66.6603 Y-95.2921
G01 X67.3397 Y-95.2921
G01 X67.9675 Y-95.5521
G01 X68.4479 Y-96.0325
G01 X68.7079 Y-96.6603
G01 X68.7079 Y-97.3397
G01 X68.4479 Y-97.9675
G01 X67.9675 Y-98.4479
G01 X67.3397 Y-98.7079
G01 X66.6603 Y-98.7079
G01 X66.0325 Y-98.4479
G01 X65.5521 Y-97.9675
G01 X65.2921 Y-97.3397
G01 X65.2921 Y-96.6603
G01 X65.4724 Y-96.6961
G01 X65.7050 Y-96.1347
G01 X66.1347 Y-95.7050
G01 X66.6961 Y-95.4724
G01 X67.3039 Y-95.4724
G01 X67.8653 Y-95.7050
G01 X68.2950 Y-96.1347
G01 X68.5276 Y-96.6961
G01 X68.5276 Y-97.3039
G01 X68.2950 Y-97.8653
G01 X67.8653 Y-98.2950
G01 X67.3039 Y-98.5276
G01 X66.6961 Y-98.5276
G01 X66.1347 Y-98.2950
G01 X65.7050 Y-97.8653
G01 X65.4724 Y-97.3039
G01 X65.4724 Y-96.6961
G01 X65.6528 Y-96.7320
G01 X65.8579 Y-96.2369
G01 X66.2369 Y-95.8579
G01 X66.7320 Y-95.6528
G01 X67.2680 Y-95.6528
G01 X67.7631 Y-95.8579
G01 X68.1421 Y-96.2369
G01 X68.3472 Y-96.7320
G01 X68.3472 Y-97.2680
G01 X68.1421 Y-97.7631
G01 X67.7631 Y-98.1421
G01 X67.2680 Y-98.3472
G01 X66.7320 Y-98.3472
G01 X66.2369 Y-98.1421
G01 X65.8579 Y-97.7631
G01 X65.6528 Y-97.2680
G01 X65.6528 Y-96.7320
G01 X65.8331 Y-96.7679
G01 X66.0108 Y-96.3390
G01 X66.3390 Y-96.0108
G01 X66.7679 Y-95.8331
G01 X67.2321 Y-95.8331
G01 X67.6610 Y-96.0108
G01 X67.9892 Y-96.3390
G01 X68.1669 Y-96.7679
G01 X68.1669 Y-97.2321
G01 X67.9892 Y-97.6610
G01 X67.6610 Y-97.9892
G01 X67.2321 Y-98.1669
G01 X66.7679 Y-98.1669
G01 X66.3390 Y-97.9892
G01 X66.0108 Y-97.6610
G01 X65.8331 Y-97.2321
G01 X65.8331 Y-96.7679
G01 X66.0135 Y-96.8038
G01 X66.1637 Y-96.4412
G01 X66.4412 Y-96.1637
G01 X66.8038 Y-96.0135
G01 X67.1962 Y-96.0135
G01 X67.5588 Y-96.1637
G01 X67.8363 Y-96.4412
G01 X67.9865 Y-96.8038
G01 X67.9865 Y-97.1962
G01 X67.8363 Y-97.5588
G01 X67.5588 Y-97.8363
G01 X67.1962 Y-97.9865
G01 X66.8038 Y-97.9865
G01 X66.4412 Y-97.8363
G01 X66.1637 Y-97.5588
G01 X66.0135 Y-97.1962
G01 X66.0135 Y-96.8038
G01 X66.1939 Y-96.8397
G01 X66.3166 Y-96.5434
G01 X66.5434 Y-96.3166
G01 X66.8397 Y-96.1939
G01 X67.1603 Y-96.1939
G01 X67.4566 Y-96.3166
G01 X67.6834 Y-96.5434
G01 X67.8061 Y-96.8397
G01 X67.8061 Y-97.1603
G01 X67.6834 Y-97.4566
G01 X67.4566 Y-97.6834
G01 X67.1603 Y-97.8061
G01 X66.8397 Y-97.8061
G01 X66.5434 Y-97.6834
G01 X66.3166 Y-97.4566
G01 X66.1939 Y-97.1603
G01 X66.1939 Y-96.8397
G01 X66.3742 Y-96.8755
G01 X66.4695 Y-96.6455
G01 X66.6455 Y-96.4695
G01 X66.8755 Y-96.3742
G01 X67.1245 Y-96.3742
G01 X67.3545 Y-96.4695
G01 X67.5305 Y-96.6455
G01 X67.6258 Y-96.8755
G01 X67.6258 Y-97.1245
G01 X67.5305 Y-97.3545
G01 X67.3545 Y-97.5305
G01 X67.1245 Y-97.6258
G01 X66.8755 Y-97.6258
G01 X66.6455 Y-97.5305
G01 X66.4695 Y-97.3545
G01 X66.3742 Y-97.1245
G01 X66.3742 Y-96.8755
G01 X66.5546 Y-96.9114
G01 X66.6224 Y-96.7477
G01 X66.7477 Y-96.6224
G01 X66.9114 Y-96.5546
G01 X67.0886 Y-96.5546
G01 X67.2523 Y-96.6224
G01 X67.3776 Y-96.7477
G01 X67.4454 Y-96.9114
G01 X67.4454 Y-97.0886
G01 X67.3776 Y-97.2523
G01 X67.2523 Y-97.3776
G01 X67.0886 Y-97.4454
G01 X66.9114 Y-97.4454
G01 X66.7477 Y-97.3776
G01 X66.6224 Y-97.2523
G01 X66.5546 Y-97.0886
G01 X66.5546 Y-96.9114
G01 X66.7349 Y-96.9473
G01 X66.7753 Y-96.8499
G01 X66.8499 Y-96.7753
G01 X66.9473 Y-96.7349
G01 X67.0527 Y-96.7349
G01 X67.1501 Y-96.7753
G01 X67.2247 Y-96.8499
G01 X67.2651 Y-96.9473
G01 X67.2651 Y-97.0527
G01 X67.2247 Y-97.1501
G01 X67.1501 Y-97.2247
G01 X67.0527 Y-97.2651
G01 X66.9473 Y-97.2651
G01 X66.8499 Y-97.2247
G01 X66.7753 Y-97.1501
G01 X66.7349 Y-97.0527
G01 X66.7349 Y-96.9473
G01 X66.9153 Y-96.9832
G01 X66.9282 Y-96.9520
G01 X66.9520 Y-96.9282
G01 X66.9832 Y-96.9153
G01 X67.0168 Y-96.9153
G01 X67.0480 Y-96.9282
G01 X67.0718 Y-96.9520
G01 X67.0847 Y-96.9832
G01 X67.0847 Y-97.0168
G01 X67.0718 Y-97.0480
G01 X67.0480 Y-97.0718
G01 X67.0168 Y-97.0847
G01 X66.9832 Y-97.0847
G01 X66.9520 Y-97.0718
G01 X66.9282 Y-97.0480
G01 X66.9153 Y-97.0168
G01 X66.9153 Y-96.9832
G00 Z1.9990
G00 X66.9153 Y-2.9832
G01 F80.00
G01 Z-0.3732
G01 F80.00
G01 X66.9153 Y-3.0168
G01 X66.9282 Y-3.0480
G01 X66.9520 Y-3.0718
G01 X66.9832 Y-3.0847
G01 X67.0168 Y-3.0847
G01 X67.0480 Y-3.0718
G01 X67.0718 Y-3.0480
G01 X67.0847 Y-3.0168
G01 X67.0847 Y-2.9832
G01 X67.0718 Y-2.9520
G01 X67.0480 Y-2.9282
G01 X67.0168 Y-2.9153
G01 X66.9832 Y-2.9153
G01 X66.9520 Y-2.9282
G01 X66.9282 Y-2.9520
G01 X66.9153 Y-2.9832
G01 X66.7349 Y-2.9473
G01 X66.7349 Y-3.0527
G01 X66.7753 Y-3.1501
G01 X66.8499 Y-3.2247
G01 X66.9473 Y-3.2651
G01 X67.0527 Y-3.2651
G01 X67.1501 Y-3.2247
G01 X67.2247 Y-3.1501
G01 X67.2651 Y-3.0527
G01 X67.2651 Y-2.9473
G01 X67.2247 Y-2.8499
G01 X67.1501 Y-2.7753
G01 X67.0527 Y-2.7349
G01 X66.9473 Y-2.7349
G01 X66.8499 Y-2.7753
G01 X66.7753 Y-2.8499
G01 X66.7349 Y-2.9473
G01 X66.5546 Y-2.9114
G01 X66.5546 Y-3.0886
G01 X66.6224 Y-3.2523
G01 X66.7477 Y-3.3776
G01 X66.9114 Y-3.4454
G01 X67.0886 Y-3.4454
G01 X67.2523 Y-3.3776
G01 X67.3776 Y-3.2523
G01 X67.4454 Y-3.0886
G01 X67.4454 Y-2.9114
G01 X67.3776 Y-2.7477
G01 X67.2523 Y-2.6224
G01 X67.0886 Y-2.5546
G01 X66.9114 Y-2.5546
G01 X66.7477 Y-2.6224
G01 X66.6224 Y-2.7477
G01 X66.5546 Y-2.9114
G01 X66.3742 Y-2.8755
G01 X66.3742 Y-3.1245
G01 X66.4695 Y-3.3545
G01 X66.6455 Y-3.5305
G01 X66.8755 Y-3.6258
G01 X67.1245 Y-3.6258
G01 X67.3545 Y-3.5305
G01 X67.5305 Y-3.3545
G01 X67.6258 Y-3.1245
G01 X67.6258 Y-2.8755
G01 X67.5305 Y-2.6455
G01 X67.3545 Y-2.4695
G01 X67.1245 Y-2.3742
G01 X66.8755 Y-2.3742
G01 X66.6455 Y-2.4695
G01 X66.4695 Y-2.6455
G01 X66.3742 Y-2.8755
G01 X66.1939 Y-2.8397
G01 X66.1939 Y-3.1603
G01 X66.3166 Y-3.4566
G01 X66.5434 Y-3.6834
G01 X66.8397 Y-3.8061
G01 X67.1603 Y-3.8061
G01 X67.4566 Y-3.6834
G01 X67.6834 Y-3.4566
G01 X67.8061 Y-3.1603
G01 X67.8061 Y-2.8397
G01 X67.6834 Y-2.5434
G01 X67.4566 Y-2.3166
G01 X67.1603 Y-2.1939
G01 X66.8397 Y-2.1939
G01 X66.5434 Y-2.3166
G01 X66.3166 Y-2.5434
G01 X66.1939 Y-2.8397
G01 X66.0135 Y-2.8038
G01 X66.0135 Y-3.1962
G01 X66.1637 Y-3.5588
G01 X66.4412 Y-3.8363
G01 X66.8038 Y-3.9865
G01 X67.1962 Y-3.9865
G01 X67.5588 Y-3.8363
G01 X67.8363 Y-3.5588
G01 X67.9865 Y-3.1962
G01 X67.9865 Y-2.8038
G01 X67.8363 Y-2.4412
G01 X67.5588 Y-2.1637
G01 X67.1962 Y-2.0135
G01 X66.8038 Y-2.0135
G01 X66.4412 Y-2.1637
G01 X66.1637 Y-2.4412
G01 X66.0135 Y-2.8038
G01 X65.8331 Y-2.7679
G01 X65.8331 Y-3.2321
G01 X66.0108 Y-3.6610
G01 X66.3390 Y-3.9892
G01 X66.7679 Y-4.1669
G01 X67.2321 Y-4.1669
G01 X67.6610 Y-3.9892
G01 X67.9892 Y-3.6610
G01 X68.1669 Y-3.2321
G01 X68.1669 Y-2.7679
G01 X67.9892 Y-2.3390
G01 X67.6610 Y-2.0108
G01 X67.2321 Y-1.8331
G01 X66.7679 Y-1.8331
G01 X66.3390 Y-2.0108
G01 X66.0108 Y-2.3390
G01 X65.8331 Y-2.7679
G01 X65.6528 Y-2.7320
G01 X65.6528 Y-3.2680
G01 X65.8579 Y-3.7631
G01 X66.2369 Y-4.1421
G01 X66.7320 Y-4.3472
G01 X67.2680 Y-4.3472
G01 X67.7631 Y-4.1421
G01 X68.1421 Y-3.7631
G01 X68.3472 Y-3.2680
G01 X68.3472 Y-2.7320
G01 X68.1421 Y-2.2369
G01 X67.7631 Y-1.8579
G01 X67.2680 Y-1.6528
G01 X66.7320 Y-1.6528
G01 X66.2369 Y-1.8579
G01 X65.8579 Y-2.2369
G01 X65.6528 Y-2.7320
G01 X65.4724 Y-2.6961
G01 X65.4724 Y-3.3039
G01 X65.7050 Y-3.8653
G01 X66.1347 Y-4.2950
G01 X66.6961 Y-4.5276
G01 X67.3039 Y-4.5276
G01 X67.8653 Y-4.2950
G01 X68.2950 Y-3.8653
G01 X68.5276 Y-3.3039
G01 X68.5276 Y-2.6961
G01 X68.2950 Y-2.1347
G01 X67.8653 Y-1.7050
G01 X67.3039 Y-1.4724
G01 X66.6961 Y-1.4724
G01 X66.1347 Y-1.7050
G01 X65.7050 Y-2.1347
G01 X65.4724 Y-2.6961
G01 X65.2921 Y-2.6603
G01 X65.2921 Y-3.3397
G01 X65.5521 Y-3.9675
G01 X66.0325 Y-4.4479
G01 X66.6603 Y-4.7079
G01 X67.3397 Y-4.7079
G01 X67.9675 Y-4.4479
G01 X68.4479 Y-3.9675
G01 X68.7079 Y-3.3397
G01 X68.7079 Y-2.6603
G01 X68.4479 Y-2.0325
G01 X67.9675 Y-1.5521
G01 X67.3397 Y-1.2921
G01 X66.6603 Y-1.2921
G01 X66.0325 Y-1.5521
G01 X65.5521 Y-2.0325
G01 X65.2921 Y-2.6603
G00 Z1.9990
M05
G00 Z1.9990
G00 Z12.70
G00 X0.0 Y0.0

M02