(G-CODE GENERATED BY FLATCAM v8.96 - www.flatcam.org - Version Date: 2019/08/23)

(Name: robot-antenna-drill-1200)
(Type: G-code from Geometry)
(Units: MM)

(Created on jeudi, 30 janvier 2020 at 15:06)

(TOOL DIAMETER: 1.2 mm)
(Feedrate: 79.9998 mm/min)
(Feedrate_Z: 79.9998 mm/min)
(Feedrate rapids 79.9998 mm/min)

(Z_Cut: -2.4003 mm)
(DepthPerCut: 0.8001 mm <=>3 passes)
(Z_Move: 1.999 mm)
(Z Toolchange: 12.7 mm)
(X,Y Toolchange: 0.0000, 0.0000 mm)
(Z Start: None mm)
(Z End: 12.7 mm)
(Steps per circle: 128)
(Postprocessor Geometry: default)

(X range:    2.2500 ...   67.7500  mm)
(Y range:  -97.7500 ...   -2.2500  mm)

(Spindle Speed: None RPM)

G21
G90
G94

G01 F80.00
G00 Z1.9990

M03
G00 X3.7500 Y-3.0000
G01 F80.00
G01 Z-0.8001
G01 F80.00
G01 X3.7464 Y-3.0735
G01 X3.7356 Y-3.1463
G01 X3.7177 Y-3.2177
G01 X3.6929 Y-3.2870
G01 X3.6614 Y-3.3535
G01 X3.6236 Y-3.4167
G01 X3.5798 Y-3.4758
G01 X3.5303 Y-3.5303
G01 X3.4758 Y-3.5798
G01 X3.4167 Y-3.6236
G01 X3.3535 Y-3.6614
G01 X3.2870 Y-3.6929
G01 X3.2177 Y-3.7177
G01 X3.1463 Y-3.7356
G01 X3.0735 Y-3.7464
G01 X3.0000 Y-3.7500
G01 X2.9265 Y-3.7464
G01 X2.8537 Y-3.7356
G01 X2.7823 Y-3.7177
G01 X2.7130 Y-3.6929
G01 X2.6465 Y-3.6614
G01 X2.5833 Y-3.6236
G01 X2.5242 Y-3.5798
G01 X2.4697 Y-3.5303
G01 X2.4202 Y-3.4758
G01 X2.3764 Y-3.4167
G01 X2.3386 Y-3.3535
G01 X2.3071 Y-3.2870
G01 X2.2823 Y-3.2177
G01 X2.2644 Y-3.1463
G01 X2.2536 Y-3.0735
G01 X2.2500 Y-3.0000
G01 X2.2536 Y-2.9265
G01 X2.2644 Y-2.8537
G01 X2.2823 Y-2.7823
G01 X2.3071 Y-2.7130
G01 X2.3386 Y-2.6465
G01 X2.3764 Y-2.5833
G01 X2.4202 Y-2.5242
G01 X2.4697 Y-2.4697
G01 X2.5242 Y-2.4202
G01 X2.5833 Y-2.3764
G01 X2.6465 Y-2.3386
G01 X2.7130 Y-2.3071
G01 X2.7823 Y-2.2823
G01 X2.8537 Y-2.2644
G01 X2.9265 Y-2.2536
G01 X3.0000 Y-2.2500
G01 X3.0735 Y-2.2536
G01 X3.1463 Y-2.2644
G01 X3.2177 Y-2.2823
G01 X3.2870 Y-2.3071
G01 X3.3535 Y-2.3386
G01 X3.4167 Y-2.3764
G01 X3.4758 Y-2.4202
G01 X3.5303 Y-2.4697
G01 X3.5798 Y-2.5242
G01 X3.6236 Y-2.5833
G01 X3.6614 Y-2.6465
G01 X3.6929 Y-2.7130
G01 X3.7177 Y-2.7823
G01 X3.7356 Y-2.8537
G01 X3.7464 Y-2.9265
G01 X3.7500 Y-3.0000
G00 X3.7500 Y-3.0000
G01 F80.00
G01 Z-1.6002
G01 F80.00
G01 X3.7464 Y-3.0735
G01 X3.7356 Y-3.1463
G01 X3.7177 Y-3.2177
G01 X3.6929 Y-3.2870
G01 X3.6614 Y-3.3535
G01 X3.6236 Y-3.4167
G01 X3.5798 Y-3.4758
G01 X3.5303 Y-3.5303
G01 X3.4758 Y-3.5798
G01 X3.4167 Y-3.6236
G01 X3.3535 Y-3.6614
G01 X3.2870 Y-3.6929
G01 X3.2177 Y-3.7177
G01 X3.1463 Y-3.7356
G01 X3.0735 Y-3.7464
G01 X3.0000 Y-3.7500
G01 X2.9265 Y-3.7464
G01 X2.8537 Y-3.7356
G01 X2.7823 Y-3.7177
G01 X2.7130 Y-3.6929
G01 X2.6465 Y-3.6614
G01 X2.5833 Y-3.6236
G01 X2.5242 Y-3.5798
G01 X2.4697 Y-3.5303
G01 X2.4202 Y-3.4758
G01 X2.3764 Y-3.4167
G01 X2.3386 Y-3.3535
G01 X2.3071 Y-3.2870
G01 X2.2823 Y-3.2177
G01 X2.2644 Y-3.1463
G01 X2.2536 Y-3.0735
G01 X2.2500 Y-3.0000
G01 X2.2536 Y-2.9265
G01 X2.2644 Y-2.8537
G01 X2.2823 Y-2.7823
G01 X2.3071 Y-2.7130
G01 X2.3386 Y-2.6465
G01 X2.3764 Y-2.5833
G01 X2.4202 Y-2.5242
G01 X2.4697 Y-2.4697
G01 X2.5242 Y-2.4202
G01 X2.5833 Y-2.3764
G01 X2.6465 Y-2.3386
G01 X2.7130 Y-2.3071
G01 X2.7823 Y-2.2823
G01 X2.8537 Y-2.2644
G01 X2.9265 Y-2.2536
G01 X3.0000 Y-2.2500
G01 X3.0735 Y-2.2536
G01 X3.1463 Y-2.2644
G01 X3.2177 Y-2.2823
G01 X3.2870 Y-2.3071
G01 X3.3535 Y-2.3386
G01 X3.4167 Y-2.3764
G01 X3.4758 Y-2.4202
G01 X3.5303 Y-2.4697
G01 X3.5798 Y-2.5242
G01 X3.6236 Y-2.5833
G01 X3.6614 Y-2.6465
G01 X3.6929 Y-2.7130
G01 X3.7177 Y-2.7823
G01 X3.7356 Y-2.8537
G01 X3.7464 Y-2.9265
G01 X3.7500 Y-3.0000
G00 X3.7500 Y-3.0000
G01 F80.00
G01 Z-2.4003
G01 F80.00
G01 X3.7464 Y-3.0735
G01 X3.7356 Y-3.1463
G01 X3.7177 Y-3.2177
G01 X3.6929 Y-3.2870
G01 X3.6614 Y-3.3535
G01 X3.6236 Y-3.4167
G01 X3.5798 Y-3.4758
G01 X3.5303 Y-3.5303
G01 X3.4758 Y-3.5798
G01 X3.4167 Y-3.6236
G01 X3.3535 Y-3.6614
G01 X3.2870 Y-3.6929
G01 X3.2177 Y-3.7177
G01 X3.1463 Y-3.7356
G01 X3.0735 Y-3.7464
G01 X3.0000 Y-3.7500
G01 X2.9265 Y-3.7464
G01 X2.8537 Y-3.7356
G01 X2.7823 Y-3.7177
G01 X2.7130 Y-3.6929
G01 X2.6465 Y-3.6614
G01 X2.5833 Y-3.6236
G01 X2.5242 Y-3.5798
G01 X2.4697 Y-3.5303
G01 X2.4202 Y-3.4758
G01 X2.3764 Y-3.4167
G01 X2.3386 Y-3.3535
G01 X2.3071 Y-3.2870
G01 X2.2823 Y-3.2177
G01 X2.2644 Y-3.1463
G01 X2.2536 Y-3.0735
G01 X2.2500 Y-3.0000
G01 X2.2536 Y-2.9265
G01 X2.2644 Y-2.8537
G01 X2.2823 Y-2.7823
G01 X2.3071 Y-2.7130
G01 X2.3386 Y-2.6465
G01 X2.3764 Y-2.5833
G01 X2.4202 Y-2.5242
G01 X2.4697 Y-2.4697
G01 X2.5242 Y-2.4202
G01 X2.5833 Y-2.3764
G01 X2.6465 Y-2.3386
G01 X2.7130 Y-2.3071
G01 X2.7823 Y-2.2823
G01 X2.8537 Y-2.2644
G01 X2.9265 Y-2.2536
G01 X3.0000 Y-2.2500
G01 X3.0735 Y-2.2536
G01 X3.1463 Y-2.2644
G01 X3.2177 Y-2.2823
G01 X3.2870 Y-2.3071
G01 X3.3535 Y-2.3386
G01 X3.4167 Y-2.3764
G01 X3.4758 Y-2.4202
G01 X3.5303 Y-2.4697
G01 X3.5798 Y-2.5242
G01 X3.6236 Y-2.5833
G01 X3.6614 Y-2.6465
G01 X3.6929 Y-2.7130
G01 X3.7177 Y-2.7823
G01 X3.7356 Y-2.8537
G01 X3.7464 Y-2.9265
G01 X3.7500 Y-3.0000
G00 Z1.9990
G00 X35.0500 Y-50.0000
G01 F80.00
G01 Z-0.8001
G01 F80.00
G01 X35.0490 Y-50.0098
G01 X35.0462 Y-50.0191
G01 X35.0416 Y-50.0278
G01 X35.0354 Y-50.0354
G01 X35.0278 Y-50.0416
G01 X35.0191 Y-50.0462
G01 X35.0098 Y-50.0490
G01 X35.0000 Y-50.0500
G01 X34.9902 Y-50.0490
G01 X34.9809 Y-50.0462
G01 X34.9722 Y-50.0416
G01 X34.9646 Y-50.0354
G01 X34.9584 Y-50.0278
G01 X34.9538 Y-50.0191
G01 X34.9510 Y-50.0098
G01 X34.9500 Y-50.0000
G01 X34.9510 Y-49.9902
G01 X34.9538 Y-49.9809
G01 X34.9584 Y-49.9722
G01 X34.9646 Y-49.9646
G01 X34.9722 Y-49.9584
G01 X34.9809 Y-49.9538
G01 X34.9902 Y-49.9510
G01 X35.0000 Y-49.9500
G01 X35.0098 Y-49.9510
G01 X35.0191 Y-49.9538
G01 X35.0278 Y-49.9584
G01 X35.0354 Y-49.9646
G01 X35.0416 Y-49.9722
G01 X35.0462 Y-49.9809
G01 X35.0490 Y-49.9902
G01 X35.0500 Y-50.0000
G00 X35.0500 Y-50.0000
G01 F80.00
G01 Z-1.6002
G01 F80.00
G01 X35.0490 Y-50.0098
G01 X35.0462 Y-50.0191
G01 X35.0416 Y-50.0278
G01 X35.0354 Y-50.0354
G01 X35.0278 Y-50.0416
G01 X35.0191 Y-50.0462
G01 X35.0098 Y-50.0490
G01 X35.0000 Y-50.0500
G01 X34.9902 Y-50.0490
G01 X34.9809 Y-50.0462
G01 X34.9722 Y-50.0416
G01 X34.9646 Y-50.0354
G01 X34.9584 Y-50.0278
G01 X34.9538 Y-50.0191
G01 X34.9510 Y-50.0098
G01 X34.9500 Y-50.0000
G01 X34.9510 Y-49.9902
G01 X34.9538 Y-49.9809
G01 X34.9584 Y-49.9722
G01 X34.9646 Y-49.9646
G01 X34.9722 Y-49.9584
G01 X34.9809 Y-49.9538
G01 X34.9902 Y-49.9510
G01 X35.0000 Y-49.9500
G01 X35.0098 Y-49.9510
G01 X35.0191 Y-49.9538
G01 X35.0278 Y-49.9584
G01 X35.0354 Y-49.9646
G01 X35.0416 Y-49.9722
G01 X35.0462 Y-49.9809
G01 X35.0490 Y-49.9902
G01 X35.0500 Y-50.0000
G00 X35.0500 Y-50.0000
G01 F80.00
G01 Z-2.4003
G01 F80.00
G01 X35.0490 Y-50.0098
G01 X35.0462 Y-50.0191
G01 X35.0416 Y-50.0278
G01 X35.0354 Y-50.0354
G01 X35.0278 Y-50.0416
G01 X35.0191 Y-50.0462
G01 X35.0098 Y-50.0490
G01 X35.0000 Y-50.0500
G01 X34.9902 Y-50.0490
G01 X34.9809 Y-50.0462
G01 X34.9722 Y-50.0416
G01 X34.9646 Y-50.0354
G01 X34.9584 Y-50.0278
G01 X34.9538 Y-50.0191
G01 X34.9510 Y-50.0098
G01 X34.9500 Y-50.0000
G01 X34.9510 Y-49.9902
G01 X34.9538 Y-49.9809
G01 X34.9584 Y-49.9722
G01 X34.9646 Y-49.9646
G01 X34.9722 Y-49.9584
G01 X34.9809 Y-49.9538
G01 X34.9902 Y-49.9510
G01 X35.0000 Y-49.9500
G01 X35.0098 Y-49.9510
G01 X35.0191 Y-49.9538
G01 X35.0278 Y-49.9584
G01 X35.0354 Y-49.9646
G01 X35.0416 Y-49.9722
G01 X35.0462 Y-49.9809
G01 X35.0490 Y-49.9902
G01 X35.0500 Y-50.0000
G00 Z1.9990
G00 X3.7500 Y-97.0000
G01 F80.00
G01 Z-0.8001
G01 F80.00
G01 X3.7464 Y-97.0735
G01 X3.7356 Y-97.1463
G01 X3.7177 Y-97.2177
G01 X3.6929 Y-97.2870
G01 X3.6614 Y-97.3535
G01 X3.6236 Y-97.4167
G01 X3.5798 Y-97.4758
G01 X3.5303 Y-97.5303
G01 X3.4758 Y-97.5798
G01 X3.4167 Y-97.6236
G01 X3.3535 Y-97.6614
G01 X3.2870 Y-97.6929
G01 X3.2177 Y-97.7177
G01 X3.1463 Y-97.7356
G01 X3.0735 Y-97.7464
G01 X3.0000 Y-97.7500
G01 X2.9265 Y-97.7464
G01 X2.8537 Y-97.7356
G01 X2.7823 Y-97.7177
G01 X2.7130 Y-97.6929
G01 X2.6465 Y-97.6614
G01 X2.5833 Y-97.6236
G01 X2.5242 Y-97.5798
G01 X2.4697 Y-97.5303
G01 X2.4202 Y-97.4758
G01 X2.3764 Y-97.4167
G01 X2.3386 Y-97.3535
G01 X2.3071 Y-97.2870
G01 X2.2823 Y-97.2177
G01 X2.2644 Y-97.1463
G01 X2.2536 Y-97.0735
G01 X2.2500 Y-97.0000
G01 X2.2536 Y-96.9265
G01 X2.2644 Y-96.8537
G01 X2.2823 Y-96.7823
G01 X2.3071 Y-96.7130
G01 X2.3386 Y-96.6465
G01 X2.3764 Y-96.5833
G01 X2.4202 Y-96.5242
G01 X2.4697 Y-96.4697
G01 X2.5242 Y-96.4202
G01 X2.5833 Y-96.3764
G01 X2.6465 Y-96.3386
G01 X2.7130 Y-96.3071
G01 X2.7823 Y-96.2823
G01 X2.8537 Y-96.2644
G01 X2.9265 Y-96.2536
G01 X3.0000 Y-96.2500
G01 X3.0735 Y-96.2536
G01 X3.1463 Y-96.2644
G01 X3.2177 Y-96.2823
G01 X3.2870 Y-96.3071
G01 X3.3535 Y-96.3386
G01 X3.4167 Y-96.3764
G01 X3.4758 Y-96.4202
G01 X3.5303 Y-96.4697
G01 X3.5798 Y-96.5242
G01 X3.6236 Y-96.5833
G01 X3.6614 Y-96.6465
G01 X3.6929 Y-96.7130
G01 X3.7177 Y-96.7823
G01 X3.7356 Y-96.8537
G01 X3.7464 Y-96.9265
G01 X3.7500 Y-97.0000
G00 X3.7500 Y-97.0000
G01 F80.00
G01 Z-1.6002
G01 F80.00
G01 X3.7464 Y-97.0735
G01 X3.7356 Y-97.1463
G01 X3.7177 Y-97.2177
G01 X3.6929 Y-97.2870
G01 X3.6614 Y-97.3535
G01 X3.6236 Y-97.4167
G01 X3.5798 Y-97.4758
G01 X3.5303 Y-97.5303
G01 X3.4758 Y-97.5798
G01 X3.4167 Y-97.6236
G01 X3.3535 Y-97.6614
G01 X3.2870 Y-97.6929
G01 X3.2177 Y-97.7177
G01 X3.1463 Y-97.7356
G01 X3.0735 Y-97.7464
G01 X3.0000 Y-97.7500
G01 X2.9265 Y-97.7464
G01 X2.8537 Y-97.7356
G01 X2.7823 Y-97.7177
G01 X2.7130 Y-97.6929
G01 X2.6465 Y-97.6614
G01 X2.5833 Y-97.6236
G01 X2.5242 Y-97.5798
G01 X2.4697 Y-97.5303
G01 X2.4202 Y-97.4758
G01 X2.3764 Y-97.4167
G01 X2.3386 Y-97.3535
G01 X2.3071 Y-97.2870
G01 X2.2823 Y-97.2177
G01 X2.2644 Y-97.1463
G01 X2.2536 Y-97.0735
G01 X2.2500 Y-97.0000
G01 X2.2536 Y-96.9265
G01 X2.2644 Y-96.8537
G01 X2.2823 Y-96.7823
G01 X2.3071 Y-96.7130
G01 X2.3386 Y-96.6465
G01 X2.3764 Y-96.5833
G01 X2.4202 Y-96.5242
G01 X2.4697 Y-96.4697
G01 X2.5242 Y-96.4202
G01 X2.5833 Y-96.3764
G01 X2.6465 Y-96.3386
G01 X2.7130 Y-96.3071
G01 X2.7823 Y-96.2823
G01 X2.8537 Y-96.2644
G01 X2.9265 Y-96.2536
G01 X3.0000 Y-96.2500
G01 X3.0735 Y-96.2536
G01 X3.1463 Y-96.2644
G01 X3.2177 Y-96.2823
G01 X3.2870 Y-96.3071
G01 X3.3535 Y-96.3386
G01 X3.4167 Y-96.3764
G01 X3.4758 Y-96.4202
G01 X3.5303 Y-96.4697
G01 X3.5798 Y-96.5242
G01 X3.6236 Y-96.5833
G01 X3.6614 Y-96.6465
G01 X3.6929 Y-96.7130
G01 X3.7177 Y-96.7823
G01 X3.7356 Y-96.8537
G01 X3.7464 Y-96.9265
G01 X3.7500 Y-97.0000
G00 X3.7500 Y-97.0000
G01 F80.00
G01 Z-2.4003
G01 F80.00
G01 X3.7464 Y-97.0735
G01 X3.7356 Y-97.1463
G01 X3.7177 Y-97.2177
G01 X3.6929 Y-97.2870
G01 X3.6614 Y-97.3535
G01 X3.6236 Y-97.4167
G01 X3.5798 Y-97.4758
G01 X3.5303 Y-97.5303
G01 X3.4758 Y-97.5798
G01 X3.4167 Y-97.6236
G01 X3.3535 Y-97.6614
G01 X3.2870 Y-97.6929
G01 X3.2177 Y-97.7177
G01 X3.1463 Y-97.7356
G01 X3.0735 Y-97.7464
G01 X3.0000 Y-97.7500
G01 X2.9265 Y-97.7464
G01 X2.8537 Y-97.7356
G01 X2.7823 Y-97.7177
G01 X2.7130 Y-97.6929
G01 X2.6465 Y-97.6614
G01 X2.5833 Y-97.6236
G01 X2.5242 Y-97.5798
G01 X2.4697 Y-97.5303
G01 X2.4202 Y-97.4758
G01 X2.3764 Y-97.4167
G01 X2.3386 Y-97.3535
G01 X2.3071 Y-97.2870
G01 X2.2823 Y-97.2177
G01 X2.2644 Y-97.1463
G01 X2.2536 Y-97.0735
G01 X2.2500 Y-97.0000
G01 X2.2536 Y-96.9265
G01 X2.2644 Y-96.8537
G01 X2.2823 Y-96.7823
G01 X2.3071 Y-96.7130
G01 X2.3386 Y-96.6465
G01 X2.3764 Y-96.5833
G01 X2.4202 Y-96.5242
G01 X2.4697 Y-96.4697
G01 X2.5242 Y-96.4202
G01 X2.5833 Y-96.3764
G01 X2.6465 Y-96.3386
G01 X2.7130 Y-96.3071
G01 X2.7823 Y-96.2823
G01 X2.8537 Y-96.2644
G01 X2.9265 Y-96.2536
G01 X3.0000 Y-96.2500
G01 X3.0735 Y-96.2536
G01 X3.1463 Y-96.2644
G01 X3.2177 Y-96.2823
G01 X3.2870 Y-96.3071
G01 X3.3535 Y-96.3386
G01 X3.4167 Y-96.3764
G01 X3.4758 Y-96.4202
G01 X3.5303 Y-96.4697
G01 X3.5798 Y-96.5242
G01 X3.6236 Y-96.5833
G01 X3.6614 Y-96.6465
G01 X3.6929 Y-96.7130
G01 X3.7177 Y-96.7823
G01 X3.7356 Y-96.8537
G01 X3.7464 Y-96.9265
G01 X3.7500 Y-97.0000
G00 Z1.9990
G00 X67.7500 Y-97.0000
G01 F80.00
G01 Z-0.8001
G01 F80.00
G01 X67.7464 Y-97.0735
G01 X67.7356 Y-97.1463
G01 X67.7177 Y-97.2177
G01 X67.6929 Y-97.2870
G01 X67.6614 Y-97.3535
G01 X67.6236 Y-97.4167
G01 X67.5798 Y-97.4758
G01 X67.5303 Y-97.5303
G01 X67.4758 Y-97.5798
G01 X67.4167 Y-97.6236
G01 X67.3535 Y-97.6614
G01 X67.2870 Y-97.6929
G01 X67.2177 Y-97.7177
G01 X67.1463 Y-97.7356
G01 X67.0735 Y-97.7464
G01 X67.0000 Y-97.7500
G01 X66.9265 Y-97.7464
G01 X66.8537 Y-97.7356
G01 X66.7823 Y-97.7177
G01 X66.7130 Y-97.6929
G01 X66.6465 Y-97.6614
G01 X66.5833 Y-97.6236
G01 X66.5242 Y-97.5798
G01 X66.4697 Y-97.5303
G01 X66.4202 Y-97.4758
G01 X66.3764 Y-97.4167
G01 X66.3386 Y-97.3535
G01 X66.3071 Y-97.2870
G01 X66.2823 Y-97.2177
G01 X66.2644 Y-97.1463
G01 X66.2536 Y-97.0735
G01 X66.2500 Y-97.0000
G01 X66.2536 Y-96.9265
G01 X66.2644 Y-96.8537
G01 X66.2823 Y-96.7823
G01 X66.3071 Y-96.7130
G01 X66.3386 Y-96.6465
G01 X66.3764 Y-96.5833
G01 X66.4202 Y-96.5242
G01 X66.4697 Y-96.4697
G01 X66.5242 Y-96.4202
G01 X66.5833 Y-96.3764
G01 X66.6465 Y-96.3386
G01 X66.7130 Y-96.3071
G01 X66.7823 Y-96.2823
G01 X66.8537 Y-96.2644
G01 X66.9265 Y-96.2536
G01 X67.0000 Y-96.2500
G01 X67.0735 Y-96.2536
G01 X67.1463 Y-96.2644
G01 X67.2177 Y-96.2823
G01 X67.2870 Y-96.3071
G01 X67.3535 Y-96.3386
G01 X67.4167 Y-96.3764
G01 X67.4758 Y-96.4202
G01 X67.5303 Y-96.4697
G01 X67.5798 Y-96.5242
G01 X67.6236 Y-96.5833
G01 X67.6614 Y-96.6465
G01 X67.6929 Y-96.7130
G01 X67.7177 Y-96.7823
G01 X67.7356 Y-96.8537
G01 X67.7464 Y-96.9265
G01 X67.7500 Y-97.0000
G00 X67.7500 Y-97.0000
G01 F80.00
G01 Z-1.6002
G01 F80.00
G01 X67.7464 Y-97.0735
G01 X67.7356 Y-97.1463
G01 X67.7177 Y-97.2177
G01 X67.6929 Y-97.2870
G01 X67.6614 Y-97.3535
G01 X67.6236 Y-97.4167
G01 X67.5798 Y-97.4758
G01 X67.5303 Y-97.5303
G01 X67.4758 Y-97.5798
G01 X67.4167 Y-97.6236
G01 X67.3535 Y-97.6614
G01 X67.2870 Y-97.6929
G01 X67.2177 Y-97.7177
G01 X67.1463 Y-97.7356
G01 X67.0735 Y-97.7464
G01 X67.0000 Y-97.7500
G01 X66.9265 Y-97.7464
G01 X66.8537 Y-97.7356
G01 X66.7823 Y-97.7177
G01 X66.7130 Y-97.6929
G01 X66.6465 Y-97.6614
G01 X66.5833 Y-97.6236
G01 X66.5242 Y-97.5798
G01 X66.4697 Y-97.5303
G01 X66.4202 Y-97.4758
G01 X66.3764 Y-97.4167
G01 X66.3386 Y-97.3535
G01 X66.3071 Y-97.2870
G01 X66.2823 Y-97.2177
G01 X66.2644 Y-97.1463
G01 X66.2536 Y-97.0735
G01 X66.2500 Y-97.0000
G01 X66.2536 Y-96.9265
G01 X66.2644 Y-96.8537
G01 X66.2823 Y-96.7823
G01 X66.3071 Y-96.7130
G01 X66.3386 Y-96.6465
G01 X66.3764 Y-96.5833
G01 X66.4202 Y-96.5242
G01 X66.4697 Y-96.4697
G01 X66.5242 Y-96.4202
G01 X66.5833 Y-96.3764
G01 X66.6465 Y-96.3386
G01 X66.7130 Y-96.3071
G01 X66.7823 Y-96.2823
G01 X66.8537 Y-96.2644
G01 X66.9265 Y-96.2536
G01 X67.0000 Y-96.2500
G01 X67.0735 Y-96.2536
G01 X67.1463 Y-96.2644
G01 X67.2177 Y-96.2823
G01 X67.2870 Y-96.3071
G01 X67.3535 Y-96.3386
G01 X67.4167 Y-96.3764
G01 X67.4758 Y-96.4202
G01 X67.5303 Y-96.4697
G01 X67.5798 Y-96.5242
G01 X67.6236 Y-96.5833
G01 X67.6614 Y-96.6465
G01 X67.6929 Y-96.7130
G01 X67.7177 Y-96.7823
G01 X67.7356 Y-96.8537
G01 X67.7464 Y-96.9265
G01 X67.7500 Y-97.0000
G00 X67.7500 Y-97.0000
G01 F80.00
G01 Z-2.4003
G01 F80.00
G01 X67.7464 Y-97.0735
G01 X67.7356 Y-97.1463
G01 X67.7177 Y-97.2177
G01 X67.6929 Y-97.2870
G01 X67.6614 Y-97.3535
G01 X67.6236 Y-97.4167
G01 X67.5798 Y-97.4758
G01 X67.5303 Y-97.5303
G01 X67.4758 Y-97.5798
G01 X67.4167 Y-97.6236
G01 X67.3535 Y-97.6614
G01 X67.2870 Y-97.6929
G01 X67.2177 Y-97.7177
G01 X67.1463 Y-97.7356
G01 X67.0735 Y-97.7464
G01 X67.0000 Y-97.7500
G01 X66.9265 Y-97.7464
G01 X66.8537 Y-97.7356
G01 X66.7823 Y-97.7177
G01 X66.7130 Y-97.6929
G01 X66.6465 Y-97.6614
G01 X66.5833 Y-97.6236
G01 X66.5242 Y-97.5798
G01 X66.4697 Y-97.5303
G01 X66.4202 Y-97.4758
G01 X66.3764 Y-97.4167
G01 X66.3386 Y-97.3535
G01 X66.3071 Y-97.2870
G01 X66.2823 Y-97.2177
G01 X66.2644 Y-97.1463
G01 X66.2536 Y-97.0735
G01 X66.2500 Y-97.0000
G01 X66.2536 Y-96.9265
G01 X66.2644 Y-96.8537
G01 X66.2823 Y-96.7823
G01 X66.3071 Y-96.7130
G01 X66.3386 Y-96.6465
G01 X66.3764 Y-96.5833
G01 X66.4202 Y-96.5242
G01 X66.4697 Y-96.4697
G01 X66.5242 Y-96.4202
G01 X66.5833 Y-96.3764
G01 X66.6465 Y-96.3386
G01 X66.7130 Y-96.3071
G01 X66.7823 Y-96.2823
G01 X66.8537 Y-96.2644
G01 X66.9265 Y-96.2536
G01 X67.0000 Y-96.2500
G01 X67.0735 Y-96.2536
G01 X67.1463 Y-96.2644
G01 X67.2177 Y-96.2823
G01 X67.2870 Y-96.3071
G01 X67.3535 Y-96.3386
G01 X67.4167 Y-96.3764
G01 X67.4758 Y-96.4202
G01 X67.5303 Y-96.4697
G01 X67.5798 Y-96.5242
G01 X67.6236 Y-96.5833
G01 X67.6614 Y-96.6465
G01 X67.6929 Y-96.7130
G01 X67.7177 Y-96.7823
G01 X67.7356 Y-96.8537
G01 X67.7464 Y-96.9265
G01 X67.7500 Y-97.0000
G00 Z1.9990
G00 X67.7500 Y-3.0000
G01 F80.00
G01 Z-0.8001
G01 F80.00
G01 X67.7464 Y-3.0735
G01 X67.7356 Y-3.1463
G01 X67.7177 Y-3.2177
G01 X67.6929 Y-3.2870
G01 X67.6614 Y-3.3535
G01 X67.6236 Y-3.4167
G01 X67.5798 Y-3.4758
G01 X67.5303 Y-3.5303
G01 X67.4758 Y-3.5798
G01 X67.4167 Y-3.6236
G01 X67.3535 Y-3.6614
G01 X67.2870 Y-3.6929
G01 X67.2177 Y-3.7177
G01 X67.1463 Y-3.7356
G01 X67.0735 Y-3.7464
G01 X67.0000 Y-3.7500
G01 X66.9265 Y-3.7464
G01 X66.8537 Y-3.7356
G01 X66.7823 Y-3.7177
G01 X66.7130 Y-3.6929
G01 X66.6465 Y-3.6614
G01 X66.5833 Y-3.6236
G01 X66.5242 Y-3.5798
G01 X66.4697 Y-3.5303
G01 X66.4202 Y-3.4758
G01 X66.3764 Y-3.4167
G01 X66.3386 Y-3.3535
G01 X66.3071 Y-3.2870
G01 X66.2823 Y-3.2177
G01 X66.2644 Y-3.1463
G01 X66.2536 Y-3.0735
G01 X66.2500 Y-3.0000
G01 X66.2536 Y-2.9265
G01 X66.2644 Y-2.8537
G01 X66.2823 Y-2.7823
G01 X66.3071 Y-2.7130
G01 X66.3386 Y-2.6465
G01 X66.3764 Y-2.5833
G01 X66.4202 Y-2.5242
G01 X66.4697 Y-2.4697
G01 X66.5242 Y-2.4202
G01 X66.5833 Y-2.3764
G01 X66.6465 Y-2.3386
G01 X66.7130 Y-2.3071
G01 X66.7823 Y-2.2823
G01 X66.8537 Y-2.2644
G01 X66.9265 Y-2.2536
G01 X67.0000 Y-2.2500
G01 X67.0735 Y-2.2536
G01 X67.1463 Y-2.2644
G01 X67.2177 Y-2.2823
G01 X67.2870 Y-2.3071
G01 X67.3535 Y-2.3386
G01 X67.4167 Y-2.3764
G01 X67.4758 Y-2.4202
G01 X67.5303 Y-2.4697
G01 X67.5798 Y-2.5242
G01 X67.6236 Y-2.5833
G01 X67.6614 Y-2.6465
G01 X67.6929 Y-2.7130
G01 X67.7177 Y-2.7823
G01 X67.7356 Y-2.8537
G01 X67.7464 Y-2.9265
G01 X67.7500 Y-3.0000
G00 X67.7500 Y-3.0000
G01 F80.00
G01 Z-1.6002
G01 F80.00
G01 X67.7464 Y-3.0735
G01 X67.7356 Y-3.1463
G01 X67.7177 Y-3.2177
G01 X67.6929 Y-3.2870
G01 X67.6614 Y-3.3535
G01 X67.6236 Y-3.4167
G01 X67.5798 Y-3.4758
G01 X67.5303 Y-3.5303
G01 X67.4758 Y-3.5798
G01 X67.4167 Y-3.6236
G01 X67.3535 Y-3.6614
G01 X67.2870 Y-3.6929
G01 X67.2177 Y-3.7177
G01 X67.1463 Y-3.7356
G01 X67.0735 Y-3.7464
G01 X67.0000 Y-3.7500
G01 X66.9265 Y-3.7464
G01 X66.8537 Y-3.7356
G01 X66.7823 Y-3.7177
G01 X66.7130 Y-3.6929
G01 X66.6465 Y-3.6614
G01 X66.5833 Y-3.6236
G01 X66.5242 Y-3.5798
G01 X66.4697 Y-3.5303
G01 X66.4202 Y-3.4758
G01 X66.3764 Y-3.4167
G01 X66.3386 Y-3.3535
G01 X66.3071 Y-3.2870
G01 X66.2823 Y-3.2177
G01 X66.2644 Y-3.1463
G01 X66.2536 Y-3.0735
G01 X66.2500 Y-3.0000
G01 X66.2536 Y-2.9265
G01 X66.2644 Y-2.8537
G01 X66.2823 Y-2.7823
G01 X66.3071 Y-2.7130
G01 X66.3386 Y-2.6465
G01 X66.3764 Y-2.5833
G01 X66.4202 Y-2.5242
G01 X66.4697 Y-2.4697
G01 X66.5242 Y-2.4202
G01 X66.5833 Y-2.3764
G01 X66.6465 Y-2.3386
G01 X66.7130 Y-2.3071
G01 X66.7823 Y-2.2823
G01 X66.8537 Y-2.2644
G01 X66.9265 Y-2.2536
G01 X67.0000 Y-2.2500
G01 X67.0735 Y-2.2536
G01 X67.1463 Y-2.2644
G01 X67.2177 Y-2.2823
G01 X67.2870 Y-2.3071
G01 X67.3535 Y-2.3386
G01 X67.4167 Y-2.3764
G01 X67.4758 Y-2.4202
G01 X67.5303 Y-2.4697
G01 X67.5798 Y-2.5242
G01 X67.6236 Y-2.5833
G01 X67.6614 Y-2.6465
G01 X67.6929 Y-2.7130
G01 X67.7177 Y-2.7823
G01 X67.7356 Y-2.8537
G01 X67.7464 Y-2.9265
G01 X67.7500 Y-3.0000
G00 X67.7500 Y-3.0000
G01 F80.00
G01 Z-2.4003
G01 F80.00
G01 X67.7464 Y-3.0735
G01 X67.7356 Y-3.1463
G01 X67.7177 Y-3.2177
G01 X67.6929 Y-3.2870
G01 X67.6614 Y-3.3535
G01 X67.6236 Y-3.4167
G01 X67.5798 Y-3.4758
G01 X67.5303 Y-3.5303
G01 X67.4758 Y-3.5798
G01 X67.4167 Y-3.6236
G01 X67.3535 Y-3.6614
G01 X67.2870 Y-3.6929
G01 X67.2177 Y-3.7177
G01 X67.1463 Y-3.7356
G01 X67.0735 Y-3.7464
G01 X67.0000 Y-3.7500
G01 X66.9265 Y-3.7464
G01 X66.8537 Y-3.7356
G01 X66.7823 Y-3.7177
G01 X66.7130 Y-3.6929
G01 X66.6465 Y-3.6614
G01 X66.5833 Y-3.6236
G01 X66.5242 Y-3.5798
G01 X66.4697 Y-3.5303
G01 X66.4202 Y-3.4758
G01 X66.3764 Y-3.4167
G01 X66.3386 Y-3.3535
G01 X66.3071 Y-3.2870
G01 X66.2823 Y-3.2177
G01 X66.2644 Y-3.1463
G01 X66.2536 Y-3.0735
G01 X66.2500 Y-3.0000
G01 X66.2536 Y-2.9265
G01 X66.2644 Y-2.8537
G01 X66.2823 Y-2.7823
G01 X66.3071 Y-2.7130
G01 X66.3386 Y-2.6465
G01 X66.3764 Y-2.5833
G01 X66.4202 Y-2.5242
G01 X66.4697 Y-2.4697
G01 X66.5242 Y-2.4202
G01 X66.5833 Y-2.3764
G01 X66.6465 Y-2.3386
G01 X66.7130 Y-2.3071
G01 X66.7823 Y-2.2823
G01 X66.8537 Y-2.2644
G01 X66.9265 Y-2.2536
G01 X67.0000 Y-2.2500
G01 X67.0735 Y-2.2536
G01 X67.1463 Y-2.2644
G01 X67.2177 Y-2.2823
G01 X67.2870 Y-2.3071
G01 X67.3535 Y-2.3386
G01 X67.4167 Y-2.3764
G01 X67.4758 Y-2.4202
G01 X67.5303 Y-2.4697
G01 X67.5798 Y-2.5242
G01 X67.6236 Y-2.5833
G01 X67.6614 Y-2.6465
G01 X67.6929 Y-2.7130
G01 X67.7177 Y-2.7823
G01 X67.7356 Y-2.8537
G01 X67.7464 Y-2.9265
G01 X67.7500 Y-3.0000
G00 Z1.9990
M05
G00 Z1.9990
G00 Z12.70
G00 X0.0 Y0.0

M02