(Exported by FreeCAD)
(Post Processor: grbl_post)
(Output Time:2020-02-23 21:12:33.933330)
(begin preamble)
G17 G90
G21
(begin operation: Default Tool)
(Path: Default Tool)
(Default Tool)
(begin toolchange)
; M6 T1
M3 S800.0000
(finish operation: Default Tool)
(begin operation: Pocket_Shape)
(Path: Pocket_Shape)
(Pocket_Shape)
G0 Z6.0000
G0 X1.2699 Y1.2704
G0 Z4.0000
G1 X1.2699 Y1.2704 Z0.0000 F240.00
G2 X1.7963 Y0.0000 Z-0.0000 I-1.2699 J-1.2704 F240.00
G2 X0.0000 Y-1.7963 Z-0.0000 I-1.7963 J-0.0000 F240.00
G2 X-1.7963 Y0.0000 Z0.0000 I0.0000 J1.7963 F240.00
G2 X1.2699 Y1.2704 Z0.0000 I1.7963 J-0.0000 F240.00
G0 X1.2699 Y1.2704 Z6.0000
G0 X1.2702 Y1.2702 Z6.0000
G0 X1.2702 Y1.2702 Z4.0000
G1 X1.2702 Y1.2702 Z0.0000 F240.00
G3 X-1.6206 Y0.7669 Z0.0000 I-1.2690 J-1.2651 F240.00
G1 X0.7669 Y-1.6206 Z-0.0000 F240.00
G2 X-1.6206 Y0.7669 Z0.0000 I-0.7704 J1.6171 F240.00
G1 X-1.6206 Y0.7669 Z-1.0000 F240.00
G3 X0.7669 Y-1.6206 Z-1.0000 I1.6171 J-0.7704 F240.00
G1 X-1.6206 Y0.7669 Z-1.0000 F240.00
G2 X1.2702 Y1.2702 Z-1.0000 I1.6219 J-0.7618 F240.00
G1 X1.2702 Y1.2702 Z-1.0000 F240.00
G2 X1.7963 Y0.0000 Z-1.0000 I-1.2702 J-1.2702 F240.00
G2 X0.0000 Y-1.7963 Z-1.0000 I-1.7963 J-0.0000 F240.00
G2 X-1.7963 Y0.0000 Z-1.0000 I0.0000 J1.7963 F240.00
G2 X1.2702 Y1.2702 Z-1.0000 I1.7963 J-0.0000 F240.00
G1 X1.2702 Y1.2702 Z-2.0000 F240.00
G2 X1.7963 Y0.0000 Z-2.0000 I-1.2702 J-1.2702 F240.00
G2 X0.0000 Y-1.7963 Z-2.0000 I-1.7963 J-0.0000 F240.00
G2 X-1.7963 Y0.0000 Z-2.0000 I0.0000 J1.7963 F240.00
G2 X1.2702 Y1.2702 Z-2.0000 I1.7963 J-0.0000 F240.00
G1 X1.2702 Y1.2702 Z-2.0000 F240.00
G3 X-1.6206 Y0.7669 Z-2.0000 I-1.2690 J-1.2651 F240.00
G1 X0.7669 Y-1.6206 Z-2.0000 F240.00
G2 X-1.6206 Y0.7669 Z-2.0000 I-0.7704 J1.6171 F240.00
G1 X-1.6206 Y0.7669 Z-3.0000 F240.00
G3 X0.7669 Y-1.6206 Z-3.0000 I1.6171 J-0.7704 F240.00
G1 X-1.6206 Y0.7669 Z-3.0000 F240.00
G2 X1.2702 Y1.2702 Z-3.0000 I1.6219 J-0.7618 F240.00
G1 X1.2702 Y1.2702 Z-3.0000 F240.00
G2 X1.7963 Y0.0000 Z-3.0000 I-1.2702 J-1.2702 F240.00
G2 X0.0000 Y-1.7963 Z-3.0000 I-1.7963 J-0.0000 F240.00
G2 X-1.7963 Y0.0000 Z-3.0000 I0.0000 J1.7963 F240.00
G2 X1.2702 Y1.2702 Z-3.0000 I1.7963 J-0.0000 F240.00
G1 X1.2702 Y1.2702 Z-4.0000 F240.00
G2 X1.7963 Y0.0000 Z-4.0000 I-1.2702 J-1.2702 F240.00
G2 X0.0000 Y-1.7963 Z-4.0000 I-1.7963 J-0.0000 F240.00
G2 X-1.7963 Y0.0000 Z-4.0000 I0.0000 J1.7963 F240.00
G2 X1.2702 Y1.2702 Z-4.0000 I1.7963 J-0.0000 F240.00
G1 X1.2702 Y1.2702 Z-4.0000 F240.00
G3 X-1.6206 Y0.7669 Z-4.0000 I-1.2690 J-1.2651 F240.00
G1 X0.7669 Y-1.6206 Z-4.0000 F240.00
G2 X-1.6206 Y0.7669 Z-4.0000 I-0.7704 J1.6171 F240.00
G1 X-1.6206 Y0.7669 Z-5.0000 F240.00
G3 X0.7669 Y-1.6206 Z-5.0000 I1.6171 J-0.7704 F240.00
G1 X-1.6206 Y0.7669 Z-5.0000 F240.00
G2 X1.2702 Y1.2702 Z-5.0000 I1.6219 J-0.7618 F240.00
G1 X1.2702 Y1.2702 Z-5.0000 F240.00
G2 X1.7963 Y0.0000 Z-5.0000 I-1.2702 J-1.2702 F240.00
G2 X0.0000 Y-1.7963 Z-5.0000 I-1.7963 J-0.0000 F240.00
G2 X-1.7963 Y0.0000 Z-5.0000 I0.0000 J1.7963 F240.00
G2 X1.2702 Y1.2702 Z-5.0000 I1.7963 J-0.0000 F240.00
G1 X1.2702 Y1.2702 Z-6.0000 F240.00
G2 X1.7963 Y0.0000 Z-6.0000 I-1.2702 J-1.2702 F240.00
G2 X0.0000 Y-1.7963 Z-6.0000 I-1.7963 J-0.0000 F240.00
G2 X-1.7963 Y0.0000 Z-6.0000 I0.0000 J1.7963 F240.00
G2 X1.2702 Y1.2702 Z-6.0000 I1.7963 J-0.0000 F240.00
G1 X1.2702 Y1.2702 Z-6.0000 F240.00
G3 X-1.6206 Y0.7669 Z-6.0000 I-1.2690 J-1.2651 F240.00
G1 X0.7669 Y-1.6206 Z-6.0000 F240.00
G2 X-1.6206 Y0.7669 Z-6.0000 I-0.7704 J1.6171 F240.00
G1 X-1.6206 Y0.7669 Z-7.0000 F240.00
G3 X0.7669 Y-1.6206 Z-7.0000 I1.6171 J-0.7704 F240.00
G1 X-1.6206 Y0.7669 Z-7.0000 F240.00
G2 X1.2702 Y1.2702 Z-7.0000 I1.6219 J-0.7618 F240.00
G1 X1.2702 Y1.2702 Z-7.0000 F240.00
G2 X1.7963 Y0.0000 Z-7.0000 I-1.2702 J-1.2702 F240.00
G2 X0.0000 Y-1.7963 Z-7.0000 I-1.7963 J-0.0000 F240.00
G2 X-1.7963 Y0.0000 Z-7.0000 I0.0000 J1.7963 F240.00
G2 X1.2702 Y1.2702 Z-7.0000 I1.7963 J-0.0000 F240.00
G1 X1.2702 Y1.2702 Z-8.0000 F240.00
G2 X1.7963 Y0.0000 Z-8.0000 I-1.2702 J-1.2702 F240.00
G2 X0.0000 Y-1.7963 Z-8.0000 I-1.7963 J-0.0000 F240.00
G2 X-1.7963 Y0.0000 Z-8.0000 I0.0000 J1.7963 F240.00
G2 X1.2702 Y1.2702 Z-8.0000 I1.7963 J-0.0000 F240.00
G1 X1.2702 Y1.2702 Z-8.0000 F240.00
G3 X-1.6206 Y0.7669 Z-8.0000 I-1.2690 J-1.2651 F240.00
G1 X0.7669 Y-1.6206 Z-8.0000 F240.00
G2 X-1.6206 Y0.7669 Z-8.0000 I-0.7704 J1.6171 F240.00
G1 X-1.6206 Y0.7669 Z-9.0000 F240.00
G3 X0.7669 Y-1.6206 Z-9.0000 I1.6171 J-0.7704 F240.00
G1 X-1.6206 Y0.7669 Z-9.0000 F240.00
G2 X1.2702 Y1.2702 Z-9.0000 I1.6219 J-0.7618 F240.00
G1 X1.2702 Y1.2702 Z-9.0000 F240.00
G2 X1.7963 Y0.0000 Z-9.0000 I-1.2702 J-1.2702 F240.00
G2 X0.0000 Y-1.7963 Z-9.0000 I-1.7963 J-0.0000 F240.00
G2 X-1.7963 Y0.0000 Z-9.0000 I0.0000 J1.7963 F240.00
G2 X1.2702 Y1.2702 Z-9.0000 I1.7963 J-0.0000 F240.00
G1 X1.2702 Y1.2702 Z-10.0000 F240.00
G2 X1.7963 Y0.0000 Z-10.0000 I-1.2702 J-1.2702 F240.00
G2 X0.0000 Y-1.7963 Z-10.0000 I-1.7963 J-0.0000 F240.00
G2 X-1.7963 Y0.0000 Z-10.0000 I0.0000 J1.7963 F240.00
G2 X1.2702 Y1.2702 Z-10.0000 I1.7963 J-0.0000 F240.00
G1 X1.2702 Y1.2702 Z-10.0000 F240.00
G3 X-1.6206 Y0.7669 Z-10.0000 I-1.2690 J-1.2651 F240.00
G1 X0.7669 Y-1.6206 Z-10.0000 F240.00
G2 X-1.6206 Y0.7669 Z-10.0000 I-0.7704 J1.6171 F240.00
G1 X-1.6206 Y0.7669 Z-11.0000 F240.00
G3 X0.7669 Y-1.6206 Z-11.0000 I1.6171 J-0.7704 F240.00
G1 X-1.6206 Y0.7669 Z-11.0000 F240.00
G2 X1.2702 Y1.2702 Z-11.0000 I1.6219 J-0.7618 F240.00
G1 X1.2702 Y1.2702 Z-11.0000 F240.00
G2 X1.7963 Y0.0000 Z-11.0000 I-1.2702 J-1.2702 F240.00
G2 X0.0000 Y-1.7963 Z-11.0000 I-1.7963 J-0.0000 F240.00
G2 X-1.7963 Y0.0000 Z-11.0000 I0.0000 J1.7963 F240.00
G2 X1.2702 Y1.2702 Z-11.0000 I1.7963 J-0.0000 F240.00
G0 Z6.0000
(finish operation: Pocket_Shape)
(begin operation: TagDressup)
(Path: TagDressup)
G0 Z6.0000
G0 X111.4545 Y11.4552 Z6.0000
G0 X111.4545 Y11.4552 Z4.0000
G1 X111.4545 Y11.4552 Z0.0000 F240.00
G2 X100.0428 Y-16.1992 Z-0.0000 I-11.4549 J-11.4549 F240.00
G1 X0.0000 Y-16.2000 Z0.0000 F240.00
G2 X-0.0428 Y16.1992 Z0.0000 I0.0004 J16.1996 F240.00
G1 X100.0000 Y16.2000 Z-0.0000 F240.00
G2 X111.4545 Y11.4552 Z-0.0000 I-0.0004 J-16.1996 F240.00
G1 X111.4545 Y11.4552 Z-1.0000 F240.00
G2 X100.0428 Y-16.1992 Z-1.0000 I-11.4549 J-11.4549 F240.00
G1 X0.0000 Y-16.2000 Z-1.0000 F240.00
G2 X-0.0428 Y16.1992 Z-1.0000 I0.0004 J16.1996 F240.00
G1 X100.0000 Y16.2000 Z-1.0000 F240.00
G2 X111.4545 Y11.4552 Z-1.0000 I-0.0004 J-16.1996 F240.00
G1 X111.4545 Y11.4552 Z-2.0000 F240.00
G2 X100.0428 Y-16.1992 Z-2.0000 I-11.4549 J-11.4549 F240.00
G1 X0.0000 Y-16.2000 Z-2.0000 F240.00
G2 X-0.0428 Y16.1992 Z-2.0000 I0.0004 J16.1996 F240.00
G1 X100.0000 Y16.2000 Z-2.0000 F240.00
G2 X111.4545 Y11.4552 Z-2.0000 I-0.0004 J-16.1996 F240.00
G1 X111.4545 Y11.4552 Z-3.0000 F240.00
G2 X100.0428 Y-16.1992 Z-3.0000 I-11.4549 J-11.4549 F240.00
G1 X0.0000 Y-16.2000 Z-3.0000 F240.00
G2 X-0.0428 Y16.1992 Z-3.0000 I0.0004 J16.1996 F240.00
G1 X100.0000 Y16.2000 Z-3.0000 F240.00
G2 X111.4545 Y11.4552 Z-3.0000 I-0.0004 J-16.1996 F240.00
G1 X111.4545 Y11.4552 Z-4.0000 F240.00
G2 X100.0428 Y-16.1992 Z-4.0000 I-11.4549 J-11.4549 F240.00
G1 X0.0000 Y-16.2000 Z-4.0000 F240.00
G2 X-0.0428 Y16.1992 Z-4.0000 I0.0004 J16.1996 F240.00
G1 X100.0000 Y16.2000 Z-4.0000 F240.00
G2 X111.4545 Y11.4552 Z-4.0000 I-0.0004 J-16.1996 F240.00
G1 X111.4545 Y11.4552 Z-5.0000 F240.00
G2 X100.0428 Y-16.1992 Z-5.0000 I-11.4549 J-11.4549 F240.00
G1 X0.0000 Y-16.2000 Z-5.0000 F240.00
G2 X-0.0428 Y16.1992 Z-5.0000 I0.0004 J16.1996 F240.00
G1 X100.0000 Y16.2000 Z-5.0000 F240.00
G2 X111.4545 Y11.4552 Z-5.0000 I-0.0004 J-16.1996 F240.00
G1 X111.4545 Y11.4552 Z-6.0000 F240.00
G2 X100.0428 Y-16.1992 Z-6.0000 I-11.4549 J-11.4549 F240.00
G1 X0.0000 Y-16.2000 Z-6.0000 F240.00
G2 X-0.0428 Y16.1992 Z-6.0000 I0.0004 J16.1996 F240.00
G1 X100.0000 Y16.2000 Z-6.0000 F240.00
G2 X111.4545 Y11.4552 Z-6.0000 I-0.0004 J-16.1996 F240.00
G1 X111.4545 Y11.4552 Z-7.0000 F240.00
G2 X100.0428 Y-16.1992 Z-7.0000 I-11.4549 J-11.4549 F240.00
G1 X0.0000 Y-16.2000 Z-7.0000 F240.00
G2 X-0.0428 Y16.1992 Z-7.0000 I0.0004 J16.1996 F240.00
G1 X100.0000 Y16.2000 Z-7.0000 F240.00
G2 X111.4545 Y11.4552 Z-7.0000 I-0.0004 J-16.1996 F240.00
G1 X111.4545 Y11.4552 Z-8.0000 F240.00
G2 X100.0428 Y-16.1992 Z-8.0000 I-11.4549 J-11.4549 F240.00
G1 X75.2298 Y-16.1994 Z-8.0000 F240.00
G1 X75.0321 Y-16.1994 Z-7.8003 F240.00
G1 X74.8344 Y-16.1994 Z-8.0000 F240.00
G1 X25.2084 Y-16.1998 Z-8.0000 F240.00
G1 X25.0107 Y-16.1998 Z-7.8003 F240.00
G1 X24.8130 Y-16.1998 Z-8.0000 F240.00
G1 X0.0000 Y-16.2000 Z-8.0000 F240.00
G2 X-0.0428 Y16.1992 Z-8.0000 I0.0004 J16.1996 F240.00
G1 X24.7702 Y16.1994 Z-8.0000 F240.00
G1 X24.9679 Y16.1994 Z-7.8003 F240.00
G1 X25.1656 Y16.1994 Z-8.0000 F240.00
G1 X74.7916 Y16.1998 Z-8.0000 F240.00
G1 X74.9893 Y16.1998 Z-7.8003 F240.00
G1 X75.1870 Y16.1998 Z-8.0000 F240.00
G1 X100.0000 Y16.2000 Z-8.0000 F240.00
G2 X111.4545 Y11.4552 Z-8.0000 I-0.0004 J-16.1996 F240.00
G1 X111.4545 Y11.4552 Z-9.0000 F240.00
G2 X100.0428 Y-16.1992 Z-9.0000 I-11.4549 J-11.4549 F240.00
G1 X76.2199 Y-16.1994 Z-9.0000 F240.00
G1 X75.0321 Y-16.1994 Z-7.8003 F240.00
G1 X73.8443 Y-16.1994 Z-9.0000 F240.00
G1 X26.1985 Y-16.1998 Z-9.0000 F240.00
G1 X25.0107 Y-16.1998 Z-7.8003 F240.00
G1 X23.8229 Y-16.1998 Z-9.0000 F240.00
G1 X0.0000 Y-16.2000 Z-9.0000 F240.00
G2 X-0.0428 Y16.1992 Z-9.0000 I0.0004 J16.1996 F240.00
G1 X23.7801 Y16.1994 Z-9.0000 F240.00
G1 X24.9679 Y16.1994 Z-7.8003 F240.00
G1 X26.1557 Y16.1994 Z-9.0000 F240.00
G1 X73.8015 Y16.1998 Z-9.0000 F240.00
G1 X74.9893 Y16.1998 Z-7.8003 F240.00
G1 X76.1771 Y16.1998 Z-9.0000 F240.00
G1 X100.0000 Y16.2000 Z-9.0000 F240.00
G2 X111.4545 Y11.4552 Z-9.0000 I-0.0004 J-16.1996 F240.00
G1 X111.4545 Y11.4552 Z-10.0000 F240.00
G2 X100.0428 Y-16.1992 Z-10.0000 I-11.4549 J-11.4549 F240.00
G1 X77.2100 Y-16.1994 Z-10.0000 F240.00
G1 X75.0321 Y-16.1994 Z-7.8003 F240.00
G1 X72.8542 Y-16.1994 Z-10.0000 F240.00
G1 X27.1886 Y-16.1998 Z-10.0000 F240.00
G1 X25.0107 Y-16.1998 Z-7.8003 F240.00
G1 X22.8328 Y-16.1998 Z-10.0000 F240.00
G1 X0.0000 Y-16.2000 Z-10.0000 F240.00
G2 X-0.0428 Y16.1992 Z-10.0000 I0.0004 J16.1996 F240.00
G1 X22.7900 Y16.1994 Z-10.0000 F240.00
G1 X24.9679 Y16.1994 Z-7.8003 F240.00
G1 X27.1458 Y16.1994 Z-10.0000 F240.00
G1 X72.8114 Y16.1998 Z-10.0000 F240.00
G1 X74.9893 Y16.1998 Z-7.8003 F240.00
G1 X77.1672 Y16.1998 Z-10.0000 F240.00
G1 X100.0000 Y16.2000 Z-10.0000 F240.00
G2 X111.4545 Y11.4552 Z-10.0000 I-0.0004 J-16.1996 F240.00
G1 X111.4545 Y11.4552 Z-11.0000 F240.00
G2 X100.0428 Y-16.1992 Z-11.0000 I-11.4549 J-11.4549 F240.00
G1 X78.2001 Y-16.1994 Z-11.0000 F240.00
G1 X75.0321 Y-16.1994 Z-7.8003 F240.00
G1 X71.8641 Y-16.1995 Z-11.0000 F240.00
G1 X28.1787 Y-16.1998 Z-11.0000 F240.00
G1 X25.0107 Y-16.1998 Z-7.8003 F240.00
G1 X21.8427 Y-16.1998 Z-11.0000 F240.00
G1 X0.0000 Y-16.2000 Z-11.0000 F240.00
G2 X-0.0428 Y16.1992 Z-11.0000 I0.0004 J16.1996 F240.00
G1 X21.7999 Y16.1994 Z-11.0000 F240.00
G1 X24.9679 Y16.1994 Z-7.8003 F240.00
G1 X28.1359 Y16.1995 Z-11.0000 F240.00
G1 X71.8213 Y16.1998 Z-11.0000 F240.00
G1 X74.9893 Y16.1998 Z-7.8003 F240.00
G1 X78.1573 Y16.1998 Z-11.0000 F240.00
G1 X100.0000 Y16.2000 Z-11.0000 F240.00
G2 X111.4545 Y11.4552 Z-11.0000 I-0.0004 J-16.1996 F240.00
G0 X111.4545 Y11.4552 Z6.0000
(finish operation: TagDressup)
(begin postamble)
M5
G17 G90
; M2
