(Exported by FreeCAD)
(Post Processor: grbl_post)
(Output Time:2019-10-07 10:33:15.601559)
(begin preamble)
G17 G90
G21
(begin operation: Default Tool)
(Path: Default Tool)
(Default Tool)
(begin toolchange)
; M6 T1
M3 S800.0000
(finish operation: Default Tool)
(begin operation: TagDressup)
(Path: TagDressup)
G0 Z6.0000
G0 X36.8264 Y-0.1729 Z6.0000
G0 X36.8264 Y-0.1729 Z4.0000
G1 X36.8264 Y-0.1729 Z-1.5000 F120.00
G2 X37.9969 Y-2.9215 Z-1.5000 I-2.8305 J-2.8289 F120.00
G1 X38.0000 Y-14.0000 Z-1.5000 F120.00
G2 X34.0785 Y-17.9969 Z-1.5000 I-4.0018 J0.0041 F120.00
G1 X12.0000 Y-17.9999 Z-1.5000 F120.00
G1 X12.0000 Y-106.0000 Z-1.5000 F120.00
G1 X34.0000 Y-106.0000 Z-1.5000 F120.00
G2 X37.9969 Y-109.9215 Z-1.5000 I-0.0041 J-4.0018 F120.00
G1 X38.0000 Y-121.0000 Z-1.5000 F120.00
G2 X34.0785 Y-124.9969 Z-1.5000 I-4.0018 J0.0041 F120.00
G1 X-0.0000 Y-125.0000 Z-1.5000 F120.00
G2 X-3.9969 Y-121.0785 Z-1.5000 I0.0041 J4.0018 F120.00
G1 X-4.0000 Y-3.0000 Z-1.5000 F120.00
G2 X-0.0785 Y0.9969 Z-1.5000 I4.0018 J-0.0041 F120.00
G1 X34.0000 Y1.0000 Z-1.5000 F120.00
G2 X36.8264 Y-0.1729 Z-1.5000 I-0.0041 J-4.0018 F120.00
G1 X36.8264 Y-0.1729 Z-2.5000 F120.00
G2 X37.9969 Y-2.9215 Z-2.5000 I-2.8305 J-2.8289 F120.00
G1 X38.0000 Y-14.0000 Z-2.5000 F120.00
G2 X34.0785 Y-17.9969 Z-2.5000 I-4.0018 J0.0041 F120.00
G1 X12.0000 Y-17.9999 Z-2.5000 F120.00
G1 X12.0000 Y-106.0000 Z-2.5000 F120.00
G1 X34.0000 Y-106.0000 Z-2.5000 F120.00
G2 X37.9969 Y-109.9215 Z-2.5000 I-0.0041 J-4.0018 F120.00
G1 X38.0000 Y-121.0000 Z-2.5000 F120.00
G2 X34.0785 Y-124.9969 Z-2.5000 I-4.0018 J0.0041 F120.00
G1 X-0.0000 Y-125.0000 Z-2.5000 F120.00
G2 X-3.9969 Y-121.0785 Z-2.5000 I0.0041 J4.0018 F120.00
G1 X-4.0000 Y-3.0000 Z-2.5000 F120.00
G2 X-0.0785 Y0.9969 Z-2.5000 I4.0018 J-0.0041 F120.00
G1 X34.0000 Y1.0000 Z-2.5000 F120.00
G2 X36.8264 Y-0.1729 Z-2.5000 I-0.0041 J-4.0018 F120.00
G1 X36.8264 Y-0.1729 Z-3.5000 F120.00
G2 X37.9969 Y-2.9215 Z-3.5000 I-2.8305 J-2.8289 F120.00
G1 X38.0000 Y-14.0000 Z-3.5000 F120.00
G2 X34.0785 Y-17.9969 Z-3.5000 I-4.0018 J0.0041 F120.00
G1 X12.0000 Y-17.9999 Z-3.5000 F120.00
G1 X12.0000 Y-106.0000 Z-3.5000 F120.00
G1 X34.0000 Y-106.0000 Z-3.5000 F120.00
G2 X37.9969 Y-109.9215 Z-3.5000 I-0.0041 J-4.0018 F120.00
G1 X38.0000 Y-121.0000 Z-3.5000 F120.00
G2 X34.0785 Y-124.9969 Z-3.5000 I-4.0018 J0.0041 F120.00
G1 X-0.0000 Y-125.0000 Z-3.5000 F120.00
G2 X-3.9969 Y-121.0785 Z-3.5000 I0.0041 J4.0018 F120.00
G1 X-4.0000 Y-3.0000 Z-3.5000 F120.00
G2 X-0.0785 Y0.9969 Z-3.5000 I4.0018 J-0.0041 F120.00
G1 X34.0000 Y1.0000 Z-3.5000 F120.00
G2 X36.8264 Y-0.1729 Z-3.5000 I-0.0041 J-4.0018 F120.00
G1 X36.8264 Y-0.1729 Z-4.5000 F120.00
G2 X37.9969 Y-2.9215 Z-4.5000 I-2.8305 J-2.8289 F120.00
G1 X38.0000 Y-14.0000 Z-4.5000 F120.00
G2 X34.0785 Y-17.9969 Z-4.5000 I-4.0018 J0.0041 F120.00
G1 X12.0000 Y-17.9999 Z-4.5000 F120.00
G1 X12.0000 Y-106.0000 Z-4.5000 F120.00
G1 X34.0000 Y-106.0000 Z-4.5000 F120.00
G2 X37.9969 Y-109.9215 Z-4.5000 I-0.0041 J-4.0018 F120.00
G1 X38.0000 Y-121.0000 Z-4.5000 F120.00
G2 X34.0785 Y-124.9969 Z-4.5000 I-4.0018 J0.0041 F120.00
G1 X-0.0000 Y-125.0000 Z-4.5000 F120.00
G2 X-3.9969 Y-121.0785 Z-4.5000 I0.0041 J4.0018 F120.00
G1 X-4.0000 Y-3.0000 Z-4.5000 F120.00
G2 X-0.0785 Y0.9969 Z-4.5000 I4.0018 J-0.0041 F120.00
G1 X34.0000 Y1.0000 Z-4.5000 F120.00
G2 X36.8264 Y-0.1729 Z-4.5000 I-0.0041 J-4.0018 F120.00
G1 X36.8264 Y-0.1729 Z-5.5000 F120.00
G2 X37.9969 Y-2.9215 Z-5.5000 I-2.8305 J-2.8289 F120.00
G1 X38.0000 Y-14.0000 Z-5.5000 F120.00
G2 X34.0785 Y-17.9969 Z-5.5000 I-4.0018 J0.0041 F120.00
G1 X12.0000 Y-17.9999 Z-5.5000 F120.00
G1 X12.0000 Y-106.0000 Z-5.5000 F120.00
G1 X34.0000 Y-106.0000 Z-5.5000 F120.00
G2 X37.9969 Y-109.9215 Z-5.5000 I-0.0041 J-4.0018 F120.00
G1 X38.0000 Y-121.0000 Z-5.5000 F120.00
G2 X34.0785 Y-124.9969 Z-5.5000 I-4.0018 J0.0041 F120.00
G1 X-0.0000 Y-125.0000 Z-5.5000 F120.00
G2 X-3.9969 Y-121.0785 Z-5.5000 I0.0041 J4.0018 F120.00
G1 X-4.0000 Y-3.0000 Z-5.5000 F120.00
G2 X-0.0785 Y0.9969 Z-5.5000 I4.0018 J-0.0041 F120.00
G1 X34.0000 Y1.0000 Z-5.5000 F120.00
G2 X36.8264 Y-0.1729 Z-5.5000 I-0.0041 J-4.0018 F120.00
G1 X36.8264 Y-0.1729 Z-6.5000 F120.00
G2 X37.9969 Y-2.9215 Z-6.5000 I-2.8305 J-2.8289 F120.00
G1 X38.0000 Y-14.0000 Z-6.5000 F120.00
G2 X34.0785 Y-17.9969 Z-6.5000 I-4.0018 J0.0041 F120.00
G1 X12.0000 Y-17.9999 Z-6.5000 F120.00
G1 X12.0000 Y-60.6524 Z-6.5000 F120.00
G1 X12.0000 Y-60.9024 Z-6.2500 F120.00
G1 X12.0000 Y-63.0974 Z-6.2500 F120.00
G1 X12.0000 Y-63.3474 Z-6.5000 F120.00
G1 X12.0000 Y-106.0000 Z-6.5000 F120.00
G1 X34.0000 Y-106.0000 Z-6.5000 F120.00
G2 X37.9969 Y-109.9215 Z-6.5000 I-0.0041 J-4.0018 F120.00
G1 X38.0000 Y-121.0000 Z-6.5000 F120.00
G2 X34.0785 Y-124.9969 Z-6.5000 I-4.0018 J0.0041 F120.00
G1 X18.3867 Y-124.9983 Z-6.5000 F120.00
G1 X18.1367 Y-124.9984 Z-6.2500 F120.00
G1 X15.9417 Y-124.9986 Z-6.2500 F120.00
G1 X15.6917 Y-124.9986 Z-6.5000 F120.00
G1 X-0.0000 Y-125.0000 Z-6.5000 F120.00
G2 X-3.9969 Y-121.0785 Z-6.5000 I0.0041 J4.0018 F120.00
G1 X-3.9977 Y-92.9063 Z-6.5000 F120.00
G1 X-3.9977 Y-92.6563 Z-6.2500 F120.00
G1 X-3.9977 Y-90.4613 Z-6.2500 F120.00
G1 X-3.9977 Y-90.2113 Z-6.5000 F120.00
G1 X-3.9992 Y-33.8671 Z-6.5000 F120.00
G1 X-3.9992 Y-33.6171 Z-6.2500 F120.00
G1 X-3.9993 Y-31.4221 Z-6.2500 F120.00
G1 X-3.9993 Y-31.1721 Z-6.5000 F120.00
G1 X-4.0000 Y-3.0000 Z-6.5000 F120.00
G2 X-0.0785 Y0.9969 Z-6.5000 I4.0018 J-0.0041 F120.00
G1 X34.0000 Y1.0000 Z-6.5000 F120.00
G2 X36.8264 Y-0.1729 Z-6.5000 I-0.0041 J-4.0018 F120.00
G1 X36.8264 Y-0.1729 Z-7.5000 F120.00
G2 X37.9969 Y-2.9215 Z-7.5000 I-2.8305 J-2.8289 F120.00
G1 X38.0000 Y-14.0000 Z-7.5000 F120.00
G2 X34.0785 Y-17.9969 Z-7.5000 I-4.0018 J0.0041 F120.00
G1 X12.0000 Y-17.9999 Z-7.5000 F120.00
G1 X12.0000 Y-59.6524 Z-7.5000 F120.00
G1 X12.0000 Y-60.9024 Z-6.2500 F120.00
G1 X12.0000 Y-63.0974 Z-6.2500 F120.00
G1 X12.0000 Y-64.3474 Z-7.5000 F120.00
G1 X12.0000 Y-106.0000 Z-7.5000 F120.00
G1 X34.0000 Y-106.0000 Z-7.5000 F120.00
G2 X37.9969 Y-109.9215 Z-7.5000 I-0.0041 J-4.0018 F120.00
G1 X38.0000 Y-121.0000 Z-7.5000 F120.00
G2 X34.0785 Y-124.9969 Z-7.5000 I-4.0018 J0.0041 F120.00
G1 X19.3867 Y-124.9982 Z-7.5000 F120.00
G1 X18.1367 Y-124.9984 Z-6.2500 F120.00
G1 X15.9417 Y-124.9986 Z-6.2500 F120.00
G1 X14.6917 Y-124.9987 Z-7.5000 F120.00
G1 X-0.0000 Y-125.0000 Z-7.5000 F120.00
G2 X-3.9969 Y-121.0785 Z-7.5000 I0.0041 J4.0018 F120.00
G1 X-3.9976 Y-93.9063 Z-7.5000 F120.00
G1 X-3.9977 Y-92.6563 Z-6.2500 F120.00
G1 X-3.9977 Y-90.4613 Z-6.2500 F120.00
G1 X-3.9977 Y-89.2113 Z-7.5000 F120.00
G1 X-3.9992 Y-34.8671 Z-7.5000 F120.00
G1 X-3.9992 Y-33.6171 Z-6.2500 F120.00
G1 X-3.9993 Y-31.4221 Z-6.2500 F120.00
G1 X-3.9993 Y-30.1721 Z-7.5000 F120.00
G1 X-4.0000 Y-3.0000 Z-7.5000 F120.00
G2 X-0.0785 Y0.9969 Z-7.5000 I4.0018 J-0.0041 F120.00
G1 X34.0000 Y1.0000 Z-7.5000 F120.00
G2 X36.8264 Y-0.1729 Z-7.5000 I-0.0041 J-4.0018 F120.00
G1 X36.8264 Y-0.1729 Z-8.5000 F120.00
G2 X37.9969 Y-2.9215 Z-8.5000 I-2.8305 J-2.8289 F120.00
G1 X38.0000 Y-14.0000 Z-8.5000 F120.00
G2 X34.0785 Y-17.9969 Z-8.5000 I-4.0018 J0.0041 F120.00
G1 X12.0000 Y-17.9999 Z-8.5000 F120.00
G1 X12.0000 Y-58.6524 Z-8.5000 F120.00
G1 X12.0000 Y-60.9024 Z-6.2500 F120.00
G1 X12.0000 Y-63.0974 Z-6.2500 F120.00
G1 X12.0000 Y-65.3474 Z-8.5000 F120.00
G1 X12.0000 Y-106.0000 Z-8.5000 F120.00
G1 X34.0000 Y-106.0000 Z-8.5000 F120.00
G2 X37.9969 Y-109.9215 Z-8.5000 I-0.0041 J-4.0018 F120.00
G1 X38.0000 Y-121.0000 Z-8.5000 F120.00
G2 X34.0785 Y-124.9969 Z-8.5000 I-4.0018 J0.0041 F120.00
G1 X20.3867 Y-124.9982 Z-8.5000 F120.00
G1 X18.1367 Y-124.9984 Z-6.2500 F120.00
G1 X15.9417 Y-124.9986 Z-6.2500 F120.00
G1 X13.6917 Y-124.9988 Z-8.5000 F120.00
G1 X-0.0000 Y-125.0000 Z-8.5000 F120.00
G2 X-3.9969 Y-121.0785 Z-8.5000 I0.0041 J4.0018 F120.00
G1 X-3.9976 Y-94.9063 Z-8.5000 F120.00
G1 X-3.9977 Y-92.6563 Z-6.2500 F120.00
G1 X-3.9977 Y-90.4613 Z-6.2500 F120.00
G1 X-3.9978 Y-88.2113 Z-8.5000 F120.00
G1 X-3.9991 Y-35.8671 Z-8.5000 F120.00
G1 X-3.9992 Y-33.6171 Z-6.2500 F120.00
G1 X-3.9993 Y-31.4221 Z-6.2500 F120.00
G1 X-3.9993 Y-29.1721 Z-8.5000 F120.00
G1 X-4.0000 Y-3.0000 Z-8.5000 F120.00
G2 X-0.0785 Y0.9969 Z-8.5000 I4.0018 J-0.0041 F120.00
G1 X34.0000 Y1.0000 Z-8.5000 F120.00
G2 X36.8264 Y-0.1729 Z-8.5000 I-0.0041 J-4.0018 F120.00
G1 X36.8264 Y-0.1729 Z-9.5000 F120.00
G2 X37.9969 Y-2.9215 Z-9.5000 I-2.8305 J-2.8289 F120.00
G1 X38.0000 Y-14.0000 Z-9.5000 F120.00
G2 X34.0785 Y-17.9969 Z-9.5000 I-4.0018 J0.0041 F120.00
G1 X12.0000 Y-17.9999 Z-9.5000 F120.00
G1 X12.0000 Y-57.6524 Z-9.5000 F120.00
G1 X12.0000 Y-60.9024 Z-6.2500 F120.00
G1 X12.0000 Y-63.0974 Z-6.2500 F120.00
G1 X12.0000 Y-66.3474 Z-9.5000 F120.00
G1 X12.0000 Y-106.0000 Z-9.5000 F120.00
G1 X34.0000 Y-106.0000 Z-9.5000 F120.00
G2 X37.9969 Y-109.9215 Z-9.5000 I-0.0041 J-4.0018 F120.00
G1 X38.0000 Y-121.0000 Z-9.5000 F120.00
G2 X34.0785 Y-124.9969 Z-9.5000 I-4.0018 J0.0041 F120.00
G1 X21.3867 Y-124.9981 Z-9.5000 F120.00
G1 X18.1367 Y-124.9984 Z-6.2500 F120.00
G1 X15.9417 Y-124.9986 Z-6.2500 F120.00
G1 X12.6917 Y-124.9989 Z-9.5000 F120.00
G1 X-0.0000 Y-125.0000 Z-9.5000 F120.00
G2 X-3.9969 Y-121.0785 Z-9.5000 I0.0041 J4.0018 F120.00
G1 X-3.9976 Y-95.9063 Z-9.5000 F120.00
G1 X-3.9977 Y-92.6563 Z-6.2500 F120.00
G1 X-3.9977 Y-90.4613 Z-6.2500 F120.00
G1 X-3.9978 Y-87.2113 Z-9.5000 F120.00
G1 X-3.9991 Y-36.8671 Z-9.5000 F120.00
G1 X-3.9992 Y-33.6171 Z-6.2500 F120.00
G1 X-3.9993 Y-31.4221 Z-6.2500 F120.00
G1 X-3.9993 Y-28.1721 Z-9.5000 F120.00
G1 X-4.0000 Y-3.0000 Z-9.5000 F120.00
G2 X-0.0785 Y0.9969 Z-9.5000 I4.0018 J-0.0041 F120.00
G1 X34.0000 Y1.0000 Z-9.5000 F120.00
G2 X36.8264 Y-0.1729 Z-9.5000 I-0.0041 J-4.0018 F120.00
G1 X36.8264 Y-0.1729 Z-10.5000 F120.00
G2 X37.9969 Y-2.9215 Z-10.5000 I-2.8305 J-2.8289 F120.00
G1 X38.0000 Y-14.0000 Z-10.5000 F120.00
G2 X34.0785 Y-17.9969 Z-10.5000 I-4.0018 J0.0041 F120.00
G1 X12.0000 Y-17.9999 Z-10.5000 F120.00
G1 X12.0000 Y-56.6524 Z-10.5000 F120.00
G1 X12.0000 Y-60.9024 Z-6.2500 F120.00
G1 X12.0000 Y-63.0974 Z-6.2500 F120.00
G1 X12.0000 Y-67.3474 Z-10.5000 F120.00
G1 X12.0000 Y-106.0000 Z-10.5000 F120.00
G1 X34.0000 Y-106.0000 Z-10.5000 F120.00
G2 X37.9969 Y-109.9215 Z-10.5000 I-0.0041 J-4.0018 F120.00
G1 X38.0000 Y-121.0000 Z-10.5000 F120.00
G2 X34.0785 Y-124.9969 Z-10.5000 I-4.0018 J0.0041 F120.00
G1 X22.3867 Y-124.9980 Z-10.5000 F120.00
G1 X18.1367 Y-124.9984 Z-6.2500 F120.00
G1 X15.9417 Y-124.9986 Z-6.2500 F120.00
G1 X11.6917 Y-124.9989 Z-10.5000 F120.00
G1 X-0.0000 Y-125.0000 Z-10.5000 F120.00
G2 X-3.9969 Y-121.0785 Z-10.5000 I0.0041 J4.0018 F120.00
G1 X-3.9975 Y-96.9063 Z-10.5000 F120.00
G1 X-3.9977 Y-92.6563 Z-6.2500 F120.00
G1 X-3.9977 Y-90.4613 Z-6.2500 F120.00
G1 X-3.9978 Y-86.2113 Z-10.5000 F120.00
G1 X-3.9991 Y-37.8671 Z-10.5000 F120.00
G1 X-3.9992 Y-33.6171 Z-6.2500 F120.00
G1 X-3.9993 Y-31.4221 Z-6.2500 F120.00
G1 X-3.9994 Y-27.1721 Z-10.5000 F120.00
G1 X-4.0000 Y-3.0000 Z-10.5000 F120.00
G2 X-0.0785 Y0.9969 Z-10.5000 I4.0018 J-0.0041 F120.00
G1 X34.0000 Y1.0000 Z-10.5000 F120.00
G2 X36.8264 Y-0.1729 Z-10.5000 I-0.0041 J-4.0018 F120.00
G1 X36.8264 Y-0.1729 Z-11.5000 F120.00
G2 X37.9969 Y-2.9215 Z-11.5000 I-2.8305 J-2.8289 F120.00
G1 X38.0000 Y-14.0000 Z-11.5000 F120.00
G2 X34.0785 Y-17.9969 Z-11.5000 I-4.0018 J0.0041 F120.00
G1 X12.0000 Y-17.9999 Z-11.5000 F120.00
G1 X12.0000 Y-55.6524 Z-11.5000 F120.00
G1 X12.0000 Y-60.9024 Z-6.2500 F120.00
G1 X12.0000 Y-63.0974 Z-6.2500 F120.00
G1 X12.0000 Y-68.3474 Z-11.5000 F120.00
G1 X12.0000 Y-106.0000 Z-11.5000 F120.00
G1 X34.0000 Y-106.0000 Z-11.5000 F120.00
G2 X37.9969 Y-109.9215 Z-11.5000 I-0.0041 J-4.0018 F120.00
G1 X38.0000 Y-121.0000 Z-11.5000 F120.00
G2 X34.0785 Y-124.9969 Z-11.5000 I-4.0018 J0.0041 F120.00
G1 X23.3867 Y-124.9979 Z-11.5000 F120.00
G1 X18.1367 Y-124.9984 Z-6.2500 F120.00
G1 X15.9417 Y-124.9986 Z-6.2500 F120.00
G1 X10.6917 Y-124.9990 Z-11.5000 F120.00
G1 X-0.0000 Y-125.0000 Z-11.5000 F120.00
G2 X-3.9969 Y-121.0785 Z-11.5000 I0.0041 J4.0018 F120.00
G1 X-3.9975 Y-97.9063 Z-11.5000 F120.00
G1 X-3.9977 Y-92.6563 Z-6.2500 F120.00
G1 X-3.9977 Y-90.4613 Z-6.2500 F120.00
G1 X-3.9979 Y-85.2113 Z-11.5000 F120.00
G1 X-3.9991 Y-38.8671 Z-11.5000 F120.00
G1 X-3.9992 Y-33.6171 Z-6.2500 F120.00
G1 X-3.9993 Y-31.4221 Z-6.2500 F120.00
G1 X-3.9994 Y-26.1721 Z-11.5000 F120.00
G1 X-4.0000 Y-3.0000 Z-11.5000 F120.00
G2 X-0.0785 Y0.9969 Z-11.5000 I4.0018 J-0.0041 F120.00
G1 X34.0000 Y1.0000 Z-11.5000 F120.00
G2 X36.8264 Y-0.1729 Z-11.5000 I-0.0041 J-4.0018 F120.00
G1 X36.8264 Y-0.1729 Z-12.0000 F120.00
G2 X37.9969 Y-2.9215 Z-12.0000 I-2.8305 J-2.8289 F120.00
G1 X38.0000 Y-14.0000 Z-12.0000 F120.00
G2 X34.0785 Y-17.9969 Z-12.0000 I-4.0018 J0.0041 F120.00
G1 X12.0000 Y-17.9999 Z-12.0000 F120.00
G1 X12.0000 Y-55.1524 Z-12.0000 F120.00
G1 X12.0000 Y-60.9024 Z-6.2500 F120.00
G1 X12.0000 Y-63.0974 Z-6.2500 F120.00
G1 X12.0000 Y-68.8474 Z-12.0000 F120.00
G1 X12.0000 Y-106.0000 Z-12.0000 F120.00
G1 X34.0000 Y-106.0000 Z-12.0000 F120.00
G2 X37.9969 Y-109.9215 Z-12.0000 I-0.0041 J-4.0018 F120.00
G1 X38.0000 Y-121.0000 Z-12.0000 F120.00
G2 X34.0785 Y-124.9969 Z-12.0000 I-4.0018 J0.0041 F120.00
G1 X23.8867 Y-124.9978 Z-12.0000 F120.00
G1 X18.1367 Y-124.9984 Z-6.2500 F120.00
G1 X15.9417 Y-124.9986 Z-6.2500 F120.00
G1 X10.1917 Y-124.9991 Z-12.0000 F120.00
G1 X-0.0000 Y-125.0000 Z-12.0000 F120.00
G2 X-3.9969 Y-121.0785 Z-12.0000 I0.0041 J4.0018 F120.00
G1 X-3.9975 Y-98.4063 Z-12.0000 F120.00
G1 X-3.9977 Y-92.6563 Z-6.2500 F120.00
G1 X-3.9977 Y-90.4613 Z-6.2500 F120.00
G1 X-3.9979 Y-84.7113 Z-12.0000 F120.00
G1 X-3.9991 Y-39.3671 Z-12.0000 F120.00
G1 X-3.9992 Y-33.6171 Z-6.2500 F120.00
G1 X-3.9993 Y-31.4221 Z-6.2500 F120.00
G1 X-3.9994 Y-25.6721 Z-12.0000 F120.00
G1 X-4.0000 Y-3.0000 Z-12.0000 F120.00
G2 X-0.0785 Y0.9969 Z-12.0000 I4.0018 J-0.0041 F120.00
G1 X34.0000 Y1.0000 Z-12.0000 F120.00
G2 X36.8264 Y-0.1729 Z-12.0000 I-0.0041 J-4.0018 F120.00
G0 X36.8264 Y-0.1729 Z6.0000
(finish operation: TagDressup)
(begin operation: Pocket_Shape)
(Path: Pocket_Shape)
(Pocket_Shape)
G0 Z6.0000
G0 X6.1197 Y-114.8803
G0 Z4.0000
G1 X6.1197 Y-114.8803 Z-1.5000 F60.00
G3 X2.9961 Y-114.1754 Z-1.5000 I-2.1197 J-2.1197 F120.00
G3 X1.1754 Y-118.0039 Z-1.5000 I1.0039 J-2.8246 F120.00
G3 X5.0039 Y-119.8246 Z-1.5000 I2.8246 J1.0039 F120.00
G3 X6.1197 Y-114.8803 Z-1.5000 I-1.0039 J2.8246 F120.00
G0 X6.1197 Y-114.8803 Z6.0000
G0 X4.7021 Y-116.2979 Z6.0000
G0 X4.7021 Y-116.2979 Z2.5000
G1 X4.7021 Y-116.2979 Z-1.5000 F60.00
G3 X3.6675 Y-116.0643 Z-1.5000 I-0.7021 J-0.7021 F120.00
G3 X3.0643 Y-117.3325 Z-1.5000 I0.3325 J-0.9357 F120.00
G3 X4.3325 Y-117.9357 Z-1.5000 I0.9357 J0.3325 F120.00
G3 X4.7021 Y-116.2979 Z-1.5000 I-0.3325 J0.9357 F120.00
G0 X4.7021 Y-116.2979 Z6.0000
G0 X4.3478 Y-116.6522 Z6.0000
G0 X4.3478 Y-116.6522 Z2.5000
G1 X4.3478 Y-116.6522 Z-1.5000 F60.00
G3 X3.8353 Y-116.5366 Z-1.5000 I-0.3478 J-0.3478 F120.00
G3 X3.5366 Y-117.1647 Z-1.5000 I0.1647 J-0.4634 F120.00
G3 X4.1647 Y-117.4634 Z-1.5000 I0.4634 J0.1647 F120.00
G3 X4.3478 Y-116.6522 Z-1.5000 I-0.1647 J0.4634 F120.00
G1 X4.3478 Y-116.6522 Z-2.5000 F60.00
G3 X3.8353 Y-116.5366 Z-2.5000 I-0.3478 J-0.3478 F120.00
G3 X3.5366 Y-117.1647 Z-2.5000 I0.1647 J-0.4634 F120.00
G3 X4.1647 Y-117.4634 Z-2.5000 I0.4634 J0.1647 F120.00
G3 X4.3478 Y-116.6522 Z-2.5000 I-0.1647 J0.4634 F120.00
G0 X4.3478 Y-116.6522 Z6.0000
G0 X4.7021 Y-116.2979 Z6.0000
G0 X4.7021 Y-116.2979 Z1.5000
G1 X4.7021 Y-116.2979 Z-2.5000 F60.00
G3 X3.6675 Y-116.0643 Z-2.5000 I-0.7021 J-0.7021 F120.00
G3 X3.0643 Y-117.3325 Z-2.5000 I0.3325 J-0.9357 F120.00
G3 X4.3325 Y-117.9357 Z-2.5000 I0.9357 J0.3325 F120.00
G3 X4.7021 Y-116.2979 Z-2.5000 I-0.3325 J0.9357 F120.00
G0 X4.7021 Y-116.2979 Z6.0000
G0 X6.1197 Y-114.8803 Z6.0000
G0 X6.1197 Y-114.8803 Z1.5000
G1 X6.1197 Y-114.8803 Z-2.5000 F60.00
G3 X2.9961 Y-114.1754 Z-2.5000 I-2.1197 J-2.1197 F120.00
G3 X1.1754 Y-118.0039 Z-2.5000 I1.0039 J-2.8246 F120.00
G3 X5.0039 Y-119.8246 Z-2.5000 I2.8246 J1.0039 F120.00
G3 X6.1197 Y-114.8803 Z-2.5000 I-1.0039 J2.8246 F120.00
G1 X6.1197 Y-114.8803 Z-3.5000 F60.00
G3 X2.9961 Y-114.1754 Z-3.5000 I-2.1197 J-2.1197 F120.00
G3 X1.1754 Y-118.0039 Z-3.5000 I1.0039 J-2.8246 F120.00
G3 X5.0039 Y-119.8246 Z-3.5000 I2.8246 J1.0039 F120.00
G3 X6.1197 Y-114.8803 Z-3.5000 I-1.0039 J2.8246 F120.00
G0 X6.1197 Y-114.8803 Z6.0000
G0 X4.7021 Y-116.2979 Z6.0000
G0 X4.7021 Y-116.2979 Z0.5000
G1 X4.7021 Y-116.2979 Z-3.5000 F60.00
G3 X3.6675 Y-116.0643 Z-3.5000 I-0.7021 J-0.7021 F120.00
G3 X3.0643 Y-117.3325 Z-3.5000 I0.3325 J-0.9357 F120.00
G3 X4.3325 Y-117.9357 Z-3.5000 I0.9357 J0.3325 F120.00
G3 X4.7021 Y-116.2979 Z-3.5000 I-0.3325 J0.9357 F120.00
G0 X4.7021 Y-116.2979 Z6.0000
G0 X4.3478 Y-116.6522 Z6.0000
G0 X4.3478 Y-116.6522 Z0.5000
G1 X4.3478 Y-116.6522 Z-3.5000 F60.00
G3 X3.8353 Y-116.5366 Z-3.5000 I-0.3478 J-0.3478 F120.00
G3 X3.5366 Y-117.1647 Z-3.5000 I0.1647 J-0.4634 F120.00
G3 X4.1647 Y-117.4634 Z-3.5000 I0.4634 J0.1647 F120.00
G3 X4.3478 Y-116.6522 Z-3.5000 I-0.1647 J0.4634 F120.00
G1 X4.3478 Y-116.6522 Z-4.5000 F60.00
G3 X3.8353 Y-116.5366 Z-4.5000 I-0.3478 J-0.3478 F120.00
G3 X3.5366 Y-117.1647 Z-4.5000 I0.1647 J-0.4634 F120.00
G3 X4.1647 Y-117.4634 Z-4.5000 I0.4634 J0.1647 F120.00
G3 X4.3478 Y-116.6522 Z-4.5000 I-0.1647 J0.4634 F120.00
G0 X4.3478 Y-116.6522 Z6.0000
G0 X4.7021 Y-116.2979 Z6.0000
G0 X4.7021 Y-116.2979 Z-0.5000
G1 X4.7021 Y-116.2979 Z-4.5000 F60.00
G3 X3.6675 Y-116.0643 Z-4.5000 I-0.7021 J-0.7021 F120.00
G3 X3.0643 Y-117.3325 Z-4.5000 I0.3325 J-0.9357 F120.00
G3 X4.3325 Y-117.9357 Z-4.5000 I0.9357 J0.3325 F120.00
G3 X4.7021 Y-116.2979 Z-4.5000 I-0.3325 J0.9357 F120.00
G0 X4.7021 Y-116.2979 Z6.0000
G0 X6.1197 Y-114.8803 Z6.0000
G0 X6.1197 Y-114.8803 Z-0.5000
G1 X6.1197 Y-114.8803 Z-4.5000 F60.00
G3 X2.9961 Y-114.1754 Z-4.5000 I-2.1197 J-2.1197 F120.00
G3 X1.1754 Y-118.0039 Z-4.5000 I1.0039 J-2.8246 F120.00
G3 X5.0039 Y-119.8246 Z-4.5000 I2.8246 J1.0039 F120.00
G3 X6.1197 Y-114.8803 Z-4.5000 I-1.0039 J2.8246 F120.00
G1 X6.1197 Y-114.8803 Z-5.5000 F60.00
G3 X2.9961 Y-114.1754 Z-5.5000 I-2.1197 J-2.1197 F120.00
G3 X1.1754 Y-118.0039 Z-5.5000 I1.0039 J-2.8246 F120.00
G3 X5.0039 Y-119.8246 Z-5.5000 I2.8246 J1.0039 F120.00
G3 X6.1197 Y-114.8803 Z-5.5000 I-1.0039 J2.8246 F120.00
G0 X6.1197 Y-114.8803 Z6.0000
G0 X4.7021 Y-116.2979 Z6.0000
G0 X4.7021 Y-116.2979 Z-1.5000
G1 X4.7021 Y-116.2979 Z-5.5000 F60.00
G3 X3.6675 Y-116.0643 Z-5.5000 I-0.7021 J-0.7021 F120.00
G3 X3.0643 Y-117.3325 Z-5.5000 I0.3325 J-0.9357 F120.00
G3 X4.3325 Y-117.9357 Z-5.5000 I0.9357 J0.3325 F120.00
G3 X4.7021 Y-116.2979 Z-5.5000 I-0.3325 J0.9357 F120.00
G0 X4.7021 Y-116.2979 Z6.0000
G0 X4.3478 Y-116.6522 Z6.0000
G0 X4.3478 Y-116.6522 Z-1.5000
G1 X4.3478 Y-116.6522 Z-5.5000 F60.00
G3 X3.8353 Y-116.5366 Z-5.5000 I-0.3478 J-0.3478 F120.00
G3 X3.5366 Y-117.1647 Z-5.5000 I0.1647 J-0.4634 F120.00
G3 X4.1647 Y-117.4634 Z-5.5000 I0.4634 J0.1647 F120.00
G3 X4.3478 Y-116.6522 Z-5.5000 I-0.1647 J0.4634 F120.00
G1 X4.3478 Y-116.6522 Z-6.0000 F60.00
G3 X3.8353 Y-116.5366 Z-6.0000 I-0.3478 J-0.3478 F120.00
G3 X3.5366 Y-117.1647 Z-6.0000 I0.1647 J-0.4634 F120.00
G3 X4.1647 Y-117.4634 Z-6.0000 I0.4634 J0.1647 F120.00
G3 X4.3478 Y-116.6522 Z-6.0000 I-0.1647 J0.4634 F120.00
G0 X4.3478 Y-116.6522 Z6.0000
G0 X4.7021 Y-116.2979 Z6.0000
G0 X4.7021 Y-116.2979 Z-2.0000
G1 X4.7021 Y-116.2979 Z-6.0000 F60.00
G3 X3.6675 Y-116.0643 Z-6.0000 I-0.7021 J-0.7021 F120.00
G3 X3.0643 Y-117.3325 Z-6.0000 I0.3325 J-0.9357 F120.00
G3 X4.3325 Y-117.9357 Z-6.0000 I0.9357 J0.3325 F120.00
G3 X4.7021 Y-116.2979 Z-6.0000 I-0.3325 J0.9357 F120.00
G0 X4.7021 Y-116.2979 Z6.0000
G0 X6.1197 Y-114.8803 Z6.0000
G0 X6.1197 Y-114.8803 Z-2.0000
G1 X6.1197 Y-114.8803 Z-6.0000 F60.00
G3 X2.9961 Y-114.1754 Z-6.0000 I-2.1197 J-2.1197 F120.00
G3 X1.1754 Y-118.0039 Z-6.0000 I1.0039 J-2.8246 F120.00
G3 X5.0039 Y-119.8246 Z-6.0000 I2.8246 J1.0039 F120.00
G3 X6.1197 Y-114.8803 Z-6.0000 I-1.0039 J2.8246 F120.00
G0 Z6.0000
G0 X5.4120 Y-89.5880
G0 Z4.0000
G1 X5.4120 Y-89.5880 Z-1.5000 F60.00
G3 X3.3829 Y-89.1008 Z-1.5000 I-1.4120 J-1.4120 F120.00
G3 X4.6171 Y-92.8992 Z-1.5000 I0.6171 J-1.8992 F120.00
G3 X5.4120 Y-89.5880 Z-1.5000 I-0.6171 J1.8992 F120.00
G0 X5.4120 Y-89.5880 Z6.0000
G0 X5.0574 Y-89.9426 Z6.0000
G0 X5.0574 Y-89.9426 Z2.5000
G1 X5.0574 Y-89.9426 Z-1.5000 F60.00
G3 X3.5379 Y-89.5778 Z-1.5000 I-1.0574 J-1.0574 F120.00
G3 X4.4621 Y-92.4222 Z-1.5000 I0.4621 J-1.4222 F120.00
G3 X5.0574 Y-89.9426 Z-1.5000 I-0.4621 J1.4222 F120.00
G0 X5.0574 Y-89.9426 Z6.0000
G0 X4.7027 Y-90.2973 Z6.0000
G0 X4.7027 Y-90.2973 Z2.5000
G1 X4.7027 Y-90.2973 Z-1.5000 F60.00
G3 X3.6929 Y-90.0548 Z-1.5000 I-0.7027 J-0.7027 F120.00
G3 X4.3071 Y-91.9452 Z-1.5000 I0.3071 J-0.9452 F120.00
G3 X4.7027 Y-90.2973 Z-1.5000 I-0.3071 J0.9452 F120.00
G0 X4.7027 Y-90.2973 Z6.0000
G0 X4.3481 Y-90.6519 Z6.0000
G0 X4.3481 Y-90.6519 Z2.5000
G1 X4.3481 Y-90.6519 Z-1.5000 F60.00
G3 X3.8479 Y-90.5318 Z-1.5000 I-0.3481 J-0.3481 F120.00
G3 X4.1521 Y-91.4682 Z-1.5000 I0.1521 J-0.4682 F120.00
G3 X4.3481 Y-90.6519 Z-1.5000 I-0.1521 J0.4682 F120.00
G1 X4.3481 Y-90.6519 Z-2.5000 F60.00
G3 X3.8479 Y-90.5318 Z-2.5000 I-0.3481 J-0.3481 F120.00
G3 X4.1521 Y-91.4682 Z-2.5000 I0.1521 J-0.4682 F120.00
G3 X4.3481 Y-90.6519 Z-2.5000 I-0.1521 J0.4682 F120.00
G0 X4.3481 Y-90.6519 Z6.0000
G0 X4.7027 Y-90.2973 Z6.0000
G0 X4.7027 Y-90.2973 Z1.5000
G1 X4.7027 Y-90.2973 Z-2.5000 F60.00
G3 X3.6929 Y-90.0548 Z-2.5000 I-0.7027 J-0.7027 F120.00
G3 X4.3071 Y-91.9452 Z-2.5000 I0.3071 J-0.9452 F120.00
G3 X4.7027 Y-90.2973 Z-2.5000 I-0.3071 J0.9452 F120.00
G0 X4.7027 Y-90.2973 Z6.0000
G0 X5.0574 Y-89.9426 Z6.0000
G0 X5.0574 Y-89.9426 Z1.5000
G1 X5.0574 Y-89.9426 Z-2.5000 F60.00
G3 X3.5379 Y-89.5778 Z-2.5000 I-1.0574 J-1.0574 F120.00
G3 X4.4621 Y-92.4222 Z-2.5000 I0.4621 J-1.4222 F120.00
G3 X5.0574 Y-89.9426 Z-2.5000 I-0.4621 J1.4222 F120.00
G0 X5.0574 Y-89.9426 Z6.0000
G0 X5.4120 Y-89.5880 Z6.0000
G0 X5.4120 Y-89.5880 Z1.5000
G1 X5.4120 Y-89.5880 Z-2.5000 F60.00
G3 X3.3829 Y-89.1008 Z-2.5000 I-1.4120 J-1.4120 F120.00
G3 X4.6171 Y-92.8992 Z-2.5000 I0.6171 J-1.8992 F120.00
G3 X5.4120 Y-89.5880 Z-2.5000 I-0.6171 J1.8992 F120.00
G1 X5.4120 Y-89.5880 Z-3.5000 F60.00
G3 X3.3829 Y-89.1008 Z-3.5000 I-1.4120 J-1.4120 F120.00
G3 X4.6171 Y-92.8992 Z-3.5000 I0.6171 J-1.8992 F120.00
G3 X5.4120 Y-89.5880 Z-3.5000 I-0.6171 J1.8992 F120.00
G0 X5.4120 Y-89.5880 Z6.0000
G0 X5.0574 Y-89.9426 Z6.0000
G0 X5.0574 Y-89.9426 Z0.5000
G1 X5.0574 Y-89.9426 Z-3.5000 F60.00
G3 X3.5379 Y-89.5778 Z-3.5000 I-1.0574 J-1.0574 F120.00
G3 X4.4621 Y-92.4222 Z-3.5000 I0.4621 J-1.4222 F120.00
G3 X5.0574 Y-89.9426 Z-3.5000 I-0.4621 J1.4222 F120.00
G0 X5.0574 Y-89.9426 Z6.0000
G0 X4.7027 Y-90.2973 Z6.0000
G0 X4.7027 Y-90.2973 Z0.5000
G1 X4.7027 Y-90.2973 Z-3.5000 F60.00
G3 X3.6929 Y-90.0548 Z-3.5000 I-0.7027 J-0.7027 F120.00
G3 X4.3071 Y-91.9452 Z-3.5000 I0.3071 J-0.9452 F120.00
G3 X4.7027 Y-90.2973 Z-3.5000 I-0.3071 J0.9452 F120.00
G0 X4.7027 Y-90.2973 Z6.0000
G0 X4.3481 Y-90.6519 Z6.0000
G0 X4.3481 Y-90.6519 Z0.5000
G1 X4.3481 Y-90.6519 Z-3.5000 F60.00
G3 X3.8479 Y-90.5318 Z-3.5000 I-0.3481 J-0.3481 F120.00
G3 X4.1521 Y-91.4682 Z-3.5000 I0.1521 J-0.4682 F120.00
G3 X4.3481 Y-90.6519 Z-3.5000 I-0.1521 J0.4682 F120.00
G1 X4.3481 Y-90.6519 Z-4.5000 F60.00
G3 X3.8479 Y-90.5318 Z-4.5000 I-0.3481 J-0.3481 F120.00
G3 X4.1521 Y-91.4682 Z-4.5000 I0.1521 J-0.4682 F120.00
G3 X4.3481 Y-90.6519 Z-4.5000 I-0.1521 J0.4682 F120.00
G0 X4.3481 Y-90.6519 Z6.0000
G0 X4.7027 Y-90.2973 Z6.0000
G0 X4.7027 Y-90.2973 Z-0.5000
G1 X4.7027 Y-90.2973 Z-4.5000 F60.00
G3 X3.6929 Y-90.0548 Z-4.5000 I-0.7027 J-0.7027 F120.00
G3 X4.3071 Y-91.9452 Z-4.5000 I0.3071 J-0.9452 F120.00
G3 X4.7027 Y-90.2973 Z-4.5000 I-0.3071 J0.9452 F120.00
G0 X4.7027 Y-90.2973 Z6.0000
G0 X5.0574 Y-89.9426 Z6.0000
G0 X5.0574 Y-89.9426 Z-0.5000
G1 X5.0574 Y-89.9426 Z-4.5000 F60.00
G3 X3.5379 Y-89.5778 Z-4.5000 I-1.0574 J-1.0574 F120.00
G3 X4.4621 Y-92.4222 Z-4.5000 I0.4621 J-1.4222 F120.00
G3 X5.0574 Y-89.9426 Z-4.5000 I-0.4621 J1.4222 F120.00
G0 X5.0574 Y-89.9426 Z6.0000
G0 X5.4120 Y-89.5880 Z6.0000
G0 X5.4120 Y-89.5880 Z-0.5000
G1 X5.4120 Y-89.5880 Z-4.5000 F60.00
G3 X3.3829 Y-89.1008 Z-4.5000 I-1.4120 J-1.4120 F120.00
G3 X4.6171 Y-92.8992 Z-4.5000 I0.6171 J-1.8992 F120.00
G3 X5.4120 Y-89.5880 Z-4.5000 I-0.6171 J1.8992 F120.00
G1 X5.4120 Y-89.5880 Z-5.5000 F60.00
G3 X3.3829 Y-89.1008 Z-5.5000 I-1.4120 J-1.4120 F120.00
G3 X4.6171 Y-92.8992 Z-5.5000 I0.6171 J-1.8992 F120.00
G3 X5.4120 Y-89.5880 Z-5.5000 I-0.6171 J1.8992 F120.00
G0 X5.4120 Y-89.5880 Z6.0000
G0 X5.0574 Y-89.9426 Z6.0000
G0 X5.0574 Y-89.9426 Z-1.5000
G1 X5.0574 Y-89.9426 Z-5.5000 F60.00
G3 X3.5379 Y-89.5778 Z-5.5000 I-1.0574 J-1.0574 F120.00
G3 X4.4621 Y-92.4222 Z-5.5000 I0.4621 J-1.4222 F120.00
G3 X5.0574 Y-89.9426 Z-5.5000 I-0.4621 J1.4222 F120.00
G0 X5.0574 Y-89.9426 Z6.0000
G0 X4.7027 Y-90.2973 Z6.0000
G0 X4.7027 Y-90.2973 Z-1.5000
G1 X4.7027 Y-90.2973 Z-5.5000 F60.00
G3 X3.6929 Y-90.0548 Z-5.5000 I-0.7027 J-0.7027 F120.00
G3 X4.3071 Y-91.9452 Z-5.5000 I0.3071 J-0.9452 F120.00
G3 X4.7027 Y-90.2973 Z-5.5000 I-0.3071 J0.9452 F120.00
G0 X4.7027 Y-90.2973 Z6.0000
G0 X4.3481 Y-90.6519 Z6.0000
G0 X4.3481 Y-90.6519 Z-1.5000
G1 X4.3481 Y-90.6519 Z-5.5000 F60.00
G3 X3.8479 Y-90.5318 Z-5.5000 I-0.3481 J-0.3481 F120.00
G3 X4.1521 Y-91.4682 Z-5.5000 I0.1521 J-0.4682 F120.00
G3 X4.3481 Y-90.6519 Z-5.5000 I-0.1521 J0.4682 F120.00
G1 X4.3481 Y-90.6519 Z-6.0000 F60.00
G3 X3.8479 Y-90.5318 Z-6.0000 I-0.3481 J-0.3481 F120.00
G3 X4.1521 Y-91.4682 Z-6.0000 I0.1521 J-0.4682 F120.00
G3 X4.3481 Y-90.6519 Z-6.0000 I-0.1521 J0.4682 F120.00
G0 X4.3481 Y-90.6519 Z6.0000
G0 X4.7027 Y-90.2973 Z6.0000
G0 X4.7027 Y-90.2973 Z-2.0000
G1 X4.7027 Y-90.2973 Z-6.0000 F60.00
G3 X3.6929 Y-90.0548 Z-6.0000 I-0.7027 J-0.7027 F120.00
G3 X4.3071 Y-91.9452 Z-6.0000 I0.3071 J-0.9452 F120.00
G3 X4.7027 Y-90.2973 Z-6.0000 I-0.3071 J0.9452 F120.00
G0 X4.7027 Y-90.2973 Z6.0000
G0 X5.0574 Y-89.9426 Z6.0000
G0 X5.0574 Y-89.9426 Z-2.0000
G1 X5.0574 Y-89.9426 Z-6.0000 F60.00
G3 X3.5379 Y-89.5778 Z-6.0000 I-1.0574 J-1.0574 F120.00
G3 X4.4621 Y-92.4222 Z-6.0000 I0.4621 J-1.4222 F120.00
G3 X5.0574 Y-89.9426 Z-6.0000 I-0.4621 J1.4222 F120.00
G0 X5.0574 Y-89.9426 Z6.0000
G0 X5.4120 Y-89.5880 Z6.0000
G0 X5.4120 Y-89.5880 Z-2.0000
G1 X5.4120 Y-89.5880 Z-6.0000 F60.00
G3 X3.3829 Y-89.1008 Z-6.0000 I-1.4120 J-1.4120 F120.00
G3 X4.6171 Y-92.8992 Z-6.0000 I0.6171 J-1.8992 F120.00
G3 X5.4120 Y-89.5880 Z-6.0000 I-0.6171 J1.8992 F120.00
G0 Z6.0000
G0 X5.4120 Y-60.5880
G0 Z4.0000
G1 X5.4120 Y-60.5880 Z-1.5000 F60.00
G3 X2.1008 Y-62.6171 Z-1.5000 I-1.4120 J-1.4120 F120.00
G3 X5.8992 Y-61.3829 Z-1.5000 I1.8992 J0.6171 F120.00
G3 X5.4120 Y-60.5880 Z-1.5000 I-1.8992 J-0.6171 F120.00
G0 X5.4120 Y-60.5880 Z6.0000
G0 X5.0574 Y-60.9426 Z6.0000
G0 X5.0574 Y-60.9426 Z2.5000
G1 X5.0574 Y-60.9426 Z-1.5000 F60.00
G3 X2.5778 Y-62.4621 Z-1.5000 I-1.0574 J-1.0574 F120.00
G3 X5.4222 Y-61.5379 Z-1.5000 I1.4222 J0.4621 F120.00
G3 X5.0574 Y-60.9426 Z-1.5000 I-1.4222 J-0.4621 F120.00
G0 X5.0574 Y-60.9426 Z6.0000
G0 X4.7027 Y-61.2973 Z6.0000
G0 X4.7027 Y-61.2973 Z2.5000
G1 X4.7027 Y-61.2973 Z-1.5000 F60.00
G3 X3.0548 Y-62.3071 Z-1.5000 I-0.7027 J-0.7027 F120.00
G3 X4.9452 Y-61.6929 Z-1.5000 I0.9452 J0.3071 F120.00
G3 X4.7027 Y-61.2973 Z-1.5000 I-0.9452 J-0.3071 F120.00
G0 X4.7027 Y-61.2973 Z6.0000
G0 X4.3481 Y-61.6519 Z6.0000
G0 X4.3481 Y-61.6519 Z2.5000
G1 X4.3481 Y-61.6519 Z-1.5000 F60.00
G3 X3.5318 Y-62.1521 Z-1.5000 I-0.3481 J-0.3481 F120.00
G3 X4.4682 Y-61.8479 Z-1.5000 I0.4682 J0.1521 F120.00
G3 X4.3481 Y-61.6519 Z-1.5000 I-0.4682 J-0.1521 F120.00
G1 X4.3481 Y-61.6519 Z-2.5000 F60.00
G3 X3.5318 Y-62.1521 Z-2.5000 I-0.3481 J-0.3481 F120.00
G3 X4.4682 Y-61.8479 Z-2.5000 I0.4682 J0.1521 F120.00
G3 X4.3481 Y-61.6519 Z-2.5000 I-0.4682 J-0.1521 F120.00
G0 X4.3481 Y-61.6519 Z6.0000
G0 X4.7027 Y-61.2973 Z6.0000
G0 X4.7027 Y-61.2973 Z1.5000
G1 X4.7027 Y-61.2973 Z-2.5000 F60.00
G3 X3.0548 Y-62.3071 Z-2.5000 I-0.7027 J-0.7027 F120.00
G3 X4.9452 Y-61.6929 Z-2.5000 I0.9452 J0.3071 F120.00
G3 X4.7027 Y-61.2973 Z-2.5000 I-0.9452 J-0.3071 F120.00
G0 X4.7027 Y-61.2973 Z6.0000
G0 X5.0574 Y-60.9426 Z6.0000
G0 X5.0574 Y-60.9426 Z1.5000
G1 X5.0574 Y-60.9426 Z-2.5000 F60.00
G3 X2.5778 Y-62.4621 Z-2.5000 I-1.0574 J-1.0574 F120.00
G3 X5.4222 Y-61.5379 Z-2.5000 I1.4222 J0.4621 F120.00
G3 X5.0574 Y-60.9426 Z-2.5000 I-1.4222 J-0.4621 F120.00
G0 X5.0574 Y-60.9426 Z6.0000
G0 X5.4120 Y-60.5880 Z6.0000
G0 X5.4120 Y-60.5880 Z1.5000
G1 X5.4120 Y-60.5880 Z-2.5000 F60.00
G3 X2.1008 Y-62.6171 Z-2.5000 I-1.4120 J-1.4120 F120.00
G3 X5.8992 Y-61.3829 Z-2.5000 I1.8992 J0.6171 F120.00
G3 X5.4120 Y-60.5880 Z-2.5000 I-1.8992 J-0.6171 F120.00
G1 X5.4120 Y-60.5880 Z-3.5000 F60.00
G3 X2.1008 Y-62.6171 Z-3.5000 I-1.4120 J-1.4120 F120.00
G3 X5.8992 Y-61.3829 Z-3.5000 I1.8992 J0.6171 F120.00
G3 X5.4120 Y-60.5880 Z-3.5000 I-1.8992 J-0.6171 F120.00
G0 X5.4120 Y-60.5880 Z6.0000
G0 X5.0574 Y-60.9426 Z6.0000
G0 X5.0574 Y-60.9426 Z0.5000
G1 X5.0574 Y-60.9426 Z-3.5000 F60.00
G3 X2.5778 Y-62.4621 Z-3.5000 I-1.0574 J-1.0574 F120.00
G3 X5.4222 Y-61.5379 Z-3.5000 I1.4222 J0.4621 F120.00
G3 X5.0574 Y-60.9426 Z-3.5000 I-1.4222 J-0.4621 F120.00
G0 X5.0574 Y-60.9426 Z6.0000
G0 X4.7027 Y-61.2973 Z6.0000
G0 X4.7027 Y-61.2973 Z0.5000
G1 X4.7027 Y-61.2973 Z-3.5000 F60.00
G3 X3.0548 Y-62.3071 Z-3.5000 I-0.7027 J-0.7027 F120.00
G3 X4.9452 Y-61.6929 Z-3.5000 I0.9452 J0.3071 F120.00
G3 X4.7027 Y-61.2973 Z-3.5000 I-0.9452 J-0.3071 F120.00
G0 X4.7027 Y-61.2973 Z6.0000
G0 X4.3481 Y-61.6519 Z6.0000
G0 X4.3481 Y-61.6519 Z0.5000
G1 X4.3481 Y-61.6519 Z-3.5000 F60.00
G3 X3.5318 Y-62.1521 Z-3.5000 I-0.3481 J-0.3481 F120.00
G3 X4.4682 Y-61.8479 Z-3.5000 I0.4682 J0.1521 F120.00
G3 X4.3481 Y-61.6519 Z-3.5000 I-0.4682 J-0.1521 F120.00
G1 X4.3481 Y-61.6519 Z-4.5000 F60.00
G3 X3.5318 Y-62.1521 Z-4.5000 I-0.3481 J-0.3481 F120.00
G3 X4.4682 Y-61.8479 Z-4.5000 I0.4682 J0.1521 F120.00
G3 X4.3481 Y-61.6519 Z-4.5000 I-0.4682 J-0.1521 F120.00
G0 X4.3481 Y-61.6519 Z6.0000
G0 X4.7027 Y-61.2973 Z6.0000
G0 X4.7027 Y-61.2973 Z-0.5000
G1 X4.7027 Y-61.2973 Z-4.5000 F60.00
G3 X3.0548 Y-62.3071 Z-4.5000 I-0.7027 J-0.7027 F120.00
G3 X4.9452 Y-61.6929 Z-4.5000 I0.9452 J0.3071 F120.00
G3 X4.7027 Y-61.2973 Z-4.5000 I-0.9452 J-0.3071 F120.00
G0 X4.7027 Y-61.2973 Z6.0000
G0 X5.0574 Y-60.9426 Z6.0000
G0 X5.0574 Y-60.9426 Z-0.5000
G1 X5.0574 Y-60.9426 Z-4.5000 F60.00
G3 X2.5778 Y-62.4621 Z-4.5000 I-1.0574 J-1.0574 F120.00
G3 X5.4222 Y-61.5379 Z-4.5000 I1.4222 J0.4621 F120.00
G3 X5.0574 Y-60.9426 Z-4.5000 I-1.4222 J-0.4621 F120.00
G0 X5.0574 Y-60.9426 Z6.0000
G0 X5.4120 Y-60.5880 Z6.0000
G0 X5.4120 Y-60.5880 Z-0.5000
G1 X5.4120 Y-60.5880 Z-4.5000 F60.00
G3 X2.1008 Y-62.6171 Z-4.5000 I-1.4120 J-1.4120 F120.00
G3 X5.8992 Y-61.3829 Z-4.5000 I1.8992 J0.6171 F120.00
G3 X5.4120 Y-60.5880 Z-4.5000 I-1.8992 J-0.6171 F120.00
G1 X5.4120 Y-60.5880 Z-5.5000 F60.00
G3 X2.1008 Y-62.6171 Z-5.5000 I-1.4120 J-1.4120 F120.00
G3 X5.8992 Y-61.3829 Z-5.5000 I1.8992 J0.6171 F120.00
G3 X5.4120 Y-60.5880 Z-5.5000 I-1.8992 J-0.6171 F120.00
G0 X5.4120 Y-60.5880 Z6.0000
G0 X5.0574 Y-60.9426 Z6.0000
G0 X5.0574 Y-60.9426 Z-1.5000
G1 X5.0574 Y-60.9426 Z-5.5000 F60.00
G3 X2.5778 Y-62.4621 Z-5.5000 I-1.0574 J-1.0574 F120.00
G3 X5.4222 Y-61.5379 Z-5.5000 I1.4222 J0.4621 F120.00
G3 X5.0574 Y-60.9426 Z-5.5000 I-1.4222 J-0.4621 F120.00
G0 X5.0574 Y-60.9426 Z6.0000
G0 X4.7027 Y-61.2973 Z6.0000
G0 X4.7027 Y-61.2973 Z-1.5000
G1 X4.7027 Y-61.2973 Z-5.5000 F60.00
G3 X3.0548 Y-62.3071 Z-5.5000 I-0.7027 J-0.7027 F120.00
G3 X4.9452 Y-61.6929 Z-5.5000 I0.9452 J0.3071 F120.00
G3 X4.7027 Y-61.2973 Z-5.5000 I-0.9452 J-0.3071 F120.00
G0 X4.7027 Y-61.2973 Z6.0000
G0 X4.3481 Y-61.6519 Z6.0000
G0 X4.3481 Y-61.6519 Z-1.5000
G1 X4.3481 Y-61.6519 Z-5.5000 F60.00
G3 X3.5318 Y-62.1521 Z-5.5000 I-0.3481 J-0.3481 F120.00
G3 X4.4682 Y-61.8479 Z-5.5000 I0.4682 J0.1521 F120.00
G3 X4.3481 Y-61.6519 Z-5.5000 I-0.4682 J-0.1521 F120.00
G1 X4.3481 Y-61.6519 Z-6.0000 F60.00
G3 X3.5318 Y-62.1521 Z-6.0000 I-0.3481 J-0.3481 F120.00
G3 X4.4682 Y-61.8479 Z-6.0000 I0.4682 J0.1521 F120.00
G3 X4.3481 Y-61.6519 Z-6.0000 I-0.4682 J-0.1521 F120.00
G0 X4.3481 Y-61.6519 Z6.0000
G0 X4.7027 Y-61.2973 Z6.0000
G0 X4.7027 Y-61.2973 Z-2.0000
G1 X4.7027 Y-61.2973 Z-6.0000 F60.00
G3 X3.0548 Y-62.3071 Z-6.0000 I-0.7027 J-0.7027 F120.00
G3 X4.9452 Y-61.6929 Z-6.0000 I0.9452 J0.3071 F120.00
G3 X4.7027 Y-61.2973 Z-6.0000 I-0.9452 J-0.3071 F120.00
G0 X4.7027 Y-61.2973 Z6.0000
G0 X5.0574 Y-60.9426 Z6.0000
G0 X5.0574 Y-60.9426 Z-2.0000
G1 X5.0574 Y-60.9426 Z-6.0000 F60.00
G3 X2.5778 Y-62.4621 Z-6.0000 I-1.0574 J-1.0574 F120.00
G3 X5.4222 Y-61.5379 Z-6.0000 I1.4222 J0.4621 F120.00
G3 X5.0574 Y-60.9426 Z-6.0000 I-1.4222 J-0.4621 F120.00
G0 X5.0574 Y-60.9426 Z6.0000
G0 X5.4120 Y-60.5880 Z6.0000
G0 X5.4120 Y-60.5880 Z-2.0000
G1 X5.4120 Y-60.5880 Z-6.0000 F60.00
G3 X2.1008 Y-62.6171 Z-6.0000 I-1.4120 J-1.4120 F120.00
G3 X5.8992 Y-61.3829 Z-6.0000 I1.8992 J0.6171 F120.00
G3 X5.4120 Y-60.5880 Z-6.0000 I-1.8992 J-0.6171 F120.00
G0 Z6.0000
G0 X5.4120 Y-31.5880
G0 Z4.0000
G1 X5.4120 Y-31.5880 Z-1.5000 F60.00
G3 X3.3829 Y-31.1008 Z-1.5000 I-1.4120 J-1.4120 F120.00
G3 X4.6171 Y-34.8992 Z-1.5000 I0.6171 J-1.8992 F120.00
G3 X5.4120 Y-31.5880 Z-1.5000 I-0.6171 J1.8992 F120.00
G0 X5.4120 Y-31.5880 Z6.0000
G0 X5.0574 Y-31.9426 Z6.0000
G0 X5.0574 Y-31.9426 Z2.5000
G1 X5.0574 Y-31.9426 Z-1.5000 F60.00
G3 X3.5379 Y-31.5778 Z-1.5000 I-1.0574 J-1.0574 F120.00
G3 X4.4621 Y-34.4222 Z-1.5000 I0.4621 J-1.4222 F120.00
G3 X5.0574 Y-31.9426 Z-1.5000 I-0.4621 J1.4222 F120.00
G0 X5.0574 Y-31.9426 Z6.0000
G0 X4.7027 Y-32.2973 Z6.0000
G0 X4.7027 Y-32.2973 Z2.5000
G1 X4.7027 Y-32.2973 Z-1.5000 F60.00
G3 X3.6929 Y-32.0548 Z-1.5000 I-0.7027 J-0.7027 F120.00
G3 X4.3071 Y-33.9452 Z-1.5000 I0.3071 J-0.9452 F120.00
G3 X4.7027 Y-32.2973 Z-1.5000 I-0.3071 J0.9452 F120.00
G0 X4.7027 Y-32.2973 Z6.0000
G0 X4.3481 Y-32.6519 Z6.0000
G0 X4.3481 Y-32.6519 Z2.5000
G1 X4.3481 Y-32.6519 Z-1.5000 F60.00
G3 X3.8479 Y-32.5318 Z-1.5000 I-0.3481 J-0.3481 F120.00
G3 X4.1521 Y-33.4682 Z-1.5000 I0.1521 J-0.4682 F120.00
G3 X4.3481 Y-32.6519 Z-1.5000 I-0.1521 J0.4682 F120.00
G1 X4.3481 Y-32.6519 Z-2.5000 F60.00
G3 X3.8479 Y-32.5318 Z-2.5000 I-0.3481 J-0.3481 F120.00
G3 X4.1521 Y-33.4682 Z-2.5000 I0.1521 J-0.4682 F120.00
G3 X4.3481 Y-32.6519 Z-2.5000 I-0.1521 J0.4682 F120.00
G0 X4.3481 Y-32.6519 Z6.0000
G0 X4.7027 Y-32.2973 Z6.0000
G0 X4.7027 Y-32.2973 Z1.5000
G1 X4.7027 Y-32.2973 Z-2.5000 F60.00
G3 X3.6929 Y-32.0548 Z-2.5000 I-0.7027 J-0.7027 F120.00
G3 X4.3071 Y-33.9452 Z-2.5000 I0.3071 J-0.9452 F120.00
G3 X4.7027 Y-32.2973 Z-2.5000 I-0.3071 J0.9452 F120.00
G0 X4.7027 Y-32.2973 Z6.0000
G0 X5.0574 Y-31.9426 Z6.0000
G0 X5.0574 Y-31.9426 Z1.5000
G1 X5.0574 Y-31.9426 Z-2.5000 F60.00
G3 X3.5379 Y-31.5778 Z-2.5000 I-1.0574 J-1.0574 F120.00
G3 X4.4621 Y-34.4222 Z-2.5000 I0.4621 J-1.4222 F120.00
G3 X5.0574 Y-31.9426 Z-2.5000 I-0.4621 J1.4222 F120.00
G0 X5.0574 Y-31.9426 Z6.0000
G0 X5.4120 Y-31.5880 Z6.0000
G0 X5.4120 Y-31.5880 Z1.5000
G1 X5.4120 Y-31.5880 Z-2.5000 F60.00
G3 X3.3829 Y-31.1008 Z-2.5000 I-1.4120 J-1.4120 F120.00
G3 X4.6171 Y-34.8992 Z-2.5000 I0.6171 J-1.8992 F120.00
G3 X5.4120 Y-31.5880 Z-2.5000 I-0.6171 J1.8992 F120.00
G1 X5.4120 Y-31.5880 Z-3.5000 F60.00
G3 X3.3829 Y-31.1008 Z-3.5000 I-1.4120 J-1.4120 F120.00
G3 X4.6171 Y-34.8992 Z-3.5000 I0.6171 J-1.8992 F120.00
G3 X5.4120 Y-31.5880 Z-3.5000 I-0.6171 J1.8992 F120.00
G0 X5.4120 Y-31.5880 Z6.0000
G0 X5.0574 Y-31.9426 Z6.0000
G0 X5.0574 Y-31.9426 Z0.5000
G1 X5.0574 Y-31.9426 Z-3.5000 F60.00
G3 X3.5379 Y-31.5778 Z-3.5000 I-1.0574 J-1.0574 F120.00
G3 X4.4621 Y-34.4222 Z-3.5000 I0.4621 J-1.4222 F120.00
G3 X5.0574 Y-31.9426 Z-3.5000 I-0.4621 J1.4222 F120.00
G0 X5.0574 Y-31.9426 Z6.0000
G0 X4.7027 Y-32.2973 Z6.0000
G0 X4.7027 Y-32.2973 Z0.5000
G1 X4.7027 Y-32.2973 Z-3.5000 F60.00
G3 X3.6929 Y-32.0548 Z-3.5000 I-0.7027 J-0.7027 F120.00
G3 X4.3071 Y-33.9452 Z-3.5000 I0.3071 J-0.9452 F120.00
G3 X4.7027 Y-32.2973 Z-3.5000 I-0.3071 J0.9452 F120.00
G0 X4.7027 Y-32.2973 Z6.0000
G0 X4.3481 Y-32.6519 Z6.0000
G0 X4.3481 Y-32.6519 Z0.5000
G1 X4.3481 Y-32.6519 Z-3.5000 F60.00
G3 X3.8479 Y-32.5318 Z-3.5000 I-0.3481 J-0.3481 F120.00
G3 X4.1521 Y-33.4682 Z-3.5000 I0.1521 J-0.4682 F120.00
G3 X4.3481 Y-32.6519 Z-3.5000 I-0.1521 J0.4682 F120.00
G1 X4.3481 Y-32.6519 Z-4.5000 F60.00
G3 X3.8479 Y-32.5318 Z-4.5000 I-0.3481 J-0.3481 F120.00
G3 X4.1521 Y-33.4682 Z-4.5000 I0.1521 J-0.4682 F120.00
G3 X4.3481 Y-32.6519 Z-4.5000 I-0.1521 J0.4682 F120.00
G0 X4.3481 Y-32.6519 Z6.0000
G0 X4.7027 Y-32.2973 Z6.0000
G0 X4.7027 Y-32.2973 Z-0.5000
G1 X4.7027 Y-32.2973 Z-4.5000 F60.00
G3 X3.6929 Y-32.0548 Z-4.5000 I-0.7027 J-0.7027 F120.00
G3 X4.3071 Y-33.9452 Z-4.5000 I0.3071 J-0.9452 F120.00
G3 X4.7027 Y-32.2973 Z-4.5000 I-0.3071 J0.9452 F120.00
G0 X4.7027 Y-32.2973 Z6.0000
G0 X5.0574 Y-31.9426 Z6.0000
G0 X5.0574 Y-31.9426 Z-0.5000
G1 X5.0574 Y-31.9426 Z-4.5000 F60.00
G3 X3.5379 Y-31.5778 Z-4.5000 I-1.0574 J-1.0574 F120.00
G3 X4.4621 Y-34.4222 Z-4.5000 I0.4621 J-1.4222 F120.00
G3 X5.0574 Y-31.9426 Z-4.5000 I-0.4621 J1.4222 F120.00
G0 X5.0574 Y-31.9426 Z6.0000
G0 X5.4120 Y-31.5880 Z6.0000
G0 X5.4120 Y-31.5880 Z-0.5000
G1 X5.4120 Y-31.5880 Z-4.5000 F60.00
G3 X3.3829 Y-31.1008 Z-4.5000 I-1.4120 J-1.4120 F120.00
G3 X4.6171 Y-34.8992 Z-4.5000 I0.6171 J-1.8992 F120.00
G3 X5.4120 Y-31.5880 Z-4.5000 I-0.6171 J1.8992 F120.00
G1 X5.4120 Y-31.5880 Z-5.5000 F60.00
G3 X3.3829 Y-31.1008 Z-5.5000 I-1.4120 J-1.4120 F120.00
G3 X4.6171 Y-34.8992 Z-5.5000 I0.6171 J-1.8992 F120.00
G3 X5.4120 Y-31.5880 Z-5.5000 I-0.6171 J1.8992 F120.00
G0 X5.4120 Y-31.5880 Z6.0000
G0 X5.0574 Y-31.9426 Z6.0000
G0 X5.0574 Y-31.9426 Z-1.5000
G1 X5.0574 Y-31.9426 Z-5.5000 F60.00
G3 X3.5379 Y-31.5778 Z-5.5000 I-1.0574 J-1.0574 F120.00
G3 X4.4621 Y-34.4222 Z-5.5000 I0.4621 J-1.4222 F120.00
G3 X5.0574 Y-31.9426 Z-5.5000 I-0.4621 J1.4222 F120.00
G0 X5.0574 Y-31.9426 Z6.0000
G0 X4.7027 Y-32.2973 Z6.0000
G0 X4.7027 Y-32.2973 Z-1.5000
G1 X4.7027 Y-32.2973 Z-5.5000 F60.00
G3 X3.6929 Y-32.0548 Z-5.5000 I-0.7027 J-0.7027 F120.00
G3 X4.3071 Y-33.9452 Z-5.5000 I0.3071 J-0.9452 F120.00
G3 X4.7027 Y-32.2973 Z-5.5000 I-0.3071 J0.9452 F120.00
G0 X4.7027 Y-32.2973 Z6.0000
G0 X4.3481 Y-32.6519 Z6.0000
G0 X4.3481 Y-32.6519 Z-1.5000
G1 X4.3481 Y-32.6519 Z-5.5000 F60.00
G3 X3.8479 Y-32.5318 Z-5.5000 I-0.3481 J-0.3481 F120.00
G3 X4.1521 Y-33.4682 Z-5.5000 I0.1521 J-0.4682 F120.00
G3 X4.3481 Y-32.6519 Z-5.5000 I-0.1521 J0.4682 F120.00
G1 X4.3481 Y-32.6519 Z-6.0000 F60.00
G3 X3.8479 Y-32.5318 Z-6.0000 I-0.3481 J-0.3481 F120.00
G3 X4.1521 Y-33.4682 Z-6.0000 I0.1521 J-0.4682 F120.00
G3 X4.3481 Y-32.6519 Z-6.0000 I-0.1521 J0.4682 F120.00
G0 X4.3481 Y-32.6519 Z6.0000
G0 X4.7027 Y-32.2973 Z6.0000
G0 X4.7027 Y-32.2973 Z-2.0000
G1 X4.7027 Y-32.2973 Z-6.0000 F60.00
G3 X3.6929 Y-32.0548 Z-6.0000 I-0.7027 J-0.7027 F120.00
G3 X4.3071 Y-33.9452 Z-6.0000 I0.3071 J-0.9452 F120.00
G3 X4.7027 Y-32.2973 Z-6.0000 I-0.3071 J0.9452 F120.00
G0 X4.7027 Y-32.2973 Z6.0000
G0 X5.0574 Y-31.9426 Z6.0000
G0 X5.0574 Y-31.9426 Z-2.0000
G1 X5.0574 Y-31.9426 Z-6.0000 F60.00
G3 X3.5379 Y-31.5778 Z-6.0000 I-1.0574 J-1.0574 F120.00
G3 X4.4621 Y-34.4222 Z-6.0000 I0.4621 J-1.4222 F120.00
G3 X5.0574 Y-31.9426 Z-6.0000 I-0.4621 J1.4222 F120.00
G0 X5.0574 Y-31.9426 Z6.0000
G0 X5.4120 Y-31.5880 Z6.0000
G0 X5.4120 Y-31.5880 Z-2.0000
G1 X5.4120 Y-31.5880 Z-6.0000 F60.00
G3 X3.3829 Y-31.1008 Z-6.0000 I-1.4120 J-1.4120 F120.00
G3 X4.6171 Y-34.8992 Z-6.0000 I0.6171 J-1.8992 F120.00
G3 X5.4120 Y-31.5880 Z-6.0000 I-0.6171 J1.8992 F120.00
G0 Z6.0000
G0 X6.1197 Y-4.8803
G0 Z4.0000
G1 X6.1197 Y-4.8803 Z-1.5000 F60.00
G3 X2.9961 Y-4.1754 Z-1.5000 I-2.1197 J-2.1197 F120.00
G3 X1.1754 Y-8.0039 Z-1.5000 I1.0039 J-2.8246 F120.00
G3 X5.0039 Y-9.8246 Z-1.5000 I2.8246 J1.0039 F120.00
G3 X6.1197 Y-4.8803 Z-1.5000 I-1.0039 J2.8246 F120.00
G0 X6.1197 Y-4.8803 Z6.0000
G0 X4.7021 Y-6.2979 Z6.0000
G0 X4.7021 Y-6.2979 Z2.5000
G1 X4.7021 Y-6.2979 Z-1.5000 F60.00
G3 X3.6675 Y-6.0643 Z-1.5000 I-0.7021 J-0.7021 F120.00
G3 X3.0643 Y-7.3325 Z-1.5000 I0.3325 J-0.9357 F120.00
G3 X4.3325 Y-7.9357 Z-1.5000 I0.9357 J0.3325 F120.00
G3 X4.7021 Y-6.2979 Z-1.5000 I-0.3325 J0.9357 F120.00
G0 X4.7021 Y-6.2979 Z6.0000
G0 X4.3478 Y-6.6522 Z6.0000
G0 X4.3478 Y-6.6522 Z2.5000
G1 X4.3478 Y-6.6522 Z-1.5000 F60.00
G3 X3.8353 Y-6.5366 Z-1.5000 I-0.3478 J-0.3478 F120.00
G3 X3.5366 Y-7.1647 Z-1.5000 I0.1647 J-0.4634 F120.00
G3 X4.1647 Y-7.4634 Z-1.5000 I0.4634 J0.1647 F120.00
G3 X4.3478 Y-6.6522 Z-1.5000 I-0.1647 J0.4634 F120.00
G1 X4.3478 Y-6.6522 Z-2.5000 F60.00
G3 X3.8353 Y-6.5366 Z-2.5000 I-0.3478 J-0.3478 F120.00
G3 X3.5366 Y-7.1647 Z-2.5000 I0.1647 J-0.4634 F120.00
G3 X4.1647 Y-7.4634 Z-2.5000 I0.4634 J0.1647 F120.00
G3 X4.3478 Y-6.6522 Z-2.5000 I-0.1647 J0.4634 F120.00
G0 X4.3478 Y-6.6522 Z6.0000
G0 X4.7021 Y-6.2979 Z6.0000
G0 X4.7021 Y-6.2979 Z1.5000
G1 X4.7021 Y-6.2979 Z-2.5000 F60.00
G3 X3.6675 Y-6.0643 Z-2.5000 I-0.7021 J-0.7021 F120.00
G3 X3.0643 Y-7.3325 Z-2.5000 I0.3325 J-0.9357 F120.00
G3 X4.3325 Y-7.9357 Z-2.5000 I0.9357 J0.3325 F120.00
G3 X4.7021 Y-6.2979 Z-2.5000 I-0.3325 J0.9357 F120.00
G0 X4.7021 Y-6.2979 Z6.0000
G0 X6.1197 Y-4.8803 Z6.0000
G0 X6.1197 Y-4.8803 Z1.5000
G1 X6.1197 Y-4.8803 Z-2.5000 F60.00
G3 X2.9961 Y-4.1754 Z-2.5000 I-2.1197 J-2.1197 F120.00
G3 X1.1754 Y-8.0039 Z-2.5000 I1.0039 J-2.8246 F120.00
G3 X5.0039 Y-9.8246 Z-2.5000 I2.8246 J1.0039 F120.00
G3 X6.1197 Y-4.8803 Z-2.5000 I-1.0039 J2.8246 F120.00
G1 X6.1197 Y-4.8803 Z-3.5000 F60.00
G3 X2.9961 Y-4.1754 Z-3.5000 I-2.1197 J-2.1197 F120.00
G3 X1.1754 Y-8.0039 Z-3.5000 I1.0039 J-2.8246 F120.00
G3 X5.0039 Y-9.8246 Z-3.5000 I2.8246 J1.0039 F120.00
G3 X6.1197 Y-4.8803 Z-3.5000 I-1.0039 J2.8246 F120.00
G0 X6.1197 Y-4.8803 Z6.0000
G0 X4.7021 Y-6.2979 Z6.0000
G0 X4.7021 Y-6.2979 Z0.5000
G1 X4.7021 Y-6.2979 Z-3.5000 F60.00
G3 X3.6675 Y-6.0643 Z-3.5000 I-0.7021 J-0.7021 F120.00
G3 X3.0643 Y-7.3325 Z-3.5000 I0.3325 J-0.9357 F120.00
G3 X4.3325 Y-7.9357 Z-3.5000 I0.9357 J0.3325 F120.00
G3 X4.7021 Y-6.2979 Z-3.5000 I-0.3325 J0.9357 F120.00
G0 X4.7021 Y-6.2979 Z6.0000
G0 X4.3478 Y-6.6522 Z6.0000
G0 X4.3478 Y-6.6522 Z0.5000
G1 X4.3478 Y-6.6522 Z-3.5000 F60.00
G3 X3.8353 Y-6.5366 Z-3.5000 I-0.3478 J-0.3478 F120.00
G3 X3.5366 Y-7.1647 Z-3.5000 I0.1647 J-0.4634 F120.00
G3 X4.1647 Y-7.4634 Z-3.5000 I0.4634 J0.1647 F120.00
G3 X4.3478 Y-6.6522 Z-3.5000 I-0.1647 J0.4634 F120.00
G1 X4.3478 Y-6.6522 Z-4.5000 F60.00
G3 X3.8353 Y-6.5366 Z-4.5000 I-0.3478 J-0.3478 F120.00
G3 X3.5366 Y-7.1647 Z-4.5000 I0.1647 J-0.4634 F120.00
G3 X4.1647 Y-7.4634 Z-4.5000 I0.4634 J0.1647 F120.00
G3 X4.3478 Y-6.6522 Z-4.5000 I-0.1647 J0.4634 F120.00
G0 X4.3478 Y-6.6522 Z6.0000
G0 X4.7021 Y-6.2979 Z6.0000
G0 X4.7021 Y-6.2979 Z-0.5000
G1 X4.7021 Y-6.2979 Z-4.5000 F60.00
G3 X3.6675 Y-6.0643 Z-4.5000 I-0.7021 J-0.7021 F120.00
G3 X3.0643 Y-7.3325 Z-4.5000 I0.3325 J-0.9357 F120.00
G3 X4.3325 Y-7.9357 Z-4.5000 I0.9357 J0.3325 F120.00
G3 X4.7021 Y-6.2979 Z-4.5000 I-0.3325 J0.9357 F120.00
G0 X4.7021 Y-6.2979 Z6.0000
G0 X6.1197 Y-4.8803 Z6.0000
G0 X6.1197 Y-4.8803 Z-0.5000
G1 X6.1197 Y-4.8803 Z-4.5000 F60.00
G3 X2.9961 Y-4.1754 Z-4.5000 I-2.1197 J-2.1197 F120.00
G3 X1.1754 Y-8.0039 Z-4.5000 I1.0039 J-2.8246 F120.00
G3 X5.0039 Y-9.8246 Z-4.5000 I2.8246 J1.0039 F120.00
G3 X6.1197 Y-4.8803 Z-4.5000 I-1.0039 J2.8246 F120.00
G1 X6.1197 Y-4.8803 Z-5.5000 F60.00
G3 X2.9961 Y-4.1754 Z-5.5000 I-2.1197 J-2.1197 F120.00
G3 X1.1754 Y-8.0039 Z-5.5000 I1.0039 J-2.8246 F120.00
G3 X5.0039 Y-9.8246 Z-5.5000 I2.8246 J1.0039 F120.00
G3 X6.1197 Y-4.8803 Z-5.5000 I-1.0039 J2.8246 F120.00
G0 X6.1197 Y-4.8803 Z6.0000
G0 X4.7021 Y-6.2979 Z6.0000
G0 X4.7021 Y-6.2979 Z-1.5000
G1 X4.7021 Y-6.2979 Z-5.5000 F60.00
G3 X3.6675 Y-6.0643 Z-5.5000 I-0.7021 J-0.7021 F120.00
G3 X3.0643 Y-7.3325 Z-5.5000 I0.3325 J-0.9357 F120.00
G3 X4.3325 Y-7.9357 Z-5.5000 I0.9357 J0.3325 F120.00
G3 X4.7021 Y-6.2979 Z-5.5000 I-0.3325 J0.9357 F120.00
G0 X4.7021 Y-6.2979 Z6.0000
G0 X4.3478 Y-6.6522 Z6.0000
G0 X4.3478 Y-6.6522 Z-1.5000
G1 X4.3478 Y-6.6522 Z-5.5000 F60.00
G3 X3.8353 Y-6.5366 Z-5.5000 I-0.3478 J-0.3478 F120.00
G3 X3.5366 Y-7.1647 Z-5.5000 I0.1647 J-0.4634 F120.00
G3 X4.1647 Y-7.4634 Z-5.5000 I0.4634 J0.1647 F120.00
G3 X4.3478 Y-6.6522 Z-5.5000 I-0.1647 J0.4634 F120.00
G1 X4.3478 Y-6.6522 Z-6.0000 F60.00
G3 X3.8353 Y-6.5366 Z-6.0000 I-0.3478 J-0.3478 F120.00
G3 X3.5366 Y-7.1647 Z-6.0000 I0.1647 J-0.4634 F120.00
G3 X4.1647 Y-7.4634 Z-6.0000 I0.4634 J0.1647 F120.00
G3 X4.3478 Y-6.6522 Z-6.0000 I-0.1647 J0.4634 F120.00
G0 X4.3478 Y-6.6522 Z6.0000
G0 X4.7021 Y-6.2979 Z6.0000
G0 X4.7021 Y-6.2979 Z-2.0000
G1 X4.7021 Y-6.2979 Z-6.0000 F60.00
G3 X3.6675 Y-6.0643 Z-6.0000 I-0.7021 J-0.7021 F120.00
G3 X3.0643 Y-7.3325 Z-6.0000 I0.3325 J-0.9357 F120.00
G3 X4.3325 Y-7.9357 Z-6.0000 I0.9357 J0.3325 F120.00
G3 X4.7021 Y-6.2979 Z-6.0000 I-0.3325 J0.9357 F120.00
G0 X4.7021 Y-6.2979 Z6.0000
G0 X6.1197 Y-4.8803 Z6.0000
G0 X6.1197 Y-4.8803 Z-2.0000
G1 X6.1197 Y-4.8803 Z-6.0000 F60.00
G3 X2.9961 Y-4.1754 Z-6.0000 I-2.1197 J-2.1197 F120.00
G3 X1.1754 Y-8.0039 Z-6.0000 I1.0039 J-2.8246 F120.00
G3 X5.0039 Y-9.8246 Z-6.0000 I2.8246 J1.0039 F120.00
G3 X6.1197 Y-4.8803 Z-6.0000 I-1.0039 J2.8246 F120.00
G0 Z6.0000
(finish operation: Pocket_Shape)
(begin operation: Pocket_Shape001)
(Path: Pocket_Shape001)
(Pocket_Shape001)
G0 Z6.0000
G0 X4.8809 Y-116.1191
G0 Z4.0000
G1 X4.8809 Y-116.1191 Z-6.0000 F60.00
G3 X3.4447 Y-115.8849 Z-6.0000 I-0.8809 J-0.8809 F120.00
G3 X4.5553 Y-118.1151 Z-6.0000 I0.5553 J-1.1151 F120.00
G3 X4.8809 Y-116.1191 Z-6.0000 I-0.5553 J1.1151 F120.00
G0 X4.8809 Y-116.1191 Z6.0000
G0 X4.5258 Y-116.4742 Z6.0000
G0 X4.5258 Y-116.4742 Z-2.0000
G1 X4.5258 Y-116.4742 Z-6.0000 F60.00
G3 X3.6686 Y-116.3344 Z-6.0000 I-0.5258 J-0.5258 F120.00
G3 X4.3314 Y-117.6656 Z-6.0000 I0.3314 J-0.6656 F120.00
G3 X4.5258 Y-116.4742 Z-6.0000 I-0.3314 J0.6656 F120.00
G0 X4.5258 Y-116.4742 Z6.0000
G0 X4.1707 Y-116.8293 Z6.0000
G0 X4.1707 Y-116.8293 Z-2.0000
G1 X4.1707 Y-116.8293 Z-6.0000 F60.00
G3 X3.8924 Y-116.7839 Z-6.0000 I-0.1707 J-0.1707 F120.00
G3 X4.1076 Y-117.2161 Z-6.0000 I0.1076 J-0.2161 F120.00
G3 X4.1707 Y-116.8293 Z-6.0000 I-0.1076 J0.2161 F120.00
G1 X4.1707 Y-116.8293 Z-7.0000 F60.00
G3 X3.8924 Y-116.7839 Z-7.0000 I-0.1707 J-0.1707 F120.00
G3 X4.1076 Y-117.2161 Z-7.0000 I0.1076 J-0.2161 F120.00
G3 X4.1707 Y-116.8293 Z-7.0000 I-0.1076 J0.2161 F120.00
G0 X4.1707 Y-116.8293 Z6.0000
G0 X4.5258 Y-116.4742 Z6.0000
G0 X4.5258 Y-116.4742 Z-3.0000
G1 X4.5258 Y-116.4742 Z-7.0000 F60.00
G3 X3.6686 Y-116.3344 Z-7.0000 I-0.5258 J-0.5258 F120.00
G3 X4.3314 Y-117.6656 Z-7.0000 I0.3314 J-0.6656 F120.00
G3 X4.5258 Y-116.4742 Z-7.0000 I-0.3314 J0.6656 F120.00
G0 X4.5258 Y-116.4742 Z6.0000
G0 X4.8809 Y-116.1191 Z6.0000
G0 X4.8809 Y-116.1191 Z-3.0000
G1 X4.8809 Y-116.1191 Z-7.0000 F60.00
G3 X3.4447 Y-115.8849 Z-7.0000 I-0.8809 J-0.8809 F120.00
G3 X4.5553 Y-118.1151 Z-7.0000 I0.5553 J-1.1151 F120.00
G3 X4.8809 Y-116.1191 Z-7.0000 I-0.5553 J1.1151 F120.00
G0 X4.8809 Y-116.1191 Z6.0000
G0 X4.5258 Y-116.4742 Z6.0000
G0 X4.5258 Y-116.4742 Z-4.0000
G1 X4.5258 Y-116.4742 Z-8.0000 F60.00
G3 X3.6686 Y-116.3344 Z-8.0000 I-0.5258 J-0.5258 F120.00
G3 X4.3314 Y-117.6656 Z-8.0000 I0.3314 J-0.6656 F120.00
G3 X4.5258 Y-116.4742 Z-8.0000 I-0.3314 J0.6656 F120.00
G0 X4.5258 Y-116.4742 Z6.0000
G0 X4.8809 Y-116.1191 Z6.0000
G0 X4.8809 Y-116.1191 Z-4.0000
G1 X4.8809 Y-116.1191 Z-8.0000 F60.00
G3 X3.4447 Y-115.8849 Z-8.0000 I-0.8809 J-0.8809 F120.00
G3 X4.5553 Y-118.1151 Z-8.0000 I0.5553 J-1.1151 F120.00
G3 X4.8809 Y-116.1191 Z-8.0000 I-0.5553 J1.1151 F120.00
G0 X4.8809 Y-116.1191 Z6.0000
G0 X4.1707 Y-116.8293 Z6.0000
G0 X4.1707 Y-116.8293 Z-4.0000
G1 X4.1707 Y-116.8293 Z-8.0000 F60.00
G3 X3.8924 Y-116.7839 Z-8.0000 I-0.1707 J-0.1707 F120.00
G3 X4.1076 Y-117.2161 Z-8.0000 I0.1076 J-0.2161 F120.00
G3 X4.1707 Y-116.8293 Z-8.0000 I-0.1076 J0.2161 F120.00
G1 X4.1707 Y-116.8293 Z-9.0000 F60.00
G3 X3.8924 Y-116.7839 Z-9.0000 I-0.1707 J-0.1707 F120.00
G3 X4.1076 Y-117.2161 Z-9.0000 I0.1076 J-0.2161 F120.00
G3 X4.1707 Y-116.8293 Z-9.0000 I-0.1076 J0.2161 F120.00
G0 X4.1707 Y-116.8293 Z6.0000
G0 X4.5258 Y-116.4742 Z6.0000
G0 X4.5258 Y-116.4742 Z-5.0000
G1 X4.5258 Y-116.4742 Z-9.0000 F60.00
G3 X3.6686 Y-116.3344 Z-9.0000 I-0.5258 J-0.5258 F120.00
G3 X4.3314 Y-117.6656 Z-9.0000 I0.3314 J-0.6656 F120.00
G3 X4.5258 Y-116.4742 Z-9.0000 I-0.3314 J0.6656 F120.00
G0 X4.5258 Y-116.4742 Z6.0000
G0 X4.8809 Y-116.1191 Z6.0000
G0 X4.8809 Y-116.1191 Z-5.0000
G1 X4.8809 Y-116.1191 Z-9.0000 F60.00
G3 X3.4447 Y-115.8849 Z-9.0000 I-0.8809 J-0.8809 F120.00
G3 X4.5553 Y-118.1151 Z-9.0000 I0.5553 J-1.1151 F120.00
G3 X4.8809 Y-116.1191 Z-9.0000 I-0.5553 J1.1151 F120.00
G0 X4.8809 Y-116.1191 Z6.0000
G0 X4.5258 Y-116.4742 Z6.0000
G0 X4.5258 Y-116.4742 Z-6.0000
G1 X4.5258 Y-116.4742 Z-10.0000 F60.00
G3 X3.6686 Y-116.3344 Z-10.0000 I-0.5258 J-0.5258 F120.00
G3 X4.3314 Y-117.6656 Z-10.0000 I0.3314 J-0.6656 F120.00
G3 X4.5258 Y-116.4742 Z-10.0000 I-0.3314 J0.6656 F120.00
G0 X4.5258 Y-116.4742 Z6.0000
G0 X4.8809 Y-116.1191 Z6.0000
G0 X4.8809 Y-116.1191 Z-6.0000
G1 X4.8809 Y-116.1191 Z-10.0000 F60.00
G3 X3.4447 Y-115.8849 Z-10.0000 I-0.8809 J-0.8809 F120.00
G3 X4.5553 Y-118.1151 Z-10.0000 I0.5553 J-1.1151 F120.00
G3 X4.8809 Y-116.1191 Z-10.0000 I-0.5553 J1.1151 F120.00
G0 X4.8809 Y-116.1191 Z6.0000
G0 X4.1707 Y-116.8293 Z6.0000
G0 X4.1707 Y-116.8293 Z-6.0000
G1 X4.1707 Y-116.8293 Z-10.0000 F60.00
G3 X3.8924 Y-116.7839 Z-10.0000 I-0.1707 J-0.1707 F120.00
G3 X4.1076 Y-117.2161 Z-10.0000 I0.1076 J-0.2161 F120.00
G3 X4.1707 Y-116.8293 Z-10.0000 I-0.1076 J0.2161 F120.00
G1 X4.1707 Y-116.8293 Z-11.0000 F60.00
G3 X3.8924 Y-116.7839 Z-11.0000 I-0.1707 J-0.1707 F120.00
G3 X4.1076 Y-117.2161 Z-11.0000 I0.1076 J-0.2161 F120.00
G3 X4.1707 Y-116.8293 Z-11.0000 I-0.1076 J0.2161 F120.00
G0 X4.1707 Y-116.8293 Z6.0000
G0 X4.5258 Y-116.4742 Z6.0000
G0 X4.5258 Y-116.4742 Z-7.0000
G1 X4.5258 Y-116.4742 Z-11.0000 F60.00
G3 X3.6686 Y-116.3344 Z-11.0000 I-0.5258 J-0.5258 F120.00
G3 X4.3314 Y-117.6656 Z-11.0000 I0.3314 J-0.6656 F120.00
G3 X4.5258 Y-116.4742 Z-11.0000 I-0.3314 J0.6656 F120.00
G0 X4.5258 Y-116.4742 Z6.0000
G0 X4.8809 Y-116.1191 Z6.0000
G0 X4.8809 Y-116.1191 Z-7.0000
G1 X4.8809 Y-116.1191 Z-11.0000 F60.00
G3 X3.4447 Y-115.8849 Z-11.0000 I-0.8809 J-0.8809 F120.00
G3 X4.5553 Y-118.1151 Z-11.0000 I0.5553 J-1.1151 F120.00
G3 X4.8809 Y-116.1191 Z-11.0000 I-0.5553 J1.1151 F120.00
G0 X4.8809 Y-116.1191 Z6.0000
G0 X4.5258 Y-116.4742 Z6.0000
G0 X4.5258 Y-116.4742 Z-8.0000
G1 X4.5258 Y-116.4742 Z-12.0000 F60.00
G3 X3.6686 Y-116.3344 Z-12.0000 I-0.5258 J-0.5258 F120.00
G3 X4.3314 Y-117.6656 Z-12.0000 I0.3314 J-0.6656 F120.00
G3 X4.5258 Y-116.4742 Z-12.0000 I-0.3314 J0.6656 F120.00
G0 X4.5258 Y-116.4742 Z6.0000
G0 X4.8809 Y-116.1191 Z6.0000
G0 X4.8809 Y-116.1191 Z-8.0000
G1 X4.8809 Y-116.1191 Z-12.0000 F60.00
G3 X3.4447 Y-115.8849 Z-12.0000 I-0.8809 J-0.8809 F120.00
G3 X4.5553 Y-118.1151 Z-12.0000 I0.5553 J-1.1151 F120.00
G3 X4.8809 Y-116.1191 Z-12.0000 I-0.5553 J1.1151 F120.00
G0 X4.8809 Y-116.1191 Z6.0000
G0 X4.1707 Y-116.8293 Z6.0000
G0 X4.1707 Y-116.8293 Z-8.0000
G1 X4.1707 Y-116.8293 Z-12.0000 F60.00
G3 X3.8924 Y-116.7839 Z-12.0000 I-0.1707 J-0.1707 F120.00
G3 X4.1076 Y-117.2161 Z-12.0000 I0.1076 J-0.2161 F120.00
G3 X4.1707 Y-116.8293 Z-12.0000 I-0.1076 J0.2161 F120.00
G0 Z6.0000
G0 X4.2069 Y-90.7931
G0 Z4.0000
G1 X4.2069 Y-90.7931 Z-6.0000 F60.00
G3 X3.8338 Y-90.7591 Z-6.0000 I-0.2069 J-0.2069 F120.00
G3 X3.7591 Y-91.1662 Z-6.0000 I0.1662 J-0.2409 F120.00
G3 X4.1662 Y-91.2409 Z-6.0000 I0.2409 J0.1662 F120.00
G3 X4.2069 Y-90.7931 Z-6.0000 I-0.1662 J0.2409 F120.00
G1 X4.2069 Y-90.7931 Z-7.0000 F60.00
G3 X3.8338 Y-90.7591 Z-7.0000 I-0.2069 J-0.2069 F120.00
G3 X3.7591 Y-91.1662 Z-7.0000 I0.1662 J-0.2409 F120.00
G3 X4.1662 Y-91.2409 Z-7.0000 I0.2409 J0.1662 F120.00
G3 X4.2069 Y-90.7931 Z-7.0000 I-0.1662 J0.2409 F120.00
G1 X4.2069 Y-90.7931 Z-8.0000 F60.00
G3 X3.8338 Y-90.7591 Z-8.0000 I-0.2069 J-0.2069 F120.00
G3 X3.7591 Y-91.1662 Z-8.0000 I0.1662 J-0.2409 F120.00
G3 X4.1662 Y-91.2409 Z-8.0000 I0.2409 J0.1662 F120.00
G3 X4.2069 Y-90.7931 Z-8.0000 I-0.1662 J0.2409 F120.00
G1 X4.2069 Y-90.7931 Z-9.0000 F60.00
G3 X3.8338 Y-90.7591 Z-9.0000 I-0.2069 J-0.2069 F120.00
G3 X3.7591 Y-91.1662 Z-9.0000 I0.1662 J-0.2409 F120.00
G3 X4.1662 Y-91.2409 Z-9.0000 I0.2409 J0.1662 F120.00
G3 X4.2069 Y-90.7931 Z-9.0000 I-0.1662 J0.2409 F120.00
G1 X4.2069 Y-90.7931 Z-10.0000 F60.00
G3 X3.8338 Y-90.7591 Z-10.0000 I-0.2069 J-0.2069 F120.00
G3 X3.7591 Y-91.1662 Z-10.0000 I0.1662 J-0.2409 F120.00
G3 X4.1662 Y-91.2409 Z-10.0000 I0.2409 J0.1662 F120.00
G3 X4.2069 Y-90.7931 Z-10.0000 I-0.1662 J0.2409 F120.00
G1 X4.2069 Y-90.7931 Z-11.0000 F60.00
G3 X3.8338 Y-90.7591 Z-11.0000 I-0.2069 J-0.2069 F120.00
G3 X3.7591 Y-91.1662 Z-11.0000 I0.1662 J-0.2409 F120.00
G3 X4.1662 Y-91.2409 Z-11.0000 I0.2409 J0.1662 F120.00
G3 X4.2069 Y-90.7931 Z-11.0000 I-0.1662 J0.2409 F120.00
G1 X4.2069 Y-90.7931 Z-12.0000 F60.00
G3 X3.8338 Y-90.7591 Z-12.0000 I-0.2069 J-0.2069 F120.00
G3 X3.7591 Y-91.1662 Z-12.0000 I0.1662 J-0.2409 F120.00
G3 X4.1662 Y-91.2409 Z-12.0000 I0.2409 J0.1662 F120.00
G3 X4.2069 Y-90.7931 Z-12.0000 I-0.1662 J0.2409 F120.00
G0 Z6.0000
G0 X4.2069 Y-61.7931
G0 Z4.0000
G1 X4.2069 Y-61.7931 Z-6.0000 F60.00
G3 X3.7409 Y-62.1360 Z-6.0000 I-0.2069 J-0.2069 F120.00
G3 X4.2591 Y-61.8640 Z-6.0000 I0.2591 J0.1360 F120.00
G3 X4.2069 Y-61.7931 Z-6.0000 I-0.2591 J-0.1360 F120.00
G1 X4.2069 Y-61.7931 Z-7.0000 F60.00
G3 X3.7409 Y-62.1360 Z-7.0000 I-0.2069 J-0.2069 F120.00
G3 X4.2591 Y-61.8640 Z-7.0000 I0.2591 J0.1360 F120.00
G3 X4.2069 Y-61.7931 Z-7.0000 I-0.2591 J-0.1360 F120.00
G1 X4.2069 Y-61.7931 Z-8.0000 F60.00
G3 X3.7409 Y-62.1360 Z-8.0000 I-0.2069 J-0.2069 F120.00
G3 X4.2591 Y-61.8640 Z-8.0000 I0.2591 J0.1360 F120.00
G3 X4.2069 Y-61.7931 Z-8.0000 I-0.2591 J-0.1360 F120.00
G1 X4.2069 Y-61.7931 Z-9.0000 F60.00
G3 X3.7409 Y-62.1360 Z-9.0000 I-0.2069 J-0.2069 F120.00
G3 X4.2591 Y-61.8640 Z-9.0000 I0.2591 J0.1360 F120.00
G3 X4.2069 Y-61.7931 Z-9.0000 I-0.2591 J-0.1360 F120.00
G1 X4.2069 Y-61.7931 Z-10.0000 F60.00
G3 X3.7409 Y-62.1360 Z-10.0000 I-0.2069 J-0.2069 F120.00
G3 X4.2591 Y-61.8640 Z-10.0000 I0.2591 J0.1360 F120.00
G3 X4.2069 Y-61.7931 Z-10.0000 I-0.2591 J-0.1360 F120.00
G1 X4.2069 Y-61.7931 Z-11.0000 F60.00
G3 X3.7409 Y-62.1360 Z-11.0000 I-0.2069 J-0.2069 F120.00
G3 X4.2591 Y-61.8640 Z-11.0000 I0.2591 J0.1360 F120.00
G3 X4.2069 Y-61.7931 Z-11.0000 I-0.2591 J-0.1360 F120.00
G1 X4.2069 Y-61.7931 Z-12.0000 F60.00
G3 X3.7409 Y-62.1360 Z-12.0000 I-0.2069 J-0.2069 F120.00
G3 X4.2591 Y-61.8640 Z-12.0000 I0.2591 J0.1360 F120.00
G3 X4.2069 Y-61.7931 Z-12.0000 I-0.2591 J-0.1360 F120.00
G0 Z6.0000
G0 X4.2069 Y-32.7931
G0 Z4.0000
G1 X4.2069 Y-32.7931 Z-6.0000 F60.00
G3 X3.8338 Y-32.7591 Z-6.0000 I-0.2069 J-0.2069 F120.00
G3 X3.7591 Y-33.1662 Z-6.0000 I0.1662 J-0.2409 F120.00
G3 X4.1662 Y-33.2409 Z-6.0000 I0.2409 J0.1662 F120.00
G3 X4.2069 Y-32.7931 Z-6.0000 I-0.1662 J0.2409 F120.00
G1 X4.2069 Y-32.7931 Z-7.0000 F60.00
G3 X3.8338 Y-32.7591 Z-7.0000 I-0.2069 J-0.2069 F120.00
G3 X3.7591 Y-33.1662 Z-7.0000 I0.1662 J-0.2409 F120.00
G3 X4.1662 Y-33.2409 Z-7.0000 I0.2409 J0.1662 F120.00
G3 X4.2069 Y-32.7931 Z-7.0000 I-0.1662 J0.2409 F120.00
G1 X4.2069 Y-32.7931 Z-8.0000 F60.00
G3 X3.8338 Y-32.7591 Z-8.0000 I-0.2069 J-0.2069 F120.00
G3 X3.7591 Y-33.1662 Z-8.0000 I0.1662 J-0.2409 F120.00
G3 X4.1662 Y-33.2409 Z-8.0000 I0.2409 J0.1662 F120.00
G3 X4.2069 Y-32.7931 Z-8.0000 I-0.1662 J0.2409 F120.00
G1 X4.2069 Y-32.7931 Z-9.0000 F60.00
G3 X3.8338 Y-32.7591 Z-9.0000 I-0.2069 J-0.2069 F120.00
G3 X3.7591 Y-33.1662 Z-9.0000 I0.1662 J-0.2409 F120.00
G3 X4.1662 Y-33.2409 Z-9.0000 I0.2409 J0.1662 F120.00
G3 X4.2069 Y-32.7931 Z-9.0000 I-0.1662 J0.2409 F120.00
G1 X4.2069 Y-32.7931 Z-10.0000 F60.00
G3 X3.8338 Y-32.7591 Z-10.0000 I-0.2069 J-0.2069 F120.00
G3 X3.7591 Y-33.1662 Z-10.0000 I0.1662 J-0.2409 F120.00
G3 X4.1662 Y-33.2409 Z-10.0000 I0.2409 J0.1662 F120.00
G3 X4.2069 Y-32.7931 Z-10.0000 I-0.1662 J0.2409 F120.00
G1 X4.2069 Y-32.7931 Z-11.0000 F60.00
G3 X3.8338 Y-32.7591 Z-11.0000 I-0.2069 J-0.2069 F120.00
G3 X3.7591 Y-33.1662 Z-11.0000 I0.1662 J-0.2409 F120.00
G3 X4.1662 Y-33.2409 Z-11.0000 I0.2409 J0.1662 F120.00
G3 X4.2069 Y-32.7931 Z-11.0000 I-0.1662 J0.2409 F120.00
G1 X4.2069 Y-32.7931 Z-12.0000 F60.00
G3 X3.8338 Y-32.7591 Z-12.0000 I-0.2069 J-0.2069 F120.00
G3 X3.7591 Y-33.1662 Z-12.0000 I0.1662 J-0.2409 F120.00
G3 X4.1662 Y-33.2409 Z-12.0000 I0.2409 J0.1662 F120.00
G3 X4.2069 Y-32.7931 Z-12.0000 I-0.1662 J0.2409 F120.00
G0 Z6.0000
G0 X4.8809 Y-6.1191
G0 Z4.0000
G1 X4.8809 Y-6.1191 Z-6.0000 F60.00
G3 X3.4447 Y-5.8849 Z-6.0000 I-0.8809 J-0.8809 F120.00
G3 X4.5553 Y-8.1151 Z-6.0000 I0.5553 J-1.1151 F120.00
G3 X4.8809 Y-6.1191 Z-6.0000 I-0.5553 J1.1151 F120.00
G0 X4.8809 Y-6.1191 Z6.0000
G0 X4.5258 Y-6.4742 Z6.0000
G0 X4.5258 Y-6.4742 Z-2.0000
G1 X4.5258 Y-6.4742 Z-6.0000 F60.00
G3 X3.6686 Y-6.3344 Z-6.0000 I-0.5258 J-0.5258 F120.00
G3 X4.3314 Y-7.6656 Z-6.0000 I0.3314 J-0.6656 F120.00
G3 X4.5258 Y-6.4742 Z-6.0000 I-0.3314 J0.6656 F120.00
G0 X4.5258 Y-6.4742 Z6.0000
G0 X4.1707 Y-6.8293 Z6.0000
G0 X4.1707 Y-6.8293 Z-2.0000
G1 X4.1707 Y-6.8293 Z-6.0000 F60.00
G3 X3.8924 Y-6.7839 Z-6.0000 I-0.1707 J-0.1707 F120.00
G3 X4.1076 Y-7.2161 Z-6.0000 I0.1076 J-0.2161 F120.00
G3 X4.1707 Y-6.8293 Z-6.0000 I-0.1076 J0.2161 F120.00
G1 X4.1707 Y-6.8293 Z-7.0000 F60.00
G3 X3.8924 Y-6.7839 Z-7.0000 I-0.1707 J-0.1707 F120.00
G3 X4.1076 Y-7.2161 Z-7.0000 I0.1076 J-0.2161 F120.00
G3 X4.1707 Y-6.8293 Z-7.0000 I-0.1076 J0.2161 F120.00
G0 X4.1707 Y-6.8293 Z6.0000
G0 X4.5258 Y-6.4742 Z6.0000
G0 X4.5258 Y-6.4742 Z-3.0000
G1 X4.5258 Y-6.4742 Z-7.0000 F60.00
G3 X3.6686 Y-6.3344 Z-7.0000 I-0.5258 J-0.5258 F120.00
G3 X4.3314 Y-7.6656 Z-7.0000 I0.3314 J-0.6656 F120.00
G3 X4.5258 Y-6.4742 Z-7.0000 I-0.3314 J0.6656 F120.00
G0 X4.5258 Y-6.4742 Z6.0000
G0 X4.8809 Y-6.1191 Z6.0000
G0 X4.8809 Y-6.1191 Z-3.0000
G1 X4.8809 Y-6.1191 Z-7.0000 F60.00
G3 X3.4447 Y-5.8849 Z-7.0000 I-0.8809 J-0.8809 F120.00
G3 X4.5553 Y-8.1151 Z-7.0000 I0.5553 J-1.1151 F120.00
G3 X4.8809 Y-6.1191 Z-7.0000 I-0.5553 J1.1151 F120.00
G0 X4.8809 Y-6.1191 Z6.0000
G0 X4.5258 Y-6.4742 Z6.0000
G0 X4.5258 Y-6.4742 Z-4.0000
G1 X4.5258 Y-6.4742 Z-8.0000 F60.00
G3 X3.6686 Y-6.3344 Z-8.0000 I-0.5258 J-0.5258 F120.00
G3 X4.3314 Y-7.6656 Z-8.0000 I0.3314 J-0.6656 F120.00
G3 X4.5258 Y-6.4742 Z-8.0000 I-0.3314 J0.6656 F120.00
G0 X4.5258 Y-6.4742 Z6.0000
G0 X4.8809 Y-6.1191 Z6.0000
G0 X4.8809 Y-6.1191 Z-4.0000
G1 X4.8809 Y-6.1191 Z-8.0000 F60.00
G3 X3.4447 Y-5.8849 Z-8.0000 I-0.8809 J-0.8809 F120.00
G3 X4.5553 Y-8.1151 Z-8.0000 I0.5553 J-1.1151 F120.00
G3 X4.8809 Y-6.1191 Z-8.0000 I-0.5553 J1.1151 F120.00
G0 X4.8809 Y-6.1191 Z6.0000
G0 X4.1707 Y-6.8293 Z6.0000
G0 X4.1707 Y-6.8293 Z-4.0000
G1 X4.1707 Y-6.8293 Z-8.0000 F60.00
G3 X3.8924 Y-6.7839 Z-8.0000 I-0.1707 J-0.1707 F120.00
G3 X4.1076 Y-7.2161 Z-8.0000 I0.1076 J-0.2161 F120.00
G3 X4.1707 Y-6.8293 Z-8.0000 I-0.1076 J0.2161 F120.00
G1 X4.1707 Y-6.8293 Z-9.0000 F60.00
G3 X3.8924 Y-6.7839 Z-9.0000 I-0.1707 J-0.1707 F120.00
G3 X4.1076 Y-7.2161 Z-9.0000 I0.1076 J-0.2161 F120.00
G3 X4.1707 Y-6.8293 Z-9.0000 I-0.1076 J0.2161 F120.00
G0 X4.1707 Y-6.8293 Z6.0000
G0 X4.5258 Y-6.4742 Z6.0000
G0 X4.5258 Y-6.4742 Z-5.0000
G1 X4.5258 Y-6.4742 Z-9.0000 F60.00
G3 X3.6686 Y-6.3344 Z-9.0000 I-0.5258 J-0.5258 F120.00
G3 X4.3314 Y-7.6656 Z-9.0000 I0.3314 J-0.6656 F120.00
G3 X4.5258 Y-6.4742 Z-9.0000 I-0.3314 J0.6656 F120.00
G0 X4.5258 Y-6.4742 Z6.0000
G0 X4.8809 Y-6.1191 Z6.0000
G0 X4.8809 Y-6.1191 Z-5.0000
G1 X4.8809 Y-6.1191 Z-9.0000 F60.00
G3 X3.4447 Y-5.8849 Z-9.0000 I-0.8809 J-0.8809 F120.00
G3 X4.5553 Y-8.1151 Z-9.0000 I0.5553 J-1.1151 F120.00
G3 X4.8809 Y-6.1191 Z-9.0000 I-0.5553 J1.1151 F120.00
G0 X4.8809 Y-6.1191 Z6.0000
G0 X4.5258 Y-6.4742 Z6.0000
G0 X4.5258 Y-6.4742 Z-6.0000
G1 X4.5258 Y-6.4742 Z-10.0000 F60.00
G3 X3.6686 Y-6.3344 Z-10.0000 I-0.5258 J-0.5258 F120.00
G3 X4.3314 Y-7.6656 Z-10.0000 I0.3314 J-0.6656 F120.00
G3 X4.5258 Y-6.4742 Z-10.0000 I-0.3314 J0.6656 F120.00
G0 X4.5258 Y-6.4742 Z6.0000
G0 X4.8809 Y-6.1191 Z6.0000
G0 X4.8809 Y-6.1191 Z-6.0000
G1 X4.8809 Y-6.1191 Z-10.0000 F60.00
G3 X3.4447 Y-5.8849 Z-10.0000 I-0.8809 J-0.8809 F120.00
G3 X4.5553 Y-8.1151 Z-10.0000 I0.5553 J-1.1151 F120.00
G3 X4.8809 Y-6.1191 Z-10.0000 I-0.5553 J1.1151 F120.00
G0 X4.8809 Y-6.1191 Z6.0000
G0 X4.1707 Y-6.8293 Z6.0000
G0 X4.1707 Y-6.8293 Z-6.0000
G1 X4.1707 Y-6.8293 Z-10.0000 F60.00
G3 X3.8924 Y-6.7839 Z-10.0000 I-0.1707 J-0.1707 F120.00
G3 X4.1076 Y-7.2161 Z-10.0000 I0.1076 J-0.2161 F120.00
G3 X4.1707 Y-6.8293 Z-10.0000 I-0.1076 J0.2161 F120.00
G1 X4.1707 Y-6.8293 Z-11.0000 F60.00
G3 X3.8924 Y-6.7839 Z-11.0000 I-0.1707 J-0.1707 F120.00
G3 X4.1076 Y-7.2161 Z-11.0000 I0.1076 J-0.2161 F120.00
G3 X4.1707 Y-6.8293 Z-11.0000 I-0.1076 J0.2161 F120.00
G0 X4.1707 Y-6.8293 Z6.0000
G0 X4.5258 Y-6.4742 Z6.0000
G0 X4.5258 Y-6.4742 Z-7.0000
G1 X4.5258 Y-6.4742 Z-11.0000 F60.00
G3 X3.6686 Y-6.3344 Z-11.0000 I-0.5258 J-0.5258 F120.00
G3 X4.3314 Y-7.6656 Z-11.0000 I0.3314 J-0.6656 F120.00
G3 X4.5258 Y-6.4742 Z-11.0000 I-0.3314 J0.6656 F120.00
G0 X4.5258 Y-6.4742 Z6.0000
G0 X4.8809 Y-6.1191 Z6.0000
G0 X4.8809 Y-6.1191 Z-7.0000
G1 X4.8809 Y-6.1191 Z-11.0000 F60.00
G3 X3.4447 Y-5.8849 Z-11.0000 I-0.8809 J-0.8809 F120.00
G3 X4.5553 Y-8.1151 Z-11.0000 I0.5553 J-1.1151 F120.00
G3 X4.8809 Y-6.1191 Z-11.0000 I-0.5553 J1.1151 F120.00
G0 X4.8809 Y-6.1191 Z6.0000
G0 X4.5258 Y-6.4742 Z6.0000
G0 X4.5258 Y-6.4742 Z-8.0000
G1 X4.5258 Y-6.4742 Z-12.0000 F60.00
G3 X3.6686 Y-6.3344 Z-12.0000 I-0.5258 J-0.5258 F120.00
G3 X4.3314 Y-7.6656 Z-12.0000 I0.3314 J-0.6656 F120.00
G3 X4.5258 Y-6.4742 Z-12.0000 I-0.3314 J0.6656 F120.00
G0 X4.5258 Y-6.4742 Z6.0000
G0 X4.8809 Y-6.1191 Z6.0000
G0 X4.8809 Y-6.1191 Z-8.0000
G1 X4.8809 Y-6.1191 Z-12.0000 F60.00
G3 X3.4447 Y-5.8849 Z-12.0000 I-0.8809 J-0.8809 F120.00
G3 X4.5553 Y-8.1151 Z-12.0000 I0.5553 J-1.1151 F120.00
G3 X4.8809 Y-6.1191 Z-12.0000 I-0.5553 J1.1151 F120.00
G0 X4.8809 Y-6.1191 Z6.0000
G0 X4.1707 Y-6.8293 Z6.0000
G0 X4.1707 Y-6.8293 Z-8.0000
G1 X4.1707 Y-6.8293 Z-12.0000 F60.00
G3 X3.8924 Y-6.7839 Z-12.0000 I-0.1707 J-0.1707 F120.00
G3 X4.1076 Y-7.2161 Z-12.0000 I0.1076 J-0.2161 F120.00
G3 X4.1707 Y-6.8293 Z-12.0000 I-0.1076 J0.2161 F120.00
G0 Z6.0000
(finish operation: Pocket_Shape001)
(begin postamble)
M5
G17 G90
; M2
