(Exported by FreeCAD)
(Post Processor: grbl_post)
(Output Time:2019-10-06 21:07:19.532202)
(begin preamble)
G17 G90
G21
(begin operation: Default Tool)
(Path: Default Tool)
(Default Tool)
(begin toolchange)
; M6 T1
M3 S800.0000
(finish operation: Default Tool)
(begin operation: TagDressup)
(Path: TagDressup)
G0 Z6.0000
G0 X86.8264 Y-0.1729 Z6.0000
G0 X86.8264 Y-0.1729 Z4.0000
G1 X86.8264 Y-0.1729 Z-1.5000 F120.00
G2 X87.9969 Y-2.9215 Z-1.5000 I-2.8305 J-2.8289 F120.00
G1 X88.0000 Y-87.0000 Z-1.5000 F120.00
G2 X84.0785 Y-90.9969 Z-1.5000 I-4.0018 J0.0041 F120.00
G1 X0.0000 Y-91.0000 Z-1.5000 F120.00
G2 X-3.9969 Y-87.0785 Z-1.5000 I0.0041 J4.0018 F120.00
G1 X-4.0000 Y-3.0000 Z-1.5000 F120.00
G2 X-0.0785 Y0.9969 Z-1.5000 I4.0018 J-0.0041 F120.00
G1 X84.0000 Y1.0000 Z-1.5000 F120.00
G2 X86.8264 Y-0.1729 Z-1.5000 I-0.0041 J-4.0018 F120.00
G1 X86.8264 Y-0.1729 Z-2.5000 F120.00
G2 X87.9969 Y-2.9215 Z-2.5000 I-2.8305 J-2.8289 F120.00
G1 X88.0000 Y-87.0000 Z-2.5000 F120.00
G2 X84.0785 Y-90.9969 Z-2.5000 I-4.0018 J0.0041 F120.00
G1 X0.0000 Y-91.0000 Z-2.5000 F120.00
G2 X-3.9969 Y-87.0785 Z-2.5000 I0.0041 J4.0018 F120.00
G1 X-4.0000 Y-3.0000 Z-2.5000 F120.00
G2 X-0.0785 Y0.9969 Z-2.5000 I4.0018 J-0.0041 F120.00
G1 X84.0000 Y1.0000 Z-2.5000 F120.00
G2 X86.8264 Y-0.1729 Z-2.5000 I-0.0041 J-4.0018 F120.00
G1 X86.8264 Y-0.1729 Z-3.5000 F120.00
G2 X87.9969 Y-2.9215 Z-3.5000 I-2.8305 J-2.8289 F120.00
G1 X88.0000 Y-87.0000 Z-3.5000 F120.00
G2 X84.0785 Y-90.9969 Z-3.5000 I-4.0018 J0.0041 F120.00
G1 X0.0000 Y-91.0000 Z-3.5000 F120.00
G2 X-3.9969 Y-87.0785 Z-3.5000 I0.0041 J4.0018 F120.00
G1 X-4.0000 Y-3.0000 Z-3.5000 F120.00
G2 X-0.0785 Y0.9969 Z-3.5000 I4.0018 J-0.0041 F120.00
G1 X84.0000 Y1.0000 Z-3.5000 F120.00
G2 X86.8264 Y-0.1729 Z-3.5000 I-0.0041 J-4.0018 F120.00
G1 X86.8264 Y-0.1729 Z-4.5000 F120.00
G2 X87.9969 Y-2.9215 Z-4.5000 I-2.8305 J-2.8289 F120.00
G1 X88.0000 Y-87.0000 Z-4.5000 F120.00
G2 X84.0785 Y-90.9969 Z-4.5000 I-4.0018 J0.0041 F120.00
G1 X0.0000 Y-91.0000 Z-4.5000 F120.00
G2 X-3.9969 Y-87.0785 Z-4.5000 I0.0041 J4.0018 F120.00
G1 X-4.0000 Y-3.0000 Z-4.5000 F120.00
G2 X-0.0785 Y0.9969 Z-4.5000 I4.0018 J-0.0041 F120.00
G1 X84.0000 Y1.0000 Z-4.5000 F120.00
G2 X86.8264 Y-0.1729 Z-4.5000 I-0.0041 J-4.0018 F120.00
G1 X86.8264 Y-0.1729 Z-5.5000 F120.00
G2 X87.9969 Y-2.9215 Z-5.5000 I-2.8305 J-2.8289 F120.00
G1 X88.0000 Y-87.0000 Z-5.5000 F120.00
G2 X84.0785 Y-90.9969 Z-5.5000 I-4.0018 J0.0041 F120.00
G1 X0.0000 Y-91.0000 Z-5.5000 F120.00
G2 X-3.9969 Y-87.0785 Z-5.5000 I0.0041 J4.0018 F120.00
G1 X-4.0000 Y-3.0000 Z-5.5000 F120.00
G2 X-0.0785 Y0.9969 Z-5.5000 I4.0018 J-0.0041 F120.00
G1 X84.0000 Y1.0000 Z-5.5000 F120.00
G2 X86.8264 Y-0.1729 Z-5.5000 I-0.0041 J-4.0018 F120.00
G1 X86.8264 Y-0.1729 Z-6.5000 F120.00
G2 X87.9969 Y-2.9215 Z-6.5000 I-2.8305 J-2.8289 F120.00
G1 X88.0000 Y-87.0000 Z-6.5000 F120.00
G2 X84.0785 Y-90.9969 Z-6.5000 I-4.0018 J0.0041 F120.00
G1 X0.0000 Y-91.0000 Z-6.5000 F120.00
G2 X-3.9969 Y-87.0785 Z-6.5000 I0.0041 J4.0018 F120.00
G1 X-4.0000 Y-3.0000 Z-6.5000 F120.00
G2 X-0.0785 Y0.9969 Z-6.5000 I4.0018 J-0.0041 F120.00
G1 X84.0000 Y1.0000 Z-6.5000 F120.00
G2 X86.8264 Y-0.1729 Z-6.5000 I-0.0041 J-4.0018 F120.00
G1 X86.8264 Y-0.1729 Z-7.5000 F120.00
G2 X87.9969 Y-2.9215 Z-7.5000 I-2.8305 J-2.8289 F120.00
G1 X87.9984 Y-44.2633 Z-7.5000 F120.00
G1 X87.9985 Y-44.9608 Z-6.7955 F120.00
G1 X87.9985 Y-45.6583 Z-7.5000 F120.00
G1 X88.0000 Y-87.0000 Z-7.5000 F120.00
G2 X84.0785 Y-90.9969 Z-7.5000 I-4.0018 J0.0041 F120.00
G1 X42.7367 Y-90.9984 Z-7.5000 F120.00
G1 X42.0392 Y-90.9985 Z-6.7955 F120.00
G1 X41.3417 Y-90.9985 Z-7.5000 F120.00
G1 X0.0000 Y-91.0000 Z-7.5000 F120.00
G2 X-3.9969 Y-87.0785 Z-7.5000 I0.0041 J4.0018 F120.00
G1 X-3.9984 Y-45.7367 Z-7.5000 F120.00
G1 X-3.9985 Y-45.0392 Z-6.7955 F120.00
G1 X-3.9985 Y-44.3417 Z-7.5000 F120.00
G1 X-4.0000 Y-3.0000 Z-7.5000 F120.00
G2 X-0.0785 Y0.9969 Z-7.5000 I4.0018 J-0.0041 F120.00
G1 X41.2633 Y0.9984 Z-7.5000 F120.00
G1 X41.9608 Y0.9985 Z-6.7955 F120.00
G1 X42.6583 Y0.9985 Z-7.5000 F120.00
G1 X84.0000 Y1.0000 Z-7.5000 F120.00
G2 X86.8264 Y-0.1729 Z-7.5000 I-0.0041 J-4.0018 F120.00
G1 X86.8264 Y-0.1729 Z-8.5000 F120.00
G2 X87.9969 Y-2.9215 Z-8.5000 I-2.8305 J-2.8289 F120.00
G1 X87.9984 Y-43.2732 Z-8.5000 F120.00
G1 X87.9985 Y-44.9608 Z-6.7955 F120.00
G1 X87.9985 Y-46.6484 Z-8.5000 F120.00
G1 X88.0000 Y-87.0000 Z-8.5000 F120.00
G2 X84.0785 Y-90.9969 Z-8.5000 I-4.0018 J0.0041 F120.00
G1 X43.7268 Y-90.9984 Z-8.5000 F120.00
G1 X42.0392 Y-90.9985 Z-6.7955 F120.00
G1 X40.3516 Y-90.9985 Z-8.5000 F120.00
G1 X0.0000 Y-91.0000 Z-8.5000 F120.00
G2 X-3.9969 Y-87.0785 Z-8.5000 I0.0041 J4.0018 F120.00
G1 X-3.9984 Y-46.7268 Z-8.5000 F120.00
G1 X-3.9985 Y-45.0392 Z-6.7955 F120.00
G1 X-3.9985 Y-43.3516 Z-8.5000 F120.00
G1 X-4.0000 Y-3.0000 Z-8.5000 F120.00
G2 X-0.0785 Y0.9969 Z-8.5000 I4.0018 J-0.0041 F120.00
G1 X40.2732 Y0.9984 Z-8.5000 F120.00
G1 X41.9608 Y0.9985 Z-6.7955 F120.00
G1 X43.6484 Y0.9985 Z-8.5000 F120.00
G1 X84.0000 Y1.0000 Z-8.5000 F120.00
G2 X86.8264 Y-0.1729 Z-8.5000 I-0.0041 J-4.0018 F120.00
G1 X86.8264 Y-0.1729 Z-9.5000 F120.00
G2 X87.9969 Y-2.9215 Z-9.5000 I-2.8305 J-2.8289 F120.00
G1 X87.9984 Y-42.2831 Z-9.5000 F120.00
G1 X87.9985 Y-44.9608 Z-6.7955 F120.00
G1 X87.9986 Y-47.6385 Z-9.5000 F120.00
G1 X88.0000 Y-87.0000 Z-9.5000 F120.00
G2 X84.0785 Y-90.9969 Z-9.5000 I-4.0018 J0.0041 F120.00
G1 X44.7169 Y-90.9984 Z-9.5000 F120.00
G1 X42.0392 Y-90.9985 Z-6.7955 F120.00
G1 X39.3615 Y-90.9986 Z-9.5000 F120.00
G1 X0.0000 Y-91.0000 Z-9.5000 F120.00
G2 X-3.9969 Y-87.0785 Z-9.5000 I0.0041 J4.0018 F120.00
G1 X-3.9984 Y-47.7169 Z-9.5000 F120.00
G1 X-3.9985 Y-45.0392 Z-6.7955 F120.00
G1 X-3.9986 Y-42.3615 Z-9.5000 F120.00
G1 X-4.0000 Y-3.0000 Z-9.5000 F120.00
G2 X-0.0785 Y0.9969 Z-9.5000 I4.0018 J-0.0041 F120.00
G1 X39.2831 Y0.9984 Z-9.5000 F120.00
G1 X41.9608 Y0.9985 Z-6.7955 F120.00
G1 X44.6385 Y0.9986 Z-9.5000 F120.00
G1 X84.0000 Y1.0000 Z-9.5000 F120.00
G2 X86.8264 Y-0.1729 Z-9.5000 I-0.0041 J-4.0018 F120.00
G1 X86.8264 Y-0.1729 Z-10.5000 F120.00
G2 X87.9969 Y-2.9215 Z-10.5000 I-2.8305 J-2.8289 F120.00
G1 X87.9983 Y-41.2930 Z-10.5000 F120.00
G1 X87.9985 Y-44.9608 Z-6.7955 F120.00
G1 X87.9986 Y-48.6286 Z-10.5000 F120.00
G1 X88.0000 Y-87.0000 Z-10.5000 F120.00
G2 X84.0785 Y-90.9969 Z-10.5000 I-4.0018 J0.0041 F120.00
G1 X45.7070 Y-90.9983 Z-10.5000 F120.00
G1 X42.0392 Y-90.9985 Z-6.7955 F120.00
G1 X38.3714 Y-90.9986 Z-10.5000 F120.00
G1 X0.0000 Y-91.0000 Z-10.5000 F120.00
G2 X-3.9969 Y-87.0785 Z-10.5000 I0.0041 J4.0018 F120.00
G1 X-3.9983 Y-48.7070 Z-10.5000 F120.00
G1 X-3.9985 Y-45.0392 Z-6.7955 F120.00
G1 X-3.9986 Y-41.3714 Z-10.5000 F120.00
G1 X-4.0000 Y-3.0000 Z-10.5000 F120.00
G2 X-0.0785 Y0.9969 Z-10.5000 I4.0018 J-0.0041 F120.00
G1 X38.2930 Y0.9983 Z-10.5000 F120.00
G1 X41.9608 Y0.9985 Z-6.7955 F120.00
G1 X45.6286 Y0.9986 Z-10.5000 F120.00
G1 X84.0000 Y1.0000 Z-10.5000 F120.00
G2 X86.8264 Y-0.1729 Z-10.5000 I-0.0041 J-4.0018 F120.00
G1 X86.8264 Y-0.1729 Z-11.5000 F120.00
G2 X87.9969 Y-2.9215 Z-11.5000 I-2.8305 J-2.8289 F120.00
G1 X87.9983 Y-40.3029 Z-11.5000 F120.00
G1 X87.9985 Y-44.9608 Z-6.7955 F120.00
G1 X87.9986 Y-49.6187 Z-11.5000 F120.00
G1 X88.0000 Y-87.0000 Z-11.5000 F120.00
G2 X84.0785 Y-90.9969 Z-11.5000 I-4.0018 J0.0041 F120.00
G1 X46.6971 Y-90.9983 Z-11.5000 F120.00
G1 X42.0392 Y-90.9985 Z-6.7955 F120.00
G1 X37.3813 Y-90.9986 Z-11.5000 F120.00
G1 X0.0000 Y-91.0000 Z-11.5000 F120.00
G2 X-3.9969 Y-87.0785 Z-11.5000 I0.0041 J4.0018 F120.00
G1 X-3.9983 Y-49.6971 Z-11.5000 F120.00
G1 X-3.9985 Y-45.0392 Z-6.7955 F120.00
G1 X-3.9986 Y-40.3813 Z-11.5000 F120.00
G1 X-4.0000 Y-3.0000 Z-11.5000 F120.00
G2 X-0.0785 Y0.9969 Z-11.5000 I4.0018 J-0.0041 F120.00
G1 X37.3029 Y0.9983 Z-11.5000 F120.00
G1 X41.9608 Y0.9985 Z-6.7955 F120.00
G1 X46.6187 Y0.9986 Z-11.5000 F120.00
G1 X84.0000 Y1.0000 Z-11.5000 F120.00
G2 X86.8264 Y-0.1729 Z-11.5000 I-0.0041 J-4.0018 F120.00
G1 X86.8264 Y-0.1729 Z-12.0000 F120.00
G2 X87.9969 Y-2.9215 Z-12.0000 I-2.8305 J-2.8289 F120.00
G1 X87.9983 Y-39.8078 Z-12.0000 F120.00
G1 X87.9985 Y-44.9608 Z-6.7955 F120.00
G1 X87.9986 Y-50.1137 Z-12.0000 F120.00
G1 X88.0000 Y-87.0000 Z-12.0000 F120.00
G2 X84.0785 Y-90.9969 Z-12.0000 I-4.0018 J0.0041 F120.00
G1 X47.1922 Y-90.9983 Z-12.0000 F120.00
G1 X42.0392 Y-90.9985 Z-6.7955 F120.00
G1 X36.8863 Y-90.9986 Z-12.0000 F120.00
G1 X0.0000 Y-91.0000 Z-12.0000 F120.00
G2 X-3.9969 Y-87.0785 Z-12.0000 I0.0041 J4.0018 F120.00
G1 X-3.9983 Y-50.1922 Z-12.0000 F120.00
G1 X-3.9985 Y-45.0392 Z-6.7955 F120.00
G1 X-3.9986 Y-39.8863 Z-12.0000 F120.00
G1 X-4.0000 Y-3.0000 Z-12.0000 F120.00
G2 X-0.0785 Y0.9969 Z-12.0000 I4.0018 J-0.0041 F120.00
G1 X36.8078 Y0.9983 Z-12.0000 F120.00
G1 X41.9608 Y0.9985 Z-6.7955 F120.00
G1 X47.1137 Y0.9986 Z-12.0000 F120.00
G1 X84.0000 Y1.0000 Z-12.0000 F120.00
G2 X86.8264 Y-0.1729 Z-12.0000 I-0.0041 J-4.0018 F120.00
G0 X86.8264 Y-0.1729 Z6.0000
(finish operation: TagDressup)
(begin operation: Pocket_Shape)
(Path: Pocket_Shape)
(Pocket_Shape)
G0 Z6.0000
G0 X71.0000 Y-1.0000
G0 Z4.0000
G1 X71.0000 Y-1.0000 Z-1.5000 F60.00
G1 X71.0000 Y-36.9607 Z-1.5000 F120.00
G2 X68.9607 Y-39.0000 Z-1.5000 I-2.0081 J-0.0312 F120.00
G1 X15.0393 Y-39.0000 Z-1.5000 F120.00
G2 X13.0000 Y-36.9607 Z-1.5000 I-0.0312 J2.0081 F120.00
G1 X13.0000 Y-1.0000 Z-1.5000 F120.00
G1 X71.0000 Y-1.0000 Z-1.5000 F120.00
G0 X71.0000 Y-1.0000 Z6.0000
G0 X70.4120 Y-38.4120 Z6.0000
G0 X70.4120 Y-38.4120 Z2.5000
G1 X70.4120 Y-38.4120 Z-1.5000 F60.00
G3 X71.0000 Y-36.9607 Z-1.5000 I-1.4351 J1.4262 F120.00
G1 X71.0000 Y-34.9956 Z-1.5000 F120.00
G1 X66.9956 Y-39.0000 Z-1.5000 F120.00
G1 X64.1672 Y-39.0000 Z-1.5000 F120.00
G1 X71.0000 Y-32.1672 Z-1.5000 F120.00
G1 X71.0000 Y-29.3388 Z-1.5000 F120.00
G1 X61.3388 Y-39.0000 Z-1.5000 F120.00
G1 X58.5103 Y-39.0000 Z-1.5000 F120.00
G1 X71.0000 Y-26.5103 Z-1.5000 F120.00
G1 X71.0000 Y-23.6819 Z-1.5000 F120.00
G1 X55.6819 Y-39.0000 Z-1.5000 F120.00
G1 X52.8535 Y-39.0000 Z-1.5000 F120.00
G1 X71.0000 Y-20.8535 Z-1.5000 F120.00
G1 X71.0000 Y-18.0251 Z-1.5000 F120.00
G1 X50.0251 Y-39.0000 Z-1.5000 F120.00
G1 X47.1966 Y-39.0000 Z-1.5000 F120.00
G1 X71.0000 Y-15.1966 Z-1.5000 F120.00
G1 X71.0000 Y-12.3682 Z-1.5000 F120.00
G1 X44.3682 Y-39.0000 Z-1.5000 F120.00
G1 X41.5398 Y-39.0000 Z-1.5000 F120.00
G1 X71.0000 Y-9.5398 Z-1.5000 F120.00
G1 X71.0000 Y-6.7114 Z-1.5000 F120.00
G1 X38.7114 Y-39.0000 Z-1.5000 F120.00
G1 X35.8829 Y-39.0000 Z-1.5000 F120.00
G1 X71.0000 Y-3.8829 Z-1.5000 F120.00
G1 X71.0000 Y-1.0545 Z-1.5000 F120.00
G1 X33.0545 Y-39.0000 Z-1.5000 F120.00
G1 X30.2261 Y-39.0000 Z-1.5000 F120.00
G1 X68.2261 Y-1.0000 Z-1.5000 F120.00
G1 X65.3976 Y-1.0000 Z-1.5000 F120.00
G1 X27.3976 Y-39.0000 Z-1.5000 F120.00
G1 X24.5692 Y-39.0000 Z-1.5000 F120.00
G1 X62.5692 Y-1.0000 Z-1.5000 F120.00
G1 X59.7408 Y-1.0000 Z-1.5000 F120.00
G1 X21.7408 Y-39.0000 Z-1.5000 F120.00
G1 X18.9124 Y-39.0000 Z-1.5000 F120.00
G1 X56.9124 Y-1.0000 Z-1.5000 F120.00
G1 X54.0839 Y-1.0000 Z-1.5000 F120.00
G1 X16.0839 Y-39.0000 Z-1.5000 F120.00
G2 X14.6876 Y-38.9723 Z-1.5000 I-0.5223 J8.8848 F120.00
G2 X13.7258 Y-38.5297 Z-1.5000 I0.2825 J1.8803 F120.00
G1 X51.2555 Y-1.0000 Z-1.5000 F120.00
G1 X48.4271 Y-1.0000 Z-1.5000 F120.00
G1 X13.0000 Y-36.4271 Z-1.5000 F120.00
G1 X13.0000 Y-33.5987 Z-1.5000 F120.00
G1 X45.5987 Y-1.0000 Z-1.5000 F120.00
G1 X42.7702 Y-1.0000 Z-1.5000 F120.00
G1 X13.0000 Y-30.7702 Z-1.5000 F120.00
G1 X13.0000 Y-27.9418 Z-1.5000 F120.00
G1 X39.9418 Y-1.0000 Z-1.5000 F120.00
G1 X37.1134 Y-1.0000 Z-1.5000 F120.00
G1 X13.0000 Y-25.1134 Z-1.5000 F120.00
G1 X13.0000 Y-22.2849 Z-1.5000 F120.00
G1 X34.2849 Y-1.0000 Z-1.5000 F120.00
G1 X31.4565 Y-1.0000 Z-1.5000 F120.00
G1 X13.0000 Y-19.4565 Z-1.5000 F120.00
G1 X13.0000 Y-16.6281 Z-1.5000 F120.00
G1 X28.6281 Y-1.0000 Z-1.5000 F120.00
G1 X25.7997 Y-1.0000 Z-1.5000 F120.00
G1 X13.0000 Y-13.7997 Z-1.5000 F120.00
G1 X13.0000 Y-10.9712 Z-1.5000 F120.00
G1 X22.9712 Y-1.0000 Z-1.5000 F120.00
G1 X20.1428 Y-1.0000 Z-1.5000 F120.00
G1 X13.0000 Y-8.1428 Z-1.5000 F120.00
G1 X13.0000 Y-5.3144 Z-1.5000 F120.00
G1 X17.3144 Y-1.0000 Z-1.5000 F120.00
G1 X14.4860 Y-1.0000 Z-1.5000 F120.00
G1 X13.0000 Y-1.0000 Z-1.5000 F120.00
G1 X13.0000 Y-2.4860 Z-1.5000 F120.00
G1 X14.4860 Y-1.0000 Z-1.5000 F120.00
G1 X14.4860 Y-1.0000 Z-2.5000 F60.00
G1 X71.0000 Y-1.0000 Z-2.5000 F120.00
G1 X71.0000 Y-36.9607 Z-2.5000 F120.00
G2 X68.9607 Y-39.0000 Z-2.5000 I-2.0081 J-0.0312 F120.00
G1 X15.0393 Y-39.0000 Z-2.5000 F120.00
G2 X13.0000 Y-36.9607 Z-2.5000 I-0.0312 J2.0081 F120.00
G1 X13.0000 Y-1.0000 Z-2.5000 F120.00
G1 X14.4860 Y-1.0000 Z-2.5000 F120.00
G1 X14.4860 Y-1.0000 Z-2.5000 F60.00
G1 X13.0000 Y-2.4860 Z-2.5000 F120.00
G1 X13.0000 Y-1.0000 Z-2.5000 F120.00
G1 X14.4860 Y-1.0000 Z-2.5000 F120.00
G1 X17.3144 Y-1.0000 Z-2.5000 F120.00
G1 X13.0000 Y-5.3144 Z-2.5000 F120.00
G1 X13.0000 Y-8.1428 Z-2.5000 F120.00
G1 X20.1428 Y-1.0000 Z-2.5000 F120.00
G1 X22.9712 Y-1.0000 Z-2.5000 F120.00
G1 X13.0000 Y-10.9712 Z-2.5000 F120.00
G1 X13.0000 Y-13.7997 Z-2.5000 F120.00
G1 X25.7997 Y-1.0000 Z-2.5000 F120.00
G1 X28.6281 Y-1.0000 Z-2.5000 F120.00
G1 X13.0000 Y-16.6281 Z-2.5000 F120.00
G1 X13.0000 Y-19.4565 Z-2.5000 F120.00
G1 X31.4565 Y-1.0000 Z-2.5000 F120.00
G1 X34.2849 Y-1.0000 Z-2.5000 F120.00
G1 X13.0000 Y-22.2849 Z-2.5000 F120.00
G1 X13.0000 Y-25.1134 Z-2.5000 F120.00
G1 X37.1134 Y-1.0000 Z-2.5000 F120.00
G1 X39.9418 Y-1.0000 Z-2.5000 F120.00
G1 X13.0000 Y-27.9418 Z-2.5000 F120.00
G1 X13.0000 Y-30.7702 Z-2.5000 F120.00
G1 X42.7702 Y-1.0000 Z-2.5000 F120.00
G1 X45.5987 Y-1.0000 Z-2.5000 F120.00
G1 X13.0000 Y-33.5987 Z-2.5000 F120.00
G1 X13.0000 Y-36.4271 Z-2.5000 F120.00
G1 X48.4271 Y-1.0000 Z-2.5000 F120.00
G1 X51.2555 Y-1.0000 Z-2.5000 F120.00
G1 X13.7258 Y-38.5297 Z-2.5000 F120.00
G3 X14.6876 Y-38.9723 Z-2.5000 I1.2443 J1.4377 F120.00
G3 X16.0839 Y-39.0000 Z-2.5000 I0.8740 J8.8571 F120.00
G1 X54.0839 Y-1.0000 Z-2.5000 F120.00
G1 X56.9124 Y-1.0000 Z-2.5000 F120.00
G1 X18.9124 Y-39.0000 Z-2.5000 F120.00
G1 X21.7408 Y-39.0000 Z-2.5000 F120.00
G1 X59.7408 Y-1.0000 Z-2.5000 F120.00
G1 X62.5692 Y-1.0000 Z-2.5000 F120.00
G1 X24.5692 Y-39.0000 Z-2.5000 F120.00
G1 X27.3976 Y-39.0000 Z-2.5000 F120.00
G1 X65.3976 Y-1.0000 Z-2.5000 F120.00
G1 X68.2261 Y-1.0000 Z-2.5000 F120.00
G1 X30.2261 Y-39.0000 Z-2.5000 F120.00
G1 X33.0545 Y-39.0000 Z-2.5000 F120.00
G1 X71.0000 Y-1.0545 Z-2.5000 F120.00
G1 X71.0000 Y-3.8829 Z-2.5000 F120.00
G1 X35.8829 Y-39.0000 Z-2.5000 F120.00
G1 X38.7114 Y-39.0000 Z-2.5000 F120.00
G1 X71.0000 Y-6.7114 Z-2.5000 F120.00
G1 X71.0000 Y-9.5398 Z-2.5000 F120.00
G1 X41.5398 Y-39.0000 Z-2.5000 F120.00
G1 X44.3682 Y-39.0000 Z-2.5000 F120.00
G1 X71.0000 Y-12.3682 Z-2.5000 F120.00
G1 X71.0000 Y-15.1966 Z-2.5000 F120.00
G1 X47.1966 Y-39.0000 Z-2.5000 F120.00
G1 X50.0251 Y-39.0000 Z-2.5000 F120.00
G1 X71.0000 Y-18.0251 Z-2.5000 F120.00
G1 X71.0000 Y-20.8535 Z-2.5000 F120.00
G1 X52.8535 Y-39.0000 Z-2.5000 F120.00
G1 X55.6819 Y-39.0000 Z-2.5000 F120.00
G1 X71.0000 Y-23.6819 Z-2.5000 F120.00
G1 X71.0000 Y-26.5103 Z-2.5000 F120.00
G1 X58.5103 Y-39.0000 Z-2.5000 F120.00
G1 X61.3388 Y-39.0000 Z-2.5000 F120.00
G1 X71.0000 Y-29.3388 Z-2.5000 F120.00
G1 X71.0000 Y-32.1672 Z-2.5000 F120.00
G1 X64.1672 Y-39.0000 Z-2.5000 F120.00
G1 X66.9956 Y-39.0000 Z-2.5000 F120.00
G1 X71.0000 Y-34.9956 Z-2.5000 F120.00
G1 X71.0000 Y-36.9607 Z-2.5000 F120.00
G2 X70.4120 Y-38.4120 Z-2.5000 I-2.0231 J-0.0252 F120.00
G1 X70.4120 Y-38.4120 Z-3.5000 F60.00
G3 X71.0000 Y-36.9607 Z-3.5000 I-1.4351 J1.4262 F120.00
G1 X71.0000 Y-34.9956 Z-3.5000 F120.00
G1 X66.9956 Y-39.0000 Z-3.5000 F120.00
G1 X64.1672 Y-39.0000 Z-3.5000 F120.00
G1 X71.0000 Y-32.1672 Z-3.5000 F120.00
G1 X71.0000 Y-29.3388 Z-3.5000 F120.00
G1 X61.3388 Y-39.0000 Z-3.5000 F120.00
G1 X58.5103 Y-39.0000 Z-3.5000 F120.00
G1 X71.0000 Y-26.5103 Z-3.5000 F120.00
G1 X71.0000 Y-23.6819 Z-3.5000 F120.00
G1 X55.6819 Y-39.0000 Z-3.5000 F120.00
G1 X52.8535 Y-39.0000 Z-3.5000 F120.00
G1 X71.0000 Y-20.8535 Z-3.5000 F120.00
G1 X71.0000 Y-18.0251 Z-3.5000 F120.00
G1 X50.0251 Y-39.0000 Z-3.5000 F120.00
G1 X47.1966 Y-39.0000 Z-3.5000 F120.00
G1 X71.0000 Y-15.1966 Z-3.5000 F120.00
G1 X71.0000 Y-12.3682 Z-3.5000 F120.00
G1 X44.3682 Y-39.0000 Z-3.5000 F120.00
G1 X41.5398 Y-39.0000 Z-3.5000 F120.00
G1 X71.0000 Y-9.5398 Z-3.5000 F120.00
G1 X71.0000 Y-6.7114 Z-3.5000 F120.00
G1 X38.7114 Y-39.0000 Z-3.5000 F120.00
G1 X35.8829 Y-39.0000 Z-3.5000 F120.00
G1 X71.0000 Y-3.8829 Z-3.5000 F120.00
G1 X71.0000 Y-1.0545 Z-3.5000 F120.00
G1 X33.0545 Y-39.0000 Z-3.5000 F120.00
G1 X30.2261 Y-39.0000 Z-3.5000 F120.00
G1 X68.2261 Y-1.0000 Z-3.5000 F120.00
G1 X65.3976 Y-1.0000 Z-3.5000 F120.00
G1 X27.3976 Y-39.0000 Z-3.5000 F120.00
G1 X24.5692 Y-39.0000 Z-3.5000 F120.00
G1 X62.5692 Y-1.0000 Z-3.5000 F120.00
G1 X59.7408 Y-1.0000 Z-3.5000 F120.00
G1 X21.7408 Y-39.0000 Z-3.5000 F120.00
G1 X18.9124 Y-39.0000 Z-3.5000 F120.00
G1 X56.9124 Y-1.0000 Z-3.5000 F120.00
G1 X54.0839 Y-1.0000 Z-3.5000 F120.00
G1 X16.0839 Y-39.0000 Z-3.5000 F120.00
G2 X14.6876 Y-38.9723 Z-3.5000 I-0.5223 J8.8848 F120.00
G2 X13.7258 Y-38.5297 Z-3.5000 I0.2825 J1.8803 F120.00
G1 X51.2555 Y-1.0000 Z-3.5000 F120.00
G1 X48.4271 Y-1.0000 Z-3.5000 F120.00
G1 X13.0000 Y-36.4271 Z-3.5000 F120.00
G1 X13.0000 Y-33.5987 Z-3.5000 F120.00
G1 X45.5987 Y-1.0000 Z-3.5000 F120.00
G1 X42.7702 Y-1.0000 Z-3.5000 F120.00
G1 X13.0000 Y-30.7702 Z-3.5000 F120.00
G1 X13.0000 Y-27.9418 Z-3.5000 F120.00
G1 X39.9418 Y-1.0000 Z-3.5000 F120.00
G1 X37.1134 Y-1.0000 Z-3.5000 F120.00
G1 X13.0000 Y-25.1134 Z-3.5000 F120.00
G1 X13.0000 Y-22.2849 Z-3.5000 F120.00
G1 X34.2849 Y-1.0000 Z-3.5000 F120.00
G1 X31.4565 Y-1.0000 Z-3.5000 F120.00
G1 X13.0000 Y-19.4565 Z-3.5000 F120.00
G1 X13.0000 Y-16.6281 Z-3.5000 F120.00
G1 X28.6281 Y-1.0000 Z-3.5000 F120.00
G1 X25.7997 Y-1.0000 Z-3.5000 F120.00
G1 X13.0000 Y-13.7997 Z-3.5000 F120.00
G1 X13.0000 Y-10.9712 Z-3.5000 F120.00
G1 X22.9712 Y-1.0000 Z-3.5000 F120.00
G1 X20.1428 Y-1.0000 Z-3.5000 F120.00
G1 X13.0000 Y-8.1428 Z-3.5000 F120.00
G1 X13.0000 Y-5.3144 Z-3.5000 F120.00
G1 X17.3144 Y-1.0000 Z-3.5000 F120.00
G1 X14.4860 Y-1.0000 Z-3.5000 F120.00
G1 X13.0000 Y-1.0000 Z-3.5000 F120.00
G1 X13.0000 Y-2.4860 Z-3.5000 F120.00
G1 X14.4860 Y-1.0000 Z-3.5000 F120.00
G1 X14.4860 Y-1.0000 Z-3.5000 F60.00
G1 X71.0000 Y-1.0000 Z-3.5000 F120.00
G1 X71.0000 Y-36.9607 Z-3.5000 F120.00
G2 X68.9607 Y-39.0000 Z-3.5000 I-2.0081 J-0.0312 F120.00
G1 X15.0393 Y-39.0000 Z-3.5000 F120.00
G2 X13.0000 Y-36.9607 Z-3.5000 I-0.0312 J2.0081 F120.00
G1 X13.0000 Y-1.0000 Z-3.5000 F120.00
G1 X14.4860 Y-1.0000 Z-3.5000 F120.00
G1 X14.4860 Y-1.0000 Z-4.5000 F60.00
G1 X71.0000 Y-1.0000 Z-4.5000 F120.00
G1 X71.0000 Y-36.9607 Z-4.5000 F120.00
G2 X68.9607 Y-39.0000 Z-4.5000 I-2.0081 J-0.0312 F120.00
G1 X15.0393 Y-39.0000 Z-4.5000 F120.00
G2 X13.0000 Y-36.9607 Z-4.5000 I-0.0312 J2.0081 F120.00
G1 X13.0000 Y-1.0000 Z-4.5000 F120.00
G1 X14.4860 Y-1.0000 Z-4.5000 F120.00
G1 X14.4860 Y-1.0000 Z-4.5000 F60.00
G1 X13.0000 Y-2.4860 Z-4.5000 F120.00
G1 X13.0000 Y-1.0000 Z-4.5000 F120.00
G1 X14.4860 Y-1.0000 Z-4.5000 F120.00
G1 X17.3144 Y-1.0000 Z-4.5000 F120.00
G1 X13.0000 Y-5.3144 Z-4.5000 F120.00
G1 X13.0000 Y-8.1428 Z-4.5000 F120.00
G1 X20.1428 Y-1.0000 Z-4.5000 F120.00
G1 X22.9712 Y-1.0000 Z-4.5000 F120.00
G1 X13.0000 Y-10.9712 Z-4.5000 F120.00
G1 X13.0000 Y-13.7997 Z-4.5000 F120.00
G1 X25.7997 Y-1.0000 Z-4.5000 F120.00
G1 X28.6281 Y-1.0000 Z-4.5000 F120.00
G1 X13.0000 Y-16.6281 Z-4.5000 F120.00
G1 X13.0000 Y-19.4565 Z-4.5000 F120.00
G1 X31.4565 Y-1.0000 Z-4.5000 F120.00
G1 X34.2849 Y-1.0000 Z-4.5000 F120.00
G1 X13.0000 Y-22.2849 Z-4.5000 F120.00
G1 X13.0000 Y-25.1134 Z-4.5000 F120.00
G1 X37.1134 Y-1.0000 Z-4.5000 F120.00
G1 X39.9418 Y-1.0000 Z-4.5000 F120.00
G1 X13.0000 Y-27.9418 Z-4.5000 F120.00
G1 X13.0000 Y-30.7702 Z-4.5000 F120.00
G1 X42.7702 Y-1.0000 Z-4.5000 F120.00
G1 X45.5987 Y-1.0000 Z-4.5000 F120.00
G1 X13.0000 Y-33.5987 Z-4.5000 F120.00
G1 X13.0000 Y-36.4271 Z-4.5000 F120.00
G1 X48.4271 Y-1.0000 Z-4.5000 F120.00
G1 X51.2555 Y-1.0000 Z-4.5000 F120.00
G1 X13.7258 Y-38.5297 Z-4.5000 F120.00
G3 X14.6876 Y-38.9723 Z-4.5000 I1.2443 J1.4377 F120.00
G3 X16.0839 Y-39.0000 Z-4.5000 I0.8740 J8.8571 F120.00
G1 X54.0839 Y-1.0000 Z-4.5000 F120.00
G1 X56.9124 Y-1.0000 Z-4.5000 F120.00
G1 X18.9124 Y-39.0000 Z-4.5000 F120.00
G1 X21.7408 Y-39.0000 Z-4.5000 F120.00
G1 X59.7408 Y-1.0000 Z-4.5000 F120.00
G1 X62.5692 Y-1.0000 Z-4.5000 F120.00
G1 X24.5692 Y-39.0000 Z-4.5000 F120.00
G1 X27.3976 Y-39.0000 Z-4.5000 F120.00
G1 X65.3976 Y-1.0000 Z-4.5000 F120.00
G1 X68.2261 Y-1.0000 Z-4.5000 F120.00
G1 X30.2261 Y-39.0000 Z-4.5000 F120.00
G1 X33.0545 Y-39.0000 Z-4.5000 F120.00
G1 X71.0000 Y-1.0545 Z-4.5000 F120.00
G1 X71.0000 Y-3.8829 Z-4.5000 F120.00
G1 X35.8829 Y-39.0000 Z-4.5000 F120.00
G1 X38.7114 Y-39.0000 Z-4.5000 F120.00
G1 X71.0000 Y-6.7114 Z-4.5000 F120.00
G1 X71.0000 Y-9.5398 Z-4.5000 F120.00
G1 X41.5398 Y-39.0000 Z-4.5000 F120.00
G1 X44.3682 Y-39.0000 Z-4.5000 F120.00
G1 X71.0000 Y-12.3682 Z-4.5000 F120.00
G1 X71.0000 Y-15.1966 Z-4.5000 F120.00
G1 X47.1966 Y-39.0000 Z-4.5000 F120.00
G1 X50.0251 Y-39.0000 Z-4.5000 F120.00
G1 X71.0000 Y-18.0251 Z-4.5000 F120.00
G1 X71.0000 Y-20.8535 Z-4.5000 F120.00
G1 X52.8535 Y-39.0000 Z-4.5000 F120.00
G1 X55.6819 Y-39.0000 Z-4.5000 F120.00
G1 X71.0000 Y-23.6819 Z-4.5000 F120.00
G1 X71.0000 Y-26.5103 Z-4.5000 F120.00
G1 X58.5103 Y-39.0000 Z-4.5000 F120.00
G1 X61.3388 Y-39.0000 Z-4.5000 F120.00
G1 X71.0000 Y-29.3388 Z-4.5000 F120.00
G1 X71.0000 Y-32.1672 Z-4.5000 F120.00
G1 X64.1672 Y-39.0000 Z-4.5000 F120.00
G1 X66.9956 Y-39.0000 Z-4.5000 F120.00
G1 X71.0000 Y-34.9956 Z-4.5000 F120.00
G1 X71.0000 Y-36.9607 Z-4.5000 F120.00
G2 X70.4120 Y-38.4120 Z-4.5000 I-2.0231 J-0.0252 F120.00
G1 X70.4120 Y-38.4120 Z-5.5000 F60.00
G3 X71.0000 Y-36.9607 Z-5.5000 I-1.4351 J1.4262 F120.00
G1 X71.0000 Y-34.9956 Z-5.5000 F120.00
G1 X66.9956 Y-39.0000 Z-5.5000 F120.00
G1 X64.1672 Y-39.0000 Z-5.5000 F120.00
G1 X71.0000 Y-32.1672 Z-5.5000 F120.00
G1 X71.0000 Y-29.3388 Z-5.5000 F120.00
G1 X61.3388 Y-39.0000 Z-5.5000 F120.00
G1 X58.5103 Y-39.0000 Z-5.5000 F120.00
G1 X71.0000 Y-26.5103 Z-5.5000 F120.00
G1 X71.0000 Y-23.6819 Z-5.5000 F120.00
G1 X55.6819 Y-39.0000 Z-5.5000 F120.00
G1 X52.8535 Y-39.0000 Z-5.5000 F120.00
G1 X71.0000 Y-20.8535 Z-5.5000 F120.00
G1 X71.0000 Y-18.0251 Z-5.5000 F120.00
G1 X50.0251 Y-39.0000 Z-5.5000 F120.00
G1 X47.1966 Y-39.0000 Z-5.5000 F120.00
G1 X71.0000 Y-15.1966 Z-5.5000 F120.00
G1 X71.0000 Y-12.3682 Z-5.5000 F120.00
G1 X44.3682 Y-39.0000 Z-5.5000 F120.00
G1 X41.5398 Y-39.0000 Z-5.5000 F120.00
G1 X71.0000 Y-9.5398 Z-5.5000 F120.00
G1 X71.0000 Y-6.7114 Z-5.5000 F120.00
G1 X38.7114 Y-39.0000 Z-5.5000 F120.00
G1 X35.8829 Y-39.0000 Z-5.5000 F120.00
G1 X71.0000 Y-3.8829 Z-5.5000 F120.00
G1 X71.0000 Y-1.0545 Z-5.5000 F120.00
G1 X33.0545 Y-39.0000 Z-5.5000 F120.00
G1 X30.2261 Y-39.0000 Z-5.5000 F120.00
G1 X68.2261 Y-1.0000 Z-5.5000 F120.00
G1 X65.3976 Y-1.0000 Z-5.5000 F120.00
G1 X27.3976 Y-39.0000 Z-5.5000 F120.00
G1 X24.5692 Y-39.0000 Z-5.5000 F120.00
G1 X62.5692 Y-1.0000 Z-5.5000 F120.00
G1 X59.7408 Y-1.0000 Z-5.5000 F120.00
G1 X21.7408 Y-39.0000 Z-5.5000 F120.00
G1 X18.9124 Y-39.0000 Z-5.5000 F120.00
G1 X56.9124 Y-1.0000 Z-5.5000 F120.00
G1 X54.0839 Y-1.0000 Z-5.5000 F120.00
G1 X16.0839 Y-39.0000 Z-5.5000 F120.00
G2 X14.6876 Y-38.9723 Z-5.5000 I-0.5223 J8.8848 F120.00
G2 X13.7258 Y-38.5297 Z-5.5000 I0.2825 J1.8803 F120.00
G1 X51.2555 Y-1.0000 Z-5.5000 F120.00
G1 X48.4271 Y-1.0000 Z-5.5000 F120.00
G1 X13.0000 Y-36.4271 Z-5.5000 F120.00
G1 X13.0000 Y-33.5987 Z-5.5000 F120.00
G1 X45.5987 Y-1.0000 Z-5.5000 F120.00
G1 X42.7702 Y-1.0000 Z-5.5000 F120.00
G1 X13.0000 Y-30.7702 Z-5.5000 F120.00
G1 X13.0000 Y-27.9418 Z-5.5000 F120.00
G1 X39.9418 Y-1.0000 Z-5.5000 F120.00
G1 X37.1134 Y-1.0000 Z-5.5000 F120.00
G1 X13.0000 Y-25.1134 Z-5.5000 F120.00
G1 X13.0000 Y-22.2849 Z-5.5000 F120.00
G1 X34.2849 Y-1.0000 Z-5.5000 F120.00
G1 X31.4565 Y-1.0000 Z-5.5000 F120.00
G1 X13.0000 Y-19.4565 Z-5.5000 F120.00
G1 X13.0000 Y-16.6281 Z-5.5000 F120.00
G1 X28.6281 Y-1.0000 Z-5.5000 F120.00
G1 X25.7997 Y-1.0000 Z-5.5000 F120.00
G1 X13.0000 Y-13.7997 Z-5.5000 F120.00
G1 X13.0000 Y-10.9712 Z-5.5000 F120.00
G1 X22.9712 Y-1.0000 Z-5.5000 F120.00
G1 X20.1428 Y-1.0000 Z-5.5000 F120.00
G1 X13.0000 Y-8.1428 Z-5.5000 F120.00
G1 X13.0000 Y-5.3144 Z-5.5000 F120.00
G1 X17.3144 Y-1.0000 Z-5.5000 F120.00
G1 X14.4860 Y-1.0000 Z-5.5000 F120.00
G1 X13.0000 Y-1.0000 Z-5.5000 F120.00
G1 X13.0000 Y-2.4860 Z-5.5000 F120.00
G1 X14.4860 Y-1.0000 Z-5.5000 F120.00
G1 X14.4860 Y-1.0000 Z-5.5000 F60.00
G1 X71.0000 Y-1.0000 Z-5.5000 F120.00
G1 X71.0000 Y-36.9607 Z-5.5000 F120.00
G2 X68.9607 Y-39.0000 Z-5.5000 I-2.0081 J-0.0312 F120.00
G1 X15.0393 Y-39.0000 Z-5.5000 F120.00
G2 X13.0000 Y-36.9607 Z-5.5000 I-0.0312 J2.0081 F120.00
G1 X13.0000 Y-1.0000 Z-5.5000 F120.00
G1 X14.4860 Y-1.0000 Z-5.5000 F120.00
G1 X14.4860 Y-1.0000 Z-6.0000 F60.00
G1 X71.0000 Y-1.0000 Z-6.0000 F120.00
G1 X71.0000 Y-36.9607 Z-6.0000 F120.00
G2 X68.9607 Y-39.0000 Z-6.0000 I-2.0081 J-0.0312 F120.00
G1 X15.0393 Y-39.0000 Z-6.0000 F120.00
G2 X13.0000 Y-36.9607 Z-6.0000 I-0.0312 J2.0081 F120.00
G1 X13.0000 Y-1.0000 Z-6.0000 F120.00
G1 X14.4860 Y-1.0000 Z-6.0000 F120.00
G1 X14.4860 Y-1.0000 Z-6.0000 F60.00
G1 X13.0000 Y-2.4860 Z-6.0000 F120.00
G1 X13.0000 Y-1.0000 Z-6.0000 F120.00
G1 X14.4860 Y-1.0000 Z-6.0000 F120.00
G1 X17.3144 Y-1.0000 Z-6.0000 F120.00
G1 X13.0000 Y-5.3144 Z-6.0000 F120.00
G1 X13.0000 Y-8.1428 Z-6.0000 F120.00
G1 X20.1428 Y-1.0000 Z-6.0000 F120.00
G1 X22.9712 Y-1.0000 Z-6.0000 F120.00
G1 X13.0000 Y-10.9712 Z-6.0000 F120.00
G1 X13.0000 Y-13.7997 Z-6.0000 F120.00
G1 X25.7997 Y-1.0000 Z-6.0000 F120.00
G1 X28.6281 Y-1.0000 Z-6.0000 F120.00
G1 X13.0000 Y-16.6281 Z-6.0000 F120.00
G1 X13.0000 Y-19.4565 Z-6.0000 F120.00
G1 X31.4565 Y-1.0000 Z-6.0000 F120.00
G1 X34.2849 Y-1.0000 Z-6.0000 F120.00
G1 X13.0000 Y-22.2849 Z-6.0000 F120.00
G1 X13.0000 Y-25.1134 Z-6.0000 F120.00
G1 X37.1134 Y-1.0000 Z-6.0000 F120.00
G1 X39.9418 Y-1.0000 Z-6.0000 F120.00
G1 X13.0000 Y-27.9418 Z-6.0000 F120.00
G1 X13.0000 Y-30.7702 Z-6.0000 F120.00
G1 X42.7702 Y-1.0000 Z-6.0000 F120.00
G1 X45.5987 Y-1.0000 Z-6.0000 F120.00
G1 X13.0000 Y-33.5987 Z-6.0000 F120.00
G1 X13.0000 Y-36.4271 Z-6.0000 F120.00
G1 X48.4271 Y-1.0000 Z-6.0000 F120.00
G1 X51.2555 Y-1.0000 Z-6.0000 F120.00
G1 X13.7258 Y-38.5297 Z-6.0000 F120.00
G3 X14.6876 Y-38.9723 Z-6.0000 I1.2443 J1.4377 F120.00
G3 X16.0839 Y-39.0000 Z-6.0000 I0.8740 J8.8571 F120.00
G1 X54.0839 Y-1.0000 Z-6.0000 F120.00
G1 X56.9124 Y-1.0000 Z-6.0000 F120.00
G1 X18.9124 Y-39.0000 Z-6.0000 F120.00
G1 X21.7408 Y-39.0000 Z-6.0000 F120.00
G1 X59.7408 Y-1.0000 Z-6.0000 F120.00
G1 X62.5692 Y-1.0000 Z-6.0000 F120.00
G1 X24.5692 Y-39.0000 Z-6.0000 F120.00
G1 X27.3976 Y-39.0000 Z-6.0000 F120.00
G1 X65.3976 Y-1.0000 Z-6.0000 F120.00
G1 X68.2261 Y-1.0000 Z-6.0000 F120.00
G1 X30.2261 Y-39.0000 Z-6.0000 F120.00
G1 X33.0545 Y-39.0000 Z-6.0000 F120.00
G1 X71.0000 Y-1.0545 Z-6.0000 F120.00
G1 X71.0000 Y-3.8829 Z-6.0000 F120.00
G1 X35.8829 Y-39.0000 Z-6.0000 F120.00
G1 X38.7114 Y-39.0000 Z-6.0000 F120.00
G1 X71.0000 Y-6.7114 Z-6.0000 F120.00
G1 X71.0000 Y-9.5398 Z-6.0000 F120.00
G1 X41.5398 Y-39.0000 Z-6.0000 F120.00
G1 X44.3682 Y-39.0000 Z-6.0000 F120.00
G1 X71.0000 Y-12.3682 Z-6.0000 F120.00
G1 X71.0000 Y-15.1966 Z-6.0000 F120.00
G1 X47.1966 Y-39.0000 Z-6.0000 F120.00
G1 X50.0251 Y-39.0000 Z-6.0000 F120.00
G1 X71.0000 Y-18.0251 Z-6.0000 F120.00
G1 X71.0000 Y-20.8535 Z-6.0000 F120.00
G1 X52.8535 Y-39.0000 Z-6.0000 F120.00
G1 X55.6819 Y-39.0000 Z-6.0000 F120.00
G1 X71.0000 Y-23.6819 Z-6.0000 F120.00
G1 X71.0000 Y-26.5103 Z-6.0000 F120.00
G1 X58.5103 Y-39.0000 Z-6.0000 F120.00
G1 X61.3388 Y-39.0000 Z-6.0000 F120.00
G1 X71.0000 Y-29.3388 Z-6.0000 F120.00
G1 X71.0000 Y-32.1672 Z-6.0000 F120.00
G1 X64.1672 Y-39.0000 Z-6.0000 F120.00
G1 X66.9956 Y-39.0000 Z-6.0000 F120.00
G1 X71.0000 Y-34.9956 Z-6.0000 F120.00
G1 X71.0000 Y-36.9607 Z-6.0000 F120.00
G2 X70.4120 Y-38.4120 Z-6.0000 I-2.0231 J-0.0252 F120.00
G0 Z6.0000
(finish operation: Pocket_Shape)
(begin postamble)
M5
G17 G90
; M2
