(Exported by FreeCAD)
(Post Processor: grbl_post)
(Output Time:2019-10-13 14:22:06.879926)
(begin preamble)
G17 G90
G21
(begin operation: Default Tool)
(Path: Default Tool)
(Default Tool)
(begin toolchange)
; M6 T1
M3 S800.0000
(finish operation: Default Tool)
(begin operation: Pocket_Shape)
(Path: Pocket_Shape)
(Pocket_Shape)
G0 Z6.0000
G0 X-1.0000 Y-1.0000
G0 Z4.0000
G1 X-1.0000 Y-1.0000 Z-1.0000 F60.00
G1 X-1.0000 Y-89.0000 Z-1.0000 F120.00
G1 X-10.4607 Y-89.0000 Z-1.0000 F120.00
G2 X-12.5000 Y-86.9607 Z-1.0000 I-0.0312 J2.0081 F120.00
G1 X-12.5000 Y-3.0393 Z-1.0000 F120.00
G2 X-10.4607 Y-1.0000 Z-1.0000 I2.0081 J0.0312 F120.00
G1 X-1.0000 Y-1.0000 Z-1.0000 F120.00
G0 X-1.0000 Y-1.0000 Z6.0000
G0 X-12.5000 Y-4.3335 Z6.0000
G0 X-12.5000 Y-4.3335 Z3.0000
G1 X-12.5000 Y-4.3335 Z-1.0000 F60.00
G1 X-9.1665 Y-1.0000 Z-1.0000 F120.00
G3 X-10.8124 Y-1.0277 Z-1.0000 I-0.6471 J-10.4702 F120.00
G3 X-12.5000 Y-3.0393 Z-1.0000 I0.3167 J-1.9794 F120.00
G1 X-12.5000 Y-4.3335 Z-1.0000 F120.00
G1 X-12.5000 Y-7.1619 Z-1.0000 F120.00
G1 X-6.3381 Y-1.0000 Z-1.0000 F120.00
G1 X-3.5097 Y-1.0000 Z-1.0000 F120.00
G1 X-12.5000 Y-9.9903 Z-1.0000 F120.00
G1 X-12.5000 Y-12.8188 Z-1.0000 F120.00
G1 X-1.0000 Y-1.3188 Z-1.0000 F120.00
G1 X-1.0000 Y-4.1472 Z-1.0000 F120.00
G1 X-12.5000 Y-15.6472 Z-1.0000 F120.00
G1 X-12.5000 Y-18.4756 Z-1.0000 F120.00
G1 X-1.0000 Y-6.9756 Z-1.0000 F120.00
G1 X-1.0000 Y-9.8040 Z-1.0000 F120.00
G1 X-12.5000 Y-21.3040 Z-1.0000 F120.00
G1 X-12.5000 Y-24.1325 Z-1.0000 F120.00
G1 X-1.0000 Y-12.6325 Z-1.0000 F120.00
G1 X-1.0000 Y-15.4609 Z-1.0000 F120.00
G1 X-12.5000 Y-26.9609 Z-1.0000 F120.00
G1 X-12.5000 Y-29.7893 Z-1.0000 F120.00
G1 X-1.0000 Y-18.2893 Z-1.0000 F120.00
G1 X-1.0000 Y-21.1177 Z-1.0000 F120.00
G1 X-12.5000 Y-32.6177 Z-1.0000 F120.00
G1 X-12.5000 Y-35.4462 Z-1.0000 F120.00
G1 X-1.0000 Y-23.9462 Z-1.0000 F120.00
G1 X-1.0000 Y-26.7746 Z-1.0000 F120.00
G1 X-12.5000 Y-38.2746 Z-1.0000 F120.00
G1 X-12.5000 Y-41.1030 Z-1.0000 F120.00
G1 X-1.0000 Y-29.6030 Z-1.0000 F120.00
G1 X-1.0000 Y-32.4315 Z-1.0000 F120.00
G1 X-12.5000 Y-43.9315 Z-1.0000 F120.00
G1 X-12.5000 Y-46.7599 Z-1.0000 F120.00
G1 X-1.0000 Y-35.2599 Z-1.0000 F120.00
G1 X-1.0000 Y-38.0883 Z-1.0000 F120.00
G1 X-12.5000 Y-49.5883 Z-1.0000 F120.00
G1 X-12.5000 Y-52.4167 Z-1.0000 F120.00
G1 X-1.0000 Y-40.9167 Z-1.0000 F120.00
G1 X-1.0000 Y-43.7452 Z-1.0000 F120.00
G1 X-12.5000 Y-55.2452 Z-1.0000 F120.00
G1 X-12.5000 Y-58.0736 Z-1.0000 F120.00
G1 X-1.0000 Y-46.5736 Z-1.0000 F120.00
G1 X-1.0000 Y-49.4020 Z-1.0000 F120.00
G1 X-12.5000 Y-60.9020 Z-1.0000 F120.00
G1 X-12.5000 Y-63.7304 Z-1.0000 F120.00
G1 X-1.0000 Y-52.2304 Z-1.0000 F120.00
G1 X-1.0000 Y-55.0589 Z-1.0000 F120.00
G1 X-12.5000 Y-66.5589 Z-1.0000 F120.00
G1 X-12.5000 Y-69.3873 Z-1.0000 F120.00
G1 X-1.0000 Y-57.8873 Z-1.0000 F120.00
G1 X-1.0000 Y-60.7157 Z-1.0000 F120.00
G1 X-12.5000 Y-72.2157 Z-1.0000 F120.00
G1 X-12.5000 Y-75.0442 Z-1.0000 F120.00
G1 X-1.0000 Y-63.5442 Z-1.0000 F120.00
G1 X-1.0000 Y-66.3726 Z-1.0000 F120.00
G1 X-12.5000 Y-77.8726 Z-1.0000 F120.00
G1 X-12.5000 Y-80.7010 Z-1.0000 F120.00
G1 X-1.0000 Y-69.2010 Z-1.0000 F120.00
G1 X-1.0000 Y-72.0294 Z-1.0000 F120.00
G1 X-12.5000 Y-83.5294 Z-1.0000 F120.00
G1 X-12.5000 Y-86.3579 Z-1.0000 F120.00
G1 X-1.0000 Y-74.8579 Z-1.0000 F120.00
G1 X-1.0000 Y-77.6863 Z-1.0000 F120.00
G1 X-11.8116 Y-88.4978 Z-1.0000 F120.00
G3 X-10.8124 Y-88.9723 Z-1.0000 I1.2856 J1.4179 F120.00
G3 X-9.4853 Y-89.0000 Z-1.0000 I0.8394 J8.4174 F120.00
G1 X-1.0000 Y-80.5147 Z-1.0000 F120.00
G1 X-1.0000 Y-83.3431 Z-1.0000 F120.00
G1 X-6.6569 Y-89.0000 Z-1.0000 F120.00
G1 X-3.8284 Y-89.0000 Z-1.0000 F120.00
G1 X-1.0000 Y-86.1716 Z-1.0000 F120.00
G1 X-1.0000 Y-89.0000 Z-1.0000 F120.00
G1 X-1.0000 Y-89.0000 Z-2.0000 F60.00
G1 X-1.0000 Y-86.1716 Z-2.0000 F120.00
G1 X-3.8284 Y-89.0000 Z-2.0000 F120.00
G1 X-6.6569 Y-89.0000 Z-2.0000 F120.00
G1 X-1.0000 Y-83.3431 Z-2.0000 F120.00
G1 X-1.0000 Y-80.5147 Z-2.0000 F120.00
G1 X-9.4853 Y-89.0000 Z-2.0000 F120.00
G2 X-10.8124 Y-88.9723 Z-2.0000 I-0.4877 J8.4451 F120.00
G2 X-11.8116 Y-88.4978 Z-2.0000 I0.2864 J1.8924 F120.00
G1 X-1.0000 Y-77.6863 Z-2.0000 F120.00
G1 X-1.0000 Y-74.8579 Z-2.0000 F120.00
G1 X-12.5000 Y-86.3579 Z-2.0000 F120.00
G1 X-12.5000 Y-83.5294 Z-2.0000 F120.00
G1 X-1.0000 Y-72.0294 Z-2.0000 F120.00
G1 X-1.0000 Y-69.2010 Z-2.0000 F120.00
G1 X-12.5000 Y-80.7010 Z-2.0000 F120.00
G1 X-12.5000 Y-77.8726 Z-2.0000 F120.00
G1 X-1.0000 Y-66.3726 Z-2.0000 F120.00
G1 X-1.0000 Y-63.5442 Z-2.0000 F120.00
G1 X-12.5000 Y-75.0442 Z-2.0000 F120.00
G1 X-12.5000 Y-72.2157 Z-2.0000 F120.00
G1 X-1.0000 Y-60.7157 Z-2.0000 F120.00
G1 X-1.0000 Y-57.8873 Z-2.0000 F120.00
G1 X-12.5000 Y-69.3873 Z-2.0000 F120.00
G1 X-12.5000 Y-66.5589 Z-2.0000 F120.00
G1 X-1.0000 Y-55.0589 Z-2.0000 F120.00
G1 X-1.0000 Y-52.2304 Z-2.0000 F120.00
G1 X-12.5000 Y-63.7304 Z-2.0000 F120.00
G1 X-12.5000 Y-60.9020 Z-2.0000 F120.00
G1 X-1.0000 Y-49.4020 Z-2.0000 F120.00
G1 X-1.0000 Y-46.5736 Z-2.0000 F120.00
G1 X-12.5000 Y-58.0736 Z-2.0000 F120.00
G1 X-12.5000 Y-55.2452 Z-2.0000 F120.00
G1 X-1.0000 Y-43.7452 Z-2.0000 F120.00
G1 X-1.0000 Y-40.9167 Z-2.0000 F120.00
G1 X-12.5000 Y-52.4167 Z-2.0000 F120.00
G1 X-12.5000 Y-49.5883 Z-2.0000 F120.00
G1 X-1.0000 Y-38.0883 Z-2.0000 F120.00
G1 X-1.0000 Y-35.2599 Z-2.0000 F120.00
G1 X-12.5000 Y-46.7599 Z-2.0000 F120.00
G1 X-12.5000 Y-43.9315 Z-2.0000 F120.00
G1 X-1.0000 Y-32.4315 Z-2.0000 F120.00
G1 X-1.0000 Y-29.6030 Z-2.0000 F120.00
G1 X-12.5000 Y-41.1030 Z-2.0000 F120.00
G1 X-12.5000 Y-38.2746 Z-2.0000 F120.00
G1 X-1.0000 Y-26.7746 Z-2.0000 F120.00
G1 X-1.0000 Y-23.9462 Z-2.0000 F120.00
G1 X-12.5000 Y-35.4462 Z-2.0000 F120.00
G1 X-12.5000 Y-32.6177 Z-2.0000 F120.00
G1 X-1.0000 Y-21.1177 Z-2.0000 F120.00
G1 X-1.0000 Y-18.2893 Z-2.0000 F120.00
G1 X-12.5000 Y-29.7893 Z-2.0000 F120.00
G1 X-12.5000 Y-26.9609 Z-2.0000 F120.00
G1 X-1.0000 Y-15.4609 Z-2.0000 F120.00
G1 X-1.0000 Y-12.6325 Z-2.0000 F120.00
G1 X-12.5000 Y-24.1325 Z-2.0000 F120.00
G1 X-12.5000 Y-21.3040 Z-2.0000 F120.00
G1 X-1.0000 Y-9.8040 Z-2.0000 F120.00
G1 X-1.0000 Y-6.9756 Z-2.0000 F120.00
G1 X-12.5000 Y-18.4756 Z-2.0000 F120.00
G1 X-12.5000 Y-15.6472 Z-2.0000 F120.00
G1 X-1.0000 Y-4.1472 Z-2.0000 F120.00
G1 X-1.0000 Y-1.3188 Z-2.0000 F120.00
G1 X-12.5000 Y-12.8188 Z-2.0000 F120.00
G1 X-12.5000 Y-9.9903 Z-2.0000 F120.00
G1 X-3.5097 Y-1.0000 Z-2.0000 F120.00
G1 X-6.3381 Y-1.0000 Z-2.0000 F120.00
G1 X-12.5000 Y-7.1619 Z-2.0000 F120.00
G1 X-12.5000 Y-4.3335 Z-2.0000 F120.00
G1 X-12.5000 Y-3.0393 Z-2.0000 F120.00
G2 X-10.8124 Y-1.0277 Z-2.0000 I2.0044 J0.0322 F120.00
G2 X-9.1665 Y-1.0000 Z-2.0000 I0.9988 J-10.4425 F120.00
G1 X-12.5000 Y-4.3335 Z-2.0000 F120.00
G1 X-12.5000 Y-4.3335 Z-2.0000 F60.00
G1 X-12.5000 Y-3.0393 Z-2.0000 F120.00
G2 X-10.4607 Y-1.0000 Z-2.0000 I2.0081 J0.0312 F120.00
G1 X-1.0000 Y-1.0000 Z-2.0000 F120.00
G1 X-1.0000 Y-89.0000 Z-2.0000 F120.00
G1 X-10.4607 Y-89.0000 Z-2.0000 F120.00
G2 X-12.5000 Y-86.9607 Z-2.0000 I-0.0312 J2.0081 F120.00
G1 X-12.5000 Y-4.3335 Z-2.0000 F120.00
G1 X-12.5000 Y-4.3335 Z-3.0000 F60.00
G1 X-12.5000 Y-3.0393 Z-3.0000 F120.00
G2 X-10.4607 Y-1.0000 Z-3.0000 I2.0081 J0.0312 F120.00
G1 X-1.0000 Y-1.0000 Z-3.0000 F120.00
G1 X-1.0000 Y-89.0000 Z-3.0000 F120.00
G1 X-10.4607 Y-89.0000 Z-3.0000 F120.00
G2 X-12.5000 Y-86.9607 Z-3.0000 I-0.0312 J2.0081 F120.00
G1 X-12.5000 Y-4.3335 Z-3.0000 F120.00
G1 X-12.5000 Y-4.3335 Z-3.0000 F60.00
G1 X-9.1665 Y-1.0000 Z-3.0000 F120.00
G3 X-10.8124 Y-1.0277 Z-3.0000 I-0.6471 J-10.4702 F120.00
G3 X-12.5000 Y-3.0393 Z-3.0000 I0.3167 J-1.9794 F120.00
G1 X-12.5000 Y-4.3335 Z-3.0000 F120.00
G1 X-12.5000 Y-7.1619 Z-3.0000 F120.00
G1 X-6.3381 Y-1.0000 Z-3.0000 F120.00
G1 X-3.5097 Y-1.0000 Z-3.0000 F120.00
G1 X-12.5000 Y-9.9903 Z-3.0000 F120.00
G1 X-12.5000 Y-12.8188 Z-3.0000 F120.00
G1 X-1.0000 Y-1.3188 Z-3.0000 F120.00
G1 X-1.0000 Y-4.1472 Z-3.0000 F120.00
G1 X-12.5000 Y-15.6472 Z-3.0000 F120.00
G1 X-12.5000 Y-18.4756 Z-3.0000 F120.00
G1 X-1.0000 Y-6.9756 Z-3.0000 F120.00
G1 X-1.0000 Y-9.8040 Z-3.0000 F120.00
G1 X-12.5000 Y-21.3040 Z-3.0000 F120.00
G1 X-12.5000 Y-24.1325 Z-3.0000 F120.00
G1 X-1.0000 Y-12.6325 Z-3.0000 F120.00
G1 X-1.0000 Y-15.4609 Z-3.0000 F120.00
G1 X-12.5000 Y-26.9609 Z-3.0000 F120.00
G1 X-12.5000 Y-29.7893 Z-3.0000 F120.00
G1 X-1.0000 Y-18.2893 Z-3.0000 F120.00
G1 X-1.0000 Y-21.1177 Z-3.0000 F120.00
G1 X-12.5000 Y-32.6177 Z-3.0000 F120.00
G1 X-12.5000 Y-35.4462 Z-3.0000 F120.00
G1 X-1.0000 Y-23.9462 Z-3.0000 F120.00
G1 X-1.0000 Y-26.7746 Z-3.0000 F120.00
G1 X-12.5000 Y-38.2746 Z-3.0000 F120.00
G1 X-12.5000 Y-41.1030 Z-3.0000 F120.00
G1 X-1.0000 Y-29.6030 Z-3.0000 F120.00
G1 X-1.0000 Y-32.4315 Z-3.0000 F120.00
G1 X-12.5000 Y-43.9315 Z-3.0000 F120.00
G1 X-12.5000 Y-46.7599 Z-3.0000 F120.00
G1 X-1.0000 Y-35.2599 Z-3.0000 F120.00
G1 X-1.0000 Y-38.0883 Z-3.0000 F120.00
G1 X-12.5000 Y-49.5883 Z-3.0000 F120.00
G1 X-12.5000 Y-52.4167 Z-3.0000 F120.00
G1 X-1.0000 Y-40.9167 Z-3.0000 F120.00
G1 X-1.0000 Y-43.7452 Z-3.0000 F120.00
G1 X-12.5000 Y-55.2452 Z-3.0000 F120.00
G1 X-12.5000 Y-58.0736 Z-3.0000 F120.00
G1 X-1.0000 Y-46.5736 Z-3.0000 F120.00
G1 X-1.0000 Y-49.4020 Z-3.0000 F120.00
G1 X-12.5000 Y-60.9020 Z-3.0000 F120.00
G1 X-12.5000 Y-63.7304 Z-3.0000 F120.00
G1 X-1.0000 Y-52.2304 Z-3.0000 F120.00
G1 X-1.0000 Y-55.0589 Z-3.0000 F120.00
G1 X-12.5000 Y-66.5589 Z-3.0000 F120.00
G1 X-12.5000 Y-69.3873 Z-3.0000 F120.00
G1 X-1.0000 Y-57.8873 Z-3.0000 F120.00
G1 X-1.0000 Y-60.7157 Z-3.0000 F120.00
G1 X-12.5000 Y-72.2157 Z-3.0000 F120.00
G1 X-12.5000 Y-75.0442 Z-3.0000 F120.00
G1 X-1.0000 Y-63.5442 Z-3.0000 F120.00
G1 X-1.0000 Y-66.3726 Z-3.0000 F120.00
G1 X-12.5000 Y-77.8726 Z-3.0000 F120.00
G1 X-12.5000 Y-80.7010 Z-3.0000 F120.00
G1 X-1.0000 Y-69.2010 Z-3.0000 F120.00
G1 X-1.0000 Y-72.0294 Z-3.0000 F120.00
G1 X-12.5000 Y-83.5294 Z-3.0000 F120.00
G1 X-12.5000 Y-86.3579 Z-3.0000 F120.00
G1 X-1.0000 Y-74.8579 Z-3.0000 F120.00
G1 X-1.0000 Y-77.6863 Z-3.0000 F120.00
G1 X-11.8116 Y-88.4978 Z-3.0000 F120.00
G3 X-10.8124 Y-88.9723 Z-3.0000 I1.2856 J1.4179 F120.00
G3 X-9.4853 Y-89.0000 Z-3.0000 I0.8394 J8.4174 F120.00
G1 X-1.0000 Y-80.5147 Z-3.0000 F120.00
G1 X-1.0000 Y-83.3431 Z-3.0000 F120.00
G1 X-6.6569 Y-89.0000 Z-3.0000 F120.00
G1 X-3.8284 Y-89.0000 Z-3.0000 F120.00
G1 X-1.0000 Y-86.1716 Z-3.0000 F120.00
G1 X-1.0000 Y-89.0000 Z-3.0000 F120.00
G1 X-1.0000 Y-89.0000 Z-4.0000 F60.00
G1 X-1.0000 Y-86.1716 Z-4.0000 F120.00
G1 X-3.8284 Y-89.0000 Z-4.0000 F120.00
G1 X-6.6569 Y-89.0000 Z-4.0000 F120.00
G1 X-1.0000 Y-83.3431 Z-4.0000 F120.00
G1 X-1.0000 Y-80.5147 Z-4.0000 F120.00
G1 X-9.4853 Y-89.0000 Z-4.0000 F120.00
G2 X-10.8124 Y-88.9723 Z-4.0000 I-0.4877 J8.4451 F120.00
G2 X-11.8116 Y-88.4978 Z-4.0000 I0.2864 J1.8924 F120.00
G1 X-1.0000 Y-77.6863 Z-4.0000 F120.00
G1 X-1.0000 Y-74.8579 Z-4.0000 F120.00
G1 X-12.5000 Y-86.3579 Z-4.0000 F120.00
G1 X-12.5000 Y-83.5294 Z-4.0000 F120.00
G1 X-1.0000 Y-72.0294 Z-4.0000 F120.00
G1 X-1.0000 Y-69.2010 Z-4.0000 F120.00
G1 X-12.5000 Y-80.7010 Z-4.0000 F120.00
G1 X-12.5000 Y-77.8726 Z-4.0000 F120.00
G1 X-1.0000 Y-66.3726 Z-4.0000 F120.00
G1 X-1.0000 Y-63.5442 Z-4.0000 F120.00
G1 X-12.5000 Y-75.0442 Z-4.0000 F120.00
G1 X-12.5000 Y-72.2157 Z-4.0000 F120.00
G1 X-1.0000 Y-60.7157 Z-4.0000 F120.00
G1 X-1.0000 Y-57.8873 Z-4.0000 F120.00
G1 X-12.5000 Y-69.3873 Z-4.0000 F120.00
G1 X-12.5000 Y-66.5589 Z-4.0000 F120.00
G1 X-1.0000 Y-55.0589 Z-4.0000 F120.00
G1 X-1.0000 Y-52.2304 Z-4.0000 F120.00
G1 X-12.5000 Y-63.7304 Z-4.0000 F120.00
G1 X-12.5000 Y-60.9020 Z-4.0000 F120.00
G1 X-1.0000 Y-49.4020 Z-4.0000 F120.00
G1 X-1.0000 Y-46.5736 Z-4.0000 F120.00
G1 X-12.5000 Y-58.0736 Z-4.0000 F120.00
G1 X-12.5000 Y-55.2452 Z-4.0000 F120.00
G1 X-1.0000 Y-43.7452 Z-4.0000 F120.00
G1 X-1.0000 Y-40.9167 Z-4.0000 F120.00
G1 X-12.5000 Y-52.4167 Z-4.0000 F120.00
G1 X-12.5000 Y-49.5883 Z-4.0000 F120.00
G1 X-1.0000 Y-38.0883 Z-4.0000 F120.00
G1 X-1.0000 Y-35.2599 Z-4.0000 F120.00
G1 X-12.5000 Y-46.7599 Z-4.0000 F120.00
G1 X-12.5000 Y-43.9315 Z-4.0000 F120.00
G1 X-1.0000 Y-32.4315 Z-4.0000 F120.00
G1 X-1.0000 Y-29.6030 Z-4.0000 F120.00
G1 X-12.5000 Y-41.1030 Z-4.0000 F120.00
G1 X-12.5000 Y-38.2746 Z-4.0000 F120.00
G1 X-1.0000 Y-26.7746 Z-4.0000 F120.00
G1 X-1.0000 Y-23.9462 Z-4.0000 F120.00
G1 X-12.5000 Y-35.4462 Z-4.0000 F120.00
G1 X-12.5000 Y-32.6177 Z-4.0000 F120.00
G1 X-1.0000 Y-21.1177 Z-4.0000 F120.00
G1 X-1.0000 Y-18.2893 Z-4.0000 F120.00
G1 X-12.5000 Y-29.7893 Z-4.0000 F120.00
G1 X-12.5000 Y-26.9609 Z-4.0000 F120.00
G1 X-1.0000 Y-15.4609 Z-4.0000 F120.00
G1 X-1.0000 Y-12.6325 Z-4.0000 F120.00
G1 X-12.5000 Y-24.1325 Z-4.0000 F120.00
G1 X-12.5000 Y-21.3040 Z-4.0000 F120.00
G1 X-1.0000 Y-9.8040 Z-4.0000 F120.00
G1 X-1.0000 Y-6.9756 Z-4.0000 F120.00
G1 X-12.5000 Y-18.4756 Z-4.0000 F120.00
G1 X-12.5000 Y-15.6472 Z-4.0000 F120.00
G1 X-1.0000 Y-4.1472 Z-4.0000 F120.00
G1 X-1.0000 Y-1.3188 Z-4.0000 F120.00
G1 X-12.5000 Y-12.8188 Z-4.0000 F120.00
G1 X-12.5000 Y-9.9903 Z-4.0000 F120.00
G1 X-3.5097 Y-1.0000 Z-4.0000 F120.00
G1 X-6.3381 Y-1.0000 Z-4.0000 F120.00
G1 X-12.5000 Y-7.1619 Z-4.0000 F120.00
G1 X-12.5000 Y-4.3335 Z-4.0000 F120.00
G1 X-12.5000 Y-3.0393 Z-4.0000 F120.00
G2 X-10.8124 Y-1.0277 Z-4.0000 I2.0044 J0.0322 F120.00
G2 X-9.1665 Y-1.0000 Z-4.0000 I0.9988 J-10.4425 F120.00
G1 X-12.5000 Y-4.3335 Z-4.0000 F120.00
G1 X-12.5000 Y-4.3335 Z-4.0000 F60.00
G1 X-12.5000 Y-3.0393 Z-4.0000 F120.00
G2 X-10.4607 Y-1.0000 Z-4.0000 I2.0081 J0.0312 F120.00
G1 X-1.0000 Y-1.0000 Z-4.0000 F120.00
G1 X-1.0000 Y-89.0000 Z-4.0000 F120.00
G1 X-10.4607 Y-89.0000 Z-4.0000 F120.00
G2 X-12.5000 Y-86.9607 Z-4.0000 I-0.0312 J2.0081 F120.00
G1 X-12.5000 Y-4.3335 Z-4.0000 F120.00
G1 X-12.5000 Y-4.3335 Z-5.0000 F60.00
G1 X-12.5000 Y-3.0393 Z-5.0000 F120.00
G2 X-10.4607 Y-1.0000 Z-5.0000 I2.0081 J0.0312 F120.00
G1 X-1.0000 Y-1.0000 Z-5.0000 F120.00
G1 X-1.0000 Y-89.0000 Z-5.0000 F120.00
G1 X-10.4607 Y-89.0000 Z-5.0000 F120.00
G2 X-12.5000 Y-86.9607 Z-5.0000 I-0.0312 J2.0081 F120.00
G1 X-12.5000 Y-4.3335 Z-5.0000 F120.00
G1 X-12.5000 Y-4.3335 Z-5.0000 F60.00
G1 X-9.1665 Y-1.0000 Z-5.0000 F120.00
G3 X-10.8124 Y-1.0277 Z-5.0000 I-0.6471 J-10.4702 F120.00
G3 X-12.5000 Y-3.0393 Z-5.0000 I0.3167 J-1.9794 F120.00
G1 X-12.5000 Y-4.3335 Z-5.0000 F120.00
G1 X-12.5000 Y-7.1619 Z-5.0000 F120.00
G1 X-6.3381 Y-1.0000 Z-5.0000 F120.00
G1 X-3.5097 Y-1.0000 Z-5.0000 F120.00
G1 X-12.5000 Y-9.9903 Z-5.0000 F120.00
G1 X-12.5000 Y-12.8188 Z-5.0000 F120.00
G1 X-1.0000 Y-1.3188 Z-5.0000 F120.00
G1 X-1.0000 Y-4.1472 Z-5.0000 F120.00
G1 X-12.5000 Y-15.6472 Z-5.0000 F120.00
G1 X-12.5000 Y-18.4756 Z-5.0000 F120.00
G1 X-1.0000 Y-6.9756 Z-5.0000 F120.00
G1 X-1.0000 Y-9.8040 Z-5.0000 F120.00
G1 X-12.5000 Y-21.3040 Z-5.0000 F120.00
G1 X-12.5000 Y-24.1325 Z-5.0000 F120.00
G1 X-1.0000 Y-12.6325 Z-5.0000 F120.00
G1 X-1.0000 Y-15.4609 Z-5.0000 F120.00
G1 X-12.5000 Y-26.9609 Z-5.0000 F120.00
G1 X-12.5000 Y-29.7893 Z-5.0000 F120.00
G1 X-1.0000 Y-18.2893 Z-5.0000 F120.00
G1 X-1.0000 Y-21.1177 Z-5.0000 F120.00
G1 X-12.5000 Y-32.6177 Z-5.0000 F120.00
G1 X-12.5000 Y-35.4462 Z-5.0000 F120.00
G1 X-1.0000 Y-23.9462 Z-5.0000 F120.00
G1 X-1.0000 Y-26.7746 Z-5.0000 F120.00
G1 X-12.5000 Y-38.2746 Z-5.0000 F120.00
G1 X-12.5000 Y-41.1030 Z-5.0000 F120.00
G1 X-1.0000 Y-29.6030 Z-5.0000 F120.00
G1 X-1.0000 Y-32.4315 Z-5.0000 F120.00
G1 X-12.5000 Y-43.9315 Z-5.0000 F120.00
G1 X-12.5000 Y-46.7599 Z-5.0000 F120.00
G1 X-1.0000 Y-35.2599 Z-5.0000 F120.00
G1 X-1.0000 Y-38.0883 Z-5.0000 F120.00
G1 X-12.5000 Y-49.5883 Z-5.0000 F120.00
G1 X-12.5000 Y-52.4167 Z-5.0000 F120.00
G1 X-1.0000 Y-40.9167 Z-5.0000 F120.00
G1 X-1.0000 Y-43.7452 Z-5.0000 F120.00
G1 X-12.5000 Y-55.2452 Z-5.0000 F120.00
G1 X-12.5000 Y-58.0736 Z-5.0000 F120.00
G1 X-1.0000 Y-46.5736 Z-5.0000 F120.00
G1 X-1.0000 Y-49.4020 Z-5.0000 F120.00
G1 X-12.5000 Y-60.9020 Z-5.0000 F120.00
G1 X-12.5000 Y-63.7304 Z-5.0000 F120.00
G1 X-1.0000 Y-52.2304 Z-5.0000 F120.00
G1 X-1.0000 Y-55.0589 Z-5.0000 F120.00
G1 X-12.5000 Y-66.5589 Z-5.0000 F120.00
G1 X-12.5000 Y-69.3873 Z-5.0000 F120.00
G1 X-1.0000 Y-57.8873 Z-5.0000 F120.00
G1 X-1.0000 Y-60.7157 Z-5.0000 F120.00
G1 X-12.5000 Y-72.2157 Z-5.0000 F120.00
G1 X-12.5000 Y-75.0442 Z-5.0000 F120.00
G1 X-1.0000 Y-63.5442 Z-5.0000 F120.00
G1 X-1.0000 Y-66.3726 Z-5.0000 F120.00
G1 X-12.5000 Y-77.8726 Z-5.0000 F120.00
G1 X-12.5000 Y-80.7010 Z-5.0000 F120.00
G1 X-1.0000 Y-69.2010 Z-5.0000 F120.00
G1 X-1.0000 Y-72.0294 Z-5.0000 F120.00
G1 X-12.5000 Y-83.5294 Z-5.0000 F120.00
G1 X-12.5000 Y-86.3579 Z-5.0000 F120.00
G1 X-1.0000 Y-74.8579 Z-5.0000 F120.00
G1 X-1.0000 Y-77.6863 Z-5.0000 F120.00
G1 X-11.8116 Y-88.4978 Z-5.0000 F120.00
G3 X-10.8124 Y-88.9723 Z-5.0000 I1.2856 J1.4179 F120.00
G3 X-9.4853 Y-89.0000 Z-5.0000 I0.8394 J8.4174 F120.00
G1 X-1.0000 Y-80.5147 Z-5.0000 F120.00
G1 X-1.0000 Y-83.3431 Z-5.0000 F120.00
G1 X-6.6569 Y-89.0000 Z-5.0000 F120.00
G1 X-3.8284 Y-89.0000 Z-5.0000 F120.00
G1 X-1.0000 Y-86.1716 Z-5.0000 F120.00
G1 X-1.0000 Y-89.0000 Z-5.0000 F120.00
G0 Z6.0000
G0 X81.9120 Y-1.5880
G0 Z4.0000
G1 X81.9120 Y-1.5880 Z-1.0000 F60.00
G2 X82.5000 Y-3.0393 Z-1.0000 I-1.4201 J-1.4201 F120.00
G1 X82.5000 Y-86.9607 Z-1.0000 F120.00
G2 X80.4607 Y-89.0000 Z-1.0000 I-2.0081 J-0.0312 F120.00
G1 X71.0000 Y-89.0000 Z-1.0000 F120.00
G1 X71.0000 Y-1.0000 Z-1.0000 F120.00
G1 X80.4607 Y-1.0000 Z-1.0000 F120.00
G2 X81.9120 Y-1.5880 Z-1.0000 I0.0312 J-2.0081 F120.00
G0 X81.9120 Y-1.5880 Z6.0000
G0 X71.0000 Y-3.1575 Z6.0000
G0 X71.0000 Y-3.1575 Z3.0000
G1 X71.0000 Y-3.1575 Z-1.0000 F60.00
G1 X73.1575 Y-1.0000 Z-1.0000 F120.00
G1 X71.0000 Y-1.0000 Z-1.0000 F120.00
G1 X71.0000 Y-3.1575 Z-1.0000 F120.00
G1 X71.0000 Y-5.9860 Z-1.0000 F120.00
G1 X75.9860 Y-1.0000 Z-1.0000 F120.00
G1 X78.8144 Y-1.0000 Z-1.0000 F120.00
G1 X71.0000 Y-8.8144 Z-1.0000 F120.00
G1 X71.0000 Y-11.6428 Z-1.0000 F120.00
G1 X81.4162 Y-1.2266 Z-1.0000 F120.00
G2 X82.4950 Y-2.9762 Z-1.0000 I-0.9092 J-1.7681 F120.00
G1 X71.0000 Y-14.4712 Z-1.0000 F120.00
G1 X71.0000 Y-17.2997 Z-1.0000 F120.00
G1 X82.5000 Y-5.7997 Z-1.0000 F120.00
G1 X82.5000 Y-8.6281 Z-1.0000 F120.00
G1 X71.0000 Y-20.1281 Z-1.0000 F120.00
G1 X71.0000 Y-22.9565 Z-1.0000 F120.00
G1 X82.5000 Y-11.4565 Z-1.0000 F120.00
G1 X82.5000 Y-14.2849 Z-1.0000 F120.00
G1 X71.0000 Y-25.7849 Z-1.0000 F120.00
G1 X71.0000 Y-28.6134 Z-1.0000 F120.00
G1 X82.5000 Y-17.1134 Z-1.0000 F120.00
G1 X82.5000 Y-19.9418 Z-1.0000 F120.00
G1 X71.0000 Y-31.4418 Z-1.0000 F120.00
G1 X71.0000 Y-34.2702 Z-1.0000 F120.00
G1 X82.5000 Y-22.7702 Z-1.0000 F120.00
G1 X82.5000 Y-25.5987 Z-1.0000 F120.00
G1 X71.0000 Y-37.0987 Z-1.0000 F120.00
G1 X71.0000 Y-39.9271 Z-1.0000 F120.00
G1 X82.5000 Y-28.4271 Z-1.0000 F120.00
G1 X82.5000 Y-31.2555 Z-1.0000 F120.00
G1 X71.0000 Y-42.7555 Z-1.0000 F120.00
G1 X71.0000 Y-45.5839 Z-1.0000 F120.00
G1 X82.5000 Y-34.0839 Z-1.0000 F120.00
G1 X82.5000 Y-36.9124 Z-1.0000 F120.00
G1 X71.0000 Y-48.4124 Z-1.0000 F120.00
G1 X71.0000 Y-51.2408 Z-1.0000 F120.00
G1 X82.5000 Y-39.7408 Z-1.0000 F120.00
G1 X82.5000 Y-42.5692 Z-1.0000 F120.00
G1 X71.0000 Y-54.0692 Z-1.0000 F120.00
G1 X71.0000 Y-56.8976 Z-1.0000 F120.00
G1 X82.5000 Y-45.3976 Z-1.0000 F120.00
G1 X82.5000 Y-48.2261 Z-1.0000 F120.00
G1 X71.0000 Y-59.7261 Z-1.0000 F120.00
G1 X71.0000 Y-62.5545 Z-1.0000 F120.00
G1 X82.5000 Y-51.0545 Z-1.0000 F120.00
G1 X82.5000 Y-53.8829 Z-1.0000 F120.00
G1 X71.0000 Y-65.3829 Z-1.0000 F120.00
G1 X71.0000 Y-68.2114 Z-1.0000 F120.00
G1 X82.5000 Y-56.7114 Z-1.0000 F120.00
G1 X82.5000 Y-59.5398 Z-1.0000 F120.00
G1 X71.0000 Y-71.0398 Z-1.0000 F120.00
G1 X71.0000 Y-73.8682 Z-1.0000 F120.00
G1 X82.5000 Y-62.3682 Z-1.0000 F120.00
G1 X82.5000 Y-65.1966 Z-1.0000 F120.00
G1 X71.0000 Y-76.6966 Z-1.0000 F120.00
G1 X71.0000 Y-79.5251 Z-1.0000 F120.00
G1 X82.5000 Y-68.0251 Z-1.0000 F120.00
G1 X82.5000 Y-70.8535 Z-1.0000 F120.00
G1 X71.0000 Y-82.3535 Z-1.0000 F120.00
G1 X71.0000 Y-85.1819 Z-1.0000 F120.00
G1 X82.5000 Y-73.6819 Z-1.0000 F120.00
G1 X82.5000 Y-76.5103 Z-1.0000 F120.00
G1 X71.0000 Y-88.0103 Z-1.0000 F120.00
G1 X71.0000 Y-89.0000 Z-1.0000 F120.00
G1 X72.8388 Y-89.0000 Z-1.0000 F120.00
G1 X82.5000 Y-79.3388 Z-1.0000 F120.00
G1 X82.5000 Y-82.1672 Z-1.0000 F120.00
G1 X75.6672 Y-89.0000 Z-1.0000 F120.00
G1 X78.4956 Y-89.0000 Z-1.0000 F120.00
G1 X82.5000 Y-84.9956 Z-1.0000 F120.00
G1 X82.5000 Y-86.9607 Z-1.0000 F120.00
G2 X81.9120 Y-88.4120 Z-1.0000 I-2.0231 J-0.0252 F120.00
G1 X81.9120 Y-88.4120 Z-2.0000 F60.00
G3 X82.5000 Y-86.9607 Z-2.0000 I-1.4351 J1.4262 F120.00
G1 X82.5000 Y-84.9956 Z-2.0000 F120.00
G1 X78.4956 Y-89.0000 Z-2.0000 F120.00
G1 X75.6672 Y-89.0000 Z-2.0000 F120.00
G1 X82.5000 Y-82.1672 Z-2.0000 F120.00
G1 X82.5000 Y-79.3388 Z-2.0000 F120.00
G1 X72.8388 Y-89.0000 Z-2.0000 F120.00
G1 X71.0000 Y-89.0000 Z-2.0000 F120.00
G1 X71.0000 Y-88.0103 Z-2.0000 F120.00
G1 X82.5000 Y-76.5103 Z-2.0000 F120.00
G1 X82.5000 Y-73.6819 Z-2.0000 F120.00
G1 X71.0000 Y-85.1819 Z-2.0000 F120.00
G1 X71.0000 Y-82.3535 Z-2.0000 F120.00
G1 X82.5000 Y-70.8535 Z-2.0000 F120.00
G1 X82.5000 Y-68.0251 Z-2.0000 F120.00
G1 X71.0000 Y-79.5251 Z-2.0000 F120.00
G1 X71.0000 Y-76.6966 Z-2.0000 F120.00
G1 X82.5000 Y-65.1966 Z-2.0000 F120.00
G1 X82.5000 Y-62.3682 Z-2.0000 F120.00
G1 X71.0000 Y-73.8682 Z-2.0000 F120.00
G1 X71.0000 Y-71.0398 Z-2.0000 F120.00
G1 X82.5000 Y-59.5398 Z-2.0000 F120.00
G1 X82.5000 Y-56.7114 Z-2.0000 F120.00
G1 X71.0000 Y-68.2114 Z-2.0000 F120.00
G1 X71.0000 Y-65.3829 Z-2.0000 F120.00
G1 X82.5000 Y-53.8829 Z-2.0000 F120.00
G1 X82.5000 Y-51.0545 Z-2.0000 F120.00
G1 X71.0000 Y-62.5545 Z-2.0000 F120.00
G1 X71.0000 Y-59.7261 Z-2.0000 F120.00
G1 X82.5000 Y-48.2261 Z-2.0000 F120.00
G1 X82.5000 Y-45.3976 Z-2.0000 F120.00
G1 X71.0000 Y-56.8976 Z-2.0000 F120.00
G1 X71.0000 Y-54.0692 Z-2.0000 F120.00
G1 X82.5000 Y-42.5692 Z-2.0000 F120.00
G1 X82.5000 Y-39.7408 Z-2.0000 F120.00
G1 X71.0000 Y-51.2408 Z-2.0000 F120.00
G1 X71.0000 Y-48.4124 Z-2.0000 F120.00
G1 X82.5000 Y-36.9124 Z-2.0000 F120.00
G1 X82.5000 Y-34.0839 Z-2.0000 F120.00
G1 X71.0000 Y-45.5839 Z-2.0000 F120.00
G1 X71.0000 Y-42.7555 Z-2.0000 F120.00
G1 X82.5000 Y-31.2555 Z-2.0000 F120.00
G1 X82.5000 Y-28.4271 Z-2.0000 F120.00
G1 X71.0000 Y-39.9271 Z-2.0000 F120.00
G1 X71.0000 Y-37.0987 Z-2.0000 F120.00
G1 X82.5000 Y-25.5987 Z-2.0000 F120.00
G1 X82.5000 Y-22.7702 Z-2.0000 F120.00
G1 X71.0000 Y-34.2702 Z-2.0000 F120.00
G1 X71.0000 Y-31.4418 Z-2.0000 F120.00
G1 X82.5000 Y-19.9418 Z-2.0000 F120.00
G1 X82.5000 Y-17.1134 Z-2.0000 F120.00
G1 X71.0000 Y-28.6134 Z-2.0000 F120.00
G1 X71.0000 Y-25.7849 Z-2.0000 F120.00
G1 X82.5000 Y-14.2849 Z-2.0000 F120.00
G1 X82.5000 Y-11.4565 Z-2.0000 F120.00
G1 X71.0000 Y-22.9565 Z-2.0000 F120.00
G1 X71.0000 Y-20.1281 Z-2.0000 F120.00
G1 X82.5000 Y-8.6281 Z-2.0000 F120.00
G1 X82.5000 Y-5.7997 Z-2.0000 F120.00
G1 X71.0000 Y-17.2997 Z-2.0000 F120.00
G1 X71.0000 Y-14.4712 Z-2.0000 F120.00
G1 X82.4950 Y-2.9762 Z-2.0000 F120.00
G3 X81.4162 Y-1.2266 Z-2.0000 I-1.9880 J-0.0185 F120.00
G1 X71.0000 Y-11.6428 Z-2.0000 F120.00
G1 X71.0000 Y-8.8144 Z-2.0000 F120.00
G1 X78.8144 Y-1.0000 Z-2.0000 F120.00
G1 X75.9860 Y-1.0000 Z-2.0000 F120.00
G1 X71.0000 Y-5.9860 Z-2.0000 F120.00
G1 X71.0000 Y-3.1575 Z-2.0000 F120.00
G1 X71.0000 Y-1.0000 Z-2.0000 F120.00
G1 X73.1575 Y-1.0000 Z-2.0000 F120.00
G1 X71.0000 Y-3.1575 Z-2.0000 F120.00
G1 X71.0000 Y-3.1575 Z-2.0000 F60.00
G1 X71.0000 Y-1.0000 Z-2.0000 F120.00
G1 X80.4607 Y-1.0000 Z-2.0000 F120.00
G2 X82.5000 Y-3.0393 Z-2.0000 I0.0312 J-2.0081 F120.00
G1 X82.5000 Y-86.9607 Z-2.0000 F120.00
G2 X80.4607 Y-89.0000 Z-2.0000 I-2.0081 J-0.0312 F120.00
G1 X71.0000 Y-89.0000 Z-2.0000 F120.00
G1 X71.0000 Y-3.1575 Z-2.0000 F120.00
G1 X71.0000 Y-3.1575 Z-3.0000 F60.00
G1 X71.0000 Y-1.0000 Z-3.0000 F120.00
G1 X80.4607 Y-1.0000 Z-3.0000 F120.00
G2 X82.5000 Y-3.0393 Z-3.0000 I0.0312 J-2.0081 F120.00
G1 X82.5000 Y-86.9607 Z-3.0000 F120.00
G2 X80.4607 Y-89.0000 Z-3.0000 I-2.0081 J-0.0312 F120.00
G1 X71.0000 Y-89.0000 Z-3.0000 F120.00
G1 X71.0000 Y-3.1575 Z-3.0000 F120.00
G1 X71.0000 Y-3.1575 Z-3.0000 F60.00
G1 X73.1575 Y-1.0000 Z-3.0000 F120.00
G1 X71.0000 Y-1.0000 Z-3.0000 F120.00
G1 X71.0000 Y-3.1575 Z-3.0000 F120.00
G1 X71.0000 Y-5.9860 Z-3.0000 F120.00
G1 X75.9860 Y-1.0000 Z-3.0000 F120.00
G1 X78.8144 Y-1.0000 Z-3.0000 F120.00
G1 X71.0000 Y-8.8144 Z-3.0000 F120.00
G1 X71.0000 Y-11.6428 Z-3.0000 F120.00
G1 X81.4162 Y-1.2266 Z-3.0000 F120.00
G2 X82.4950 Y-2.9762 Z-3.0000 I-0.9092 J-1.7681 F120.00
G1 X71.0000 Y-14.4712 Z-3.0000 F120.00
G1 X71.0000 Y-17.2997 Z-3.0000 F120.00
G1 X82.5000 Y-5.7997 Z-3.0000 F120.00
G1 X82.5000 Y-8.6281 Z-3.0000 F120.00
G1 X71.0000 Y-20.1281 Z-3.0000 F120.00
G1 X71.0000 Y-22.9565 Z-3.0000 F120.00
G1 X82.5000 Y-11.4565 Z-3.0000 F120.00
G1 X82.5000 Y-14.2849 Z-3.0000 F120.00
G1 X71.0000 Y-25.7849 Z-3.0000 F120.00
G1 X71.0000 Y-28.6134 Z-3.0000 F120.00
G1 X82.5000 Y-17.1134 Z-3.0000 F120.00
G1 X82.5000 Y-19.9418 Z-3.0000 F120.00
G1 X71.0000 Y-31.4418 Z-3.0000 F120.00
G1 X71.0000 Y-34.2702 Z-3.0000 F120.00
G1 X82.5000 Y-22.7702 Z-3.0000 F120.00
G1 X82.5000 Y-25.5987 Z-3.0000 F120.00
G1 X71.0000 Y-37.0987 Z-3.0000 F120.00
G1 X71.0000 Y-39.9271 Z-3.0000 F120.00
G1 X82.5000 Y-28.4271 Z-3.0000 F120.00
G1 X82.5000 Y-31.2555 Z-3.0000 F120.00
G1 X71.0000 Y-42.7555 Z-3.0000 F120.00
G1 X71.0000 Y-45.5839 Z-3.0000 F120.00
G1 X82.5000 Y-34.0839 Z-3.0000 F120.00
G1 X82.5000 Y-36.9124 Z-3.0000 F120.00
G1 X71.0000 Y-48.4124 Z-3.0000 F120.00
G1 X71.0000 Y-51.2408 Z-3.0000 F120.00
G1 X82.5000 Y-39.7408 Z-3.0000 F120.00
G1 X82.5000 Y-42.5692 Z-3.0000 F120.00
G1 X71.0000 Y-54.0692 Z-3.0000 F120.00
G1 X71.0000 Y-56.8976 Z-3.0000 F120.00
G1 X82.5000 Y-45.3976 Z-3.0000 F120.00
G1 X82.5000 Y-48.2261 Z-3.0000 F120.00
G1 X71.0000 Y-59.7261 Z-3.0000 F120.00
G1 X71.0000 Y-62.5545 Z-3.0000 F120.00
G1 X82.5000 Y-51.0545 Z-3.0000 F120.00
G1 X82.5000 Y-53.8829 Z-3.0000 F120.00
G1 X71.0000 Y-65.3829 Z-3.0000 F120.00
G1 X71.0000 Y-68.2114 Z-3.0000 F120.00
G1 X82.5000 Y-56.7114 Z-3.0000 F120.00
G1 X82.5000 Y-59.5398 Z-3.0000 F120.00
G1 X71.0000 Y-71.0398 Z-3.0000 F120.00
G1 X71.0000 Y-73.8682 Z-3.0000 F120.00
G1 X82.5000 Y-62.3682 Z-3.0000 F120.00
G1 X82.5000 Y-65.1966 Z-3.0000 F120.00
G1 X71.0000 Y-76.6966 Z-3.0000 F120.00
G1 X71.0000 Y-79.5251 Z-3.0000 F120.00
G1 X82.5000 Y-68.0251 Z-3.0000 F120.00
G1 X82.5000 Y-70.8535 Z-3.0000 F120.00
G1 X71.0000 Y-82.3535 Z-3.0000 F120.00
G1 X71.0000 Y-85.1819 Z-3.0000 F120.00
G1 X82.5000 Y-73.6819 Z-3.0000 F120.00
G1 X82.5000 Y-76.5103 Z-3.0000 F120.00
G1 X71.0000 Y-88.0103 Z-3.0000 F120.00
G1 X71.0000 Y-89.0000 Z-3.0000 F120.00
G1 X72.8388 Y-89.0000 Z-3.0000 F120.00
G1 X82.5000 Y-79.3388 Z-3.0000 F120.00
G1 X82.5000 Y-82.1672 Z-3.0000 F120.00
G1 X75.6672 Y-89.0000 Z-3.0000 F120.00
G1 X78.4956 Y-89.0000 Z-3.0000 F120.00
G1 X82.5000 Y-84.9956 Z-3.0000 F120.00
G1 X82.5000 Y-86.9607 Z-3.0000 F120.00
G2 X81.9120 Y-88.4120 Z-3.0000 I-2.0231 J-0.0252 F120.00
G1 X81.9120 Y-88.4120 Z-4.0000 F60.00
G3 X82.5000 Y-86.9607 Z-4.0000 I-1.4351 J1.4262 F120.00
G1 X82.5000 Y-84.9956 Z-4.0000 F120.00
G1 X78.4956 Y-89.0000 Z-4.0000 F120.00
G1 X75.6672 Y-89.0000 Z-4.0000 F120.00
G1 X82.5000 Y-82.1672 Z-4.0000 F120.00
G1 X82.5000 Y-79.3388 Z-4.0000 F120.00
G1 X72.8388 Y-89.0000 Z-4.0000 F120.00
G1 X71.0000 Y-89.0000 Z-4.0000 F120.00
G1 X71.0000 Y-88.0103 Z-4.0000 F120.00
G1 X82.5000 Y-76.5103 Z-4.0000 F120.00
G1 X82.5000 Y-73.6819 Z-4.0000 F120.00
G1 X71.0000 Y-85.1819 Z-4.0000 F120.00
G1 X71.0000 Y-82.3535 Z-4.0000 F120.00
G1 X82.5000 Y-70.8535 Z-4.0000 F120.00
G1 X82.5000 Y-68.0251 Z-4.0000 F120.00
G1 X71.0000 Y-79.5251 Z-4.0000 F120.00
G1 X71.0000 Y-76.6966 Z-4.0000 F120.00
G1 X82.5000 Y-65.1966 Z-4.0000 F120.00
G1 X82.5000 Y-62.3682 Z-4.0000 F120.00
G1 X71.0000 Y-73.8682 Z-4.0000 F120.00
G1 X71.0000 Y-71.0398 Z-4.0000 F120.00
G1 X82.5000 Y-59.5398 Z-4.0000 F120.00
G1 X82.5000 Y-56.7114 Z-4.0000 F120.00
G1 X71.0000 Y-68.2114 Z-4.0000 F120.00
G1 X71.0000 Y-65.3829 Z-4.0000 F120.00
G1 X82.5000 Y-53.8829 Z-4.0000 F120.00
G1 X82.5000 Y-51.0545 Z-4.0000 F120.00
G1 X71.0000 Y-62.5545 Z-4.0000 F120.00
G1 X71.0000 Y-59.7261 Z-4.0000 F120.00
G1 X82.5000 Y-48.2261 Z-4.0000 F120.00
G1 X82.5000 Y-45.3976 Z-4.0000 F120.00
G1 X71.0000 Y-56.8976 Z-4.0000 F120.00
G1 X71.0000 Y-54.0692 Z-4.0000 F120.00
G1 X82.5000 Y-42.5692 Z-4.0000 F120.00
G1 X82.5000 Y-39.7408 Z-4.0000 F120.00
G1 X71.0000 Y-51.2408 Z-4.0000 F120.00
G1 X71.0000 Y-48.4124 Z-4.0000 F120.00
G1 X82.5000 Y-36.9124 Z-4.0000 F120.00
G1 X82.5000 Y-34.0839 Z-4.0000 F120.00
G1 X71.0000 Y-45.5839 Z-4.0000 F120.00
G1 X71.0000 Y-42.7555 Z-4.0000 F120.00
G1 X82.5000 Y-31.2555 Z-4.0000 F120.00
G1 X82.5000 Y-28.4271 Z-4.0000 F120.00
G1 X71.0000 Y-39.9271 Z-4.0000 F120.00
G1 X71.0000 Y-37.0987 Z-4.0000 F120.00
G1 X82.5000 Y-25.5987 Z-4.0000 F120.00
G1 X82.5000 Y-22.7702 Z-4.0000 F120.00
G1 X71.0000 Y-34.2702 Z-4.0000 F120.00
G1 X71.0000 Y-31.4418 Z-4.0000 F120.00
G1 X82.5000 Y-19.9418 Z-4.0000 F120.00
G1 X82.5000 Y-17.1134 Z-4.0000 F120.00
G1 X71.0000 Y-28.6134 Z-4.0000 F120.00
G1 X71.0000 Y-25.7849 Z-4.0000 F120.00
G1 X82.5000 Y-14.2849 Z-4.0000 F120.00
G1 X82.5000 Y-11.4565 Z-4.0000 F120.00
G1 X71.0000 Y-22.9565 Z-4.0000 F120.00
G1 X71.0000 Y-20.1281 Z-4.0000 F120.00
G1 X82.5000 Y-8.6281 Z-4.0000 F120.00
G1 X82.5000 Y-5.7997 Z-4.0000 F120.00
G1 X71.0000 Y-17.2997 Z-4.0000 F120.00
G1 X71.0000 Y-14.4712 Z-4.0000 F120.00
G1 X82.4950 Y-2.9762 Z-4.0000 F120.00
G3 X81.4162 Y-1.2266 Z-4.0000 I-1.9880 J-0.0185 F120.00
G1 X71.0000 Y-11.6428 Z-4.0000 F120.00
G1 X71.0000 Y-8.8144 Z-4.0000 F120.00
G1 X78.8144 Y-1.0000 Z-4.0000 F120.00
G1 X75.9860 Y-1.0000 Z-4.0000 F120.00
G1 X71.0000 Y-5.9860 Z-4.0000 F120.00
G1 X71.0000 Y-3.1575 Z-4.0000 F120.00
G1 X71.0000 Y-1.0000 Z-4.0000 F120.00
G1 X73.1575 Y-1.0000 Z-4.0000 F120.00
G1 X71.0000 Y-3.1575 Z-4.0000 F120.00
G1 X71.0000 Y-3.1575 Z-4.0000 F60.00
G1 X71.0000 Y-1.0000 Z-4.0000 F120.00
G1 X80.4607 Y-1.0000 Z-4.0000 F120.00
G2 X82.5000 Y-3.0393 Z-4.0000 I0.0312 J-2.0081 F120.00
G1 X82.5000 Y-86.9607 Z-4.0000 F120.00
G2 X80.4607 Y-89.0000 Z-4.0000 I-2.0081 J-0.0312 F120.00
G1 X71.0000 Y-89.0000 Z-4.0000 F120.00
G1 X71.0000 Y-3.1575 Z-4.0000 F120.00
G1 X71.0000 Y-3.1575 Z-5.0000 F60.00
G1 X71.0000 Y-1.0000 Z-5.0000 F120.00
G1 X80.4607 Y-1.0000 Z-5.0000 F120.00
G2 X82.5000 Y-3.0393 Z-5.0000 I0.0312 J-2.0081 F120.00
G1 X82.5000 Y-86.9607 Z-5.0000 F120.00
G2 X80.4607 Y-89.0000 Z-5.0000 I-2.0081 J-0.0312 F120.00
G1 X71.0000 Y-89.0000 Z-5.0000 F120.00
G1 X71.0000 Y-3.1575 Z-5.0000 F120.00
G1 X71.0000 Y-3.1575 Z-5.0000 F60.00
G1 X73.1575 Y-1.0000 Z-5.0000 F120.00
G1 X71.0000 Y-1.0000 Z-5.0000 F120.00
G1 X71.0000 Y-3.1575 Z-5.0000 F120.00
G1 X71.0000 Y-5.9860 Z-5.0000 F120.00
G1 X75.9860 Y-1.0000 Z-5.0000 F120.00
G1 X78.8144 Y-1.0000 Z-5.0000 F120.00
G1 X71.0000 Y-8.8144 Z-5.0000 F120.00
G1 X71.0000 Y-11.6428 Z-5.0000 F120.00
G1 X81.4162 Y-1.2266 Z-5.0000 F120.00
G2 X82.4950 Y-2.9762 Z-5.0000 I-0.9092 J-1.7681 F120.00
G1 X71.0000 Y-14.4712 Z-5.0000 F120.00
G1 X71.0000 Y-17.2997 Z-5.0000 F120.00
G1 X82.5000 Y-5.7997 Z-5.0000 F120.00
G1 X82.5000 Y-8.6281 Z-5.0000 F120.00
G1 X71.0000 Y-20.1281 Z-5.0000 F120.00
G1 X71.0000 Y-22.9565 Z-5.0000 F120.00
G1 X82.5000 Y-11.4565 Z-5.0000 F120.00
G1 X82.5000 Y-14.2849 Z-5.0000 F120.00
G1 X71.0000 Y-25.7849 Z-5.0000 F120.00
G1 X71.0000 Y-28.6134 Z-5.0000 F120.00
G1 X82.5000 Y-17.1134 Z-5.0000 F120.00
G1 X82.5000 Y-19.9418 Z-5.0000 F120.00
G1 X71.0000 Y-31.4418 Z-5.0000 F120.00
G1 X71.0000 Y-34.2702 Z-5.0000 F120.00
G1 X82.5000 Y-22.7702 Z-5.0000 F120.00
G1 X82.5000 Y-25.5987 Z-5.0000 F120.00
G1 X71.0000 Y-37.0987 Z-5.0000 F120.00
G1 X71.0000 Y-39.9271 Z-5.0000 F120.00
G1 X82.5000 Y-28.4271 Z-5.0000 F120.00
G1 X82.5000 Y-31.2555 Z-5.0000 F120.00
G1 X71.0000 Y-42.7555 Z-5.0000 F120.00
G1 X71.0000 Y-45.5839 Z-5.0000 F120.00
G1 X82.5000 Y-34.0839 Z-5.0000 F120.00
G1 X82.5000 Y-36.9124 Z-5.0000 F120.00
G1 X71.0000 Y-48.4124 Z-5.0000 F120.00
G1 X71.0000 Y-51.2408 Z-5.0000 F120.00
G1 X82.5000 Y-39.7408 Z-5.0000 F120.00
G1 X82.5000 Y-42.5692 Z-5.0000 F120.00
G1 X71.0000 Y-54.0692 Z-5.0000 F120.00
G1 X71.0000 Y-56.8976 Z-5.0000 F120.00
G1 X82.5000 Y-45.3976 Z-5.0000 F120.00
G1 X82.5000 Y-48.2261 Z-5.0000 F120.00
G1 X71.0000 Y-59.7261 Z-5.0000 F120.00
G1 X71.0000 Y-62.5545 Z-5.0000 F120.00
G1 X82.5000 Y-51.0545 Z-5.0000 F120.00
G1 X82.5000 Y-53.8829 Z-5.0000 F120.00
G1 X71.0000 Y-65.3829 Z-5.0000 F120.00
G1 X71.0000 Y-68.2114 Z-5.0000 F120.00
G1 X82.5000 Y-56.7114 Z-5.0000 F120.00
G1 X82.5000 Y-59.5398 Z-5.0000 F120.00
G1 X71.0000 Y-71.0398 Z-5.0000 F120.00
G1 X71.0000 Y-73.8682 Z-5.0000 F120.00
G1 X82.5000 Y-62.3682 Z-5.0000 F120.00
G1 X82.5000 Y-65.1966 Z-5.0000 F120.00
G1 X71.0000 Y-76.6966 Z-5.0000 F120.00
G1 X71.0000 Y-79.5251 Z-5.0000 F120.00
G1 X82.5000 Y-68.0251 Z-5.0000 F120.00
G1 X82.5000 Y-70.8535 Z-5.0000 F120.00
G1 X71.0000 Y-82.3535 Z-5.0000 F120.00
G1 X71.0000 Y-85.1819 Z-5.0000 F120.00
G1 X82.5000 Y-73.6819 Z-5.0000 F120.00
G1 X82.5000 Y-76.5103 Z-5.0000 F120.00
G1 X71.0000 Y-88.0103 Z-5.0000 F120.00
G1 X71.0000 Y-89.0000 Z-5.0000 F120.00
G1 X72.8388 Y-89.0000 Z-5.0000 F120.00
G1 X82.5000 Y-79.3388 Z-5.0000 F120.00
G1 X82.5000 Y-82.1672 Z-5.0000 F120.00
G1 X75.6672 Y-89.0000 Z-5.0000 F120.00
G1 X78.4956 Y-89.0000 Z-5.0000 F120.00
G1 X82.5000 Y-84.9956 Z-5.0000 F120.00
G1 X82.5000 Y-86.9607 Z-5.0000 F120.00
G2 X81.9120 Y-88.4120 Z-5.0000 I-2.0231 J-0.0252 F120.00
G0 Z6.0000
(finish operation: Pocket_Shape)
(begin operation: Pocket_Shape001)
(Path: Pocket_Shape001)
(Pocket_Shape001)
G0 Z6.0000
G0 X-6.7931 Y-15.7931
G0 Z4.0000
G1 X-6.7931 Y-15.7931 Z-6.0000 F60.00
G3 X-7.1662 Y-15.7591 Z-6.0000 I-0.2069 J-0.2069 F120.00
G3 X-7.2409 Y-16.1662 Z-6.0000 I0.1662 J-0.2409 F120.00
G3 X-6.8338 Y-16.2409 Z-6.0000 I0.2409 J0.1662 F120.00
G3 X-6.7931 Y-15.7931 Z-6.0000 I-0.1662 J0.2409 F120.00
G1 X-6.7931 Y-15.7931 Z-7.0000 F60.00
G3 X-7.1662 Y-15.7591 Z-7.0000 I-0.2069 J-0.2069 F120.00
G3 X-7.2409 Y-16.1662 Z-7.0000 I0.1662 J-0.2409 F120.00
G3 X-6.8338 Y-16.2409 Z-7.0000 I0.2409 J0.1662 F120.00
G3 X-6.7931 Y-15.7931 Z-7.0000 I-0.1662 J0.2409 F120.00
G1 X-6.7931 Y-15.7931 Z-8.0000 F60.00
G3 X-7.1662 Y-15.7591 Z-8.0000 I-0.2069 J-0.2069 F120.00
G3 X-7.2409 Y-16.1662 Z-8.0000 I0.1662 J-0.2409 F120.00
G3 X-6.8338 Y-16.2409 Z-8.0000 I0.2409 J0.1662 F120.00
G3 X-6.7931 Y-15.7931 Z-8.0000 I-0.1662 J0.2409 F120.00
G1 X-6.7931 Y-15.7931 Z-9.0000 F60.00
G3 X-7.1662 Y-15.7591 Z-9.0000 I-0.2069 J-0.2069 F120.00
G3 X-7.2409 Y-16.1662 Z-9.0000 I0.1662 J-0.2409 F120.00
G3 X-6.8338 Y-16.2409 Z-9.0000 I0.2409 J0.1662 F120.00
G3 X-6.7931 Y-15.7931 Z-9.0000 I-0.1662 J0.2409 F120.00
G1 X-6.7931 Y-15.7931 Z-10.0000 F60.00
G3 X-7.1662 Y-15.7591 Z-10.0000 I-0.2069 J-0.2069 F120.00
G3 X-7.2409 Y-16.1662 Z-10.0000 I0.1662 J-0.2409 F120.00
G3 X-6.8338 Y-16.2409 Z-10.0000 I0.2409 J0.1662 F120.00
G3 X-6.7931 Y-15.7931 Z-10.0000 I-0.1662 J0.2409 F120.00
G1 X-6.7931 Y-15.7931 Z-11.0000 F60.00
G3 X-7.1662 Y-15.7591 Z-11.0000 I-0.2069 J-0.2069 F120.00
G3 X-7.2409 Y-16.1662 Z-11.0000 I0.1662 J-0.2409 F120.00
G3 X-6.8338 Y-16.2409 Z-11.0000 I0.2409 J0.1662 F120.00
G3 X-6.7931 Y-15.7931 Z-11.0000 I-0.1662 J0.2409 F120.00
G1 X-6.7931 Y-15.7931 Z-12.0000 F60.00
G3 X-7.1662 Y-15.7591 Z-12.0000 I-0.2069 J-0.2069 F120.00
G3 X-7.2409 Y-16.1662 Z-12.0000 I0.1662 J-0.2409 F120.00
G3 X-6.8338 Y-16.2409 Z-12.0000 I0.2409 J0.1662 F120.00
G3 X-6.7931 Y-15.7931 Z-12.0000 I-0.1662 J0.2409 F120.00
G0 Z6.0000
G0 X-6.7931 Y-44.7931
G0 Z4.0000
G1 X-6.7931 Y-44.7931 Z-6.0000 F60.00
G3 X-7.1662 Y-44.7591 Z-6.0000 I-0.2069 J-0.2069 F120.00
G3 X-7.2409 Y-45.1662 Z-6.0000 I0.1662 J-0.2409 F120.00
G3 X-6.8338 Y-45.2409 Z-6.0000 I0.2409 J0.1662 F120.00
G3 X-6.7931 Y-44.7931 Z-6.0000 I-0.1662 J0.2409 F120.00
G1 X-6.7931 Y-44.7931 Z-7.0000 F60.00
G3 X-7.1662 Y-44.7591 Z-7.0000 I-0.2069 J-0.2069 F120.00
G3 X-7.2409 Y-45.1662 Z-7.0000 I0.1662 J-0.2409 F120.00
G3 X-6.8338 Y-45.2409 Z-7.0000 I0.2409 J0.1662 F120.00
G3 X-6.7931 Y-44.7931 Z-7.0000 I-0.1662 J0.2409 F120.00
G1 X-6.7931 Y-44.7931 Z-8.0000 F60.00
G3 X-7.1662 Y-44.7591 Z-8.0000 I-0.2069 J-0.2069 F120.00
G3 X-7.2409 Y-45.1662 Z-8.0000 I0.1662 J-0.2409 F120.00
G3 X-6.8338 Y-45.2409 Z-8.0000 I0.2409 J0.1662 F120.00
G3 X-6.7931 Y-44.7931 Z-8.0000 I-0.1662 J0.2409 F120.00
G1 X-6.7931 Y-44.7931 Z-9.0000 F60.00
G3 X-7.1662 Y-44.7591 Z-9.0000 I-0.2069 J-0.2069 F120.00
G3 X-7.2409 Y-45.1662 Z-9.0000 I0.1662 J-0.2409 F120.00
G3 X-6.8338 Y-45.2409 Z-9.0000 I0.2409 J0.1662 F120.00
G3 X-6.7931 Y-44.7931 Z-9.0000 I-0.1662 J0.2409 F120.00
G1 X-6.7931 Y-44.7931 Z-10.0000 F60.00
G3 X-7.1662 Y-44.7591 Z-10.0000 I-0.2069 J-0.2069 F120.00
G3 X-7.2409 Y-45.1662 Z-10.0000 I0.1662 J-0.2409 F120.00
G3 X-6.8338 Y-45.2409 Z-10.0000 I0.2409 J0.1662 F120.00
G3 X-6.7931 Y-44.7931 Z-10.0000 I-0.1662 J0.2409 F120.00
G1 X-6.7931 Y-44.7931 Z-11.0000 F60.00
G3 X-7.1662 Y-44.7591 Z-11.0000 I-0.2069 J-0.2069 F120.00
G3 X-7.2409 Y-45.1662 Z-11.0000 I0.1662 J-0.2409 F120.00
G3 X-6.8338 Y-45.2409 Z-11.0000 I0.2409 J0.1662 F120.00
G3 X-6.7931 Y-44.7931 Z-11.0000 I-0.1662 J0.2409 F120.00
G1 X-6.7931 Y-44.7931 Z-12.0000 F60.00
G3 X-7.1662 Y-44.7591 Z-12.0000 I-0.2069 J-0.2069 F120.00
G3 X-7.2409 Y-45.1662 Z-12.0000 I0.1662 J-0.2409 F120.00
G3 X-6.8338 Y-45.2409 Z-12.0000 I0.2409 J0.1662 F120.00
G3 X-6.7931 Y-44.7931 Z-12.0000 I-0.1662 J0.2409 F120.00
G0 Z6.0000
G0 X-6.7931 Y-73.7931
G0 Z4.0000
G1 X-6.7931 Y-73.7931 Z-6.0000 F60.00
G3 X-7.1662 Y-73.7591 Z-6.0000 I-0.2069 J-0.2069 F120.00
G3 X-7.2409 Y-74.1662 Z-6.0000 I0.1662 J-0.2409 F120.00
G3 X-6.8338 Y-74.2409 Z-6.0000 I0.2409 J0.1662 F120.00
G3 X-6.7931 Y-73.7931 Z-6.0000 I-0.1662 J0.2409 F120.00
G1 X-6.7931 Y-73.7931 Z-7.0000 F60.00
G3 X-7.1662 Y-73.7591 Z-7.0000 I-0.2069 J-0.2069 F120.00
G3 X-7.2409 Y-74.1662 Z-7.0000 I0.1662 J-0.2409 F120.00
G3 X-6.8338 Y-74.2409 Z-7.0000 I0.2409 J0.1662 F120.00
G3 X-6.7931 Y-73.7931 Z-7.0000 I-0.1662 J0.2409 F120.00
G1 X-6.7931 Y-73.7931 Z-8.0000 F60.00
G3 X-7.1662 Y-73.7591 Z-8.0000 I-0.2069 J-0.2069 F120.00
G3 X-7.2409 Y-74.1662 Z-8.0000 I0.1662 J-0.2409 F120.00
G3 X-6.8338 Y-74.2409 Z-8.0000 I0.2409 J0.1662 F120.00
G3 X-6.7931 Y-73.7931 Z-8.0000 I-0.1662 J0.2409 F120.00
G1 X-6.7931 Y-73.7931 Z-9.0000 F60.00
G3 X-7.1662 Y-73.7591 Z-9.0000 I-0.2069 J-0.2069 F120.00
G3 X-7.2409 Y-74.1662 Z-9.0000 I0.1662 J-0.2409 F120.00
G3 X-6.8338 Y-74.2409 Z-9.0000 I0.2409 J0.1662 F120.00
G3 X-6.7931 Y-73.7931 Z-9.0000 I-0.1662 J0.2409 F120.00
G1 X-6.7931 Y-73.7931 Z-10.0000 F60.00
G3 X-7.1662 Y-73.7591 Z-10.0000 I-0.2069 J-0.2069 F120.00
G3 X-7.2409 Y-74.1662 Z-10.0000 I0.1662 J-0.2409 F120.00
G3 X-6.8338 Y-74.2409 Z-10.0000 I0.2409 J0.1662 F120.00
G3 X-6.7931 Y-73.7931 Z-10.0000 I-0.1662 J0.2409 F120.00
G1 X-6.7931 Y-73.7931 Z-11.0000 F60.00
G3 X-7.1662 Y-73.7591 Z-11.0000 I-0.2069 J-0.2069 F120.00
G3 X-7.2409 Y-74.1662 Z-11.0000 I0.1662 J-0.2409 F120.00
G3 X-6.8338 Y-74.2409 Z-11.0000 I0.2409 J0.1662 F120.00
G3 X-6.7931 Y-73.7931 Z-11.0000 I-0.1662 J0.2409 F120.00
G1 X-6.7931 Y-73.7931 Z-12.0000 F60.00
G3 X-7.1662 Y-73.7591 Z-12.0000 I-0.2069 J-0.2069 F120.00
G3 X-7.2409 Y-74.1662 Z-12.0000 I0.1662 J-0.2409 F120.00
G3 X-6.8338 Y-74.2409 Z-12.0000 I0.2409 J0.1662 F120.00
G3 X-6.7931 Y-73.7931 Z-12.0000 I-0.1662 J0.2409 F120.00
G0 Z6.0000
G0 X77.2069 Y-15.7931
G0 Z4.0000
G1 X77.2069 Y-15.7931 Z-6.0000 F60.00
G3 X76.8338 Y-15.7591 Z-6.0000 I-0.2069 J-0.2069 F120.00
G3 X76.7591 Y-16.1662 Z-6.0000 I0.1662 J-0.2409 F120.00
G3 X77.1662 Y-16.2409 Z-6.0000 I0.2409 J0.1662 F120.00
G3 X77.2069 Y-15.7931 Z-6.0000 I-0.1662 J0.2409 F120.00
G1 X77.2069 Y-15.7931 Z-7.0000 F60.00
G3 X76.8338 Y-15.7591 Z-7.0000 I-0.2069 J-0.2069 F120.00
G3 X76.7591 Y-16.1662 Z-7.0000 I0.1662 J-0.2409 F120.00
G3 X77.1662 Y-16.2409 Z-7.0000 I0.2409 J0.1662 F120.00
G3 X77.2069 Y-15.7931 Z-7.0000 I-0.1662 J0.2409 F120.00
G1 X77.2069 Y-15.7931 Z-8.0000 F60.00
G3 X76.8338 Y-15.7591 Z-8.0000 I-0.2069 J-0.2069 F120.00
G3 X76.7591 Y-16.1662 Z-8.0000 I0.1662 J-0.2409 F120.00
G3 X77.1662 Y-16.2409 Z-8.0000 I0.2409 J0.1662 F120.00
G3 X77.2069 Y-15.7931 Z-8.0000 I-0.1662 J0.2409 F120.00
G1 X77.2069 Y-15.7931 Z-9.0000 F60.00
G3 X76.8338 Y-15.7591 Z-9.0000 I-0.2069 J-0.2069 F120.00
G3 X76.7591 Y-16.1662 Z-9.0000 I0.1662 J-0.2409 F120.00
G3 X77.1662 Y-16.2409 Z-9.0000 I0.2409 J0.1662 F120.00
G3 X77.2069 Y-15.7931 Z-9.0000 I-0.1662 J0.2409 F120.00
G1 X77.2069 Y-15.7931 Z-10.0000 F60.00
G3 X76.8338 Y-15.7591 Z-10.0000 I-0.2069 J-0.2069 F120.00
G3 X76.7591 Y-16.1662 Z-10.0000 I0.1662 J-0.2409 F120.00
G3 X77.1662 Y-16.2409 Z-10.0000 I0.2409 J0.1662 F120.00
G3 X77.2069 Y-15.7931 Z-10.0000 I-0.1662 J0.2409 F120.00
G1 X77.2069 Y-15.7931 Z-11.0000 F60.00
G3 X76.8338 Y-15.7591 Z-11.0000 I-0.2069 J-0.2069 F120.00
G3 X76.7591 Y-16.1662 Z-11.0000 I0.1662 J-0.2409 F120.00
G3 X77.1662 Y-16.2409 Z-11.0000 I0.2409 J0.1662 F120.00
G3 X77.2069 Y-15.7931 Z-11.0000 I-0.1662 J0.2409 F120.00
G1 X77.2069 Y-15.7931 Z-12.0000 F60.00
G3 X76.8338 Y-15.7591 Z-12.0000 I-0.2069 J-0.2069 F120.00
G3 X76.7591 Y-16.1662 Z-12.0000 I0.1662 J-0.2409 F120.00
G3 X77.1662 Y-16.2409 Z-12.0000 I0.2409 J0.1662 F120.00
G3 X77.2069 Y-15.7931 Z-12.0000 I-0.1662 J0.2409 F120.00
G0 Z6.0000
G0 X77.2069 Y-44.7931
G0 Z4.0000
G1 X77.2069 Y-44.7931 Z-6.0000 F60.00
G3 X76.8338 Y-44.7591 Z-6.0000 I-0.2069 J-0.2069 F120.00
G3 X76.7591 Y-45.1662 Z-6.0000 I0.1662 J-0.2409 F120.00
G3 X77.1662 Y-45.2409 Z-6.0000 I0.2409 J0.1662 F120.00
G3 X77.2069 Y-44.7931 Z-6.0000 I-0.1662 J0.2409 F120.00
G1 X77.2069 Y-44.7931 Z-7.0000 F60.00
G3 X76.8338 Y-44.7591 Z-7.0000 I-0.2069 J-0.2069 F120.00
G3 X76.7591 Y-45.1662 Z-7.0000 I0.1662 J-0.2409 F120.00
G3 X77.1662 Y-45.2409 Z-7.0000 I0.2409 J0.1662 F120.00
G3 X77.2069 Y-44.7931 Z-7.0000 I-0.1662 J0.2409 F120.00
G1 X77.2069 Y-44.7931 Z-8.0000 F60.00
G3 X76.8338 Y-44.7591 Z-8.0000 I-0.2069 J-0.2069 F120.00
G3 X76.7591 Y-45.1662 Z-8.0000 I0.1662 J-0.2409 F120.00
G3 X77.1662 Y-45.2409 Z-8.0000 I0.2409 J0.1662 F120.00
G3 X77.2069 Y-44.7931 Z-8.0000 I-0.1662 J0.2409 F120.00
G1 X77.2069 Y-44.7931 Z-9.0000 F60.00
G3 X76.8338 Y-44.7591 Z-9.0000 I-0.2069 J-0.2069 F120.00
G3 X76.7591 Y-45.1662 Z-9.0000 I0.1662 J-0.2409 F120.00
G3 X77.1662 Y-45.2409 Z-9.0000 I0.2409 J0.1662 F120.00
G3 X77.2069 Y-44.7931 Z-9.0000 I-0.1662 J0.2409 F120.00
G1 X77.2069 Y-44.7931 Z-10.0000 F60.00
G3 X76.8338 Y-44.7591 Z-10.0000 I-0.2069 J-0.2069 F120.00
G3 X76.7591 Y-45.1662 Z-10.0000 I0.1662 J-0.2409 F120.00
G3 X77.1662 Y-45.2409 Z-10.0000 I0.2409 J0.1662 F120.00
G3 X77.2069 Y-44.7931 Z-10.0000 I-0.1662 J0.2409 F120.00
G1 X77.2069 Y-44.7931 Z-11.0000 F60.00
G3 X76.8338 Y-44.7591 Z-11.0000 I-0.2069 J-0.2069 F120.00
G3 X76.7591 Y-45.1662 Z-11.0000 I0.1662 J-0.2409 F120.00
G3 X77.1662 Y-45.2409 Z-11.0000 I0.2409 J0.1662 F120.00
G3 X77.2069 Y-44.7931 Z-11.0000 I-0.1662 J0.2409 F120.00
G1 X77.2069 Y-44.7931 Z-12.0000 F60.00
G3 X76.8338 Y-44.7591 Z-12.0000 I-0.2069 J-0.2069 F120.00
G3 X76.7591 Y-45.1662 Z-12.0000 I0.1662 J-0.2409 F120.00
G3 X77.1662 Y-45.2409 Z-12.0000 I0.2409 J0.1662 F120.00
G3 X77.2069 Y-44.7931 Z-12.0000 I-0.1662 J0.2409 F120.00
G0 Z6.0000
G0 X77.2069 Y-73.7931
G0 Z4.0000
G1 X77.2069 Y-73.7931 Z-6.0000 F60.00
G3 X76.8338 Y-73.7591 Z-6.0000 I-0.2069 J-0.2069 F120.00
G3 X76.7591 Y-74.1662 Z-6.0000 I0.1662 J-0.2409 F120.00
G3 X77.1662 Y-74.2409 Z-6.0000 I0.2409 J0.1662 F120.00
G3 X77.2069 Y-73.7931 Z-6.0000 I-0.1662 J0.2409 F120.00
G1 X77.2069 Y-73.7931 Z-7.0000 F60.00
G3 X76.8338 Y-73.7591 Z-7.0000 I-0.2069 J-0.2069 F120.00
G3 X76.7591 Y-74.1662 Z-7.0000 I0.1662 J-0.2409 F120.00
G3 X77.1662 Y-74.2409 Z-7.0000 I0.2409 J0.1662 F120.00
G3 X77.2069 Y-73.7931 Z-7.0000 I-0.1662 J0.2409 F120.00
G1 X77.2069 Y-73.7931 Z-8.0000 F60.00
G3 X76.8338 Y-73.7591 Z-8.0000 I-0.2069 J-0.2069 F120.00
G3 X76.7591 Y-74.1662 Z-8.0000 I0.1662 J-0.2409 F120.00
G3 X77.1662 Y-74.2409 Z-8.0000 I0.2409 J0.1662 F120.00
G3 X77.2069 Y-73.7931 Z-8.0000 I-0.1662 J0.2409 F120.00
G1 X77.2069 Y-73.7931 Z-9.0000 F60.00
G3 X76.8338 Y-73.7591 Z-9.0000 I-0.2069 J-0.2069 F120.00
G3 X76.7591 Y-74.1662 Z-9.0000 I0.1662 J-0.2409 F120.00
G3 X77.1662 Y-74.2409 Z-9.0000 I0.2409 J0.1662 F120.00
G3 X77.2069 Y-73.7931 Z-9.0000 I-0.1662 J0.2409 F120.00
G1 X77.2069 Y-73.7931 Z-10.0000 F60.00
G3 X76.8338 Y-73.7591 Z-10.0000 I-0.2069 J-0.2069 F120.00
G3 X76.7591 Y-74.1662 Z-10.0000 I0.1662 J-0.2409 F120.00
G3 X77.1662 Y-74.2409 Z-10.0000 I0.2409 J0.1662 F120.00
G3 X77.2069 Y-73.7931 Z-10.0000 I-0.1662 J0.2409 F120.00
G1 X77.2069 Y-73.7931 Z-11.0000 F60.00
G3 X76.8338 Y-73.7591 Z-11.0000 I-0.2069 J-0.2069 F120.00
G3 X76.7591 Y-74.1662 Z-11.0000 I0.1662 J-0.2409 F120.00
G3 X77.1662 Y-74.2409 Z-11.0000 I0.2409 J0.1662 F120.00
G3 X77.2069 Y-73.7931 Z-11.0000 I-0.1662 J0.2409 F120.00
G1 X77.2069 Y-73.7931 Z-12.0000 F60.00
G3 X76.8338 Y-73.7591 Z-12.0000 I-0.2069 J-0.2069 F120.00
G3 X76.7591 Y-74.1662 Z-12.0000 I0.1662 J-0.2409 F120.00
G3 X77.1662 Y-74.2409 Z-12.0000 I0.2409 J0.1662 F120.00
G3 X77.2069 Y-73.7931 Z-12.0000 I-0.1662 J0.2409 F120.00
G0 Z6.0000
(finish operation: Pocket_Shape001)
(begin operation: Pocket_Shape002)
(Path: Pocket_Shape002)
(Pocket_Shape002)
G0 Z6.0000
G0 X16.9120 Y-73.5880
G0 Z4.0000
G1 X16.9120 Y-73.5880 Z-1.0000 F60.00
G2 X15.5000 Y-76.9969 Z-1.0000 I-1.4120 J-1.4120 F120.00
G2 X15.5000 Y-73.0031 Z-1.0000 I0.0000 J1.9969 F120.00
G2 X16.9120 Y-73.5880 Z-1.0000 I0.0000 J-1.9969 F120.00
G0 X16.9120 Y-73.5880 Z6.0000
G0 X16.9097 Y-73.5860 Z6.0000
G0 X16.9097 Y-73.5860 Z3.0000
G1 X16.9097 Y-73.5860 Z-1.0000 F60.00
G3 X14.0860 Y-76.4097 Z-1.0000 I-1.4098 J-1.4139 F120.00
G1 X16.9097 Y-73.5860 Z-1.0000 F120.00
G2 X16.9120 Y-76.4120 Z-1.0000 I-1.4091 J-1.4142 F120.00
G1 X16.9120 Y-76.4120 Z-2.0000 F60.00
G3 X16.9097 Y-73.5860 Z-2.0000 I-1.4115 J1.4119 F120.00
G1 X14.0860 Y-76.4097 Z-2.0000 F120.00
G2 X16.9097 Y-73.5860 Z-2.0000 I1.4139 J1.4098 F120.00
G0 X16.9097 Y-73.5860 Z6.0000
G0 X16.9098 Y-73.5858 Z6.0000
G0 X16.9098 Y-73.5858 Z2.0000
G1 X16.9098 Y-73.5858 Z-2.0000 F60.00
G2 X15.5000 Y-76.9969 Z-2.0000 I-1.4098 J-1.4142 F120.00
G2 X15.5000 Y-73.0031 Z-2.0000 I0.0000 J1.9969 F120.00
G2 X16.9098 Y-73.5858 Z-2.0000 I0.0000 J-1.9969 F120.00
G1 X16.9098 Y-73.5858 Z-3.0000 F60.00
G2 X15.5000 Y-76.9969 Z-3.0000 I-1.4098 J-1.4142 F120.00
G2 X15.5000 Y-73.0031 Z-3.0000 I0.0000 J1.9969 F120.00
G2 X16.9098 Y-73.5858 Z-3.0000 I0.0000 J-1.9969 F120.00
G0 X16.9098 Y-73.5858 Z6.0000
G0 X16.9097 Y-73.5860 Z6.0000
G0 X16.9097 Y-73.5860 Z1.0000
G1 X16.9097 Y-73.5860 Z-3.0000 F60.00
G3 X14.0860 Y-76.4097 Z-3.0000 I-1.4098 J-1.4139 F120.00
G1 X16.9097 Y-73.5860 Z-3.0000 F120.00
G2 X16.9120 Y-76.4120 Z-3.0000 I-1.4091 J-1.4142 F120.00
G0 Z6.0000
G0 X55.9120 Y-73.5880
G0 Z4.0000
G1 X55.9120 Y-73.5880 Z-1.0000 F60.00
G2 X54.5000 Y-76.9969 Z-1.0000 I-1.4120 J-1.4120 F120.00
G2 X54.5000 Y-73.0031 Z-1.0000 I0.0000 J1.9969 F120.00
G2 X55.9120 Y-73.5880 Z-1.0000 I0.0000 J-1.9969 F120.00
G0 X55.9120 Y-73.5880 Z6.0000
G0 X55.9097 Y-73.5860 Z6.0000
G0 X55.9097 Y-73.5860 Z3.0000
G1 X55.9097 Y-73.5860 Z-1.0000 F60.00
G3 X53.0860 Y-76.4097 Z-1.0000 I-1.4098 J-1.4139 F120.00
G1 X55.9097 Y-73.5860 Z-1.0000 F120.00
G2 X55.9120 Y-76.4120 Z-1.0000 I-1.4091 J-1.4142 F120.00
G1 X55.9120 Y-76.4120 Z-2.0000 F60.00
G3 X55.9097 Y-73.5860 Z-2.0000 I-1.4115 J1.4119 F120.00
G1 X53.0860 Y-76.4097 Z-2.0000 F120.00
G2 X55.9097 Y-73.5860 Z-2.0000 I1.4139 J1.4098 F120.00
G0 X55.9097 Y-73.5860 Z6.0000
G0 X55.9098 Y-73.5858 Z6.0000
G0 X55.9098 Y-73.5858 Z2.0000
G1 X55.9098 Y-73.5858 Z-2.0000 F60.00
G2 X54.5000 Y-76.9969 Z-2.0000 I-1.4098 J-1.4142 F120.00
G2 X54.5000 Y-73.0031 Z-2.0000 I0.0000 J1.9969 F120.00
G2 X55.9098 Y-73.5858 Z-2.0000 I0.0000 J-1.9969 F120.00
G1 X55.9098 Y-73.5858 Z-3.0000 F60.00
G2 X54.5000 Y-76.9969 Z-3.0000 I-1.4098 J-1.4142 F120.00
G2 X54.5000 Y-73.0031 Z-3.0000 I0.0000 J1.9969 F120.00
G2 X55.9098 Y-73.5858 Z-3.0000 I0.0000 J-1.9969 F120.00
G0 X55.9098 Y-73.5858 Z6.0000
G0 X55.9097 Y-73.5860 Z6.0000
G0 X55.9097 Y-73.5860 Z1.0000
G1 X55.9097 Y-73.5860 Z-3.0000 F60.00
G3 X53.0860 Y-76.4097 Z-3.0000 I-1.4098 J-1.4139 F120.00
G1 X55.9097 Y-73.5860 Z-3.0000 F120.00
G2 X55.9120 Y-76.4120 Z-3.0000 I-1.4091 J-1.4142 F120.00
G0 Z6.0000
(finish operation: Pocket_Shape002)
(begin operation: Pocket_Shape003)
(Path: Pocket_Shape003)
(Pocket_Shape003)
G0 Z6.0000
G0 X15.7069 Y-74.7931
G0 Z4.0000
G1 X15.7069 Y-74.7931 Z-1.0000 F60.00
G2 X15.7591 Y-75.1360 Z-1.0000 I-0.2069 J-0.2069 F120.00
G2 X15.2409 Y-74.8640 Z-1.0000 I-0.2591 J0.1360 F120.00
G2 X15.7069 Y-74.7931 Z-1.0000 I0.2591 J-0.1360 F120.00
G1 X15.7069 Y-74.7931 Z-2.0000 F60.00
G2 X15.7591 Y-75.1360 Z-2.0000 I-0.2069 J-0.2069 F120.00
G2 X15.2409 Y-74.8640 Z-2.0000 I-0.2591 J0.1360 F120.00
G2 X15.7069 Y-74.7931 Z-2.0000 I0.2591 J-0.1360 F120.00
G1 X15.7069 Y-74.7931 Z-3.0000 F60.00
G2 X15.7591 Y-75.1360 Z-3.0000 I-0.2069 J-0.2069 F120.00
G2 X15.2409 Y-74.8640 Z-3.0000 I-0.2591 J0.1360 F120.00
G2 X15.7069 Y-74.7931 Z-3.0000 I0.2591 J-0.1360 F120.00
G1 X15.7069 Y-74.7931 Z-4.0000 F60.00
G2 X15.7591 Y-75.1360 Z-4.0000 I-0.2069 J-0.2069 F120.00
G2 X15.2409 Y-74.8640 Z-4.0000 I-0.2591 J0.1360 F120.00
G2 X15.7069 Y-74.7931 Z-4.0000 I0.2591 J-0.1360 F120.00
G1 X15.7069 Y-74.7931 Z-5.0000 F60.00
G2 X15.7591 Y-75.1360 Z-5.0000 I-0.2069 J-0.2069 F120.00
G2 X15.2409 Y-74.8640 Z-5.0000 I-0.2591 J0.1360 F120.00
G2 X15.7069 Y-74.7931 Z-5.0000 I0.2591 J-0.1360 F120.00
G1 X15.7069 Y-74.7931 Z-6.0000 F60.00
G2 X15.7591 Y-75.1360 Z-6.0000 I-0.2069 J-0.2069 F120.00
G2 X15.2409 Y-74.8640 Z-6.0000 I-0.2591 J0.1360 F120.00
G2 X15.7069 Y-74.7931 Z-6.0000 I0.2591 J-0.1360 F120.00
G1 X15.7069 Y-74.7931 Z-7.0000 F60.00
G2 X15.7591 Y-75.1360 Z-7.0000 I-0.2069 J-0.2069 F120.00
G2 X15.2409 Y-74.8640 Z-7.0000 I-0.2591 J0.1360 F120.00
G2 X15.7069 Y-74.7931 Z-7.0000 I0.2591 J-0.1360 F120.00
G1 X15.7069 Y-74.7931 Z-8.0000 F60.00
G2 X15.7591 Y-75.1360 Z-8.0000 I-0.2069 J-0.2069 F120.00
G2 X15.2409 Y-74.8640 Z-8.0000 I-0.2591 J0.1360 F120.00
G2 X15.7069 Y-74.7931 Z-8.0000 I0.2591 J-0.1360 F120.00
G1 X15.7069 Y-74.7931 Z-9.0000 F60.00
G2 X15.7591 Y-75.1360 Z-9.0000 I-0.2069 J-0.2069 F120.00
G2 X15.2409 Y-74.8640 Z-9.0000 I-0.2591 J0.1360 F120.00
G2 X15.7069 Y-74.7931 Z-9.0000 I0.2591 J-0.1360 F120.00
G1 X15.7069 Y-74.7931 Z-10.0000 F60.00
G2 X15.7591 Y-75.1360 Z-10.0000 I-0.2069 J-0.2069 F120.00
G2 X15.2409 Y-74.8640 Z-10.0000 I-0.2591 J0.1360 F120.00
G2 X15.7069 Y-74.7931 Z-10.0000 I0.2591 J-0.1360 F120.00
G1 X15.7069 Y-74.7931 Z-11.0000 F60.00
G2 X15.7591 Y-75.1360 Z-11.0000 I-0.2069 J-0.2069 F120.00
G2 X15.2409 Y-74.8640 Z-11.0000 I-0.2591 J0.1360 F120.00
G2 X15.7069 Y-74.7931 Z-11.0000 I0.2591 J-0.1360 F120.00
G1 X15.7069 Y-74.7931 Z-12.0000 F60.00
G2 X15.7591 Y-75.1360 Z-12.0000 I-0.2069 J-0.2069 F120.00
G2 X15.2409 Y-74.8640 Z-12.0000 I-0.2591 J0.1360 F120.00
G2 X15.7069 Y-74.7931 Z-12.0000 I0.2591 J-0.1360 F120.00
G0 Z6.0000
G0 X54.7069 Y-74.7931
G0 Z4.0000
G1 X54.7069 Y-74.7931 Z-1.0000 F60.00
G2 X54.7591 Y-75.1360 Z-1.0000 I-0.2069 J-0.2069 F120.00
G2 X54.2409 Y-74.8640 Z-1.0000 I-0.2591 J0.1360 F120.00
G2 X54.7069 Y-74.7931 Z-1.0000 I0.2591 J-0.1360 F120.00
G1 X54.7069 Y-74.7931 Z-2.0000 F60.00
G2 X54.7591 Y-75.1360 Z-2.0000 I-0.2069 J-0.2069 F120.00
G2 X54.2409 Y-74.8640 Z-2.0000 I-0.2591 J0.1360 F120.00
G2 X54.7069 Y-74.7931 Z-2.0000 I0.2591 J-0.1360 F120.00
G1 X54.7069 Y-74.7931 Z-3.0000 F60.00
G2 X54.7591 Y-75.1360 Z-3.0000 I-0.2069 J-0.2069 F120.00
G2 X54.2409 Y-74.8640 Z-3.0000 I-0.2591 J0.1360 F120.00
G2 X54.7069 Y-74.7931 Z-3.0000 I0.2591 J-0.1360 F120.00
G1 X54.7069 Y-74.7931 Z-4.0000 F60.00
G2 X54.7591 Y-75.1360 Z-4.0000 I-0.2069 J-0.2069 F120.00
G2 X54.2409 Y-74.8640 Z-4.0000 I-0.2591 J0.1360 F120.00
G2 X54.7069 Y-74.7931 Z-4.0000 I0.2591 J-0.1360 F120.00
G1 X54.7069 Y-74.7931 Z-5.0000 F60.00
G2 X54.7591 Y-75.1360 Z-5.0000 I-0.2069 J-0.2069 F120.00
G2 X54.2409 Y-74.8640 Z-5.0000 I-0.2591 J0.1360 F120.00
G2 X54.7069 Y-74.7931 Z-5.0000 I0.2591 J-0.1360 F120.00
G1 X54.7069 Y-74.7931 Z-6.0000 F60.00
G2 X54.7591 Y-75.1360 Z-6.0000 I-0.2069 J-0.2069 F120.00
G2 X54.2409 Y-74.8640 Z-6.0000 I-0.2591 J0.1360 F120.00
G2 X54.7069 Y-74.7931 Z-6.0000 I0.2591 J-0.1360 F120.00
G1 X54.7069 Y-74.7931 Z-7.0000 F60.00
G2 X54.7591 Y-75.1360 Z-7.0000 I-0.2069 J-0.2069 F120.00
G2 X54.2409 Y-74.8640 Z-7.0000 I-0.2591 J0.1360 F120.00
G2 X54.7069 Y-74.7931 Z-7.0000 I0.2591 J-0.1360 F120.00
G1 X54.7069 Y-74.7931 Z-8.0000 F60.00
G2 X54.7591 Y-75.1360 Z-8.0000 I-0.2069 J-0.2069 F120.00
G2 X54.2409 Y-74.8640 Z-8.0000 I-0.2591 J0.1360 F120.00
G2 X54.7069 Y-74.7931 Z-8.0000 I0.2591 J-0.1360 F120.00
G1 X54.7069 Y-74.7931 Z-9.0000 F60.00
G2 X54.7591 Y-75.1360 Z-9.0000 I-0.2069 J-0.2069 F120.00
G2 X54.2409 Y-74.8640 Z-9.0000 I-0.2591 J0.1360 F120.00
G2 X54.7069 Y-74.7931 Z-9.0000 I0.2591 J-0.1360 F120.00
G1 X54.7069 Y-74.7931 Z-10.0000 F60.00
G2 X54.7591 Y-75.1360 Z-10.0000 I-0.2069 J-0.2069 F120.00
G2 X54.2409 Y-74.8640 Z-10.0000 I-0.2591 J0.1360 F120.00
G2 X54.7069 Y-74.7931 Z-10.0000 I0.2591 J-0.1360 F120.00
G1 X54.7069 Y-74.7931 Z-11.0000 F60.00
G2 X54.7591 Y-75.1360 Z-11.0000 I-0.2069 J-0.2069 F120.00
G2 X54.2409 Y-74.8640 Z-11.0000 I-0.2591 J0.1360 F120.00
G2 X54.7069 Y-74.7931 Z-11.0000 I0.2591 J-0.1360 F120.00
G1 X54.7069 Y-74.7931 Z-12.0000 F60.00
G2 X54.7591 Y-75.1360 Z-12.0000 I-0.2069 J-0.2069 F120.00
G2 X54.2409 Y-74.8640 Z-12.0000 I-0.2591 J0.1360 F120.00
G2 X54.7069 Y-74.7931 Z-12.0000 I0.2591 J-0.1360 F120.00
G0 Z6.0000
(finish operation: Pocket_Shape003)
(begin operation: TagDressup)
(Path: TagDressup)
G0 Z6.0000
G0 X83.3264 Y-0.1729 Z6.0000
G0 X83.3264 Y-0.1729 Z4.0000
G1 X83.3264 Y-0.1729 Z-1.0000 F120.00
G2 X84.4969 Y-2.9215 Z-1.0000 I-2.8305 J-2.8289 F120.00
G1 X84.5000 Y-87.0000 Z-1.0000 F120.00
G2 X80.5785 Y-90.9969 Z-1.0000 I-4.0018 J0.0041 F120.00
G1 X-10.5000 Y-91.0000 Z-1.0000 F120.00
G2 X-14.4969 Y-87.0785 Z-1.0000 I0.0041 J4.0018 F120.00
G1 X-14.5000 Y-3.0000 Z-1.0000 F120.00
G2 X-10.5785 Y0.9969 Z-1.0000 I4.0018 J-0.0041 F120.00
G1 X80.5000 Y1.0000 Z-1.0000 F120.00
G2 X83.3264 Y-0.1729 Z-1.0000 I-0.0041 J-4.0018 F120.00
G1 X83.3264 Y-0.1729 Z-2.0000 F120.00
G2 X84.4969 Y-2.9215 Z-2.0000 I-2.8305 J-2.8289 F120.00
G1 X84.5000 Y-87.0000 Z-2.0000 F120.00
G2 X80.5785 Y-90.9969 Z-2.0000 I-4.0018 J0.0041 F120.00
G1 X-10.5000 Y-91.0000 Z-2.0000 F120.00
G2 X-14.4969 Y-87.0785 Z-2.0000 I0.0041 J4.0018 F120.00
G1 X-14.5000 Y-3.0000 Z-2.0000 F120.00
G2 X-10.5785 Y0.9969 Z-2.0000 I4.0018 J-0.0041 F120.00
G1 X80.5000 Y1.0000 Z-2.0000 F120.00
G2 X83.3264 Y-0.1729 Z-2.0000 I-0.0041 J-4.0018 F120.00
G1 X83.3264 Y-0.1729 Z-3.0000 F120.00
G2 X84.4969 Y-2.9215 Z-3.0000 I-2.8305 J-2.8289 F120.00
G1 X84.5000 Y-87.0000 Z-3.0000 F120.00
G2 X80.5785 Y-90.9969 Z-3.0000 I-4.0018 J0.0041 F120.00
G1 X-10.5000 Y-91.0000 Z-3.0000 F120.00
G2 X-14.4969 Y-87.0785 Z-3.0000 I0.0041 J4.0018 F120.00
G1 X-14.5000 Y-3.0000 Z-3.0000 F120.00
G2 X-10.5785 Y0.9969 Z-3.0000 I4.0018 J-0.0041 F120.00
G1 X80.5000 Y1.0000 Z-3.0000 F120.00
G2 X83.3264 Y-0.1729 Z-3.0000 I-0.0041 J-4.0018 F120.00
G1 X83.3264 Y-0.1729 Z-4.0000 F120.00
G2 X84.4969 Y-2.9215 Z-4.0000 I-2.8305 J-2.8289 F120.00
G1 X84.5000 Y-87.0000 Z-4.0000 F120.00
G2 X80.5785 Y-90.9969 Z-4.0000 I-4.0018 J0.0041 F120.00
G1 X-10.5000 Y-91.0000 Z-4.0000 F120.00
G2 X-14.4969 Y-87.0785 Z-4.0000 I0.0041 J4.0018 F120.00
G1 X-14.5000 Y-3.0000 Z-4.0000 F120.00
G2 X-10.5785 Y0.9969 Z-4.0000 I4.0018 J-0.0041 F120.00
G1 X80.5000 Y1.0000 Z-4.0000 F120.00
G2 X83.3264 Y-0.1729 Z-4.0000 I-0.0041 J-4.0018 F120.00
G1 X83.3264 Y-0.1729 Z-5.0000 F120.00
G2 X84.4969 Y-2.9215 Z-5.0000 I-2.8305 J-2.8289 F120.00
G1 X84.5000 Y-87.0000 Z-5.0000 F120.00
G2 X80.5785 Y-90.9969 Z-5.0000 I-4.0018 J0.0041 F120.00
G1 X-10.5000 Y-91.0000 Z-5.0000 F120.00
G2 X-14.4969 Y-87.0785 Z-5.0000 I0.0041 J4.0018 F120.00
G1 X-14.5000 Y-3.0000 Z-5.0000 F120.00
G2 X-10.5785 Y0.9969 Z-5.0000 I4.0018 J-0.0041 F120.00
G1 X80.5000 Y1.0000 Z-5.0000 F120.00
G2 X83.3264 Y-0.1729 Z-5.0000 I-0.0041 J-4.0018 F120.00
G1 X83.3264 Y-0.1729 Z-6.0000 F120.00
G2 X84.4969 Y-2.9215 Z-6.0000 I-2.8305 J-2.8289 F120.00
G1 X84.5000 Y-87.0000 Z-6.0000 F120.00
G2 X80.5785 Y-90.9969 Z-6.0000 I-4.0018 J0.0041 F120.00
G1 X-10.5000 Y-91.0000 Z-6.0000 F120.00
G2 X-14.4969 Y-87.0785 Z-6.0000 I0.0041 J4.0018 F120.00
G1 X-14.5000 Y-3.0000 Z-6.0000 F120.00
G2 X-10.5785 Y0.9969 Z-6.0000 I4.0018 J-0.0041 F120.00
G1 X80.5000 Y1.0000 Z-6.0000 F120.00
G2 X83.3264 Y-0.1729 Z-6.0000 I-0.0041 J-4.0018 F120.00
G1 X83.3264 Y-0.1729 Z-7.0000 F120.00
G2 X84.4969 Y-2.9215 Z-7.0000 I-2.8305 J-2.8289 F120.00
G1 X84.4984 Y-44.4118 Z-7.0000 F120.00
G1 X84.4985 Y-44.9608 Z-6.4456 F120.00
G1 X84.4985 Y-45.5097 Z-7.0000 F120.00
G1 X84.5000 Y-87.0000 Z-7.0000 F120.00
G2 X80.5785 Y-90.9969 Z-7.0000 I-4.0018 J0.0041 F120.00
G1 X35.5882 Y-90.9984 Z-7.0000 F120.00
G1 X35.0392 Y-90.9985 Z-6.4456 F120.00
G1 X34.4903 Y-90.9985 Z-7.0000 F120.00
G1 X-10.5000 Y-91.0000 Z-7.0000 F120.00
G2 X-14.4969 Y-87.0785 Z-7.0000 I0.0041 J4.0018 F120.00
G1 X-14.4984 Y-45.5882 Z-7.0000 F120.00
G1 X-14.4985 Y-45.0392 Z-6.4456 F120.00
G1 X-14.4985 Y-44.4903 Z-7.0000 F120.00
G1 X-14.5000 Y-3.0000 Z-7.0000 F120.00
G2 X-10.5785 Y0.9969 Z-7.0000 I4.0018 J-0.0041 F120.00
G1 X34.4118 Y0.9984 Z-7.0000 F120.00
G1 X34.9608 Y0.9985 Z-6.4456 F120.00
G1 X35.5097 Y0.9985 Z-7.0000 F120.00
G1 X80.5000 Y1.0000 Z-7.0000 F120.00
G2 X83.3264 Y-0.1729 Z-7.0000 I-0.0041 J-4.0018 F120.00
G1 X83.3264 Y-0.1729 Z-8.0000 F120.00
G2 X84.4969 Y-2.9215 Z-8.0000 I-2.8305 J-2.8289 F120.00
G1 X84.4984 Y-43.4217 Z-8.0000 F120.00
G1 X84.4985 Y-44.9608 Z-6.4456 F120.00
G1 X84.4985 Y-46.4998 Z-8.0000 F120.00
G1 X84.5000 Y-87.0000 Z-8.0000 F120.00
G2 X80.5785 Y-90.9969 Z-8.0000 I-4.0018 J0.0041 F120.00
G1 X36.5783 Y-90.9984 Z-8.0000 F120.00
G1 X35.0392 Y-90.9985 Z-6.4456 F120.00
G1 X33.5002 Y-90.9985 Z-8.0000 F120.00
G1 X-10.5000 Y-91.0000 Z-8.0000 F120.00
G2 X-14.4969 Y-87.0785 Z-8.0000 I0.0041 J4.0018 F120.00
G1 X-14.4984 Y-46.5783 Z-8.0000 F120.00
G1 X-14.4985 Y-45.0392 Z-6.4456 F120.00
G1 X-14.4985 Y-43.5002 Z-8.0000 F120.00
G1 X-14.5000 Y-3.0000 Z-8.0000 F120.00
G2 X-10.5785 Y0.9969 Z-8.0000 I4.0018 J-0.0041 F120.00
G1 X33.4217 Y0.9984 Z-8.0000 F120.00
G1 X34.9608 Y0.9985 Z-6.4456 F120.00
G1 X36.4998 Y0.9985 Z-8.0000 F120.00
G1 X80.5000 Y1.0000 Z-8.0000 F120.00
G2 X83.3264 Y-0.1729 Z-8.0000 I-0.0041 J-4.0018 F120.00
G1 X83.3264 Y-0.1729 Z-9.0000 F120.00
G2 X84.4969 Y-2.9215 Z-9.0000 I-2.8305 J-2.8289 F120.00
G1 X84.4984 Y-42.4316 Z-9.0000 F120.00
G1 X84.4985 Y-44.9608 Z-6.4456 F120.00
G1 X84.4986 Y-47.4899 Z-9.0000 F120.00
G1 X84.5000 Y-87.0000 Z-9.0000 F120.00
G2 X80.5785 Y-90.9969 Z-9.0000 I-4.0018 J0.0041 F120.00
G1 X37.5684 Y-90.9984 Z-9.0000 F120.00
G1 X35.0392 Y-90.9985 Z-6.4456 F120.00
G1 X32.5101 Y-90.9985 Z-9.0000 F120.00
G1 X-10.5000 Y-91.0000 Z-9.0000 F120.00
G2 X-14.4969 Y-87.0785 Z-9.0000 I0.0041 J4.0018 F120.00
G1 X-14.4984 Y-47.5684 Z-9.0000 F120.00
G1 X-14.4985 Y-45.0392 Z-6.4456 F120.00
G1 X-14.4986 Y-42.5101 Z-9.0000 F120.00
G1 X-14.5000 Y-3.0000 Z-9.0000 F120.00
G2 X-10.5785 Y0.9969 Z-9.0000 I4.0018 J-0.0041 F120.00
G1 X32.4316 Y0.9984 Z-9.0000 F120.00
G1 X34.9608 Y0.9985 Z-6.4456 F120.00
G1 X37.4899 Y0.9985 Z-9.0000 F120.00
G1 X80.5000 Y1.0000 Z-9.0000 F120.00
G2 X83.3264 Y-0.1729 Z-9.0000 I-0.0041 J-4.0018 F120.00
G1 X83.3264 Y-0.1729 Z-10.0000 F120.00
G2 X84.4969 Y-2.9215 Z-10.0000 I-2.8305 J-2.8289 F120.00
G1 X84.4983 Y-41.4415 Z-10.0000 F120.00
G1 X84.4985 Y-44.9608 Z-6.4456 F120.00
G1 X84.4986 Y-48.4800 Z-10.0000 F120.00
G1 X84.5000 Y-87.0000 Z-10.0000 F120.00
G2 X80.5785 Y-90.9969 Z-10.0000 I-4.0018 J0.0041 F120.00
G1 X38.5585 Y-90.9983 Z-10.0000 F120.00
G1 X35.0392 Y-90.9985 Z-6.4456 F120.00
G1 X31.5200 Y-90.9986 Z-10.0000 F120.00
G1 X-10.5000 Y-91.0000 Z-10.0000 F120.00
G2 X-14.4969 Y-87.0785 Z-10.0000 I0.0041 J4.0018 F120.00
G1 X-14.4983 Y-48.5585 Z-10.0000 F120.00
G1 X-14.4985 Y-45.0392 Z-6.4456 F120.00
G1 X-14.4986 Y-41.5200 Z-10.0000 F120.00
G1 X-14.5000 Y-3.0000 Z-10.0000 F120.00
G2 X-10.5785 Y0.9969 Z-10.0000 I4.0018 J-0.0041 F120.00
G1 X31.4415 Y0.9983 Z-10.0000 F120.00
G1 X34.9608 Y0.9985 Z-6.4456 F120.00
G1 X38.4800 Y0.9986 Z-10.0000 F120.00
G1 X80.5000 Y1.0000 Z-10.0000 F120.00
G2 X83.3264 Y-0.1729 Z-10.0000 I-0.0041 J-4.0018 F120.00
G1 X83.3264 Y-0.1729 Z-11.0000 F120.00
G2 X84.4969 Y-2.9215 Z-11.0000 I-2.8305 J-2.8289 F120.00
G1 X84.4983 Y-40.4514 Z-11.0000 F120.00
G1 X84.4985 Y-44.9608 Z-6.4456 F120.00
G1 X84.4986 Y-49.4701 Z-11.0000 F120.00
G1 X84.5000 Y-87.0000 Z-11.0000 F120.00
G2 X80.5785 Y-90.9969 Z-11.0000 I-4.0018 J0.0041 F120.00
G1 X39.5486 Y-90.9983 Z-11.0000 F120.00
G1 X35.0392 Y-90.9985 Z-6.4456 F120.00
G1 X30.5299 Y-90.9986 Z-11.0000 F120.00
G1 X-10.5000 Y-91.0000 Z-11.0000 F120.00
G2 X-14.4969 Y-87.0785 Z-11.0000 I0.0041 J4.0018 F120.00
G1 X-14.4983 Y-49.5486 Z-11.0000 F120.00
G1 X-14.4985 Y-45.0392 Z-6.4456 F120.00
G1 X-14.4986 Y-40.5299 Z-11.0000 F120.00
G1 X-14.5000 Y-3.0000 Z-11.0000 F120.00
G2 X-10.5785 Y0.9969 Z-11.0000 I4.0018 J-0.0041 F120.00
G1 X30.4514 Y0.9983 Z-11.0000 F120.00
G1 X34.9608 Y0.9985 Z-6.4456 F120.00
G1 X39.4701 Y0.9986 Z-11.0000 F120.00
G1 X80.5000 Y1.0000 Z-11.0000 F120.00
G2 X83.3264 Y-0.1729 Z-11.0000 I-0.0041 J-4.0018 F120.00
G1 X83.3264 Y-0.1729 Z-12.0000 F120.00
G2 X84.4969 Y-2.9215 Z-12.0000 I-2.8305 J-2.8289 F120.00
G1 X84.4983 Y-39.4613 Z-12.0000 F120.00
G1 X84.4985 Y-44.9608 Z-6.4456 F120.00
G1 X84.4987 Y-50.4602 Z-12.0000 F120.00
G1 X84.5000 Y-87.0000 Z-12.0000 F120.00
G2 X80.5785 Y-90.9969 Z-12.0000 I-4.0018 J0.0041 F120.00
G1 X40.5387 Y-90.9983 Z-12.0000 F120.00
G1 X35.0392 Y-90.9985 Z-6.4456 F120.00
G1 X29.5398 Y-90.9986 Z-12.0000 F120.00
G1 X-10.5000 Y-91.0000 Z-12.0000 F120.00
G2 X-14.4969 Y-87.0785 Z-12.0000 I0.0041 J4.0018 F120.00
G1 X-14.4983 Y-50.5387 Z-12.0000 F120.00
G1 X-14.4985 Y-45.0392 Z-6.4456 F120.00
G1 X-14.4987 Y-39.5398 Z-12.0000 F120.00
G1 X-14.5000 Y-3.0000 Z-12.0000 F120.00
G2 X-10.5785 Y0.9969 Z-12.0000 I4.0018 J-0.0041 F120.00
G1 X29.4613 Y0.9983 Z-12.0000 F120.00
G1 X34.9608 Y0.9985 Z-6.4456 F120.00
G1 X40.4602 Y0.9986 Z-12.0000 F120.00
G1 X80.5000 Y1.0000 Z-12.0000 F120.00
G2 X83.3264 Y-0.1729 Z-12.0000 I-0.0041 J-4.0018 F120.00
G0 X83.3264 Y-0.1729 Z6.0000
(finish operation: TagDressup)
(begin postamble)
M5
G17 G90
; M2
