(Exported by FreeCAD)
(Post Processor: grbl_post)
(Output Time:2020-02-23 18:06:47.621372)
(begin preamble)
G17 G90
G21
(begin operation: Default Tool)
(Path: Default Tool)
(Default Tool)
(begin toolchange)
; M6 T1
M3 S800.0000
(finish operation: Default Tool)
(begin operation: Pocket_Shape)
(Path: Pocket_Shape)
(Pocket_Shape)
G0 Z5.0000
G0 X21.5085 Y-20.2415
G0 Z3.0000
G1 X21.5085 Y-20.2415 Z0.0000 F180.00
G2 X21.5980 Y-21.1496 Z0.0000 I-0.5085 J-0.5085 F180.00
G2 X20.4020 Y-20.3504 Z0.0000 I-0.5980 J0.3996 F180.00
G2 X21.5085 Y-20.2415 Z0.0000 I0.5980 J-0.3996 F180.00
G1 X21.5085 Y-20.2415 Z-1.0000 F180.00
G2 X21.5980 Y-21.1496 Z-1.0000 I-0.5085 J-0.5085 F180.00
G2 X20.4020 Y-20.3504 Z-1.0000 I-0.5980 J0.3996 F180.00
G2 X21.5085 Y-20.2415 Z-1.0000 I0.5980 J-0.3996 F180.00
G1 X21.5085 Y-20.2415 Z-2.0000 F180.00
G2 X21.5980 Y-21.1496 Z-2.0000 I-0.5085 J-0.5085 F180.00
G2 X20.4020 Y-20.3504 Z-2.0000 I-0.5980 J0.3996 F180.00
G2 X21.5085 Y-20.2415 Z-2.0000 I0.5980 J-0.3996 F180.00
G1 X21.5085 Y-20.2415 Z-3.0000 F180.00
G2 X21.5980 Y-21.1496 Z-3.0000 I-0.5085 J-0.5085 F180.00
G2 X20.4020 Y-20.3504 Z-3.0000 I-0.5980 J0.3996 F180.00
G2 X21.5085 Y-20.2415 Z-3.0000 I0.5980 J-0.3996 F180.00
G1 X21.5085 Y-20.2415 Z-4.0000 F180.00
G2 X21.5980 Y-21.1496 Z-4.0000 I-0.5085 J-0.5085 F180.00
G2 X20.4020 Y-20.3504 Z-4.0000 I-0.5980 J0.3996 F180.00
G2 X21.5085 Y-20.2415 Z-4.0000 I0.5980 J-0.3996 F180.00
G1 X21.5085 Y-20.2415 Z-5.0000 F180.00
G2 X21.5980 Y-21.1496 Z-5.0000 I-0.5085 J-0.5085 F180.00
G2 X20.4020 Y-20.3504 Z-5.0000 I-0.5980 J0.3996 F180.00
G2 X21.5085 Y-20.2415 Z-5.0000 I0.5980 J-0.3996 F180.00
G1 X21.5085 Y-20.2415 Z-6.0000 F180.00
G2 X21.5980 Y-21.1496 Z-6.0000 I-0.5085 J-0.5085 F180.00
G2 X20.4020 Y-20.3504 Z-6.0000 I-0.5980 J0.3996 F180.00
G2 X21.5085 Y-20.2415 Z-6.0000 I0.5980 J-0.3996 F180.00
G1 X21.5085 Y-20.2415 Z-7.0000 F180.00
G2 X21.5980 Y-21.1496 Z-7.0000 I-0.5085 J-0.5085 F180.00
G2 X20.4020 Y-20.3504 Z-7.0000 I-0.5980 J0.3996 F180.00
G2 X21.5085 Y-20.2415 Z-7.0000 I0.5980 J-0.3996 F180.00
G1 X21.5085 Y-20.2415 Z-8.0000 F180.00
G2 X21.5980 Y-21.1496 Z-8.0000 I-0.5085 J-0.5085 F180.00
G2 X20.4020 Y-20.3504 Z-8.0000 I-0.5980 J0.3996 F180.00
G2 X21.5085 Y-20.2415 Z-8.0000 I0.5980 J-0.3996 F180.00
G1 X21.5085 Y-20.2415 Z-9.0000 F180.00
G2 X21.5980 Y-21.1496 Z-9.0000 I-0.5085 J-0.5085 F180.00
G2 X20.4020 Y-20.3504 Z-9.0000 I-0.5980 J0.3996 F180.00
G2 X21.5085 Y-20.2415 Z-9.0000 I0.5980 J-0.3996 F180.00
G1 X21.5085 Y-20.2415 Z-10.0000 F180.00
G2 X21.5980 Y-21.1496 Z-10.0000 I-0.5085 J-0.5085 F180.00
G2 X20.4020 Y-20.3504 Z-10.0000 I-0.5980 J0.3996 F180.00
G2 X21.5085 Y-20.2415 Z-10.0000 I0.5980 J-0.3996 F180.00
G1 X21.5085 Y-20.2415 Z-11.0000 F180.00
G2 X21.5980 Y-21.1496 Z-11.0000 I-0.5085 J-0.5085 F180.00
G2 X20.4020 Y-20.3504 Z-11.0000 I-0.5980 J0.3996 F180.00
G2 X21.5085 Y-20.2415 Z-11.0000 I0.5980 J-0.3996 F180.00
G1 X21.5085 Y-20.2415 Z-12.0000 F180.00
G2 X21.5980 Y-21.1496 Z-12.0000 I-0.5085 J-0.5085 F180.00
G2 X20.4020 Y-20.3504 Z-12.0000 I-0.5980 J0.3996 F180.00
G2 X21.5085 Y-20.2415 Z-12.0000 I0.5980 J-0.3996 F180.00
G0 Z5.0000
G0 X31.5085 Y-20.2415
G0 Z3.0000
G1 X31.5085 Y-20.2415 Z0.0000 F180.00
G2 X31.5980 Y-21.1496 Z0.0000 I-0.5085 J-0.5085 F180.00
G2 X30.4020 Y-20.3504 Z0.0000 I-0.5980 J0.3996 F180.00
G2 X31.5085 Y-20.2415 Z0.0000 I0.5980 J-0.3996 F180.00
G1 X31.5085 Y-20.2415 Z-1.0000 F180.00
G2 X31.5980 Y-21.1496 Z-1.0000 I-0.5085 J-0.5085 F180.00
G2 X30.4020 Y-20.3504 Z-1.0000 I-0.5980 J0.3996 F180.00
G2 X31.5085 Y-20.2415 Z-1.0000 I0.5980 J-0.3996 F180.00
G1 X31.5085 Y-20.2415 Z-2.0000 F180.00
G2 X31.5980 Y-21.1496 Z-2.0000 I-0.5085 J-0.5085 F180.00
G2 X30.4020 Y-20.3504 Z-2.0000 I-0.5980 J0.3996 F180.00
G2 X31.5085 Y-20.2415 Z-2.0000 I0.5980 J-0.3996 F180.00
G1 X31.5085 Y-20.2415 Z-3.0000 F180.00
G2 X31.5980 Y-21.1496 Z-3.0000 I-0.5085 J-0.5085 F180.00
G2 X30.4020 Y-20.3504 Z-3.0000 I-0.5980 J0.3996 F180.00
G2 X31.5085 Y-20.2415 Z-3.0000 I0.5980 J-0.3996 F180.00
G1 X31.5085 Y-20.2415 Z-4.0000 F180.00
G2 X31.5980 Y-21.1496 Z-4.0000 I-0.5085 J-0.5085 F180.00
G2 X30.4020 Y-20.3504 Z-4.0000 I-0.5980 J0.3996 F180.00
G2 X31.5085 Y-20.2415 Z-4.0000 I0.5980 J-0.3996 F180.00
G1 X31.5085 Y-20.2415 Z-5.0000 F180.00
G2 X31.5980 Y-21.1496 Z-5.0000 I-0.5085 J-0.5085 F180.00
G2 X30.4020 Y-20.3504 Z-5.0000 I-0.5980 J0.3996 F180.00
G2 X31.5085 Y-20.2415 Z-5.0000 I0.5980 J-0.3996 F180.00
G1 X31.5085 Y-20.2415 Z-6.0000 F180.00
G2 X31.5980 Y-21.1496 Z-6.0000 I-0.5085 J-0.5085 F180.00
G2 X30.4020 Y-20.3504 Z-6.0000 I-0.5980 J0.3996 F180.00
G2 X31.5085 Y-20.2415 Z-6.0000 I0.5980 J-0.3996 F180.00
G1 X31.5085 Y-20.2415 Z-7.0000 F180.00
G2 X31.5980 Y-21.1496 Z-7.0000 I-0.5085 J-0.5085 F180.00
G2 X30.4020 Y-20.3504 Z-7.0000 I-0.5980 J0.3996 F180.00
G2 X31.5085 Y-20.2415 Z-7.0000 I0.5980 J-0.3996 F180.00
G1 X31.5085 Y-20.2415 Z-8.0000 F180.00
G2 X31.5980 Y-21.1496 Z-8.0000 I-0.5085 J-0.5085 F180.00
G2 X30.4020 Y-20.3504 Z-8.0000 I-0.5980 J0.3996 F180.00
G2 X31.5085 Y-20.2415 Z-8.0000 I0.5980 J-0.3996 F180.00
G1 X31.5085 Y-20.2415 Z-9.0000 F180.00
G2 X31.5980 Y-21.1496 Z-9.0000 I-0.5085 J-0.5085 F180.00
G2 X30.4020 Y-20.3504 Z-9.0000 I-0.5980 J0.3996 F180.00
G2 X31.5085 Y-20.2415 Z-9.0000 I0.5980 J-0.3996 F180.00
G1 X31.5085 Y-20.2415 Z-10.0000 F180.00
G2 X31.5980 Y-21.1496 Z-10.0000 I-0.5085 J-0.5085 F180.00
G2 X30.4020 Y-20.3504 Z-10.0000 I-0.5980 J0.3996 F180.00
G2 X31.5085 Y-20.2415 Z-10.0000 I0.5980 J-0.3996 F180.00
G1 X31.5085 Y-20.2415 Z-11.0000 F180.00
G2 X31.5980 Y-21.1496 Z-11.0000 I-0.5085 J-0.5085 F180.00
G2 X30.4020 Y-20.3504 Z-11.0000 I-0.5980 J0.3996 F180.00
G2 X31.5085 Y-20.2415 Z-11.0000 I0.5980 J-0.3996 F180.00
G1 X31.5085 Y-20.2415 Z-12.0000 F180.00
G2 X31.5980 Y-21.1496 Z-12.0000 I-0.5085 J-0.5085 F180.00
G2 X30.4020 Y-20.3504 Z-12.0000 I-0.5980 J0.3996 F180.00
G2 X31.5085 Y-20.2415 Z-12.0000 I0.5980 J-0.3996 F180.00
G0 Z5.0000
G0 X21.5085 Y-68.7415
G0 Z3.0000
G1 X21.5085 Y-68.7415 Z0.0000 F180.00
G2 X21.5980 Y-69.6496 Z0.0000 I-0.5085 J-0.5085 F180.00
G2 X20.4020 Y-68.8504 Z0.0000 I-0.5980 J0.3996 F180.00
G2 X21.5085 Y-68.7415 Z0.0000 I0.5980 J-0.3996 F180.00
G1 X21.5085 Y-68.7415 Z-1.0000 F180.00
G2 X21.5980 Y-69.6496 Z-1.0000 I-0.5085 J-0.5085 F180.00
G2 X20.4020 Y-68.8504 Z-1.0000 I-0.5980 J0.3996 F180.00
G2 X21.5085 Y-68.7415 Z-1.0000 I0.5980 J-0.3996 F180.00
G1 X21.5085 Y-68.7415 Z-2.0000 F180.00
G2 X21.5980 Y-69.6496 Z-2.0000 I-0.5085 J-0.5085 F180.00
G2 X20.4020 Y-68.8504 Z-2.0000 I-0.5980 J0.3996 F180.00
G2 X21.5085 Y-68.7415 Z-2.0000 I0.5980 J-0.3996 F180.00
G1 X21.5085 Y-68.7415 Z-3.0000 F180.00
G2 X21.5980 Y-69.6496 Z-3.0000 I-0.5085 J-0.5085 F180.00
G2 X20.4020 Y-68.8504 Z-3.0000 I-0.5980 J0.3996 F180.00
G2 X21.5085 Y-68.7415 Z-3.0000 I0.5980 J-0.3996 F180.00
G1 X21.5085 Y-68.7415 Z-4.0000 F180.00
G2 X21.5980 Y-69.6496 Z-4.0000 I-0.5085 J-0.5085 F180.00
G2 X20.4020 Y-68.8504 Z-4.0000 I-0.5980 J0.3996 F180.00
G2 X21.5085 Y-68.7415 Z-4.0000 I0.5980 J-0.3996 F180.00
G1 X21.5085 Y-68.7415 Z-5.0000 F180.00
G2 X21.5980 Y-69.6496 Z-5.0000 I-0.5085 J-0.5085 F180.00
G2 X20.4020 Y-68.8504 Z-5.0000 I-0.5980 J0.3996 F180.00
G2 X21.5085 Y-68.7415 Z-5.0000 I0.5980 J-0.3996 F180.00
G1 X21.5085 Y-68.7415 Z-6.0000 F180.00
G2 X21.5980 Y-69.6496 Z-6.0000 I-0.5085 J-0.5085 F180.00
G2 X20.4020 Y-68.8504 Z-6.0000 I-0.5980 J0.3996 F180.00
G2 X21.5085 Y-68.7415 Z-6.0000 I0.5980 J-0.3996 F180.00
G1 X21.5085 Y-68.7415 Z-7.0000 F180.00
G2 X21.5980 Y-69.6496 Z-7.0000 I-0.5085 J-0.5085 F180.00
G2 X20.4020 Y-68.8504 Z-7.0000 I-0.5980 J0.3996 F180.00
G2 X21.5085 Y-68.7415 Z-7.0000 I0.5980 J-0.3996 F180.00
G1 X21.5085 Y-68.7415 Z-8.0000 F180.00
G2 X21.5980 Y-69.6496 Z-8.0000 I-0.5085 J-0.5085 F180.00
G2 X20.4020 Y-68.8504 Z-8.0000 I-0.5980 J0.3996 F180.00
G2 X21.5085 Y-68.7415 Z-8.0000 I0.5980 J-0.3996 F180.00
G1 X21.5085 Y-68.7415 Z-9.0000 F180.00
G2 X21.5980 Y-69.6496 Z-9.0000 I-0.5085 J-0.5085 F180.00
G2 X20.4020 Y-68.8504 Z-9.0000 I-0.5980 J0.3996 F180.00
G2 X21.5085 Y-68.7415 Z-9.0000 I0.5980 J-0.3996 F180.00
G1 X21.5085 Y-68.7415 Z-10.0000 F180.00
G2 X21.5980 Y-69.6496 Z-10.0000 I-0.5085 J-0.5085 F180.00
G2 X20.4020 Y-68.8504 Z-10.0000 I-0.5980 J0.3996 F180.00
G2 X21.5085 Y-68.7415 Z-10.0000 I0.5980 J-0.3996 F180.00
G1 X21.5085 Y-68.7415 Z-11.0000 F180.00
G2 X21.5980 Y-69.6496 Z-11.0000 I-0.5085 J-0.5085 F180.00
G2 X20.4020 Y-68.8504 Z-11.0000 I-0.5980 J0.3996 F180.00
G2 X21.5085 Y-68.7415 Z-11.0000 I0.5980 J-0.3996 F180.00
G1 X21.5085 Y-68.7415 Z-12.0000 F180.00
G2 X21.5980 Y-69.6496 Z-12.0000 I-0.5085 J-0.5085 F180.00
G2 X20.4020 Y-68.8504 Z-12.0000 I-0.5980 J0.3996 F180.00
G2 X21.5085 Y-68.7415 Z-12.0000 I0.5980 J-0.3996 F180.00
G0 Z5.0000
G0 X31.5085 Y-68.7415
G0 Z3.0000
G1 X31.5085 Y-68.7415 Z0.0000 F180.00
G2 X31.5980 Y-69.6496 Z0.0000 I-0.5085 J-0.5085 F180.00
G2 X30.4020 Y-68.8504 Z0.0000 I-0.5980 J0.3996 F180.00
G2 X31.5085 Y-68.7415 Z0.0000 I0.5980 J-0.3996 F180.00
G1 X31.5085 Y-68.7415 Z-1.0000 F180.00
G2 X31.5980 Y-69.6496 Z-1.0000 I-0.5085 J-0.5085 F180.00
G2 X30.4020 Y-68.8504 Z-1.0000 I-0.5980 J0.3996 F180.00
G2 X31.5085 Y-68.7415 Z-1.0000 I0.5980 J-0.3996 F180.00
G1 X31.5085 Y-68.7415 Z-2.0000 F180.00
G2 X31.5980 Y-69.6496 Z-2.0000 I-0.5085 J-0.5085 F180.00
G2 X30.4020 Y-68.8504 Z-2.0000 I-0.5980 J0.3996 F180.00
G2 X31.5085 Y-68.7415 Z-2.0000 I0.5980 J-0.3996 F180.00
G1 X31.5085 Y-68.7415 Z-3.0000 F180.00
G2 X31.5980 Y-69.6496 Z-3.0000 I-0.5085 J-0.5085 F180.00
G2 X30.4020 Y-68.8504 Z-3.0000 I-0.5980 J0.3996 F180.00
G2 X31.5085 Y-68.7415 Z-3.0000 I0.5980 J-0.3996 F180.00
G1 X31.5085 Y-68.7415 Z-4.0000 F180.00
G2 X31.5980 Y-69.6496 Z-4.0000 I-0.5085 J-0.5085 F180.00
G2 X30.4020 Y-68.8504 Z-4.0000 I-0.5980 J0.3996 F180.00
G2 X31.5085 Y-68.7415 Z-4.0000 I0.5980 J-0.3996 F180.00
G1 X31.5085 Y-68.7415 Z-5.0000 F180.00
G2 X31.5980 Y-69.6496 Z-5.0000 I-0.5085 J-0.5085 F180.00
G2 X30.4020 Y-68.8504 Z-5.0000 I-0.5980 J0.3996 F180.00
G2 X31.5085 Y-68.7415 Z-5.0000 I0.5980 J-0.3996 F180.00
G1 X31.5085 Y-68.7415 Z-6.0000 F180.00
G2 X31.5980 Y-69.6496 Z-6.0000 I-0.5085 J-0.5085 F180.00
G2 X30.4020 Y-68.8504 Z-6.0000 I-0.5980 J0.3996 F180.00
G2 X31.5085 Y-68.7415 Z-6.0000 I0.5980 J-0.3996 F180.00
G1 X31.5085 Y-68.7415 Z-7.0000 F180.00
G2 X31.5980 Y-69.6496 Z-7.0000 I-0.5085 J-0.5085 F180.00
G2 X30.4020 Y-68.8504 Z-7.0000 I-0.5980 J0.3996 F180.00
G2 X31.5085 Y-68.7415 Z-7.0000 I0.5980 J-0.3996 F180.00
G1 X31.5085 Y-68.7415 Z-8.0000 F180.00
G2 X31.5980 Y-69.6496 Z-8.0000 I-0.5085 J-0.5085 F180.00
G2 X30.4020 Y-68.8504 Z-8.0000 I-0.5980 J0.3996 F180.00
G2 X31.5085 Y-68.7415 Z-8.0000 I0.5980 J-0.3996 F180.00
G1 X31.5085 Y-68.7415 Z-9.0000 F180.00
G2 X31.5980 Y-69.6496 Z-9.0000 I-0.5085 J-0.5085 F180.00
G2 X30.4020 Y-68.8504 Z-9.0000 I-0.5980 J0.3996 F180.00
G2 X31.5085 Y-68.7415 Z-9.0000 I0.5980 J-0.3996 F180.00
G1 X31.5085 Y-68.7415 Z-10.0000 F180.00
G2 X31.5980 Y-69.6496 Z-10.0000 I-0.5085 J-0.5085 F180.00
G2 X30.4020 Y-68.8504 Z-10.0000 I-0.5980 J0.3996 F180.00
G2 X31.5085 Y-68.7415 Z-10.0000 I0.5980 J-0.3996 F180.00
G1 X31.5085 Y-68.7415 Z-11.0000 F180.00
G2 X31.5980 Y-69.6496 Z-11.0000 I-0.5085 J-0.5085 F180.00
G2 X30.4020 Y-68.8504 Z-11.0000 I-0.5980 J0.3996 F180.00
G2 X31.5085 Y-68.7415 Z-11.0000 I0.5980 J-0.3996 F180.00
G1 X31.5085 Y-68.7415 Z-12.0000 F180.00
G2 X31.5980 Y-69.6496 Z-12.0000 I-0.5085 J-0.5085 F180.00
G2 X30.4020 Y-68.8504 Z-12.0000 I-0.5980 J0.3996 F180.00
G2 X31.5085 Y-68.7415 Z-12.0000 I0.5980 J-0.3996 F180.00
G0 Z5.0000
G0 X6.7035 Y-74.2965
G0 Z3.0000
G1 X6.7035 Y-74.2965 Z0.0000 F180.00
G2 X6.8458 Y-75.5237 Z0.0000 I-0.7035 J-0.7035 F180.00
G2 X5.1542 Y-74.4763 Z0.0000 I-0.8458 J0.5237 F180.00
G2 X6.7035 Y-74.2965 Z0.0000 I0.8458 J-0.5237 F180.00
G1 X6.7035 Y-74.2965 Z-1.0000 F180.00
G2 X6.8458 Y-75.5237 Z-1.0000 I-0.7035 J-0.7035 F180.00
G2 X5.1542 Y-74.4763 Z-1.0000 I-0.8458 J0.5237 F180.00
G2 X6.7035 Y-74.2965 Z-1.0000 I0.8458 J-0.5237 F180.00
G1 X6.7035 Y-74.2965 Z-2.0000 F180.00
G2 X6.8458 Y-75.5237 Z-2.0000 I-0.7035 J-0.7035 F180.00
G2 X5.1542 Y-74.4763 Z-2.0000 I-0.8458 J0.5237 F180.00
G2 X6.7035 Y-74.2965 Z-2.0000 I0.8458 J-0.5237 F180.00
G1 X6.7035 Y-74.2965 Z-3.0000 F180.00
G2 X6.8458 Y-75.5237 Z-3.0000 I-0.7035 J-0.7035 F180.00
G2 X5.1542 Y-74.4763 Z-3.0000 I-0.8458 J0.5237 F180.00
G2 X6.7035 Y-74.2965 Z-3.0000 I0.8458 J-0.5237 F180.00
G1 X6.7035 Y-74.2965 Z-4.0000 F180.00
G2 X6.8458 Y-75.5237 Z-4.0000 I-0.7035 J-0.7035 F180.00
G2 X5.1542 Y-74.4763 Z-4.0000 I-0.8458 J0.5237 F180.00
G2 X6.7035 Y-74.2965 Z-4.0000 I0.8458 J-0.5237 F180.00
G1 X6.7035 Y-74.2965 Z-5.0000 F180.00
G2 X6.8458 Y-75.5237 Z-5.0000 I-0.7035 J-0.7035 F180.00
G2 X5.1542 Y-74.4763 Z-5.0000 I-0.8458 J0.5237 F180.00
G2 X6.7035 Y-74.2965 Z-5.0000 I0.8458 J-0.5237 F180.00
G1 X6.7035 Y-74.2965 Z-6.0000 F180.00
G2 X6.8458 Y-75.5237 Z-6.0000 I-0.7035 J-0.7035 F180.00
G2 X5.1542 Y-74.4763 Z-6.0000 I-0.8458 J0.5237 F180.00
G2 X6.7035 Y-74.2965 Z-6.0000 I0.8458 J-0.5237 F180.00
G1 X6.7035 Y-74.2965 Z-7.0000 F180.00
G2 X6.8458 Y-75.5237 Z-7.0000 I-0.7035 J-0.7035 F180.00
G2 X5.1542 Y-74.4763 Z-7.0000 I-0.8458 J0.5237 F180.00
G2 X6.7035 Y-74.2965 Z-7.0000 I0.8458 J-0.5237 F180.00
G1 X6.7035 Y-74.2965 Z-8.0000 F180.00
G2 X6.8458 Y-75.5237 Z-8.0000 I-0.7035 J-0.7035 F180.00
G2 X5.1542 Y-74.4763 Z-8.0000 I-0.8458 J0.5237 F180.00
G2 X6.7035 Y-74.2965 Z-8.0000 I0.8458 J-0.5237 F180.00
G1 X6.7035 Y-74.2965 Z-9.0000 F180.00
G2 X6.8458 Y-75.5237 Z-9.0000 I-0.7035 J-0.7035 F180.00
G2 X5.1542 Y-74.4763 Z-9.0000 I-0.8458 J0.5237 F180.00
G2 X6.7035 Y-74.2965 Z-9.0000 I0.8458 J-0.5237 F180.00
G1 X6.7035 Y-74.2965 Z-10.0000 F180.00
G2 X6.8458 Y-75.5237 Z-10.0000 I-0.7035 J-0.7035 F180.00
G2 X5.1542 Y-74.4763 Z-10.0000 I-0.8458 J0.5237 F180.00
G2 X6.7035 Y-74.2965 Z-10.0000 I0.8458 J-0.5237 F180.00
G1 X6.7035 Y-74.2965 Z-11.0000 F180.00
G2 X6.8458 Y-75.5237 Z-11.0000 I-0.7035 J-0.7035 F180.00
G2 X5.1542 Y-74.4763 Z-11.0000 I-0.8458 J0.5237 F180.00
G2 X6.7035 Y-74.2965 Z-11.0000 I0.8458 J-0.5237 F180.00
G1 X6.7035 Y-74.2965 Z-12.0000 F180.00
G2 X6.8458 Y-75.5237 Z-12.0000 I-0.7035 J-0.7035 F180.00
G2 X5.1542 Y-74.4763 Z-12.0000 I-0.8458 J0.5237 F180.00
G2 X6.7035 Y-74.2965 Z-12.0000 I0.8458 J-0.5237 F180.00
G0 Z5.0000
G0 X6.7035 Y-14.2965
G0 Z3.0000
G1 X6.7035 Y-14.2965 Z0.0000 F180.00
G2 X6.8458 Y-15.5237 Z0.0000 I-0.7035 J-0.7035 F180.00
G2 X5.1542 Y-14.4763 Z0.0000 I-0.8458 J0.5237 F180.00
G2 X6.7035 Y-14.2965 Z0.0000 I0.8458 J-0.5237 F180.00
G1 X6.7035 Y-14.2965 Z-1.0000 F180.00
G2 X6.8458 Y-15.5237 Z-1.0000 I-0.7035 J-0.7035 F180.00
G2 X5.1542 Y-14.4763 Z-1.0000 I-0.8458 J0.5237 F180.00
G2 X6.7035 Y-14.2965 Z-1.0000 I0.8458 J-0.5237 F180.00
G1 X6.7035 Y-14.2965 Z-2.0000 F180.00
G2 X6.8458 Y-15.5237 Z-2.0000 I-0.7035 J-0.7035 F180.00
G2 X5.1542 Y-14.4763 Z-2.0000 I-0.8458 J0.5237 F180.00
G2 X6.7035 Y-14.2965 Z-2.0000 I0.8458 J-0.5237 F180.00
G1 X6.7035 Y-14.2965 Z-3.0000 F180.00
G2 X6.8458 Y-15.5237 Z-3.0000 I-0.7035 J-0.7035 F180.00
G2 X5.1542 Y-14.4763 Z-3.0000 I-0.8458 J0.5237 F180.00
G2 X6.7035 Y-14.2965 Z-3.0000 I0.8458 J-0.5237 F180.00
G1 X6.7035 Y-14.2965 Z-4.0000 F180.00
G2 X6.8458 Y-15.5237 Z-4.0000 I-0.7035 J-0.7035 F180.00
G2 X5.1542 Y-14.4763 Z-4.0000 I-0.8458 J0.5237 F180.00
G2 X6.7035 Y-14.2965 Z-4.0000 I0.8458 J-0.5237 F180.00
G1 X6.7035 Y-14.2965 Z-5.0000 F180.00
G2 X6.8458 Y-15.5237 Z-5.0000 I-0.7035 J-0.7035 F180.00
G2 X5.1542 Y-14.4763 Z-5.0000 I-0.8458 J0.5237 F180.00
G2 X6.7035 Y-14.2965 Z-5.0000 I0.8458 J-0.5237 F180.00
G1 X6.7035 Y-14.2965 Z-6.0000 F180.00
G2 X6.8458 Y-15.5237 Z-6.0000 I-0.7035 J-0.7035 F180.00
G2 X5.1542 Y-14.4763 Z-6.0000 I-0.8458 J0.5237 F180.00
G2 X6.7035 Y-14.2965 Z-6.0000 I0.8458 J-0.5237 F180.00
G1 X6.7035 Y-14.2965 Z-7.0000 F180.00
G2 X6.8458 Y-15.5237 Z-7.0000 I-0.7035 J-0.7035 F180.00
G2 X5.1542 Y-14.4763 Z-7.0000 I-0.8458 J0.5237 F180.00
G2 X6.7035 Y-14.2965 Z-7.0000 I0.8458 J-0.5237 F180.00
G1 X6.7035 Y-14.2965 Z-8.0000 F180.00
G2 X6.8458 Y-15.5237 Z-8.0000 I-0.7035 J-0.7035 F180.00
G2 X5.1542 Y-14.4763 Z-8.0000 I-0.8458 J0.5237 F180.00
G2 X6.7035 Y-14.2965 Z-8.0000 I0.8458 J-0.5237 F180.00
G1 X6.7035 Y-14.2965 Z-9.0000 F180.00
G2 X6.8458 Y-15.5237 Z-9.0000 I-0.7035 J-0.7035 F180.00
G2 X5.1542 Y-14.4763 Z-9.0000 I-0.8458 J0.5237 F180.00
G2 X6.7035 Y-14.2965 Z-9.0000 I0.8458 J-0.5237 F180.00
G1 X6.7035 Y-14.2965 Z-10.0000 F180.00
G2 X6.8458 Y-15.5237 Z-10.0000 I-0.7035 J-0.7035 F180.00
G2 X5.1542 Y-14.4763 Z-10.0000 I-0.8458 J0.5237 F180.00
G2 X6.7035 Y-14.2965 Z-10.0000 I0.8458 J-0.5237 F180.00
G1 X6.7035 Y-14.2965 Z-11.0000 F180.00
G2 X6.8458 Y-15.5237 Z-11.0000 I-0.7035 J-0.7035 F180.00
G2 X5.1542 Y-14.4763 Z-11.0000 I-0.8458 J0.5237 F180.00
G2 X6.7035 Y-14.2965 Z-11.0000 I0.8458 J-0.5237 F180.00
G1 X6.7035 Y-14.2965 Z-12.0000 F180.00
G2 X6.8458 Y-15.5237 Z-12.0000 I-0.7035 J-0.7035 F180.00
G2 X5.1542 Y-14.4763 Z-12.0000 I-0.8458 J0.5237 F180.00
G2 X6.7035 Y-14.2965 Z-12.0000 I0.8458 J-0.5237 F180.00
G0 Z5.0000
(finish operation: Pocket_Shape)
(begin operation: Pocket_Shape001)
(Path: Pocket_Shape001)
(Pocket_Shape001)
G0 Z5.0000
G0 X7.9779 Y-13.0221
G0 Z3.0000
G1 X7.9779 Y-13.0221 Z-1.0000 F180.00
G2 X6.1909 Y-17.7907 Z-1.0000 I-1.9779 J-1.9779 F180.00
G2 X5.8091 Y-12.2093 Z-1.0000 I-0.1909 J2.7907 F180.00
G2 X7.9779 Y-13.0221 Z-1.0000 I0.1909 J-2.7907 F180.00
G0 X7.9779 Y-13.0221 Z5.0000
G0 X7.9092 Y-17.0443 Z5.0000
G0 X7.9092 Y-17.0443 Z2.0000
G1 X7.9092 Y-17.0443 Z-1.0000 F180.00
G3 X8.2339 Y-13.3255 Z-1.0000 I-1.8976 J2.0392 F180.00
G1 X4.3248 Y-17.2347 Z-1.0000 F180.00
G2 X3.2056 Y-14.9597 Z-1.0000 I1.6472 J2.2231 F180.00
G2 X5.9560 Y-12.2093 Z-1.0000 I2.7815 J-0.0311 F180.00
G1 X3.2056 Y-14.9597 Z-1.0000 F180.00
G1 X3.2056 Y-14.9597 Z-2.0000 F180.00
G1 X5.9560 Y-12.2093 Z-2.0000 F180.00
G3 X3.2056 Y-14.9597 Z-2.0000 I0.0311 J-2.7815 F180.00
G3 X4.3248 Y-17.2347 Z-2.0000 I2.7664 J-0.0518 F180.00
G1 X8.2339 Y-13.3255 Z-2.0000 F180.00
G2 X7.9092 Y-17.0443 Z-2.0000 I-2.2223 J-1.6795 F180.00
G1 X7.9092 Y-17.0443 Z-2.0000 F180.00
G2 X6.1909 Y-17.7907 Z-2.0000 I-1.9092 J2.0443 F180.00
G2 X5.8091 Y-12.2093 Z-2.0000 I-0.1909 J2.7907 F180.00
G2 X7.9092 Y-17.0443 Z-2.0000 I0.1909 J-2.7907 F180.00
G1 X7.9092 Y-17.0443 Z-2.4000 F180.00
G2 X6.1909 Y-17.7907 Z-2.4000 I-1.9092 J2.0443 F180.00
G2 X5.8091 Y-12.2093 Z-2.4000 I-0.1909 J2.7907 F180.00
G2 X7.9092 Y-17.0443 Z-2.4000 I0.1909 J-2.7907 F180.00
G1 X7.9092 Y-17.0443 Z-2.4000 F180.00
G3 X8.2339 Y-13.3255 Z-2.4000 I-1.8976 J2.0392 F180.00
G1 X4.3248 Y-17.2347 Z-2.4000 F180.00
G2 X3.2056 Y-14.9597 Z-2.4000 I1.6472 J2.2231 F180.00
G2 X5.9560 Y-12.2093 Z-2.4000 I2.7815 J-0.0311 F180.00
G1 X3.2056 Y-14.9597 Z-2.4000 F180.00
G0 Z5.0000
G0 X7.9779 Y-73.0221
G0 Z3.0000
G1 X7.9779 Y-73.0221 Z-1.0000 F180.00
G2 X6.1909 Y-77.7907 Z-1.0000 I-1.9779 J-1.9779 F180.00
G2 X5.8091 Y-72.2093 Z-1.0000 I-0.1909 J2.7907 F180.00
G2 X7.9779 Y-73.0221 Z-1.0000 I0.1909 J-2.7907 F180.00
G0 X7.9779 Y-73.0221 Z5.0000
G0 X7.9092 Y-77.0443 Z5.0000
G0 X7.9092 Y-77.0443 Z2.0000
G1 X7.9092 Y-77.0443 Z-1.0000 F180.00
G3 X8.2339 Y-73.3255 Z-1.0000 I-1.8976 J2.0392 F180.00
G1 X4.3248 Y-77.2347 Z-1.0000 F180.00
G2 X3.2056 Y-74.9597 Z-1.0000 I1.6472 J2.2231 F180.00
G2 X5.9560 Y-72.2093 Z-1.0000 I2.7815 J-0.0311 F180.00
G1 X3.2056 Y-74.9597 Z-1.0000 F180.00
G1 X3.2056 Y-74.9597 Z-2.0000 F180.00
G1 X5.9560 Y-72.2093 Z-2.0000 F180.00
G3 X3.2056 Y-74.9597 Z-2.0000 I0.0311 J-2.7815 F180.00
G3 X4.3248 Y-77.2347 Z-2.0000 I2.7664 J-0.0518 F180.00
G1 X8.2339 Y-73.3255 Z-2.0000 F180.00
G2 X7.9092 Y-77.0443 Z-2.0000 I-2.2223 J-1.6795 F180.00
G1 X7.9092 Y-77.0443 Z-2.0000 F180.00
G2 X6.1909 Y-77.7907 Z-2.0000 I-1.9092 J2.0443 F180.00
G2 X5.8091 Y-72.2093 Z-2.0000 I-0.1909 J2.7907 F180.00
G2 X7.9092 Y-77.0443 Z-2.0000 I0.1909 J-2.7907 F180.00
G1 X7.9092 Y-77.0443 Z-2.4000 F180.00
G2 X6.1909 Y-77.7907 Z-2.4000 I-1.9092 J2.0443 F180.00
G2 X5.8091 Y-72.2093 Z-2.4000 I-0.1909 J2.7907 F180.00
G2 X7.9092 Y-77.0443 Z-2.4000 I0.1909 J-2.7907 F180.00
G1 X7.9092 Y-77.0443 Z-2.4000 F180.00
G3 X8.2339 Y-73.3255 Z-2.4000 I-1.8976 J2.0392 F180.00
G1 X4.3248 Y-77.2347 Z-2.4000 F180.00
G2 X3.2056 Y-74.9597 Z-2.4000 I1.6472 J2.2231 F180.00
G2 X5.9560 Y-72.2093 Z-2.4000 I2.7815 J-0.0311 F180.00
G1 X3.2056 Y-74.9597 Z-2.4000 F180.00
G0 Z5.0000
(finish operation: Pocket_Shape001)
(begin operation: TagDressup)
(Path: TagDressup)
G0 Z5.0000
G0 X35.6753 Y-0.3242 Z5.0000
G0 X35.6753 Y-0.3242 Z3.0000
G1 X35.6753 Y-0.3242 Z-1.0000 F180.00
G2 X37.1974 Y-3.9215 Z-1.0000 I-3.6787 J-3.6773 F180.00
G1 X37.2000 Y-20.6000 Z-1.0000 F180.00
G2 X32.0785 Y-25.7974 Z-1.0000 I-5.2015 J0.0034 F180.00
G1 X17.2000 Y-25.7998 Z-1.0000 F180.00
G1 X16.8486 Y-25.4485 Z-1.0000 F180.00
G1 X17.2000 Y-25.7998 Z-1.0000 F180.00
G1 X17.2000 Y-64.2000 Z-1.0000 F180.00
G1 X16.8485 Y-64.5515 Z-1.0000 F180.00
G1 X17.2000 Y-64.2000 Z-1.0000 F180.00
G1 X32.0000 Y-64.2000 Z-1.0000 F180.00
G2 X37.1974 Y-69.3215 Z-1.0000 I-0.0034 J-5.2015 F180.00
G1 X37.2000 Y-86.0000 Z-1.0000 F180.00
G2 X32.0785 Y-91.1974 Z-1.0000 I-5.2015 J0.0034 F180.00
G1 X0.0000 Y-91.2000 Z-1.0000 F180.00
G2 X-5.1974 Y-86.0785 Z-1.0000 I0.0034 J5.2015 F180.00
G1 X-5.2000 Y-4.0000 Z-1.0000 F180.00
G2 X-0.0785 Y1.1974 Z-1.0000 I5.2015 J-0.0034 F180.00
G1 X32.0000 Y1.2000 Z-1.0000 F180.00
G2 X35.6753 Y-0.3242 Z-1.0000 I-0.0034 J-5.2015 F180.00
G1 X35.6753 Y-0.3242 Z-2.0000 F180.00
G2 X37.1974 Y-3.9215 Z-2.0000 I-3.6787 J-3.6773 F180.00
G1 X37.2000 Y-20.6000 Z-2.0000 F180.00
G2 X32.0785 Y-25.7974 Z-2.0000 I-5.2015 J0.0034 F180.00
G1 X17.2000 Y-25.7998 Z-2.0000 F180.00
G1 X16.8486 Y-25.4485 Z-2.0000 F180.00
G1 X17.2000 Y-25.7998 Z-2.0000 F180.00
G1 X17.2000 Y-64.2000 Z-2.0000 F180.00
G1 X16.8485 Y-64.5515 Z-2.0000 F180.00
G1 X17.2000 Y-64.2000 Z-2.0000 F180.00
G1 X32.0000 Y-64.2000 Z-2.0000 F180.00
G2 X37.1974 Y-69.3215 Z-2.0000 I-0.0034 J-5.2015 F180.00
G1 X37.2000 Y-86.0000 Z-2.0000 F180.00
G2 X32.0785 Y-91.1974 Z-2.0000 I-5.2015 J0.0034 F180.00
G1 X0.0000 Y-91.2000 Z-2.0000 F180.00
G2 X-5.1974 Y-86.0785 Z-2.0000 I0.0034 J5.2015 F180.00
G1 X-5.2000 Y-4.0000 Z-2.0000 F180.00
G2 X-0.0785 Y1.1974 Z-2.0000 I5.2015 J-0.0034 F180.00
G1 X32.0000 Y1.2000 Z-2.0000 F180.00
G2 X35.6753 Y-0.3242 Z-2.0000 I-0.0034 J-5.2015 F180.00
G1 X35.6753 Y-0.3242 Z-3.0000 F180.00
G2 X37.1974 Y-3.9215 Z-3.0000 I-3.6787 J-3.6773 F180.00
G1 X37.2000 Y-20.6000 Z-3.0000 F180.00
G2 X32.0785 Y-25.7974 Z-3.0000 I-5.2015 J0.0034 F180.00
G1 X17.2000 Y-25.7998 Z-3.0000 F180.00
G1 X16.8486 Y-25.4485 Z-3.0000 F180.00
G1 X17.2000 Y-25.7998 Z-3.0000 F180.00
G1 X17.2000 Y-64.2000 Z-3.0000 F180.00
G1 X16.8485 Y-64.5515 Z-3.0000 F180.00
G1 X17.2000 Y-64.2000 Z-3.0000 F180.00
G1 X32.0000 Y-64.2000 Z-3.0000 F180.00
G2 X37.1974 Y-69.3215 Z-3.0000 I-0.0034 J-5.2015 F180.00
G1 X37.2000 Y-86.0000 Z-3.0000 F180.00
G2 X32.0785 Y-91.1974 Z-3.0000 I-5.2015 J0.0034 F180.00
G1 X0.0000 Y-91.2000 Z-3.0000 F180.00
G2 X-5.1974 Y-86.0785 Z-3.0000 I0.0034 J5.2015 F180.00
G1 X-5.2000 Y-4.0000 Z-3.0000 F180.00
G2 X-0.0785 Y1.1974 Z-3.0000 I5.2015 J-0.0034 F180.00
G1 X32.0000 Y1.2000 Z-3.0000 F180.00
G2 X35.6753 Y-0.3242 Z-3.0000 I-0.0034 J-5.2015 F180.00
G1 X35.6753 Y-0.3242 Z-4.0000 F180.00
G2 X37.1974 Y-3.9215 Z-4.0000 I-3.6787 J-3.6773 F180.00
G1 X37.2000 Y-20.6000 Z-4.0000 F180.00
G2 X32.0785 Y-25.7974 Z-4.0000 I-5.2015 J0.0034 F180.00
G1 X17.2000 Y-25.7998 Z-4.0000 F180.00
G1 X16.8486 Y-25.4485 Z-4.0000 F180.00
G1 X17.2000 Y-25.7998 Z-4.0000 F180.00
G1 X17.2000 Y-64.2000 Z-4.0000 F180.00
G1 X16.8485 Y-64.5515 Z-4.0000 F180.00
G1 X17.2000 Y-64.2000 Z-4.0000 F180.00
G1 X32.0000 Y-64.2000 Z-4.0000 F180.00
G2 X37.1974 Y-69.3215 Z-4.0000 I-0.0034 J-5.2015 F180.00
G1 X37.2000 Y-86.0000 Z-4.0000 F180.00
G2 X32.0785 Y-91.1974 Z-4.0000 I-5.2015 J0.0034 F180.00
G1 X0.0000 Y-91.2000 Z-4.0000 F180.00
G2 X-5.1974 Y-86.0785 Z-4.0000 I0.0034 J5.2015 F180.00
G1 X-5.2000 Y-4.0000 Z-4.0000 F180.00
G2 X-0.0785 Y1.1974 Z-4.0000 I5.2015 J-0.0034 F180.00
G1 X32.0000 Y1.2000 Z-4.0000 F180.00
G2 X35.6753 Y-0.3242 Z-4.0000 I-0.0034 J-5.2015 F180.00
G1 X35.6753 Y-0.3242 Z-5.0000 F180.00
G2 X37.1974 Y-3.9215 Z-5.0000 I-3.6787 J-3.6773 F180.00
G1 X37.2000 Y-20.6000 Z-5.0000 F180.00
G2 X32.0785 Y-25.7974 Z-5.0000 I-5.2015 J0.0034 F180.00
G1 X17.2000 Y-25.7998 Z-5.0000 F180.00
G1 X16.8486 Y-25.4485 Z-5.0000 F180.00
G1 X17.2000 Y-25.7998 Z-5.0000 F180.00
G1 X17.2000 Y-64.2000 Z-5.0000 F180.00
G1 X16.8485 Y-64.5515 Z-5.0000 F180.00
G1 X17.2000 Y-64.2000 Z-5.0000 F180.00
G1 X32.0000 Y-64.2000 Z-5.0000 F180.00
G2 X37.1974 Y-69.3215 Z-5.0000 I-0.0034 J-5.2015 F180.00
G1 X37.2000 Y-86.0000 Z-5.0000 F180.00
G2 X32.0785 Y-91.1974 Z-5.0000 I-5.2015 J0.0034 F180.00
G1 X0.0000 Y-91.2000 Z-5.0000 F180.00
G2 X-5.1974 Y-86.0785 Z-5.0000 I0.0034 J5.2015 F180.00
G1 X-5.2000 Y-4.0000 Z-5.0000 F180.00
G2 X-0.0785 Y1.1974 Z-5.0000 I5.2015 J-0.0034 F180.00
G1 X32.0000 Y1.2000 Z-5.0000 F180.00
G2 X35.6753 Y-0.3242 Z-5.0000 I-0.0034 J-5.2015 F180.00
G1 X35.6753 Y-0.3242 Z-6.0000 F180.00
G2 X37.1974 Y-3.9215 Z-6.0000 I-3.6787 J-3.6773 F180.00
G1 X37.2000 Y-20.6000 Z-6.0000 F180.00
G2 X32.0785 Y-25.7974 Z-6.0000 I-5.2015 J0.0034 F180.00
G1 X17.2000 Y-25.7998 Z-6.0000 F180.00
G1 X16.8486 Y-25.4485 Z-6.0000 F180.00
G1 X17.2000 Y-25.7998 Z-6.0000 F180.00
G1 X17.2000 Y-64.2000 Z-6.0000 F180.00
G1 X16.8485 Y-64.5515 Z-6.0000 F180.00
G1 X17.2000 Y-64.2000 Z-6.0000 F180.00
G1 X32.0000 Y-64.2000 Z-6.0000 F180.00
G2 X37.1974 Y-69.3215 Z-6.0000 I-0.0034 J-5.2015 F180.00
G1 X37.2000 Y-86.0000 Z-6.0000 F180.00
G2 X32.0785 Y-91.1974 Z-6.0000 I-5.2015 J0.0034 F180.00
G1 X0.0000 Y-91.2000 Z-6.0000 F180.00
G2 X-5.1974 Y-86.0785 Z-6.0000 I0.0034 J5.2015 F180.00
G1 X-5.2000 Y-4.0000 Z-6.0000 F180.00
G2 X-0.0785 Y1.1974 Z-6.0000 I5.2015 J-0.0034 F180.00
G1 X32.0000 Y1.2000 Z-6.0000 F180.00
G2 X35.6753 Y-0.3242 Z-6.0000 I-0.0034 J-5.2015 F180.00
G1 X35.6753 Y-0.3242 Z-7.0000 F180.00
G2 X37.1974 Y-3.9215 Z-7.0000 I-3.6787 J-3.6773 F180.00
G1 X37.2000 Y-20.6000 Z-7.0000 F180.00
G2 X32.0785 Y-25.7974 Z-7.0000 I-5.2015 J0.0034 F180.00
G1 X17.2000 Y-25.7998 Z-7.0000 F180.00
G1 X16.8486 Y-25.4485 Z-7.0000 F180.00
G1 X17.2000 Y-25.7998 Z-7.0000 F180.00
G1 X17.2000 Y-64.2000 Z-7.0000 F180.00
G1 X16.8485 Y-64.5515 Z-7.0000 F180.00
G1 X17.2000 Y-64.2000 Z-7.0000 F180.00
G1 X32.0000 Y-64.2000 Z-7.0000 F180.00
G2 X37.1974 Y-69.3215 Z-7.0000 I-0.0034 J-5.2015 F180.00
G1 X37.2000 Y-86.0000 Z-7.0000 F180.00
G2 X32.0785 Y-91.1974 Z-7.0000 I-5.2015 J0.0034 F180.00
G1 X0.0000 Y-91.2000 Z-7.0000 F180.00
G2 X-5.1974 Y-86.0785 Z-7.0000 I0.0034 J5.2015 F180.00
G1 X-5.2000 Y-4.0000 Z-7.0000 F180.00
G2 X-0.0785 Y1.1974 Z-7.0000 I5.2015 J-0.0034 F180.00
G1 X32.0000 Y1.2000 Z-7.0000 F180.00
G2 X35.6753 Y-0.3242 Z-7.0000 I-0.0034 J-5.2015 F180.00
G1 X35.6753 Y-0.3242 Z-8.0000 F180.00
G2 X37.1974 Y-3.9215 Z-8.0000 I-3.6787 J-3.6773 F180.00
G1 X37.2000 Y-20.6000 Z-8.0000 F180.00
G2 X32.0785 Y-25.7974 Z-8.0000 I-5.2015 J0.0034 F180.00
G1 X17.2000 Y-25.7998 Z-8.0000 F180.00
G1 X16.8486 Y-25.4485 Z-8.0000 F180.00
G1 X17.2000 Y-25.7998 Z-8.0000 F180.00
G1 X17.2000 Y-44.2033 Z-8.0000 F180.00
G1 X17.2000 Y-44.9999 Z-7.1954 F180.00
G1 X17.2000 Y-45.7966 Z-8.0000 F180.00
G1 X17.2000 Y-64.2000 Z-8.0000 F180.00
G1 X16.8485 Y-64.5515 Z-8.0000 F180.00
G1 X17.2000 Y-64.2000 Z-8.0000 F180.00
G1 X32.0000 Y-64.2000 Z-8.0000 F180.00
G2 X37.1974 Y-69.3215 Z-8.0000 I-0.0034 J-5.2015 F180.00
G1 X37.1986 Y-76.8641 Z-8.0000 F180.00
G1 X37.1987 Y-77.6608 Z-7.1954 F180.00
G1 X37.1988 Y-78.4574 Z-8.0000 F180.00
G1 X37.2000 Y-86.0000 Z-8.0000 F180.00
G2 X32.0785 Y-91.1974 Z-8.0000 I-5.2015 J0.0034 F180.00
G1 X0.0000 Y-91.2000 Z-8.0000 F180.00
G2 X-5.1974 Y-86.0785 Z-8.0000 I0.0034 J5.2015 F180.00
G1 X-5.1980 Y-66.3555 Z-8.0000 F180.00
G1 X-5.1981 Y-65.5589 Z-7.1954 F180.00
G1 X-5.1981 Y-64.7622 Z-8.0000 F180.00
G1 X-5.1993 Y-25.3163 Z-8.0000 F180.00
G1 X-5.1994 Y-24.5196 Z-7.1954 F180.00
G1 X-5.1994 Y-23.7230 Z-8.0000 F180.00
G1 X-5.2000 Y-4.0000 Z-8.0000 F180.00
G2 X-0.0785 Y1.1974 Z-8.0000 I5.2015 J-0.0034 F180.00
G1 X32.0000 Y1.2000 Z-8.0000 F180.00
G2 X35.6753 Y-0.3242 Z-8.0000 I-0.0034 J-5.2015 F180.00
G1 X35.6753 Y-0.3242 Z-9.0000 F180.00
G2 X37.1974 Y-3.9215 Z-9.0000 I-3.6787 J-3.6773 F180.00
G1 X37.2000 Y-20.6000 Z-9.0000 F180.00
G2 X32.0785 Y-25.7974 Z-9.0000 I-5.2015 J0.0034 F180.00
G1 X17.2000 Y-25.7998 Z-9.0000 F180.00
G1 X16.8486 Y-25.4485 Z-9.0000 F180.00
G1 X17.2000 Y-25.7998 Z-9.0000 F180.00
G1 X17.2000 Y-43.2132 Z-9.0000 F180.00
G1 X17.2000 Y-44.9999 Z-7.1954 F180.00
G1 X17.2000 Y-46.7867 Z-9.0000 F180.00
G1 X17.2000 Y-64.2000 Z-9.0000 F180.00
G1 X16.8485 Y-64.5515 Z-9.0000 F180.00
G1 X17.2000 Y-64.2000 Z-9.0000 F180.00
G1 X32.0000 Y-64.2000 Z-9.0000 F180.00
G2 X37.1974 Y-69.3215 Z-9.0000 I-0.0034 J-5.2015 F180.00
G1 X37.1984 Y-75.8740 Z-9.0000 F180.00
G1 X37.1987 Y-77.6608 Z-7.1954 F180.00
G1 X37.1990 Y-79.4475 Z-9.0000 F180.00
G1 X37.2000 Y-86.0000 Z-9.0000 F180.00
G2 X32.0785 Y-91.1974 Z-9.0000 I-5.2015 J0.0034 F180.00
G1 X0.0000 Y-91.2000 Z-9.0000 F180.00
G2 X-5.1974 Y-86.0785 Z-9.0000 I0.0034 J5.2015 F180.00
G1 X-5.1980 Y-67.3456 Z-9.0000 F180.00
G1 X-5.1981 Y-65.5589 Z-7.1954 F180.00
G1 X-5.1981 Y-63.7721 Z-9.0000 F180.00
G1 X-5.1993 Y-26.3064 Z-9.0000 F180.00
G1 X-5.1994 Y-24.5196 Z-7.1954 F180.00
G1 X-5.1994 Y-22.7329 Z-9.0000 F180.00
G1 X-5.2000 Y-4.0000 Z-9.0000 F180.00
G2 X-0.0785 Y1.1974 Z-9.0000 I5.2015 J-0.0034 F180.00
G1 X32.0000 Y1.2000 Z-9.0000 F180.00
G2 X35.6753 Y-0.3242 Z-9.0000 I-0.0034 J-5.2015 F180.00
G1 X35.6753 Y-0.3242 Z-10.0000 F180.00
G2 X37.1974 Y-3.9215 Z-10.0000 I-3.6787 J-3.6773 F180.00
G1 X37.2000 Y-20.6000 Z-10.0000 F180.00
G2 X32.0785 Y-25.7974 Z-10.0000 I-5.2015 J0.0034 F180.00
G1 X17.2000 Y-25.7998 Z-10.0000 F180.00
G1 X16.8486 Y-25.4485 Z-10.0000 F180.00
G1 X17.2000 Y-25.7998 Z-10.0000 F180.00
G1 X17.2000 Y-42.2231 Z-10.0000 F180.00
G1 X17.2000 Y-44.9999 Z-7.1954 F180.00
G1 X17.2000 Y-47.7768 Z-10.0000 F180.00
G1 X17.2000 Y-64.2000 Z-10.0000 F180.00
G1 X16.8485 Y-64.5515 Z-10.0000 F180.00
G1 X17.2000 Y-64.2000 Z-10.0000 F180.00
G1 X32.0000 Y-64.2000 Z-10.0000 F180.00
G2 X37.1974 Y-69.3215 Z-10.0000 I-0.0034 J-5.2015 F180.00
G1 X37.1983 Y-74.8839 Z-10.0000 F180.00
G1 X37.1987 Y-77.6608 Z-7.1954 F180.00
G1 X37.1991 Y-80.4376 Z-10.0000 F180.00
G1 X37.2000 Y-86.0000 Z-10.0000 F180.00
G2 X32.0785 Y-91.1974 Z-10.0000 I-5.2015 J0.0034 F180.00
G1 X0.0000 Y-91.2000 Z-10.0000 F180.00
G2 X-5.1974 Y-86.0785 Z-10.0000 I0.0034 J5.2015 F180.00
G1 X-5.1980 Y-68.3357 Z-10.0000 F180.00
G1 X-5.1981 Y-65.5589 Z-7.1954 F180.00
G1 X-5.1982 Y-62.7820 Z-10.0000 F180.00
G1 X-5.1993 Y-27.2965 Z-10.0000 F180.00
G1 X-5.1994 Y-24.5196 Z-7.1954 F180.00
G1 X-5.1994 Y-21.7428 Z-10.0000 F180.00
G1 X-5.2000 Y-4.0000 Z-10.0000 F180.00
G2 X-0.0785 Y1.1974 Z-10.0000 I5.2015 J-0.0034 F180.00
G1 X32.0000 Y1.2000 Z-10.0000 F180.00
G2 X35.6753 Y-0.3242 Z-10.0000 I-0.0034 J-5.2015 F180.00
G1 X35.6753 Y-0.3242 Z-11.0000 F180.00
G2 X37.1974 Y-3.9215 Z-11.0000 I-3.6787 J-3.6773 F180.00
G1 X37.2000 Y-20.6000 Z-11.0000 F180.00
G2 X32.0785 Y-25.7974 Z-11.0000 I-5.2015 J0.0034 F180.00
G1 X17.2000 Y-25.7998 Z-11.0000 F180.00
G1 X16.8486 Y-25.4485 Z-11.0000 F180.00
G1 X17.2000 Y-25.7998 Z-11.0000 F180.00
G1 X17.2000 Y-41.2330 Z-11.0000 F180.00
G1 X17.2000 Y-44.9999 Z-7.1954 F180.00
G1 X17.2000 Y-48.7669 Z-11.0000 F180.00
G1 X17.2000 Y-64.2000 Z-11.0000 F180.00
G1 X16.8485 Y-64.5515 Z-11.0000 F180.00
G1 X17.2000 Y-64.2000 Z-11.0000 F180.00
G1 X32.0000 Y-64.2000 Z-11.0000 F180.00
G2 X37.1974 Y-69.3215 Z-11.0000 I-0.0034 J-5.2015 F180.00
G1 X37.1981 Y-73.8938 Z-11.0000 F180.00
G1 X37.1987 Y-77.6608 Z-7.1954 F180.00
G1 X37.1993 Y-81.4277 Z-11.0000 F180.00
G1 X37.2000 Y-86.0000 Z-11.0000 F180.00
G2 X32.0785 Y-91.1974 Z-11.0000 I-5.2015 J0.0034 F180.00
G1 X0.0000 Y-91.2000 Z-11.0000 F180.00
G2 X-5.1974 Y-86.0785 Z-11.0000 I0.0034 J5.2015 F180.00
G1 X-5.1980 Y-69.3258 Z-11.0000 F180.00
G1 X-5.1981 Y-65.5589 Z-7.1954 F180.00
G1 X-5.1982 Y-61.7919 Z-11.0000 F180.00
G1 X-5.1992 Y-28.2866 Z-11.0000 F180.00
G1 X-5.1994 Y-24.5196 Z-7.1954 F180.00
G1 X-5.1995 Y-20.7527 Z-11.0000 F180.00
G1 X-5.2000 Y-4.0000 Z-11.0000 F180.00
G2 X-0.0785 Y1.1974 Z-11.0000 I5.2015 J-0.0034 F180.00
G1 X32.0000 Y1.2000 Z-11.0000 F180.00
G2 X35.6753 Y-0.3242 Z-11.0000 I-0.0034 J-5.2015 F180.00
G0 X35.6753 Y-0.3242 Z5.0000
(finish operation: TagDressup)
(begin postamble)
M5
G17 G90
; M2
