(Exported by FreeCAD)
(Post Processor: grbl_post)
(Output Time:2020-11-21 15:19:08.539487)
(begin preamble)
G17 G90
G21
(begin operation: Default Tool)
(Path: Default Tool)
(Default Tool)
(begin toolchange)
; M6 T1
M3 S800.0000
(finish operation: Default Tool)
(begin operation: Pocket_Shape)
(Path: Pocket_Shape)
(Pocket_Shape)
G0 Z5.0000
G0 X154.5953 Y-39.4047
G0 Z3.0000
G1 X154.5953 Y-39.4047 Z-0.5000 F180.00
G2 X150.3292 Y-50.4904 Z-0.5000 I-4.5953 J-4.5953 F180.00
G2 X149.6708 Y-37.5096 Z-0.5000 I-0.3292 J6.4904 F180.00
G2 X154.5953 Y-39.4047 Z-0.5000 I0.3292 J-6.4904 F180.00
G0 X154.5953 Y-39.4047 Z5.0000
G0 X154.4774 Y-48.7102 Z5.0000
G0 X154.4774 Y-48.7102 Z2.5000
G1 X154.4774 Y-48.7102 Z-0.5000 F180.00
G3 X156.4920 Y-43.8672 Z-0.5000 I-4.4426 J4.6885 F180.00
G1 X149.8688 Y-50.4904 Z-0.5000 F180.00
G2 X147.5286 Y-50.0022 Z-0.5000 I0.0443 J6.0656 F180.00
G1 X156.0049 Y-41.5259 Z-0.5000 F180.00
G3 X154.9329 Y-39.7694 Z-0.5000 I-5.8230 J-2.3486 F180.00
G1 X145.7752 Y-48.9271 Z-0.5000 F180.00
G2 X144.4723 Y-47.4016 Z-0.5000 I3.7500 J4.5220 F180.00
G1 X153.4063 Y-38.4676 Z-0.5000 F180.00
G3 X151.3866 Y-37.6589 Z-0.5000 I-3.2538 J-5.2006 F180.00
G1 X143.6555 Y-45.3900 Z-0.5000 F180.00
G2 X143.6724 Y-42.5446 Z-0.5000 I6.1525 J1.3861 F180.00
G2 X148.5438 Y-37.6732 Z-0.5000 I6.2983 J-1.4269 F180.00
G1 X143.6724 Y-42.5446 Z-0.5000 F180.00
G1 X143.6724 Y-42.5446 Z-1.0000 F180.00
G1 X148.5438 Y-37.6732 Z-1.0000 F180.00
G3 X143.6724 Y-42.5446 Z-1.0000 I1.4269 J-6.2983 F180.00
G3 X143.6555 Y-45.3900 Z-1.0000 I6.1355 J-1.4592 F180.00
G1 X151.3866 Y-37.6589 Z-1.0000 F180.00
G2 X153.4063 Y-38.4676 Z-1.0000 I-1.2341 J-6.0093 F180.00
G1 X144.4723 Y-47.4016 Z-1.0000 F180.00
G3 X145.7752 Y-48.9271 Z-1.0000 I5.0529 J2.9965 F180.00
G1 X154.9329 Y-39.7694 Z-1.0000 F180.00
G2 X156.0049 Y-41.5259 Z-1.0000 I-4.7511 J-4.1050 F180.00
G1 X147.5286 Y-50.0022 Z-1.0000 F180.00
G3 X149.8688 Y-50.4904 Z-1.0000 I2.3845 J5.5774 F180.00
G1 X156.4920 Y-43.8672 Z-1.0000 F180.00
G2 X154.4774 Y-48.7102 Z-1.0000 I-6.4572 J-0.1545 F180.00
G1 X154.4774 Y-48.7102 Z-1.0000 F180.00
G2 X150.3292 Y-50.4904 Z-1.0000 I-4.4774 J4.7102 F180.00
G2 X149.6708 Y-37.5096 Z-1.0000 I-0.3292 J6.4904 F180.00
G2 X154.4774 Y-48.7102 Z-1.0000 I0.3292 J-6.4904 F180.00
G1 X154.4774 Y-48.7102 Z-1.5000 F180.00
G2 X150.3292 Y-50.4904 Z-1.5000 I-4.4774 J4.7102 F180.00
G2 X149.6708 Y-37.5096 Z-1.5000 I-0.3292 J6.4904 F180.00
G2 X154.4774 Y-48.7102 Z-1.5000 I0.3292 J-6.4904 F180.00
G1 X154.4774 Y-48.7102 Z-1.5000 F180.00
G3 X156.4920 Y-43.8672 Z-1.5000 I-4.4426 J4.6885 F180.00
G1 X149.8688 Y-50.4904 Z-1.5000 F180.00
G2 X147.5286 Y-50.0022 Z-1.5000 I0.0443 J6.0656 F180.00
G1 X156.0049 Y-41.5259 Z-1.5000 F180.00
G3 X154.9329 Y-39.7694 Z-1.5000 I-5.8230 J-2.3486 F180.00
G1 X145.7752 Y-48.9271 Z-1.5000 F180.00
G2 X144.4723 Y-47.4016 Z-1.5000 I3.7500 J4.5220 F180.00
G1 X153.4063 Y-38.4676 Z-1.5000 F180.00
G3 X151.3866 Y-37.6589 Z-1.5000 I-3.2538 J-5.2006 F180.00
G1 X143.6555 Y-45.3900 Z-1.5000 F180.00
G2 X143.6724 Y-42.5446 Z-1.5000 I6.1525 J1.3861 F180.00
G2 X148.5438 Y-37.6732 Z-1.5000 I6.2983 J-1.4269 F180.00
G1 X143.6724 Y-42.5446 Z-1.5000 F180.00
G1 X143.6724 Y-42.5446 Z-2.0000 F180.00
G1 X148.5438 Y-37.6732 Z-2.0000 F180.00
G3 X143.6724 Y-42.5446 Z-2.0000 I1.4269 J-6.2983 F180.00
G3 X143.6555 Y-45.3900 Z-2.0000 I6.1355 J-1.4592 F180.00
G1 X151.3866 Y-37.6589 Z-2.0000 F180.00
G2 X153.4063 Y-38.4676 Z-2.0000 I-1.2341 J-6.0093 F180.00
G1 X144.4723 Y-47.4016 Z-2.0000 F180.00
G3 X145.7752 Y-48.9271 Z-2.0000 I5.0529 J2.9965 F180.00
G1 X154.9329 Y-39.7694 Z-2.0000 F180.00
G2 X156.0049 Y-41.5259 Z-2.0000 I-4.7511 J-4.1050 F180.00
G1 X147.5286 Y-50.0022 Z-2.0000 F180.00
G3 X149.8688 Y-50.4904 Z-2.0000 I2.3845 J5.5774 F180.00
G1 X156.4920 Y-43.8672 Z-2.0000 F180.00
G2 X154.4774 Y-48.7102 Z-2.0000 I-6.4572 J-0.1545 F180.00
G1 X154.4774 Y-48.7102 Z-2.0000 F180.00
G2 X150.3292 Y-50.4904 Z-2.0000 I-4.4774 J4.7102 F180.00
G2 X149.6708 Y-37.5096 Z-2.0000 I-0.3292 J6.4904 F180.00
G2 X154.4774 Y-48.7102 Z-2.0000 I0.3292 J-6.4904 F180.00
G0 Z5.0000
G0 X129.5953 Y-39.4047
G0 Z3.0000
G1 X129.5953 Y-39.4047 Z-0.5000 F180.00
G2 X125.3292 Y-50.4904 Z-0.5000 I-4.5953 J-4.5953 F180.00
G2 X124.6708 Y-37.5096 Z-0.5000 I-0.3292 J6.4904 F180.00
G2 X129.5953 Y-39.4047 Z-0.5000 I0.3292 J-6.4904 F180.00
G0 X129.5953 Y-39.4047 Z5.0000
G0 X129.4774 Y-48.7102 Z5.0000
G0 X129.4774 Y-48.7102 Z2.5000
G1 X129.4774 Y-48.7102 Z-0.5000 F180.00
G3 X131.4920 Y-43.8672 Z-0.5000 I-4.4426 J4.6885 F180.00
G1 X124.8688 Y-50.4904 Z-0.5000 F180.00
G2 X122.5286 Y-50.0022 Z-0.5000 I0.0443 J6.0656 F180.00
G1 X131.0049 Y-41.5259 Z-0.5000 F180.00
G3 X129.9329 Y-39.7694 Z-0.5000 I-5.8230 J-2.3486 F180.00
G1 X120.7752 Y-48.9271 Z-0.5000 F180.00
G2 X119.4723 Y-47.4016 Z-0.5000 I3.7500 J4.5220 F180.00
G1 X128.4063 Y-38.4676 Z-0.5000 F180.00
G3 X126.3866 Y-37.6589 Z-0.5000 I-3.2538 J-5.2006 F180.00
G1 X118.6555 Y-45.3900 Z-0.5000 F180.00
G2 X118.6724 Y-42.5446 Z-0.5000 I6.1525 J1.3861 F180.00
G2 X123.5438 Y-37.6732 Z-0.5000 I6.2983 J-1.4269 F180.00
G1 X118.6724 Y-42.5446 Z-0.5000 F180.00
G1 X118.6724 Y-42.5446 Z-1.0000 F180.00
G1 X123.5438 Y-37.6732 Z-1.0000 F180.00
G3 X118.6724 Y-42.5446 Z-1.0000 I1.4269 J-6.2983 F180.00
G3 X118.6555 Y-45.3900 Z-1.0000 I6.1355 J-1.4592 F180.00
G1 X126.3866 Y-37.6589 Z-1.0000 F180.00
G2 X128.4063 Y-38.4676 Z-1.0000 I-1.2341 J-6.0093 F180.00
G1 X119.4723 Y-47.4016 Z-1.0000 F180.00
G3 X120.7752 Y-48.9271 Z-1.0000 I5.0529 J2.9965 F180.00
G1 X129.9329 Y-39.7694 Z-1.0000 F180.00
G2 X131.0049 Y-41.5259 Z-1.0000 I-4.7511 J-4.1050 F180.00
G1 X122.5286 Y-50.0022 Z-1.0000 F180.00
G3 X124.8688 Y-50.4904 Z-1.0000 I2.3845 J5.5774 F180.00
G1 X131.4920 Y-43.8672 Z-1.0000 F180.00
G2 X129.4774 Y-48.7102 Z-1.0000 I-6.4572 J-0.1545 F180.00
G1 X129.4774 Y-48.7102 Z-1.0000 F180.00
G2 X125.3292 Y-50.4904 Z-1.0000 I-4.4774 J4.7102 F180.00
G2 X124.6708 Y-37.5096 Z-1.0000 I-0.3292 J6.4904 F180.00
G2 X129.4774 Y-48.7102 Z-1.0000 I0.3292 J-6.4904 F180.00
G1 X129.4774 Y-48.7102 Z-1.5000 F180.00
G2 X125.3292 Y-50.4904 Z-1.5000 I-4.4774 J4.7102 F180.00
G2 X124.6708 Y-37.5096 Z-1.5000 I-0.3292 J6.4904 F180.00
G2 X129.4774 Y-48.7102 Z-1.5000 I0.3292 J-6.4904 F180.00
G1 X129.4774 Y-48.7102 Z-1.5000 F180.00
G3 X131.4920 Y-43.8672 Z-1.5000 I-4.4426 J4.6885 F180.00
G1 X124.8688 Y-50.4904 Z-1.5000 F180.00
G2 X122.5286 Y-50.0022 Z-1.5000 I0.0443 J6.0656 F180.00
G1 X131.0049 Y-41.5259 Z-1.5000 F180.00
G3 X129.9329 Y-39.7694 Z-1.5000 I-5.8230 J-2.3486 F180.00
G1 X120.7752 Y-48.9271 Z-1.5000 F180.00
G2 X119.4723 Y-47.4016 Z-1.5000 I3.7500 J4.5220 F180.00
G1 X128.4063 Y-38.4676 Z-1.5000 F180.00
G3 X126.3866 Y-37.6589 Z-1.5000 I-3.2538 J-5.2006 F180.00
G1 X118.6555 Y-45.3900 Z-1.5000 F180.00
G2 X118.6724 Y-42.5446 Z-1.5000 I6.1525 J1.3861 F180.00
G2 X123.5438 Y-37.6732 Z-1.5000 I6.2983 J-1.4269 F180.00
G1 X118.6724 Y-42.5446 Z-1.5000 F180.00
G1 X118.6724 Y-42.5446 Z-2.0000 F180.00
G1 X123.5438 Y-37.6732 Z-2.0000 F180.00
G3 X118.6724 Y-42.5446 Z-2.0000 I1.4269 J-6.2983 F180.00
G3 X118.6555 Y-45.3900 Z-2.0000 I6.1355 J-1.4592 F180.00
G1 X126.3866 Y-37.6589 Z-2.0000 F180.00
G2 X128.4063 Y-38.4676 Z-2.0000 I-1.2341 J-6.0093 F180.00
G1 X119.4723 Y-47.4016 Z-2.0000 F180.00
G3 X120.7752 Y-48.9271 Z-2.0000 I5.0529 J2.9965 F180.00
G1 X129.9329 Y-39.7694 Z-2.0000 F180.00
G2 X131.0049 Y-41.5259 Z-2.0000 I-4.7511 J-4.1050 F180.00
G1 X122.5286 Y-50.0022 Z-2.0000 F180.00
G3 X124.8688 Y-50.4904 Z-2.0000 I2.3845 J5.5774 F180.00
G1 X131.4920 Y-43.8672 Z-2.0000 F180.00
G2 X129.4774 Y-48.7102 Z-2.0000 I-6.4572 J-0.1545 F180.00
G1 X129.4774 Y-48.7102 Z-2.0000 F180.00
G2 X125.3292 Y-50.4904 Z-2.0000 I-4.4774 J4.7102 F180.00
G2 X124.6708 Y-37.5096 Z-2.0000 I-0.3292 J6.4904 F180.00
G2 X129.4774 Y-48.7102 Z-2.0000 I0.3292 J-6.4904 F180.00
G0 Z5.0000
G0 X104.5953 Y-39.4047
G0 Z3.0000
G1 X104.5953 Y-39.4047 Z-0.5000 F180.00
G2 X100.3292 Y-50.4904 Z-0.5000 I-4.5953 J-4.5953 F180.00
G2 X99.6708 Y-37.5096 Z-0.5000 I-0.3292 J6.4904 F180.00
G2 X104.5953 Y-39.4047 Z-0.5000 I0.3292 J-6.4904 F180.00
G0 X104.5953 Y-39.4047 Z5.0000
G0 X104.4774 Y-48.7102 Z5.0000
G0 X104.4774 Y-48.7102 Z2.5000
G1 X104.4774 Y-48.7102 Z-0.5000 F180.00
G3 X106.4920 Y-43.8672 Z-0.5000 I-4.4426 J4.6885 F180.00
G1 X99.8688 Y-50.4904 Z-0.5000 F180.00
G2 X97.5286 Y-50.0022 Z-0.5000 I0.0443 J6.0656 F180.00
G1 X106.0049 Y-41.5259 Z-0.5000 F180.00
G3 X104.9329 Y-39.7694 Z-0.5000 I-5.8230 J-2.3486 F180.00
G1 X95.7752 Y-48.9271 Z-0.5000 F180.00
G2 X94.4723 Y-47.4016 Z-0.5000 I3.7500 J4.5220 F180.00
G1 X103.4063 Y-38.4676 Z-0.5000 F180.00
G3 X101.3866 Y-37.6589 Z-0.5000 I-3.2538 J-5.2006 F180.00
G1 X93.6555 Y-45.3900 Z-0.5000 F180.00
G2 X93.6724 Y-42.5446 Z-0.5000 I6.1525 J1.3861 F180.00
G2 X98.5438 Y-37.6732 Z-0.5000 I6.2983 J-1.4269 F180.00
G1 X93.6724 Y-42.5446 Z-0.5000 F180.00
G1 X93.6724 Y-42.5446 Z-1.0000 F180.00
G1 X98.5438 Y-37.6732 Z-1.0000 F180.00
G3 X93.6724 Y-42.5446 Z-1.0000 I1.4269 J-6.2983 F180.00
G3 X93.6555 Y-45.3900 Z-1.0000 I6.1355 J-1.4592 F180.00
G1 X101.3866 Y-37.6589 Z-1.0000 F180.00
G2 X103.4063 Y-38.4676 Z-1.0000 I-1.2341 J-6.0093 F180.00
G1 X94.4723 Y-47.4016 Z-1.0000 F180.00
G3 X95.7752 Y-48.9271 Z-1.0000 I5.0529 J2.9965 F180.00
G1 X104.9329 Y-39.7694 Z-1.0000 F180.00
G2 X106.0049 Y-41.5259 Z-1.0000 I-4.7511 J-4.1050 F180.00
G1 X97.5286 Y-50.0022 Z-1.0000 F180.00
G3 X99.8688 Y-50.4904 Z-1.0000 I2.3845 J5.5774 F180.00
G1 X106.4920 Y-43.8672 Z-1.0000 F180.00
G2 X104.4774 Y-48.7102 Z-1.0000 I-6.4572 J-0.1545 F180.00
G1 X104.4774 Y-48.7102 Z-1.0000 F180.00
G2 X100.3292 Y-50.4904 Z-1.0000 I-4.4774 J4.7102 F180.00
G2 X99.6708 Y-37.5096 Z-1.0000 I-0.3292 J6.4904 F180.00
G2 X104.4774 Y-48.7102 Z-1.0000 I0.3292 J-6.4904 F180.00
G1 X104.4774 Y-48.7102 Z-1.5000 F180.00
G2 X100.3292 Y-50.4904 Z-1.5000 I-4.4774 J4.7102 F180.00
G2 X99.6708 Y-37.5096 Z-1.5000 I-0.3292 J6.4904 F180.00
G2 X104.4774 Y-48.7102 Z-1.5000 I0.3292 J-6.4904 F180.00
G1 X104.4774 Y-48.7102 Z-1.5000 F180.00
G3 X106.4920 Y-43.8672 Z-1.5000 I-4.4426 J4.6885 F180.00
G1 X99.8688 Y-50.4904 Z-1.5000 F180.00
G2 X97.5286 Y-50.0022 Z-1.5000 I0.0443 J6.0656 F180.00
G1 X106.0049 Y-41.5259 Z-1.5000 F180.00
G3 X104.9329 Y-39.7694 Z-1.5000 I-5.8230 J-2.3486 F180.00
G1 X95.7752 Y-48.9271 Z-1.5000 F180.00
G2 X94.4723 Y-47.4016 Z-1.5000 I3.7500 J4.5220 F180.00
G1 X103.4063 Y-38.4676 Z-1.5000 F180.00
G3 X101.3866 Y-37.6589 Z-1.5000 I-3.2538 J-5.2006 F180.00
G1 X93.6555 Y-45.3900 Z-1.5000 F180.00
G2 X93.6724 Y-42.5446 Z-1.5000 I6.1525 J1.3861 F180.00
G2 X98.5438 Y-37.6732 Z-1.5000 I6.2983 J-1.4269 F180.00
G1 X93.6724 Y-42.5446 Z-1.5000 F180.00
G1 X93.6724 Y-42.5446 Z-2.0000 F180.00
G1 X98.5438 Y-37.6732 Z-2.0000 F180.00
G3 X93.6724 Y-42.5446 Z-2.0000 I1.4269 J-6.2983 F180.00
G3 X93.6555 Y-45.3900 Z-2.0000 I6.1355 J-1.4592 F180.00
G1 X101.3866 Y-37.6589 Z-2.0000 F180.00
G2 X103.4063 Y-38.4676 Z-2.0000 I-1.2341 J-6.0093 F180.00
G1 X94.4723 Y-47.4016 Z-2.0000 F180.00
G3 X95.7752 Y-48.9271 Z-2.0000 I5.0529 J2.9965 F180.00
G1 X104.9329 Y-39.7694 Z-2.0000 F180.00
G2 X106.0049 Y-41.5259 Z-2.0000 I-4.7511 J-4.1050 F180.00
G1 X97.5286 Y-50.0022 Z-2.0000 F180.00
G3 X99.8688 Y-50.4904 Z-2.0000 I2.3845 J5.5774 F180.00
G1 X106.4920 Y-43.8672 Z-2.0000 F180.00
G2 X104.4774 Y-48.7102 Z-2.0000 I-6.4572 J-0.1545 F180.00
G1 X104.4774 Y-48.7102 Z-2.0000 F180.00
G2 X100.3292 Y-50.4904 Z-2.0000 I-4.4774 J4.7102 F180.00
G2 X99.6708 Y-37.5096 Z-2.0000 I-0.3292 J6.4904 F180.00
G2 X104.4774 Y-48.7102 Z-2.0000 I0.3292 J-6.4904 F180.00
G0 Z5.0000
(finish operation: Pocket_Shape)
(begin operation: Pocket_Shape001)
(Path: Pocket_Shape001)
(Pocket_Shape001)
G0 Z5.0000
G0 X180.8458 Y-9.1548
G0 Z3.0000
G1 X180.8458 Y-9.1548 Z-0.5000 F180.00
G2 X180.1103 Y-11.1906 Z-0.5000 I-0.8458 J-0.8452 F180.00
G2 X178.8094 Y-10.1103 Z-0.5000 I-0.1103 J1.1906 F180.00
G2 X179.8897 Y-8.8094 Z-0.5000 I1.1906 J0.1103 F180.00
G2 X180.8458 Y-9.1548 Z-0.5000 I0.1103 J-1.1906 F180.00
G0 X180.8458 Y-9.1548 Z5.0000
G0 X180.0514 Y-8.8094 Z5.0000
G0 X180.0514 Y-8.8094 Z2.5000
G1 X180.0514 Y-8.8094 Z-0.5000 F180.00
G3 X178.8091 Y-10.0517 Z-0.5000 I-0.0598 J-1.1825 F180.00
G1 X180.0514 Y-8.8094 Z-0.5000 F180.00
G2 X180.8836 Y-10.8055 Z-0.5000 I-0.0467 J-1.1910 F180.00
G1 X180.8836 Y-10.8055 Z-1.0000 F180.00
G3 X180.0514 Y-8.8094 Z-1.0000 I-0.8790 J0.8051 F180.00
G1 X178.8091 Y-10.0517 Z-1.0000 F180.00
G2 X180.0514 Y-8.8094 Z-1.0000 I1.1825 J0.0598 F180.00
G0 X180.0514 Y-8.8094 Z5.0000
G0 X180.0516 Y-8.8054 Z5.0000
G0 X180.0516 Y-8.8054 Z2.0000
G1 X180.0516 Y-8.8054 Z-1.0000 F180.00
G2 X180.1103 Y-11.1906 Z-1.0000 I-0.0516 J-1.1946 F180.00
G2 X178.8094 Y-10.1103 Z-1.0000 I-0.1103 J1.1906 F180.00
G2 X179.8897 Y-8.8094 Z-1.0000 I1.1906 J0.1103 F180.00
G2 X180.0516 Y-8.8054 Z-1.0000 I0.1103 J-1.1906 F180.00
G1 X180.0516 Y-8.8054 Z-1.5000 F180.00
G2 X180.1103 Y-11.1906 Z-1.5000 I-0.0516 J-1.1946 F180.00
G2 X178.8094 Y-10.1103 Z-1.5000 I-0.1103 J1.1906 F180.00
G2 X179.8897 Y-8.8094 Z-1.5000 I1.1906 J0.1103 F180.00
G2 X180.0516 Y-8.8054 Z-1.5000 I0.1103 J-1.1906 F180.00
G0 X180.0516 Y-8.8054 Z5.0000
G0 X180.0514 Y-8.8094 Z5.0000
G0 X180.0514 Y-8.8094 Z1.5000
G1 X180.0514 Y-8.8094 Z-1.5000 F180.00
G3 X178.8091 Y-10.0517 Z-1.5000 I-0.0598 J-1.1825 F180.00
G1 X180.0514 Y-8.8094 Z-1.5000 F180.00
G2 X180.8836 Y-10.8055 Z-1.5000 I-0.0467 J-1.1910 F180.00
G1 X180.8836 Y-10.8055 Z-2.0000 F180.00
G3 X180.0514 Y-8.8094 Z-2.0000 I-0.8790 J0.8051 F180.00
G1 X178.8091 Y-10.0517 Z-2.0000 F180.00
G2 X180.0514 Y-8.8094 Z-2.0000 I1.1825 J0.0598 F180.00
G0 X180.0514 Y-8.8094 Z5.0000
G0 X180.0516 Y-8.8054 Z5.0000
G0 X180.0516 Y-8.8054 Z1.0000
G1 X180.0516 Y-8.8054 Z-2.0000 F180.00
G2 X180.1103 Y-11.1906 Z-2.0000 I-0.0516 J-1.1946 F180.00
G2 X178.8094 Y-10.1103 Z-2.0000 I-0.1103 J1.1906 F180.00
G2 X179.8897 Y-8.8094 Z-2.0000 I1.1906 J0.1103 F180.00
G2 X180.0516 Y-8.8054 Z-2.0000 I0.1103 J-1.1906 F180.00
G1 X180.0516 Y-8.8054 Z-2.5000 F180.00
G2 X180.1103 Y-11.1906 Z-2.5000 I-0.0516 J-1.1946 F180.00
G2 X178.8094 Y-10.1103 Z-2.5000 I-0.1103 J1.1906 F180.00
G2 X179.8897 Y-8.8094 Z-2.5000 I1.1906 J0.1103 F180.00
G2 X180.0516 Y-8.8054 Z-2.5000 I0.1103 J-1.1906 F180.00
G0 X180.0516 Y-8.8054 Z5.0000
G0 X180.0514 Y-8.8094 Z5.0000
G0 X180.0514 Y-8.8094 Z0.5000
G1 X180.0514 Y-8.8094 Z-2.5000 F180.00
G3 X178.8091 Y-10.0517 Z-2.5000 I-0.0598 J-1.1825 F180.00
G1 X180.0514 Y-8.8094 Z-2.5000 F180.00
G2 X180.8836 Y-10.8055 Z-2.5000 I-0.0467 J-1.1910 F180.00
G1 X180.8836 Y-10.8055 Z-3.0000 F180.00
G3 X180.0514 Y-8.8094 Z-3.0000 I-0.8790 J0.8051 F180.00
G1 X178.8091 Y-10.0517 Z-3.0000 F180.00
G2 X180.0514 Y-8.8094 Z-3.0000 I1.1825 J0.0598 F180.00
G0 X180.0514 Y-8.8094 Z5.0000
G0 X180.0516 Y-8.8054 Z5.0000
G0 X180.0516 Y-8.8054 Z0.0000
G1 X180.0516 Y-8.8054 Z-3.0000 F180.00
G2 X180.1103 Y-11.1906 Z-3.0000 I-0.0516 J-1.1946 F180.00
G2 X178.8094 Y-10.1103 Z-3.0000 I-0.1103 J1.1906 F180.00
G2 X179.8897 Y-8.8094 Z-3.0000 I1.1906 J0.1103 F180.00
G2 X180.0516 Y-8.8054 Z-3.0000 I0.1103 J-1.1906 F180.00
G1 X180.0516 Y-8.8054 Z-3.5000 F180.00
G2 X180.1103 Y-11.1906 Z-3.5000 I-0.0516 J-1.1946 F180.00
G2 X178.8094 Y-10.1103 Z-3.5000 I-0.1103 J1.1906 F180.00
G2 X179.8897 Y-8.8094 Z-3.5000 I1.1906 J0.1103 F180.00
G2 X180.0516 Y-8.8054 Z-3.5000 I0.1103 J-1.1906 F180.00
G0 X180.0516 Y-8.8054 Z5.0000
G0 X180.0514 Y-8.8094 Z5.0000
G0 X180.0514 Y-8.8094 Z-0.5000
G1 X180.0514 Y-8.8094 Z-3.5000 F180.00
G3 X178.8091 Y-10.0517 Z-3.5000 I-0.0598 J-1.1825 F180.00
G1 X180.0514 Y-8.8094 Z-3.5000 F180.00
G2 X180.8836 Y-10.8055 Z-3.5000 I-0.0467 J-1.1910 F180.00
G1 X180.8836 Y-10.8055 Z-4.0000 F180.00
G3 X180.0514 Y-8.8094 Z-4.0000 I-0.8790 J0.8051 F180.00
G1 X178.8091 Y-10.0517 Z-4.0000 F180.00
G2 X180.0514 Y-8.8094 Z-4.0000 I1.1825 J0.0598 F180.00
G0 X180.0514 Y-8.8094 Z5.0000
G0 X180.0516 Y-8.8054 Z5.0000
G0 X180.0516 Y-8.8054 Z-1.0000
G1 X180.0516 Y-8.8054 Z-4.0000 F180.00
G2 X180.1103 Y-11.1906 Z-4.0000 I-0.0516 J-1.1946 F180.00
G2 X178.8094 Y-10.1103 Z-4.0000 I-0.1103 J1.1906 F180.00
G2 X179.8897 Y-8.8094 Z-4.0000 I1.1906 J0.1103 F180.00
G2 X180.0516 Y-8.8054 Z-4.0000 I0.1103 J-1.1906 F180.00
G1 X180.0516 Y-8.8054 Z-4.5000 F180.00
G2 X180.1103 Y-11.1906 Z-4.5000 I-0.0516 J-1.1946 F180.00
G2 X178.8094 Y-10.1103 Z-4.5000 I-0.1103 J1.1906 F180.00
G2 X179.8897 Y-8.8094 Z-4.5000 I1.1906 J0.1103 F180.00
G2 X180.0516 Y-8.8054 Z-4.5000 I0.1103 J-1.1906 F180.00
G0 X180.0516 Y-8.8054 Z5.0000
G0 X180.0514 Y-8.8094 Z5.0000
G0 X180.0514 Y-8.8094 Z-1.5000
G1 X180.0514 Y-8.8094 Z-4.5000 F180.00
G3 X178.8091 Y-10.0517 Z-4.5000 I-0.0598 J-1.1825 F180.00
G1 X180.0514 Y-8.8094 Z-4.5000 F180.00
G2 X180.8836 Y-10.8055 Z-4.5000 I-0.0467 J-1.1910 F180.00
G1 X180.8836 Y-10.8055 Z-5.0000 F180.00
G3 X180.0514 Y-8.8094 Z-5.0000 I-0.8790 J0.8051 F180.00
G1 X178.8091 Y-10.0517 Z-5.0000 F180.00
G2 X180.0514 Y-8.8094 Z-5.0000 I1.1825 J0.0598 F180.00
G0 X180.0514 Y-8.8094 Z5.0000
G0 X180.0516 Y-8.8054 Z5.0000
G0 X180.0516 Y-8.8054 Z-2.0000
G1 X180.0516 Y-8.8054 Z-5.0000 F180.00
G2 X180.1103 Y-11.1906 Z-5.0000 I-0.0516 J-1.1946 F180.00
G2 X178.8094 Y-10.1103 Z-5.0000 I-0.1103 J1.1906 F180.00
G2 X179.8897 Y-8.8094 Z-5.0000 I1.1906 J0.1103 F180.00
G2 X180.0516 Y-8.8054 Z-5.0000 I0.1103 J-1.1906 F180.00
G1 X180.0516 Y-8.8054 Z-5.5000 F180.00
G2 X180.1103 Y-11.1906 Z-5.5000 I-0.0516 J-1.1946 F180.00
G2 X178.8094 Y-10.1103 Z-5.5000 I-0.1103 J1.1906 F180.00
G2 X179.8897 Y-8.8094 Z-5.5000 I1.1906 J0.1103 F180.00
G2 X180.0516 Y-8.8054 Z-5.5000 I0.1103 J-1.1906 F180.00
G0 X180.0516 Y-8.8054 Z5.0000
G0 X180.0514 Y-8.8094 Z5.0000
G0 X180.0514 Y-8.8094 Z-2.5000
G1 X180.0514 Y-8.8094 Z-5.5000 F180.00
G3 X178.8091 Y-10.0517 Z-5.5000 I-0.0598 J-1.1825 F180.00
G1 X180.0514 Y-8.8094 Z-5.5000 F180.00
G2 X180.8836 Y-10.8055 Z-5.5000 I-0.0467 J-1.1910 F180.00
G1 X180.8836 Y-10.8055 Z-6.0000 F180.00
G3 X180.0514 Y-8.8094 Z-6.0000 I-0.8790 J0.8051 F180.00
G1 X178.8091 Y-10.0517 Z-6.0000 F180.00
G2 X180.0514 Y-8.8094 Z-6.0000 I1.1825 J0.0598 F180.00
G0 X180.0514 Y-8.8094 Z5.0000
G0 X180.0516 Y-8.8054 Z5.0000
G0 X180.0516 Y-8.8054 Z-3.0000
G1 X180.0516 Y-8.8054 Z-6.0000 F180.00
G2 X180.1103 Y-11.1906 Z-6.0000 I-0.0516 J-1.1946 F180.00
G2 X178.8094 Y-10.1103 Z-6.0000 I-0.1103 J1.1906 F180.00
G2 X179.8897 Y-8.8094 Z-6.0000 I1.1906 J0.1103 F180.00
G2 X180.0516 Y-8.8054 Z-6.0000 I0.1103 J-1.1906 F180.00
G0 Z5.0000
G0 X10.8458 Y-9.1548
G0 Z3.0000
G1 X10.8458 Y-9.1548 Z-0.5000 F180.00
G2 X10.1103 Y-11.1906 Z-0.5000 I-0.8458 J-0.8452 F180.00
G2 X8.8094 Y-10.1103 Z-0.5000 I-0.1103 J1.1906 F180.00
G2 X9.8897 Y-8.8094 Z-0.5000 I1.1906 J0.1103 F180.00
G2 X10.8458 Y-9.1548 Z-0.5000 I0.1103 J-1.1906 F180.00
G0 X10.8458 Y-9.1548 Z5.0000
G0 X10.0514 Y-8.8094 Z5.0000
G0 X10.0514 Y-8.8094 Z2.5000
G1 X10.0514 Y-8.8094 Z-0.5000 F180.00
G3 X8.8091 Y-10.0517 Z-0.5000 I-0.0598 J-1.1825 F180.00
G1 X10.0514 Y-8.8094 Z-0.5000 F180.00
G2 X10.8836 Y-10.8055 Z-0.5000 I-0.0467 J-1.1910 F180.00
G1 X10.8836 Y-10.8055 Z-1.0000 F180.00
G3 X10.0514 Y-8.8094 Z-1.0000 I-0.8790 J0.8051 F180.00
G1 X8.8091 Y-10.0517 Z-1.0000 F180.00
G2 X10.0514 Y-8.8094 Z-1.0000 I1.1825 J0.0598 F180.00
G0 X10.0514 Y-8.8094 Z5.0000
G0 X10.0516 Y-8.8054 Z5.0000
G0 X10.0516 Y-8.8054 Z2.0000
G1 X10.0516 Y-8.8054 Z-1.0000 F180.00
G2 X10.1103 Y-11.1906 Z-1.0000 I-0.0516 J-1.1946 F180.00
G2 X8.8094 Y-10.1103 Z-1.0000 I-0.1103 J1.1906 F180.00
G2 X9.8897 Y-8.8094 Z-1.0000 I1.1906 J0.1103 F180.00
G2 X10.0516 Y-8.8054 Z-1.0000 I0.1103 J-1.1906 F180.00
G1 X10.0516 Y-8.8054 Z-1.5000 F180.00
G2 X10.1103 Y-11.1906 Z-1.5000 I-0.0516 J-1.1946 F180.00
G2 X8.8094 Y-10.1103 Z-1.5000 I-0.1103 J1.1906 F180.00
G2 X9.8897 Y-8.8094 Z-1.5000 I1.1906 J0.1103 F180.00
G2 X10.0516 Y-8.8054 Z-1.5000 I0.1103 J-1.1906 F180.00
G0 X10.0516 Y-8.8054 Z5.0000
G0 X10.0514 Y-8.8094 Z5.0000
G0 X10.0514 Y-8.8094 Z1.5000
G1 X10.0514 Y-8.8094 Z-1.5000 F180.00
G3 X8.8091 Y-10.0517 Z-1.5000 I-0.0598 J-1.1825 F180.00
G1 X10.0514 Y-8.8094 Z-1.5000 F180.00
G2 X10.8836 Y-10.8055 Z-1.5000 I-0.0467 J-1.1910 F180.00
G1 X10.8836 Y-10.8055 Z-2.0000 F180.00
G3 X10.0514 Y-8.8094 Z-2.0000 I-0.8790 J0.8051 F180.00
G1 X8.8091 Y-10.0517 Z-2.0000 F180.00
G2 X10.0514 Y-8.8094 Z-2.0000 I1.1825 J0.0598 F180.00
G0 X10.0514 Y-8.8094 Z5.0000
G0 X10.0516 Y-8.8054 Z5.0000
G0 X10.0516 Y-8.8054 Z1.0000
G1 X10.0516 Y-8.8054 Z-2.0000 F180.00
G2 X10.1103 Y-11.1906 Z-2.0000 I-0.0516 J-1.1946 F180.00
G2 X8.8094 Y-10.1103 Z-2.0000 I-0.1103 J1.1906 F180.00
G2 X9.8897 Y-8.8094 Z-2.0000 I1.1906 J0.1103 F180.00
G2 X10.0516 Y-8.8054 Z-2.0000 I0.1103 J-1.1906 F180.00
G1 X10.0516 Y-8.8054 Z-2.5000 F180.00
G2 X10.1103 Y-11.1906 Z-2.5000 I-0.0516 J-1.1946 F180.00
G2 X8.8094 Y-10.1103 Z-2.5000 I-0.1103 J1.1906 F180.00
G2 X9.8897 Y-8.8094 Z-2.5000 I1.1906 J0.1103 F180.00
G2 X10.0516 Y-8.8054 Z-2.5000 I0.1103 J-1.1906 F180.00
G0 X10.0516 Y-8.8054 Z5.0000
G0 X10.0514 Y-8.8094 Z5.0000
G0 X10.0514 Y-8.8094 Z0.5000
G1 X10.0514 Y-8.8094 Z-2.5000 F180.00
G3 X8.8091 Y-10.0517 Z-2.5000 I-0.0598 J-1.1825 F180.00
G1 X10.0514 Y-8.8094 Z-2.5000 F180.00
G2 X10.8836 Y-10.8055 Z-2.5000 I-0.0467 J-1.1910 F180.00
G1 X10.8836 Y-10.8055 Z-3.0000 F180.00
G3 X10.0514 Y-8.8094 Z-3.0000 I-0.8790 J0.8051 F180.00
G1 X8.8091 Y-10.0517 Z-3.0000 F180.00
G2 X10.0514 Y-8.8094 Z-3.0000 I1.1825 J0.0598 F180.00
G0 X10.0514 Y-8.8094 Z5.0000
G0 X10.0516 Y-8.8054 Z5.0000
G0 X10.0516 Y-8.8054 Z0.0000
G1 X10.0516 Y-8.8054 Z-3.0000 F180.00
G2 X10.1103 Y-11.1906 Z-3.0000 I-0.0516 J-1.1946 F180.00
G2 X8.8094 Y-10.1103 Z-3.0000 I-0.1103 J1.1906 F180.00
G2 X9.8897 Y-8.8094 Z-3.0000 I1.1906 J0.1103 F180.00
G2 X10.0516 Y-8.8054 Z-3.0000 I0.1103 J-1.1906 F180.00
G1 X10.0516 Y-8.8054 Z-3.5000 F180.00
G2 X10.1103 Y-11.1906 Z-3.5000 I-0.0516 J-1.1946 F180.00
G2 X8.8094 Y-10.1103 Z-3.5000 I-0.1103 J1.1906 F180.00
G2 X9.8897 Y-8.8094 Z-3.5000 I1.1906 J0.1103 F180.00
G2 X10.0516 Y-8.8054 Z-3.5000 I0.1103 J-1.1906 F180.00
G0 X10.0516 Y-8.8054 Z5.0000
G0 X10.0514 Y-8.8094 Z5.0000
G0 X10.0514 Y-8.8094 Z-0.5000
G1 X10.0514 Y-8.8094 Z-3.5000 F180.00
G3 X8.8091 Y-10.0517 Z-3.5000 I-0.0598 J-1.1825 F180.00
G1 X10.0514 Y-8.8094 Z-3.5000 F180.00
G2 X10.8836 Y-10.8055 Z-3.5000 I-0.0467 J-1.1910 F180.00
G1 X10.8836 Y-10.8055 Z-4.0000 F180.00
G3 X10.0514 Y-8.8094 Z-4.0000 I-0.8790 J0.8051 F180.00
G1 X8.8091 Y-10.0517 Z-4.0000 F180.00
G2 X10.0514 Y-8.8094 Z-4.0000 I1.1825 J0.0598 F180.00
G0 X10.0514 Y-8.8094 Z5.0000
G0 X10.0516 Y-8.8054 Z5.0000
G0 X10.0516 Y-8.8054 Z-1.0000
G1 X10.0516 Y-8.8054 Z-4.0000 F180.00
G2 X10.1103 Y-11.1906 Z-4.0000 I-0.0516 J-1.1946 F180.00
G2 X8.8094 Y-10.1103 Z-4.0000 I-0.1103 J1.1906 F180.00
G2 X9.8897 Y-8.8094 Z-4.0000 I1.1906 J0.1103 F180.00
G2 X10.0516 Y-8.8054 Z-4.0000 I0.1103 J-1.1906 F180.00
G1 X10.0516 Y-8.8054 Z-4.5000 F180.00
G2 X10.1103 Y-11.1906 Z-4.5000 I-0.0516 J-1.1946 F180.00
G2 X8.8094 Y-10.1103 Z-4.5000 I-0.1103 J1.1906 F180.00
G2 X9.8897 Y-8.8094 Z-4.5000 I1.1906 J0.1103 F180.00
G2 X10.0516 Y-8.8054 Z-4.5000 I0.1103 J-1.1906 F180.00
G0 X10.0516 Y-8.8054 Z5.0000
G0 X10.0514 Y-8.8094 Z5.0000
G0 X10.0514 Y-8.8094 Z-1.5000
G1 X10.0514 Y-8.8094 Z-4.5000 F180.00
G3 X8.8091 Y-10.0517 Z-4.5000 I-0.0598 J-1.1825 F180.00
G1 X10.0514 Y-8.8094 Z-4.5000 F180.00
G2 X10.8836 Y-10.8055 Z-4.5000 I-0.0467 J-1.1910 F180.00
G1 X10.8836 Y-10.8055 Z-5.0000 F180.00
G3 X10.0514 Y-8.8094 Z-5.0000 I-0.8790 J0.8051 F180.00
G1 X8.8091 Y-10.0517 Z-5.0000 F180.00
G2 X10.0514 Y-8.8094 Z-5.0000 I1.1825 J0.0598 F180.00
G0 X10.0514 Y-8.8094 Z5.0000
G0 X10.0516 Y-8.8054 Z5.0000
G0 X10.0516 Y-8.8054 Z-2.0000
G1 X10.0516 Y-8.8054 Z-5.0000 F180.00
G2 X10.1103 Y-11.1906 Z-5.0000 I-0.0516 J-1.1946 F180.00
G2 X8.8094 Y-10.1103 Z-5.0000 I-0.1103 J1.1906 F180.00
G2 X9.8897 Y-8.8094 Z-5.0000 I1.1906 J0.1103 F180.00
G2 X10.0516 Y-8.8054 Z-5.0000 I0.1103 J-1.1906 F180.00
G1 X10.0516 Y-8.8054 Z-5.5000 F180.00
G2 X10.1103 Y-11.1906 Z-5.5000 I-0.0516 J-1.1946 F180.00
G2 X8.8094 Y-10.1103 Z-5.5000 I-0.1103 J1.1906 F180.00
G2 X9.8897 Y-8.8094 Z-5.5000 I1.1906 J0.1103 F180.00
G2 X10.0516 Y-8.8054 Z-5.5000 I0.1103 J-1.1906 F180.00
G0 X10.0516 Y-8.8054 Z5.0000
G0 X10.0514 Y-8.8094 Z5.0000
G0 X10.0514 Y-8.8094 Z-2.5000
G1 X10.0514 Y-8.8094 Z-5.5000 F180.00
G3 X8.8091 Y-10.0517 Z-5.5000 I-0.0598 J-1.1825 F180.00
G1 X10.0514 Y-8.8094 Z-5.5000 F180.00
G2 X10.8836 Y-10.8055 Z-5.5000 I-0.0467 J-1.1910 F180.00
G1 X10.8836 Y-10.8055 Z-6.0000 F180.00
G3 X10.0514 Y-8.8094 Z-6.0000 I-0.8790 J0.8051 F180.00
G1 X8.8091 Y-10.0517 Z-6.0000 F180.00
G2 X10.0514 Y-8.8094 Z-6.0000 I1.1825 J0.0598 F180.00
G0 X10.0514 Y-8.8094 Z5.0000
G0 X10.0516 Y-8.8054 Z5.0000
G0 X10.0516 Y-8.8054 Z-3.0000
G1 X10.0516 Y-8.8054 Z-6.0000 F180.00
G2 X10.1103 Y-11.1906 Z-6.0000 I-0.0516 J-1.1946 F180.00
G2 X8.8094 Y-10.1103 Z-6.0000 I-0.1103 J1.1906 F180.00
G2 X9.8897 Y-8.8094 Z-6.0000 I1.1906 J0.1103 F180.00
G2 X10.0516 Y-8.8054 Z-6.0000 I0.1103 J-1.1906 F180.00
G0 Z5.0000
G0 X10.8458 Y-99.1548
G0 Z3.0000
G1 X10.8458 Y-99.1548 Z-0.5000 F180.00
G2 X10.1103 Y-101.1906 Z-0.5000 I-0.8458 J-0.8452 F180.00
G2 X8.8094 Y-100.1103 Z-0.5000 I-0.1103 J1.1906 F180.00
G2 X9.8897 Y-98.8094 Z-0.5000 I1.1906 J0.1103 F180.00
G2 X10.8458 Y-99.1548 Z-0.5000 I0.1103 J-1.1906 F180.00
G0 X10.8458 Y-99.1548 Z5.0000
G0 X10.0514 Y-98.8094 Z5.0000
G0 X10.0514 Y-98.8094 Z2.5000
G1 X10.0514 Y-98.8094 Z-0.5000 F180.00
G3 X8.8091 Y-100.0517 Z-0.5000 I-0.0598 J-1.1825 F180.00
G1 X10.0514 Y-98.8094 Z-0.5000 F180.00
G2 X10.8836 Y-100.8055 Z-0.5000 I-0.0467 J-1.1910 F180.00
G1 X10.8836 Y-100.8055 Z-1.0000 F180.00
G3 X10.0514 Y-98.8094 Z-1.0000 I-0.8790 J0.8051 F180.00
G1 X8.8091 Y-100.0517 Z-1.0000 F180.00
G2 X10.0514 Y-98.8094 Z-1.0000 I1.1825 J0.0598 F180.00
G0 X10.0514 Y-98.8094 Z5.0000
G0 X10.0516 Y-98.8054 Z5.0000
G0 X10.0516 Y-98.8054 Z2.0000
G1 X10.0516 Y-98.8054 Z-1.0000 F180.00
G2 X10.1103 Y-101.1906 Z-1.0000 I-0.0516 J-1.1946 F180.00
G2 X8.8094 Y-100.1103 Z-1.0000 I-0.1103 J1.1906 F180.00
G2 X9.8897 Y-98.8094 Z-1.0000 I1.1906 J0.1103 F180.00
G2 X10.0516 Y-98.8054 Z-1.0000 I0.1103 J-1.1906 F180.00
G1 X10.0516 Y-98.8054 Z-1.5000 F180.00
G2 X10.1103 Y-101.1906 Z-1.5000 I-0.0516 J-1.1946 F180.00
G2 X8.8094 Y-100.1103 Z-1.5000 I-0.1103 J1.1906 F180.00
G2 X9.8897 Y-98.8094 Z-1.5000 I1.1906 J0.1103 F180.00
G2 X10.0516 Y-98.8054 Z-1.5000 I0.1103 J-1.1906 F180.00
G0 X10.0516 Y-98.8054 Z5.0000
G0 X10.0514 Y-98.8094 Z5.0000
G0 X10.0514 Y-98.8094 Z1.5000
G1 X10.0514 Y-98.8094 Z-1.5000 F180.00
G3 X8.8091 Y-100.0517 Z-1.5000 I-0.0598 J-1.1825 F180.00
G1 X10.0514 Y-98.8094 Z-1.5000 F180.00
G2 X10.8836 Y-100.8055 Z-1.5000 I-0.0467 J-1.1910 F180.00
G1 X10.8836 Y-100.8055 Z-2.0000 F180.00
G3 X10.0514 Y-98.8094 Z-2.0000 I-0.8790 J0.8051 F180.00
G1 X8.8091 Y-100.0517 Z-2.0000 F180.00
G2 X10.0514 Y-98.8094 Z-2.0000 I1.1825 J0.0598 F180.00
G0 X10.0514 Y-98.8094 Z5.0000
G0 X10.0516 Y-98.8054 Z5.0000
G0 X10.0516 Y-98.8054 Z1.0000
G1 X10.0516 Y-98.8054 Z-2.0000 F180.00
G2 X10.1103 Y-101.1906 Z-2.0000 I-0.0516 J-1.1946 F180.00
G2 X8.8094 Y-100.1103 Z-2.0000 I-0.1103 J1.1906 F180.00
G2 X9.8897 Y-98.8094 Z-2.0000 I1.1906 J0.1103 F180.00
G2 X10.0516 Y-98.8054 Z-2.0000 I0.1103 J-1.1906 F180.00
G1 X10.0516 Y-98.8054 Z-2.5000 F180.00
G2 X10.1103 Y-101.1906 Z-2.5000 I-0.0516 J-1.1946 F180.00
G2 X8.8094 Y-100.1103 Z-2.5000 I-0.1103 J1.1906 F180.00
G2 X9.8897 Y-98.8094 Z-2.5000 I1.1906 J0.1103 F180.00
G2 X10.0516 Y-98.8054 Z-2.5000 I0.1103 J-1.1906 F180.00
G0 X10.0516 Y-98.8054 Z5.0000
G0 X10.0514 Y-98.8094 Z5.0000
G0 X10.0514 Y-98.8094 Z0.5000
G1 X10.0514 Y-98.8094 Z-2.5000 F180.00
G3 X8.8091 Y-100.0517 Z-2.5000 I-0.0598 J-1.1825 F180.00
G1 X10.0514 Y-98.8094 Z-2.5000 F180.00
G2 X10.8836 Y-100.8055 Z-2.5000 I-0.0467 J-1.1910 F180.00
G1 X10.8836 Y-100.8055 Z-3.0000 F180.00
G3 X10.0514 Y-98.8094 Z-3.0000 I-0.8790 J0.8051 F180.00
G1 X8.8091 Y-100.0517 Z-3.0000 F180.00
G2 X10.0514 Y-98.8094 Z-3.0000 I1.1825 J0.0598 F180.00
G0 X10.0514 Y-98.8094 Z5.0000
G0 X10.0516 Y-98.8054 Z5.0000
G0 X10.0516 Y-98.8054 Z0.0000
G1 X10.0516 Y-98.8054 Z-3.0000 F180.00
G2 X10.1103 Y-101.1906 Z-3.0000 I-0.0516 J-1.1946 F180.00
G2 X8.8094 Y-100.1103 Z-3.0000 I-0.1103 J1.1906 F180.00
G2 X9.8897 Y-98.8094 Z-3.0000 I1.1906 J0.1103 F180.00
G2 X10.0516 Y-98.8054 Z-3.0000 I0.1103 J-1.1906 F180.00
G1 X10.0516 Y-98.8054 Z-3.5000 F180.00
G2 X10.1103 Y-101.1906 Z-3.5000 I-0.0516 J-1.1946 F180.00
G2 X8.8094 Y-100.1103 Z-3.5000 I-0.1103 J1.1906 F180.00
G2 X9.8897 Y-98.8094 Z-3.5000 I1.1906 J0.1103 F180.00
G2 X10.0516 Y-98.8054 Z-3.5000 I0.1103 J-1.1906 F180.00
G0 X10.0516 Y-98.8054 Z5.0000
G0 X10.0514 Y-98.8094 Z5.0000
G0 X10.0514 Y-98.8094 Z-0.5000
G1 X10.0514 Y-98.8094 Z-3.5000 F180.00
G3 X8.8091 Y-100.0517 Z-3.5000 I-0.0598 J-1.1825 F180.00
G1 X10.0514 Y-98.8094 Z-3.5000 F180.00
G2 X10.8836 Y-100.8055 Z-3.5000 I-0.0467 J-1.1910 F180.00
G1 X10.8836 Y-100.8055 Z-4.0000 F180.00
G3 X10.0514 Y-98.8094 Z-4.0000 I-0.8790 J0.8051 F180.00
G1 X8.8091 Y-100.0517 Z-4.0000 F180.00
G2 X10.0514 Y-98.8094 Z-4.0000 I1.1825 J0.0598 F180.00
G0 X10.0514 Y-98.8094 Z5.0000
G0 X10.0516 Y-98.8054 Z5.0000
G0 X10.0516 Y-98.8054 Z-1.0000
G1 X10.0516 Y-98.8054 Z-4.0000 F180.00
G2 X10.1103 Y-101.1906 Z-4.0000 I-0.0516 J-1.1946 F180.00
G2 X8.8094 Y-100.1103 Z-4.0000 I-0.1103 J1.1906 F180.00
G2 X9.8897 Y-98.8094 Z-4.0000 I1.1906 J0.1103 F180.00
G2 X10.0516 Y-98.8054 Z-4.0000 I0.1103 J-1.1906 F180.00
G1 X10.0516 Y-98.8054 Z-4.5000 F180.00
G2 X10.1103 Y-101.1906 Z-4.5000 I-0.0516 J-1.1946 F180.00
G2 X8.8094 Y-100.1103 Z-4.5000 I-0.1103 J1.1906 F180.00
G2 X9.8897 Y-98.8094 Z-4.5000 I1.1906 J0.1103 F180.00
G2 X10.0516 Y-98.8054 Z-4.5000 I0.1103 J-1.1906 F180.00
G0 X10.0516 Y-98.8054 Z5.0000
G0 X10.0514 Y-98.8094 Z5.0000
G0 X10.0514 Y-98.8094 Z-1.5000
G1 X10.0514 Y-98.8094 Z-4.5000 F180.00
G3 X8.8091 Y-100.0517 Z-4.5000 I-0.0598 J-1.1825 F180.00
G1 X10.0514 Y-98.8094 Z-4.5000 F180.00
G2 X10.8836 Y-100.8055 Z-4.5000 I-0.0467 J-1.1910 F180.00
G1 X10.8836 Y-100.8055 Z-5.0000 F180.00
G3 X10.0514 Y-98.8094 Z-5.0000 I-0.8790 J0.8051 F180.00
G1 X8.8091 Y-100.0517 Z-5.0000 F180.00
G2 X10.0514 Y-98.8094 Z-5.0000 I1.1825 J0.0598 F180.00
G0 X10.0514 Y-98.8094 Z5.0000
G0 X10.0516 Y-98.8054 Z5.0000
G0 X10.0516 Y-98.8054 Z-2.0000
G1 X10.0516 Y-98.8054 Z-5.0000 F180.00
G2 X10.1103 Y-101.1906 Z-5.0000 I-0.0516 J-1.1946 F180.00
G2 X8.8094 Y-100.1103 Z-5.0000 I-0.1103 J1.1906 F180.00
G2 X9.8897 Y-98.8094 Z-5.0000 I1.1906 J0.1103 F180.00
G2 X10.0516 Y-98.8054 Z-5.0000 I0.1103 J-1.1906 F180.00
G1 X10.0516 Y-98.8054 Z-5.5000 F180.00
G2 X10.1103 Y-101.1906 Z-5.5000 I-0.0516 J-1.1946 F180.00
G2 X8.8094 Y-100.1103 Z-5.5000 I-0.1103 J1.1906 F180.00
G2 X9.8897 Y-98.8094 Z-5.5000 I1.1906 J0.1103 F180.00
G2 X10.0516 Y-98.8054 Z-5.5000 I0.1103 J-1.1906 F180.00
G0 X10.0516 Y-98.8054 Z5.0000
G0 X10.0514 Y-98.8094 Z5.0000
G0 X10.0514 Y-98.8094 Z-2.5000
G1 X10.0514 Y-98.8094 Z-5.5000 F180.00
G3 X8.8091 Y-100.0517 Z-5.5000 I-0.0598 J-1.1825 F180.00
G1 X10.0514 Y-98.8094 Z-5.5000 F180.00
G2 X10.8836 Y-100.8055 Z-5.5000 I-0.0467 J-1.1910 F180.00
G1 X10.8836 Y-100.8055 Z-6.0000 F180.00
G3 X10.0514 Y-98.8094 Z-6.0000 I-0.8790 J0.8051 F180.00
G1 X8.8091 Y-100.0517 Z-6.0000 F180.00
G2 X10.0514 Y-98.8094 Z-6.0000 I1.1825 J0.0598 F180.00
G0 X10.0514 Y-98.8094 Z5.0000
G0 X10.0516 Y-98.8054 Z5.0000
G0 X10.0516 Y-98.8054 Z-3.0000
G1 X10.0516 Y-98.8054 Z-6.0000 F180.00
G2 X10.1103 Y-101.1906 Z-6.0000 I-0.0516 J-1.1946 F180.00
G2 X8.8094 Y-100.1103 Z-6.0000 I-0.1103 J1.1906 F180.00
G2 X9.8897 Y-98.8094 Z-6.0000 I1.1906 J0.1103 F180.00
G2 X10.0516 Y-98.8054 Z-6.0000 I0.1103 J-1.1906 F180.00
G0 Z5.0000
G0 X180.8452 Y-99.1542
G0 Z3.0000
G1 X180.8452 Y-99.1542 Z-0.5000 F180.00
G2 X181.1957 Y-100.0000 Z-0.5000 I-0.8452 J-0.8458 F180.00
G2 X178.8043 Y-100.0000 Z-0.5000 I-1.1957 J0.0000 F180.00
G2 X180.8452 Y-99.1542 Z-0.5000 I1.1957 J-0.0000 F180.00
G0 X180.8452 Y-99.1542 Z5.0000
G0 X180.8836 Y-99.1945 Z5.0000
G0 X180.8836 Y-99.1945 Z2.5000
G1 X180.8836 Y-99.1945 Z-0.5000 F180.00
G3 X178.8091 Y-99.9483 Z-0.5000 I-0.8829 J-0.8017 F180.00
G1 X180.0514 Y-101.1906 Z-0.5000 F180.00
G2 X178.8091 Y-99.9483 Z-0.5000 I-0.0598 J1.1825 F180.00
G1 X178.8091 Y-99.9483 Z-1.0000 F180.00
G3 X180.0514 Y-101.1906 Z-1.0000 I1.1825 J-0.0598 F180.00
G1 X178.8091 Y-99.9483 Z-1.0000 F180.00
G2 X180.8836 Y-99.1945 Z-1.0000 I1.1916 J-0.0479 F180.00
G1 X180.8836 Y-99.1945 Z-1.0000 F180.00
G2 X181.1957 Y-100.0000 Z-1.0000 I-0.8836 J-0.8055 F180.00
G2 X178.8043 Y-100.0000 Z-1.0000 I-1.1957 J0.0000 F180.00
G2 X180.8836 Y-99.1945 Z-1.0000 I1.1957 J-0.0000 F180.00
G1 X180.8836 Y-99.1945 Z-1.5000 F180.00
G2 X181.1957 Y-100.0000 Z-1.5000 I-0.8836 J-0.8055 F180.00
G2 X178.8043 Y-100.0000 Z-1.5000 I-1.1957 J0.0000 F180.00
G2 X180.8836 Y-99.1945 Z-1.5000 I1.1957 J-0.0000 F180.00
G1 X180.8836 Y-99.1945 Z-1.5000 F180.00
G3 X178.8091 Y-99.9483 Z-1.5000 I-0.8829 J-0.8017 F180.00
G1 X180.0514 Y-101.1906 Z-1.5000 F180.00
G2 X178.8091 Y-99.9483 Z-1.5000 I-0.0598 J1.1825 F180.00
G1 X178.8091 Y-99.9483 Z-2.0000 F180.00
G3 X180.0514 Y-101.1906 Z-2.0000 I1.1825 J-0.0598 F180.00
G1 X178.8091 Y-99.9483 Z-2.0000 F180.00
G2 X180.8836 Y-99.1945 Z-2.0000 I1.1916 J-0.0479 F180.00
G1 X180.8836 Y-99.1945 Z-2.0000 F180.00
G2 X181.1957 Y-100.0000 Z-2.0000 I-0.8836 J-0.8055 F180.00
G2 X178.8043 Y-100.0000 Z-2.0000 I-1.1957 J0.0000 F180.00
G2 X180.8836 Y-99.1945 Z-2.0000 I1.1957 J-0.0000 F180.00
G1 X180.8836 Y-99.1945 Z-2.5000 F180.00
G2 X181.1957 Y-100.0000 Z-2.5000 I-0.8836 J-0.8055 F180.00
G2 X178.8043 Y-100.0000 Z-2.5000 I-1.1957 J0.0000 F180.00
G2 X180.8836 Y-99.1945 Z-2.5000 I1.1957 J-0.0000 F180.00
G1 X180.8836 Y-99.1945 Z-2.5000 F180.00
G3 X178.8091 Y-99.9483 Z-2.5000 I-0.8829 J-0.8017 F180.00
G1 X180.0514 Y-101.1906 Z-2.5000 F180.00
G2 X178.8091 Y-99.9483 Z-2.5000 I-0.0598 J1.1825 F180.00
G1 X178.8091 Y-99.9483 Z-3.0000 F180.00
G3 X180.0514 Y-101.1906 Z-3.0000 I1.1825 J-0.0598 F180.00
G1 X178.8091 Y-99.9483 Z-3.0000 F180.00
G2 X180.8836 Y-99.1945 Z-3.0000 I1.1916 J-0.0479 F180.00
G1 X180.8836 Y-99.1945 Z-3.0000 F180.00
G2 X181.1957 Y-100.0000 Z-3.0000 I-0.8836 J-0.8055 F180.00
G2 X178.8043 Y-100.0000 Z-3.0000 I-1.1957 J0.0000 F180.00
G2 X180.8836 Y-99.1945 Z-3.0000 I1.1957 J-0.0000 F180.00
G1 X180.8836 Y-99.1945 Z-3.5000 F180.00
G2 X181.1957 Y-100.0000 Z-3.5000 I-0.8836 J-0.8055 F180.00
G2 X178.8043 Y-100.0000 Z-3.5000 I-1.1957 J0.0000 F180.00
G2 X180.8836 Y-99.1945 Z-3.5000 I1.1957 J-0.0000 F180.00
G1 X180.8836 Y-99.1945 Z-3.5000 F180.00
G3 X178.8091 Y-99.9483 Z-3.5000 I-0.8829 J-0.8017 F180.00
G1 X180.0514 Y-101.1906 Z-3.5000 F180.00
G2 X178.8091 Y-99.9483 Z-3.5000 I-0.0598 J1.1825 F180.00
G1 X178.8091 Y-99.9483 Z-4.0000 F180.00
G3 X180.0514 Y-101.1906 Z-4.0000 I1.1825 J-0.0598 F180.00
G1 X178.8091 Y-99.9483 Z-4.0000 F180.00
G2 X180.8836 Y-99.1945 Z-4.0000 I1.1916 J-0.0479 F180.00
G1 X180.8836 Y-99.1945 Z-4.0000 F180.00
G2 X181.1957 Y-100.0000 Z-4.0000 I-0.8836 J-0.8055 F180.00
G2 X178.8043 Y-100.0000 Z-4.0000 I-1.1957 J0.0000 F180.00
G2 X180.8836 Y-99.1945 Z-4.0000 I1.1957 J-0.0000 F180.00
G1 X180.8836 Y-99.1945 Z-4.5000 F180.00
G2 X181.1957 Y-100.0000 Z-4.5000 I-0.8836 J-0.8055 F180.00
G2 X178.8043 Y-100.0000 Z-4.5000 I-1.1957 J0.0000 F180.00
G2 X180.8836 Y-99.1945 Z-4.5000 I1.1957 J-0.0000 F180.00
G1 X180.8836 Y-99.1945 Z-4.5000 F180.00
G3 X178.8091 Y-99.9483 Z-4.5000 I-0.8829 J-0.8017 F180.00
G1 X180.0514 Y-101.1906 Z-4.5000 F180.00
G2 X178.8091 Y-99.9483 Z-4.5000 I-0.0598 J1.1825 F180.00
G1 X178.8091 Y-99.9483 Z-5.0000 F180.00
G3 X180.0514 Y-101.1906 Z-5.0000 I1.1825 J-0.0598 F180.00
G1 X178.8091 Y-99.9483 Z-5.0000 F180.00
G2 X180.8836 Y-99.1945 Z-5.0000 I1.1916 J-0.0479 F180.00
G1 X180.8836 Y-99.1945 Z-5.0000 F180.00
G2 X181.1957 Y-100.0000 Z-5.0000 I-0.8836 J-0.8055 F180.00
G2 X178.8043 Y-100.0000 Z-5.0000 I-1.1957 J0.0000 F180.00
G2 X180.8836 Y-99.1945 Z-5.0000 I1.1957 J-0.0000 F180.00
G1 X180.8836 Y-99.1945 Z-5.5000 F180.00
G2 X181.1957 Y-100.0000 Z-5.5000 I-0.8836 J-0.8055 F180.00
G2 X178.8043 Y-100.0000 Z-5.5000 I-1.1957 J0.0000 F180.00
G2 X180.8836 Y-99.1945 Z-5.5000 I1.1957 J-0.0000 F180.00
G1 X180.8836 Y-99.1945 Z-5.5000 F180.00
G3 X178.8091 Y-99.9483 Z-5.5000 I-0.8829 J-0.8017 F180.00
G1 X180.0514 Y-101.1906 Z-5.5000 F180.00
G2 X178.8091 Y-99.9483 Z-5.5000 I-0.0598 J1.1825 F180.00
G1 X178.8091 Y-99.9483 Z-6.0000 F180.00
G3 X180.0514 Y-101.1906 Z-6.0000 I1.1825 J-0.0598 F180.00
G1 X178.8091 Y-99.9483 Z-6.0000 F180.00
G2 X180.8836 Y-99.1945 Z-6.0000 I1.1916 J-0.0479 F180.00
G1 X180.8836 Y-99.1945 Z-6.0000 F180.00
G2 X181.1957 Y-100.0000 Z-6.0000 I-0.8836 J-0.8055 F180.00
G2 X178.8043 Y-100.0000 Z-6.0000 I-1.1957 J0.0000 F180.00
G2 X180.8836 Y-99.1945 Z-6.0000 I1.1957 J-0.0000 F180.00
G0 Z5.0000
G0 X87.8491 Y-61.1509
G0 Z3.0000
G1 X87.8491 Y-61.1509 Z-0.5000 F180.00
G2 X87.5000 Y-61.9937 Z-0.5000 I-0.3491 J-0.3491 F180.00
G2 X87.0063 Y-61.5000 Z-0.5000 I-0.0000 J0.4937 F180.00
G2 X87.5000 Y-61.0063 Z-0.5000 I0.4937 J0.0000 F180.00
G2 X87.8491 Y-61.1509 Z-0.5000 I0.0000 J-0.4937 F180.00
G1 X87.8491 Y-61.1509 Z-0.5000 F180.00
G2 X87.8860 Y-61.8078 Z-0.5000 I-0.3491 J-0.3491 F180.00
G2 X87.1140 Y-61.1922 Z-0.5000 I-0.3860 J0.3078 F180.00
G2 X87.8491 Y-61.1509 Z-0.5000 I0.3860 J-0.3078 F180.00
G1 X87.8491 Y-61.1509 Z-1.0000 F180.00
G2 X87.8860 Y-61.8078 Z-1.0000 I-0.3491 J-0.3491 F180.00
G2 X87.1140 Y-61.1922 Z-1.0000 I-0.3860 J0.3078 F180.00
G2 X87.8491 Y-61.1509 Z-1.0000 I0.3860 J-0.3078 F180.00
G1 X87.8491 Y-61.1509 Z-1.0000 F180.00
G2 X87.5000 Y-61.9937 Z-1.0000 I-0.3491 J-0.3491 F180.00
G2 X87.0063 Y-61.5000 Z-1.0000 I-0.0000 J0.4937 F180.00
G2 X87.5000 Y-61.0063 Z-1.0000 I0.4937 J0.0000 F180.00
G2 X87.8491 Y-61.1509 Z-1.0000 I0.0000 J-0.4937 F180.00
G1 X87.8491 Y-61.1509 Z-1.5000 F180.00
G2 X87.5000 Y-61.9937 Z-1.5000 I-0.3491 J-0.3491 F180.00
G2 X87.0063 Y-61.5000 Z-1.5000 I-0.0000 J0.4937 F180.00
G2 X87.5000 Y-61.0063 Z-1.5000 I0.4937 J0.0000 F180.00
G2 X87.8491 Y-61.1509 Z-1.5000 I0.0000 J-0.4937 F180.00
G1 X87.8491 Y-61.1509 Z-1.5000 F180.00
G2 X87.8860 Y-61.8078 Z-1.5000 I-0.3491 J-0.3491 F180.00
G2 X87.1140 Y-61.1922 Z-1.5000 I-0.3860 J0.3078 F180.00
G2 X87.8491 Y-61.1509 Z-1.5000 I0.3860 J-0.3078 F180.00
G1 X87.8491 Y-61.1509 Z-2.0000 F180.00
G2 X87.8860 Y-61.8078 Z-2.0000 I-0.3491 J-0.3491 F180.00
G2 X87.1140 Y-61.1922 Z-2.0000 I-0.3860 J0.3078 F180.00
G2 X87.8491 Y-61.1509 Z-2.0000 I0.3860 J-0.3078 F180.00
G1 X87.8491 Y-61.1509 Z-2.0000 F180.00
G2 X87.5000 Y-61.9937 Z-2.0000 I-0.3491 J-0.3491 F180.00
G2 X87.0063 Y-61.5000 Z-2.0000 I-0.0000 J0.4937 F180.00
G2 X87.5000 Y-61.0063 Z-2.0000 I0.4937 J0.0000 F180.00
G2 X87.8491 Y-61.1509 Z-2.0000 I0.0000 J-0.4937 F180.00
G1 X87.8491 Y-61.1509 Z-2.5000 F180.00
G2 X87.5000 Y-61.9937 Z-2.5000 I-0.3491 J-0.3491 F180.00
G2 X87.0063 Y-61.5000 Z-2.5000 I-0.0000 J0.4937 F180.00
G2 X87.5000 Y-61.0063 Z-2.5000 I0.4937 J0.0000 F180.00
G2 X87.8491 Y-61.1509 Z-2.5000 I0.0000 J-0.4937 F180.00
G1 X87.8491 Y-61.1509 Z-2.5000 F180.00
G2 X87.8860 Y-61.8078 Z-2.5000 I-0.3491 J-0.3491 F180.00
G2 X87.1140 Y-61.1922 Z-2.5000 I-0.3860 J0.3078 F180.00
G2 X87.8491 Y-61.1509 Z-2.5000 I0.3860 J-0.3078 F180.00
G1 X87.8491 Y-61.1509 Z-3.0000 F180.00
G2 X87.8860 Y-61.8078 Z-3.0000 I-0.3491 J-0.3491 F180.00
G2 X87.1140 Y-61.1922 Z-3.0000 I-0.3860 J0.3078 F180.00
G2 X87.8491 Y-61.1509 Z-3.0000 I0.3860 J-0.3078 F180.00
G1 X87.8491 Y-61.1509 Z-3.0000 F180.00
G2 X87.5000 Y-61.9937 Z-3.0000 I-0.3491 J-0.3491 F180.00
G2 X87.0063 Y-61.5000 Z-3.0000 I-0.0000 J0.4937 F180.00
G2 X87.5000 Y-61.0063 Z-3.0000 I0.4937 J0.0000 F180.00
G2 X87.8491 Y-61.1509 Z-3.0000 I0.0000 J-0.4937 F180.00
G1 X87.8491 Y-61.1509 Z-3.5000 F180.00
G2 X87.5000 Y-61.9937 Z-3.5000 I-0.3491 J-0.3491 F180.00
G2 X87.0063 Y-61.5000 Z-3.5000 I-0.0000 J0.4937 F180.00
G2 X87.5000 Y-61.0063 Z-3.5000 I0.4937 J0.0000 F180.00
G2 X87.8491 Y-61.1509 Z-3.5000 I0.0000 J-0.4937 F180.00
G1 X87.8491 Y-61.1509 Z-3.5000 F180.00
G2 X87.8860 Y-61.8078 Z-3.5000 I-0.3491 J-0.3491 F180.00
G2 X87.1140 Y-61.1922 Z-3.5000 I-0.3860 J0.3078 F180.00
G2 X87.8491 Y-61.1509 Z-3.5000 I0.3860 J-0.3078 F180.00
G1 X87.8491 Y-61.1509 Z-4.0000 F180.00
G2 X87.8860 Y-61.8078 Z-4.0000 I-0.3491 J-0.3491 F180.00
G2 X87.1140 Y-61.1922 Z-4.0000 I-0.3860 J0.3078 F180.00
G2 X87.8491 Y-61.1509 Z-4.0000 I0.3860 J-0.3078 F180.00
G1 X87.8491 Y-61.1509 Z-4.0000 F180.00
G2 X87.5000 Y-61.9937 Z-4.0000 I-0.3491 J-0.3491 F180.00
G2 X87.0063 Y-61.5000 Z-4.0000 I-0.0000 J0.4937 F180.00
G2 X87.5000 Y-61.0063 Z-4.0000 I0.4937 J0.0000 F180.00
G2 X87.8491 Y-61.1509 Z-4.0000 I0.0000 J-0.4937 F180.00
G1 X87.8491 Y-61.1509 Z-4.5000 F180.00
G2 X87.5000 Y-61.9937 Z-4.5000 I-0.3491 J-0.3491 F180.00
G2 X87.0063 Y-61.5000 Z-4.5000 I-0.0000 J0.4937 F180.00
G2 X87.5000 Y-61.0063 Z-4.5000 I0.4937 J0.0000 F180.00
G2 X87.8491 Y-61.1509 Z-4.5000 I0.0000 J-0.4937 F180.00
G1 X87.8491 Y-61.1509 Z-4.5000 F180.00
G2 X87.8860 Y-61.8078 Z-4.5000 I-0.3491 J-0.3491 F180.00
G2 X87.1140 Y-61.1922 Z-4.5000 I-0.3860 J0.3078 F180.00
G2 X87.8491 Y-61.1509 Z-4.5000 I0.3860 J-0.3078 F180.00
G1 X87.8491 Y-61.1509 Z-5.0000 F180.00
G2 X87.8860 Y-61.8078 Z-5.0000 I-0.3491 J-0.3491 F180.00
G2 X87.1140 Y-61.1922 Z-5.0000 I-0.3860 J0.3078 F180.00
G2 X87.8491 Y-61.1509 Z-5.0000 I0.3860 J-0.3078 F180.00
G1 X87.8491 Y-61.1509 Z-5.0000 F180.00
G2 X87.5000 Y-61.9937 Z-5.0000 I-0.3491 J-0.3491 F180.00
G2 X87.0063 Y-61.5000 Z-5.0000 I-0.0000 J0.4937 F180.00
G2 X87.5000 Y-61.0063 Z-5.0000 I0.4937 J0.0000 F180.00
G2 X87.8491 Y-61.1509 Z-5.0000 I0.0000 J-0.4937 F180.00
G1 X87.8491 Y-61.1509 Z-5.5000 F180.00
G2 X87.5000 Y-61.9937 Z-5.5000 I-0.3491 J-0.3491 F180.00
G2 X87.0063 Y-61.5000 Z-5.5000 I-0.0000 J0.4937 F180.00
G2 X87.5000 Y-61.0063 Z-5.5000 I0.4937 J0.0000 F180.00
G2 X87.8491 Y-61.1509 Z-5.5000 I0.0000 J-0.4937 F180.00
G1 X87.8491 Y-61.1509 Z-5.5000 F180.00
G2 X87.8860 Y-61.8078 Z-5.5000 I-0.3491 J-0.3491 F180.00
G2 X87.1140 Y-61.1922 Z-5.5000 I-0.3860 J0.3078 F180.00
G2 X87.8491 Y-61.1509 Z-5.5000 I0.3860 J-0.3078 F180.00
G1 X87.8491 Y-61.1509 Z-6.0000 F180.00
G2 X87.8860 Y-61.8078 Z-6.0000 I-0.3491 J-0.3491 F180.00
G2 X87.1140 Y-61.1922 Z-6.0000 I-0.3860 J0.3078 F180.00
G2 X87.8491 Y-61.1509 Z-6.0000 I0.3860 J-0.3078 F180.00
G1 X87.8491 Y-61.1509 Z-6.0000 F180.00
G2 X87.5000 Y-61.9937 Z-6.0000 I-0.3491 J-0.3491 F180.00
G2 X87.0063 Y-61.5000 Z-6.0000 I-0.0000 J0.4937 F180.00
G2 X87.5000 Y-61.0063 Z-6.0000 I0.4937 J0.0000 F180.00
G2 X87.8491 Y-61.1509 Z-6.0000 I0.0000 J-0.4937 F180.00
G0 Z5.0000
G0 X162.8491 Y-61.1509
G0 Z3.0000
G1 X162.8491 Y-61.1509 Z-0.5000 F180.00
G2 X162.5000 Y-61.9937 Z-0.5000 I-0.3491 J-0.3491 F180.00
G2 X162.5000 Y-61.0063 Z-0.5000 I0.0000 J0.4937 F180.00
G2 X162.8491 Y-61.1509 Z-0.5000 I0.0000 J-0.4937 F180.00
G1 X162.8491 Y-61.1509 Z-0.5000 F180.00
G2 X162.8860 Y-61.8078 Z-0.5000 I-0.3491 J-0.3491 F180.00
G2 X162.1140 Y-61.1922 Z-0.5000 I-0.3860 J0.3078 F180.00
G2 X162.8491 Y-61.1509 Z-0.5000 I0.3860 J-0.3078 F180.00
G1 X162.8491 Y-61.1509 Z-1.0000 F180.00
G2 X162.8860 Y-61.8078 Z-1.0000 I-0.3491 J-0.3491 F180.00
G2 X162.1140 Y-61.1922 Z-1.0000 I-0.3860 J0.3078 F180.00
G2 X162.8491 Y-61.1509 Z-1.0000 I0.3860 J-0.3078 F180.00
G1 X162.8491 Y-61.1509 Z-1.0000 F180.00
G2 X162.5000 Y-61.9937 Z-1.0000 I-0.3491 J-0.3491 F180.00
G2 X162.5000 Y-61.0063 Z-1.0000 I0.0000 J0.4937 F180.00
G2 X162.8491 Y-61.1509 Z-1.0000 I0.0000 J-0.4937 F180.00
G1 X162.8491 Y-61.1509 Z-1.5000 F180.00
G2 X162.5000 Y-61.9937 Z-1.5000 I-0.3491 J-0.3491 F180.00
G2 X162.5000 Y-61.0063 Z-1.5000 I0.0000 J0.4937 F180.00
G2 X162.8491 Y-61.1509 Z-1.5000 I0.0000 J-0.4937 F180.00
G1 X162.8491 Y-61.1509 Z-1.5000 F180.00
G2 X162.8860 Y-61.8078 Z-1.5000 I-0.3491 J-0.3491 F180.00
G2 X162.1140 Y-61.1922 Z-1.5000 I-0.3860 J0.3078 F180.00
G2 X162.8491 Y-61.1509 Z-1.5000 I0.3860 J-0.3078 F180.00
G1 X162.8491 Y-61.1509 Z-2.0000 F180.00
G2 X162.8860 Y-61.8078 Z-2.0000 I-0.3491 J-0.3491 F180.00
G2 X162.1140 Y-61.1922 Z-2.0000 I-0.3860 J0.3078 F180.00
G2 X162.8491 Y-61.1509 Z-2.0000 I0.3860 J-0.3078 F180.00
G1 X162.8491 Y-61.1509 Z-2.0000 F180.00
G2 X162.5000 Y-61.9937 Z-2.0000 I-0.3491 J-0.3491 F180.00
G2 X162.5000 Y-61.0063 Z-2.0000 I0.0000 J0.4937 F180.00
G2 X162.8491 Y-61.1509 Z-2.0000 I0.0000 J-0.4937 F180.00
G1 X162.8491 Y-61.1509 Z-2.5000 F180.00
G2 X162.5000 Y-61.9937 Z-2.5000 I-0.3491 J-0.3491 F180.00
G2 X162.5000 Y-61.0063 Z-2.5000 I0.0000 J0.4937 F180.00
G2 X162.8491 Y-61.1509 Z-2.5000 I0.0000 J-0.4937 F180.00
G1 X162.8491 Y-61.1509 Z-2.5000 F180.00
G2 X162.8860 Y-61.8078 Z-2.5000 I-0.3491 J-0.3491 F180.00
G2 X162.1140 Y-61.1922 Z-2.5000 I-0.3860 J0.3078 F180.00
G2 X162.8491 Y-61.1509 Z-2.5000 I0.3860 J-0.3078 F180.00
G1 X162.8491 Y-61.1509 Z-3.0000 F180.00
G2 X162.8860 Y-61.8078 Z-3.0000 I-0.3491 J-0.3491 F180.00
G2 X162.1140 Y-61.1922 Z-3.0000 I-0.3860 J0.3078 F180.00
G2 X162.8491 Y-61.1509 Z-3.0000 I0.3860 J-0.3078 F180.00
G1 X162.8491 Y-61.1509 Z-3.0000 F180.00
G2 X162.5000 Y-61.9937 Z-3.0000 I-0.3491 J-0.3491 F180.00
G2 X162.5000 Y-61.0063 Z-3.0000 I0.0000 J0.4937 F180.00
G2 X162.8491 Y-61.1509 Z-3.0000 I0.0000 J-0.4937 F180.00
G1 X162.8491 Y-61.1509 Z-3.5000 F180.00
G2 X162.5000 Y-61.9937 Z-3.5000 I-0.3491 J-0.3491 F180.00
G2 X162.5000 Y-61.0063 Z-3.5000 I0.0000 J0.4937 F180.00
G2 X162.8491 Y-61.1509 Z-3.5000 I0.0000 J-0.4937 F180.00
G1 X162.8491 Y-61.1509 Z-3.5000 F180.00
G2 X162.8860 Y-61.8078 Z-3.5000 I-0.3491 J-0.3491 F180.00
G2 X162.1140 Y-61.1922 Z-3.5000 I-0.3860 J0.3078 F180.00
G2 X162.8491 Y-61.1509 Z-3.5000 I0.3860 J-0.3078 F180.00
G1 X162.8491 Y-61.1509 Z-4.0000 F180.00
G2 X162.8860 Y-61.8078 Z-4.0000 I-0.3491 J-0.3491 F180.00
G2 X162.1140 Y-61.1922 Z-4.0000 I-0.3860 J0.3078 F180.00
G2 X162.8491 Y-61.1509 Z-4.0000 I0.3860 J-0.3078 F180.00
G1 X162.8491 Y-61.1509 Z-4.0000 F180.00
G2 X162.5000 Y-61.9937 Z-4.0000 I-0.3491 J-0.3491 F180.00
G2 X162.5000 Y-61.0063 Z-4.0000 I0.0000 J0.4937 F180.00
G2 X162.8491 Y-61.1509 Z-4.0000 I0.0000 J-0.4937 F180.00
G1 X162.8491 Y-61.1509 Z-4.5000 F180.00
G2 X162.5000 Y-61.9937 Z-4.5000 I-0.3491 J-0.3491 F180.00
G2 X162.5000 Y-61.0063 Z-4.5000 I0.0000 J0.4937 F180.00
G2 X162.8491 Y-61.1509 Z-4.5000 I0.0000 J-0.4937 F180.00
G1 X162.8491 Y-61.1509 Z-4.5000 F180.00
G2 X162.8860 Y-61.8078 Z-4.5000 I-0.3491 J-0.3491 F180.00
G2 X162.1140 Y-61.1922 Z-4.5000 I-0.3860 J0.3078 F180.00
G2 X162.8491 Y-61.1509 Z-4.5000 I0.3860 J-0.3078 F180.00
G1 X162.8491 Y-61.1509 Z-5.0000 F180.00
G2 X162.8860 Y-61.8078 Z-5.0000 I-0.3491 J-0.3491 F180.00
G2 X162.1140 Y-61.1922 Z-5.0000 I-0.3860 J0.3078 F180.00
G2 X162.8491 Y-61.1509 Z-5.0000 I0.3860 J-0.3078 F180.00
G1 X162.8491 Y-61.1509 Z-5.0000 F180.00
G2 X162.5000 Y-61.9937 Z-5.0000 I-0.3491 J-0.3491 F180.00
G2 X162.5000 Y-61.0063 Z-5.0000 I0.0000 J0.4937 F180.00
G2 X162.8491 Y-61.1509 Z-5.0000 I0.0000 J-0.4937 F180.00
G1 X162.8491 Y-61.1509 Z-5.5000 F180.00
G2 X162.5000 Y-61.9937 Z-5.5000 I-0.3491 J-0.3491 F180.00
G2 X162.5000 Y-61.0063 Z-5.5000 I0.0000 J0.4937 F180.00
G2 X162.8491 Y-61.1509 Z-5.5000 I0.0000 J-0.4937 F180.00
G1 X162.8491 Y-61.1509 Z-5.5000 F180.00
G2 X162.8860 Y-61.8078 Z-5.5000 I-0.3491 J-0.3491 F180.00
G2 X162.1140 Y-61.1922 Z-5.5000 I-0.3860 J0.3078 F180.00
G2 X162.8491 Y-61.1509 Z-5.5000 I0.3860 J-0.3078 F180.00
G1 X162.8491 Y-61.1509 Z-6.0000 F180.00
G2 X162.8860 Y-61.8078 Z-6.0000 I-0.3491 J-0.3491 F180.00
G2 X162.1140 Y-61.1922 Z-6.0000 I-0.3860 J0.3078 F180.00
G2 X162.8491 Y-61.1509 Z-6.0000 I0.3860 J-0.3078 F180.00
G1 X162.8491 Y-61.1509 Z-6.0000 F180.00
G2 X162.5000 Y-61.9937 Z-6.0000 I-0.3491 J-0.3491 F180.00
G2 X162.5000 Y-61.0063 Z-6.0000 I0.0000 J0.4937 F180.00
G2 X162.8491 Y-61.1509 Z-6.0000 I0.0000 J-0.4937 F180.00
G0 Z5.0000
G0 X87.8491 Y-92.1509
G0 Z3.0000
G1 X87.8491 Y-92.1509 Z-0.5000 F180.00
G2 X87.5000 Y-92.9937 Z-0.5000 I-0.3491 J-0.3491 F180.00
G2 X87.5000 Y-92.0063 Z-0.5000 I0.0000 J0.4937 F180.00
G2 X87.8491 Y-92.1509 Z-0.5000 I0.0000 J-0.4937 F180.00
G0 X87.8491 Y-92.1509 Z5.0000
G0 X87.8491 Y-92.1509 Z5.0000
G0 X87.8491 Y-92.1509 Z2.5000
G1 X87.8491 Y-92.1509 Z-0.5000 F180.00
G2 X87.8860 Y-92.8078 Z-0.5000 I-0.3491 J-0.3491 F180.00
G2 X87.1140 Y-92.1922 Z-0.5000 I-0.3860 J0.3078 F180.00
G2 X87.8491 Y-92.1509 Z-0.5000 I0.3860 J-0.3078 F180.00
G1 X87.8491 Y-92.1509 Z-1.0000 F180.00
G2 X87.8860 Y-92.8078 Z-1.0000 I-0.3491 J-0.3491 F180.00
G2 X87.1140 Y-92.1922 Z-1.0000 I-0.3860 J0.3078 F180.00
G2 X87.8491 Y-92.1509 Z-1.0000 I0.3860 J-0.3078 F180.00
G0 X87.8491 Y-92.1509 Z5.0000
G0 X87.8491 Y-92.1509 Z5.0000
G0 X87.8491 Y-92.1509 Z2.0000
G1 X87.8491 Y-92.1509 Z-1.0000 F180.00
G2 X87.5000 Y-92.9937 Z-1.0000 I-0.3491 J-0.3491 F180.00
G2 X87.5000 Y-92.0063 Z-1.0000 I0.0000 J0.4937 F180.00
G2 X87.8491 Y-92.1509 Z-1.0000 I0.0000 J-0.4937 F180.00
G1 X87.8491 Y-92.1509 Z-1.5000 F180.00
G2 X87.5000 Y-92.9937 Z-1.5000 I-0.3491 J-0.3491 F180.00
G2 X87.5000 Y-92.0063 Z-1.5000 I0.0000 J0.4937 F180.00
G2 X87.8491 Y-92.1509 Z-1.5000 I0.0000 J-0.4937 F180.00
G0 X87.8491 Y-92.1509 Z5.0000
G0 X87.8491 Y-92.1509 Z5.0000
G0 X87.8491 Y-92.1509 Z1.5000
G1 X87.8491 Y-92.1509 Z-1.5000 F180.00
G2 X87.8860 Y-92.8078 Z-1.5000 I-0.3491 J-0.3491 F180.00
G2 X87.1140 Y-92.1922 Z-1.5000 I-0.3860 J0.3078 F180.00
G2 X87.8491 Y-92.1509 Z-1.5000 I0.3860 J-0.3078 F180.00
G1 X87.8491 Y-92.1509 Z-2.0000 F180.00
G2 X87.8860 Y-92.8078 Z-2.0000 I-0.3491 J-0.3491 F180.00
G2 X87.1140 Y-92.1922 Z-2.0000 I-0.3860 J0.3078 F180.00
G2 X87.8491 Y-92.1509 Z-2.0000 I0.3860 J-0.3078 F180.00
G0 X87.8491 Y-92.1509 Z5.0000
G0 X87.8491 Y-92.1509 Z5.0000
G0 X87.8491 Y-92.1509 Z1.0000
G1 X87.8491 Y-92.1509 Z-2.0000 F180.00
G2 X87.5000 Y-92.9937 Z-2.0000 I-0.3491 J-0.3491 F180.00
G2 X87.5000 Y-92.0063 Z-2.0000 I0.0000 J0.4937 F180.00
G2 X87.8491 Y-92.1509 Z-2.0000 I0.0000 J-0.4937 F180.00
G1 X87.8491 Y-92.1509 Z-2.5000 F180.00
G2 X87.5000 Y-92.9937 Z-2.5000 I-0.3491 J-0.3491 F180.00
G2 X87.5000 Y-92.0063 Z-2.5000 I0.0000 J0.4937 F180.00
G2 X87.8491 Y-92.1509 Z-2.5000 I0.0000 J-0.4937 F180.00
G0 X87.8491 Y-92.1509 Z5.0000
G0 X87.8491 Y-92.1509 Z5.0000
G0 X87.8491 Y-92.1509 Z0.5000
G1 X87.8491 Y-92.1509 Z-2.5000 F180.00
G2 X87.8860 Y-92.8078 Z-2.5000 I-0.3491 J-0.3491 F180.00
G2 X87.1140 Y-92.1922 Z-2.5000 I-0.3860 J0.3078 F180.00
G2 X87.8491 Y-92.1509 Z-2.5000 I0.3860 J-0.3078 F180.00
G1 X87.8491 Y-92.1509 Z-3.0000 F180.00
G2 X87.8860 Y-92.8078 Z-3.0000 I-0.3491 J-0.3491 F180.00
G2 X87.1140 Y-92.1922 Z-3.0000 I-0.3860 J0.3078 F180.00
G2 X87.8491 Y-92.1509 Z-3.0000 I0.3860 J-0.3078 F180.00
G0 X87.8491 Y-92.1509 Z5.0000
G0 X87.8491 Y-92.1509 Z5.0000
G0 X87.8491 Y-92.1509 Z0.0000
G1 X87.8491 Y-92.1509 Z-3.0000 F180.00
G2 X87.5000 Y-92.9937 Z-3.0000 I-0.3491 J-0.3491 F180.00
G2 X87.5000 Y-92.0063 Z-3.0000 I0.0000 J0.4937 F180.00
G2 X87.8491 Y-92.1509 Z-3.0000 I0.0000 J-0.4937 F180.00
G1 X87.8491 Y-92.1509 Z-3.5000 F180.00
G2 X87.5000 Y-92.9937 Z-3.5000 I-0.3491 J-0.3491 F180.00
G2 X87.5000 Y-92.0063 Z-3.5000 I0.0000 J0.4937 F180.00
G2 X87.8491 Y-92.1509 Z-3.5000 I0.0000 J-0.4937 F180.00
G0 X87.8491 Y-92.1509 Z5.0000
G0 X87.8491 Y-92.1509 Z5.0000
G0 X87.8491 Y-92.1509 Z-0.5000
G1 X87.8491 Y-92.1509 Z-3.5000 F180.00
G2 X87.8860 Y-92.8078 Z-3.5000 I-0.3491 J-0.3491 F180.00
G2 X87.1140 Y-92.1922 Z-3.5000 I-0.3860 J0.3078 F180.00
G2 X87.8491 Y-92.1509 Z-3.5000 I0.3860 J-0.3078 F180.00
G1 X87.8491 Y-92.1509 Z-4.0000 F180.00
G2 X87.8860 Y-92.8078 Z-4.0000 I-0.3491 J-0.3491 F180.00
G2 X87.1140 Y-92.1922 Z-4.0000 I-0.3860 J0.3078 F180.00
G2 X87.8491 Y-92.1509 Z-4.0000 I0.3860 J-0.3078 F180.00
G0 X87.8491 Y-92.1509 Z5.0000
G0 X87.8491 Y-92.1509 Z5.0000
G0 X87.8491 Y-92.1509 Z-1.0000
G1 X87.8491 Y-92.1509 Z-4.0000 F180.00
G2 X87.5000 Y-92.9937 Z-4.0000 I-0.3491 J-0.3491 F180.00
G2 X87.5000 Y-92.0063 Z-4.0000 I0.0000 J0.4937 F180.00
G2 X87.8491 Y-92.1509 Z-4.0000 I0.0000 J-0.4937 F180.00
G1 X87.8491 Y-92.1509 Z-4.5000 F180.00
G2 X87.5000 Y-92.9937 Z-4.5000 I-0.3491 J-0.3491 F180.00
G2 X87.5000 Y-92.0063 Z-4.5000 I0.0000 J0.4937 F180.00
G2 X87.8491 Y-92.1509 Z-4.5000 I0.0000 J-0.4937 F180.00
G0 X87.8491 Y-92.1509 Z5.0000
G0 X87.8491 Y-92.1509 Z5.0000
G0 X87.8491 Y-92.1509 Z-1.5000
G1 X87.8491 Y-92.1509 Z-4.5000 F180.00
G2 X87.8860 Y-92.8078 Z-4.5000 I-0.3491 J-0.3491 F180.00
G2 X87.1140 Y-92.1922 Z-4.5000 I-0.3860 J0.3078 F180.00
G2 X87.8491 Y-92.1509 Z-4.5000 I0.3860 J-0.3078 F180.00
G1 X87.8491 Y-92.1509 Z-5.0000 F180.00
G2 X87.8860 Y-92.8078 Z-5.0000 I-0.3491 J-0.3491 F180.00
G2 X87.1140 Y-92.1922 Z-5.0000 I-0.3860 J0.3078 F180.00
G2 X87.8491 Y-92.1509 Z-5.0000 I0.3860 J-0.3078 F180.00
G0 X87.8491 Y-92.1509 Z5.0000
G0 X87.8491 Y-92.1509 Z5.0000
G0 X87.8491 Y-92.1509 Z-2.0000
G1 X87.8491 Y-92.1509 Z-5.0000 F180.00
G2 X87.5000 Y-92.9937 Z-5.0000 I-0.3491 J-0.3491 F180.00
G2 X87.5000 Y-92.0063 Z-5.0000 I0.0000 J0.4937 F180.00
G2 X87.8491 Y-92.1509 Z-5.0000 I0.0000 J-0.4937 F180.00
G1 X87.8491 Y-92.1509 Z-5.5000 F180.00
G2 X87.5000 Y-92.9937 Z-5.5000 I-0.3491 J-0.3491 F180.00
G2 X87.5000 Y-92.0063 Z-5.5000 I0.0000 J0.4937 F180.00
G2 X87.8491 Y-92.1509 Z-5.5000 I0.0000 J-0.4937 F180.00
G0 X87.8491 Y-92.1509 Z5.0000
G0 X87.8491 Y-92.1509 Z5.0000
G0 X87.8491 Y-92.1509 Z-2.5000
G1 X87.8491 Y-92.1509 Z-5.5000 F180.00
G2 X87.8860 Y-92.8078 Z-5.5000 I-0.3491 J-0.3491 F180.00
G2 X87.1140 Y-92.1922 Z-5.5000 I-0.3860 J0.3078 F180.00
G2 X87.8491 Y-92.1509 Z-5.5000 I0.3860 J-0.3078 F180.00
G1 X87.8491 Y-92.1509 Z-6.0000 F180.00
G2 X87.8860 Y-92.8078 Z-6.0000 I-0.3491 J-0.3491 F180.00
G2 X87.1140 Y-92.1922 Z-6.0000 I-0.3860 J0.3078 F180.00
G2 X87.8491 Y-92.1509 Z-6.0000 I0.3860 J-0.3078 F180.00
G0 X87.8491 Y-92.1509 Z5.0000
G0 X87.8491 Y-92.1509 Z5.0000
G0 X87.8491 Y-92.1509 Z-3.0000
G1 X87.8491 Y-92.1509 Z-6.0000 F180.00
G2 X87.5000 Y-92.9937 Z-6.0000 I-0.3491 J-0.3491 F180.00
G2 X87.5000 Y-92.0063 Z-6.0000 I0.0000 J0.4937 F180.00
G2 X87.8491 Y-92.1509 Z-6.0000 I0.0000 J-0.4937 F180.00
G0 Z5.0000
G0 X162.8491 Y-92.1509
G0 Z3.0000
G1 X162.8491 Y-92.1509 Z-0.5000 F180.00
G2 X162.5000 Y-92.9937 Z-0.5000 I-0.3491 J-0.3491 F180.00
G2 X162.5000 Y-92.0063 Z-0.5000 I0.0000 J0.4937 F180.00
G2 X162.8491 Y-92.1509 Z-0.5000 I0.0000 J-0.4937 F180.00
G0 X162.8491 Y-92.1509 Z5.0000
G0 X162.8491 Y-92.1509 Z5.0000
G0 X162.8491 Y-92.1509 Z2.5000
G1 X162.8491 Y-92.1509 Z-0.5000 F180.00
G2 X162.8860 Y-92.8078 Z-0.5000 I-0.3491 J-0.3491 F180.00
G2 X162.1140 Y-92.1922 Z-0.5000 I-0.3860 J0.3078 F180.00
G2 X162.8491 Y-92.1509 Z-0.5000 I0.3860 J-0.3078 F180.00
G1 X162.8491 Y-92.1509 Z-1.0000 F180.00
G2 X162.8860 Y-92.8078 Z-1.0000 I-0.3491 J-0.3491 F180.00
G2 X162.1140 Y-92.1922 Z-1.0000 I-0.3860 J0.3078 F180.00
G2 X162.8491 Y-92.1509 Z-1.0000 I0.3860 J-0.3078 F180.00
G0 X162.8491 Y-92.1509 Z5.0000
G0 X162.8491 Y-92.1509 Z5.0000
G0 X162.8491 Y-92.1509 Z2.0000
G1 X162.8491 Y-92.1509 Z-1.0000 F180.00
G2 X162.5000 Y-92.9937 Z-1.0000 I-0.3491 J-0.3491 F180.00
G2 X162.5000 Y-92.0063 Z-1.0000 I0.0000 J0.4937 F180.00
G2 X162.8491 Y-92.1509 Z-1.0000 I0.0000 J-0.4937 F180.00
G1 X162.8491 Y-92.1509 Z-1.5000 F180.00
G2 X162.5000 Y-92.9937 Z-1.5000 I-0.3491 J-0.3491 F180.00
G2 X162.5000 Y-92.0063 Z-1.5000 I0.0000 J0.4937 F180.00
G2 X162.8491 Y-92.1509 Z-1.5000 I0.0000 J-0.4937 F180.00
G0 X162.8491 Y-92.1509 Z5.0000
G0 X162.8491 Y-92.1509 Z5.0000
G0 X162.8491 Y-92.1509 Z1.5000
G1 X162.8491 Y-92.1509 Z-1.5000 F180.00
G2 X162.8860 Y-92.8078 Z-1.5000 I-0.3491 J-0.3491 F180.00
G2 X162.1140 Y-92.1922 Z-1.5000 I-0.3860 J0.3078 F180.00
G2 X162.8491 Y-92.1509 Z-1.5000 I0.3860 J-0.3078 F180.00
G1 X162.8491 Y-92.1509 Z-2.0000 F180.00
G2 X162.8860 Y-92.8078 Z-2.0000 I-0.3491 J-0.3491 F180.00
G2 X162.1140 Y-92.1922 Z-2.0000 I-0.3860 J0.3078 F180.00
G2 X162.8491 Y-92.1509 Z-2.0000 I0.3860 J-0.3078 F180.00
G0 X162.8491 Y-92.1509 Z5.0000
G0 X162.8491 Y-92.1509 Z5.0000
G0 X162.8491 Y-92.1509 Z1.0000
G1 X162.8491 Y-92.1509 Z-2.0000 F180.00
G2 X162.5000 Y-92.9937 Z-2.0000 I-0.3491 J-0.3491 F180.00
G2 X162.5000 Y-92.0063 Z-2.0000 I0.0000 J0.4937 F180.00
G2 X162.8491 Y-92.1509 Z-2.0000 I0.0000 J-0.4937 F180.00
G1 X162.8491 Y-92.1509 Z-2.5000 F180.00
G2 X162.5000 Y-92.9937 Z-2.5000 I-0.3491 J-0.3491 F180.00
G2 X162.5000 Y-92.0063 Z-2.5000 I0.0000 J0.4937 F180.00
G2 X162.8491 Y-92.1509 Z-2.5000 I0.0000 J-0.4937 F180.00
G0 X162.8491 Y-92.1509 Z5.0000
G0 X162.8491 Y-92.1509 Z5.0000
G0 X162.8491 Y-92.1509 Z0.5000
G1 X162.8491 Y-92.1509 Z-2.5000 F180.00
G2 X162.8860 Y-92.8078 Z-2.5000 I-0.3491 J-0.3491 F180.00
G2 X162.1140 Y-92.1922 Z-2.5000 I-0.3860 J0.3078 F180.00
G2 X162.8491 Y-92.1509 Z-2.5000 I0.3860 J-0.3078 F180.00
G1 X162.8491 Y-92.1509 Z-3.0000 F180.00
G2 X162.8860 Y-92.8078 Z-3.0000 I-0.3491 J-0.3491 F180.00
G2 X162.1140 Y-92.1922 Z-3.0000 I-0.3860 J0.3078 F180.00
G2 X162.8491 Y-92.1509 Z-3.0000 I0.3860 J-0.3078 F180.00
G0 X162.8491 Y-92.1509 Z5.0000
G0 X162.8491 Y-92.1509 Z5.0000
G0 X162.8491 Y-92.1509 Z0.0000
G1 X162.8491 Y-92.1509 Z-3.0000 F180.00
G2 X162.5000 Y-92.9937 Z-3.0000 I-0.3491 J-0.3491 F180.00
G2 X162.5000 Y-92.0063 Z-3.0000 I0.0000 J0.4937 F180.00
G2 X162.8491 Y-92.1509 Z-3.0000 I0.0000 J-0.4937 F180.00
G1 X162.8491 Y-92.1509 Z-3.5000 F180.00
G2 X162.5000 Y-92.9937 Z-3.5000 I-0.3491 J-0.3491 F180.00
G2 X162.5000 Y-92.0063 Z-3.5000 I0.0000 J0.4937 F180.00
G2 X162.8491 Y-92.1509 Z-3.5000 I0.0000 J-0.4937 F180.00
G0 X162.8491 Y-92.1509 Z5.0000
G0 X162.8491 Y-92.1509 Z5.0000
G0 X162.8491 Y-92.1509 Z-0.5000
G1 X162.8491 Y-92.1509 Z-3.5000 F180.00
G2 X162.8860 Y-92.8078 Z-3.5000 I-0.3491 J-0.3491 F180.00
G2 X162.1140 Y-92.1922 Z-3.5000 I-0.3860 J0.3078 F180.00
G2 X162.8491 Y-92.1509 Z-3.5000 I0.3860 J-0.3078 F180.00
G1 X162.8491 Y-92.1509 Z-4.0000 F180.00
G2 X162.8860 Y-92.8078 Z-4.0000 I-0.3491 J-0.3491 F180.00
G2 X162.1140 Y-92.1922 Z-4.0000 I-0.3860 J0.3078 F180.00
G2 X162.8491 Y-92.1509 Z-4.0000 I0.3860 J-0.3078 F180.00
G0 X162.8491 Y-92.1509 Z5.0000
G0 X162.8491 Y-92.1509 Z5.0000
G0 X162.8491 Y-92.1509 Z-1.0000
G1 X162.8491 Y-92.1509 Z-4.0000 F180.00
G2 X162.5000 Y-92.9937 Z-4.0000 I-0.3491 J-0.3491 F180.00
G2 X162.5000 Y-92.0063 Z-4.0000 I0.0000 J0.4937 F180.00
G2 X162.8491 Y-92.1509 Z-4.0000 I0.0000 J-0.4937 F180.00
G1 X162.8491 Y-92.1509 Z-4.5000 F180.00
G2 X162.5000 Y-92.9937 Z-4.5000 I-0.3491 J-0.3491 F180.00
G2 X162.5000 Y-92.0063 Z-4.5000 I0.0000 J0.4937 F180.00
G2 X162.8491 Y-92.1509 Z-4.5000 I0.0000 J-0.4937 F180.00
G0 X162.8491 Y-92.1509 Z5.0000
G0 X162.8491 Y-92.1509 Z5.0000
G0 X162.8491 Y-92.1509 Z-1.5000
G1 X162.8491 Y-92.1509 Z-4.5000 F180.00
G2 X162.8860 Y-92.8078 Z-4.5000 I-0.3491 J-0.3491 F180.00
G2 X162.1140 Y-92.1922 Z-4.5000 I-0.3860 J0.3078 F180.00
G2 X162.8491 Y-92.1509 Z-4.5000 I0.3860 J-0.3078 F180.00
G1 X162.8491 Y-92.1509 Z-5.0000 F180.00
G2 X162.8860 Y-92.8078 Z-5.0000 I-0.3491 J-0.3491 F180.00
G2 X162.1140 Y-92.1922 Z-5.0000 I-0.3860 J0.3078 F180.00
G2 X162.8491 Y-92.1509 Z-5.0000 I0.3860 J-0.3078 F180.00
G0 X162.8491 Y-92.1509 Z5.0000
G0 X162.8491 Y-92.1509 Z5.0000
G0 X162.8491 Y-92.1509 Z-2.0000
G1 X162.8491 Y-92.1509 Z-5.0000 F180.00
G2 X162.5000 Y-92.9937 Z-5.0000 I-0.3491 J-0.3491 F180.00
G2 X162.5000 Y-92.0063 Z-5.0000 I0.0000 J0.4937 F180.00
G2 X162.8491 Y-92.1509 Z-5.0000 I0.0000 J-0.4937 F180.00
G1 X162.8491 Y-92.1509 Z-5.5000 F180.00
G2 X162.5000 Y-92.9937 Z-5.5000 I-0.3491 J-0.3491 F180.00
G2 X162.5000 Y-92.0063 Z-5.5000 I0.0000 J0.4937 F180.00
G2 X162.8491 Y-92.1509 Z-5.5000 I0.0000 J-0.4937 F180.00
G0 X162.8491 Y-92.1509 Z5.0000
G0 X162.8491 Y-92.1509 Z5.0000
G0 X162.8491 Y-92.1509 Z-2.5000
G1 X162.8491 Y-92.1509 Z-5.5000 F180.00
G2 X162.8860 Y-92.8078 Z-5.5000 I-0.3491 J-0.3491 F180.00
G2 X162.1140 Y-92.1922 Z-5.5000 I-0.3860 J0.3078 F180.00
G2 X162.8491 Y-92.1509 Z-5.5000 I0.3860 J-0.3078 F180.00
G1 X162.8491 Y-92.1509 Z-6.0000 F180.00
G2 X162.8860 Y-92.8078 Z-6.0000 I-0.3491 J-0.3491 F180.00
G2 X162.1140 Y-92.1922 Z-6.0000 I-0.3860 J0.3078 F180.00
G2 X162.8491 Y-92.1509 Z-6.0000 I0.3860 J-0.3078 F180.00
G0 X162.8491 Y-92.1509 Z5.0000
G0 X162.8491 Y-92.1509 Z5.0000
G0 X162.8491 Y-92.1509 Z-3.0000
G1 X162.8491 Y-92.1509 Z-6.0000 F180.00
G2 X162.5000 Y-92.9937 Z-6.0000 I-0.3491 J-0.3491 F180.00
G2 X162.5000 Y-92.0063 Z-6.0000 I0.0000 J0.4937 F180.00
G2 X162.8491 Y-92.1509 Z-6.0000 I0.0000 J-0.4937 F180.00
G0 Z5.0000
G0 X101.4827 Y-42.5173
G0 Z3.0000
G1 X101.4827 Y-42.5173 Z-0.5000 F180.00
G2 X100.0000 Y-46.0969 Z-0.5000 I-1.4827 J-1.4827 F180.00
G2 X100.0000 Y-41.9031 Z-0.5000 I0.0000 J2.0969 F180.00
G2 X101.4827 Y-42.5173 Z-0.5000 I0.0000 J-2.0969 F180.00
G0 X101.4827 Y-42.5173 Z5.0000
G0 X101.4827 Y-45.4827 Z5.0000
G0 X101.4827 Y-45.4827 Z2.5000
G1 X101.4827 Y-45.4827 Z-0.5000 F180.00
G3 X101.5459 Y-42.5912 Z-0.5000 I-1.4728 J1.4786 F180.00
G1 X98.5912 Y-45.5459 Z-0.5000 F180.00
G2 X98.0405 Y-43.2682 Z-0.5000 I1.3788 J1.5388 F180.00
G2 X99.2682 Y-42.0405 Z-0.5000 I1.9201 J-0.6924 F180.00
G1 X98.0405 Y-43.2682 Z-0.5000 F180.00
G1 X98.0405 Y-43.2682 Z-1.0000 F180.00
G1 X99.2682 Y-42.0405 Z-1.0000 F180.00
G3 X98.0405 Y-43.2682 Z-1.0000 I0.6924 J-1.9201 F180.00
G3 X98.5912 Y-45.5459 Z-1.0000 I1.9296 J-0.7389 F180.00
G1 X101.5459 Y-42.5912 Z-1.0000 F180.00
G2 X101.4827 Y-45.4827 Z-1.0000 I-1.5359 J-1.4129 F180.00
G0 X101.4827 Y-45.4827 Z5.0000
G0 X101.4827 Y-45.4827 Z5.0000
G0 X101.4827 Y-45.4827 Z2.0000
G1 X101.4827 Y-45.4827 Z-1.0000 F180.00
G2 X100.0000 Y-46.0969 Z-1.0000 I-1.4827 J1.4827 F180.00
G2 X100.0000 Y-41.9031 Z-1.0000 I0.0000 J2.0969 F180.00
G2 X101.4827 Y-45.4827 Z-1.0000 I0.0000 J-2.0969 F180.00
G1 X101.4827 Y-45.4827 Z-1.5000 F180.00
G2 X100.0000 Y-46.0969 Z-1.5000 I-1.4827 J1.4827 F180.00
G2 X100.0000 Y-41.9031 Z-1.5000 I0.0000 J2.0969 F180.00
G2 X101.4827 Y-45.4827 Z-1.5000 I0.0000 J-2.0969 F180.00
G0 X101.4827 Y-45.4827 Z5.0000
G0 X101.4827 Y-45.4827 Z5.0000
G0 X101.4827 Y-45.4827 Z1.5000
G1 X101.4827 Y-45.4827 Z-1.5000 F180.00
G3 X101.5459 Y-42.5912 Z-1.5000 I-1.4728 J1.4786 F180.00
G1 X98.5912 Y-45.5459 Z-1.5000 F180.00
G2 X98.0405 Y-43.2682 Z-1.5000 I1.3788 J1.5388 F180.00
G2 X99.2682 Y-42.0405 Z-1.5000 I1.9201 J-0.6924 F180.00
G1 X98.0405 Y-43.2682 Z-1.5000 F180.00
G1 X98.0405 Y-43.2682 Z-2.0000 F180.00
G1 X99.2682 Y-42.0405 Z-2.0000 F180.00
G3 X98.0405 Y-43.2682 Z-2.0000 I0.6924 J-1.9201 F180.00
G3 X98.5912 Y-45.5459 Z-2.0000 I1.9296 J-0.7389 F180.00
G1 X101.5459 Y-42.5912 Z-2.0000 F180.00
G2 X101.4827 Y-45.4827 Z-2.0000 I-1.5359 J-1.4129 F180.00
G0 X101.4827 Y-45.4827 Z5.0000
G0 X101.4827 Y-45.4827 Z5.0000
G0 X101.4827 Y-45.4827 Z1.0000
G1 X101.4827 Y-45.4827 Z-2.0000 F180.00
G2 X100.0000 Y-46.0969 Z-2.0000 I-1.4827 J1.4827 F180.00
G2 X100.0000 Y-41.9031 Z-2.0000 I0.0000 J2.0969 F180.00
G2 X101.4827 Y-45.4827 Z-2.0000 I0.0000 J-2.0969 F180.00
G1 X101.4827 Y-45.4827 Z-2.5000 F180.00
G2 X100.0000 Y-46.0969 Z-2.5000 I-1.4827 J1.4827 F180.00
G2 X100.0000 Y-41.9031 Z-2.5000 I0.0000 J2.0969 F180.00
G2 X101.4827 Y-45.4827 Z-2.5000 I0.0000 J-2.0969 F180.00
G0 X101.4827 Y-45.4827 Z5.0000
G0 X101.4827 Y-45.4827 Z5.0000
G0 X101.4827 Y-45.4827 Z0.5000
G1 X101.4827 Y-45.4827 Z-2.5000 F180.00
G3 X101.5459 Y-42.5912 Z-2.5000 I-1.4728 J1.4786 F180.00
G1 X98.5912 Y-45.5459 Z-2.5000 F180.00
G2 X98.0405 Y-43.2682 Z-2.5000 I1.3788 J1.5388 F180.00
G2 X99.2682 Y-42.0405 Z-2.5000 I1.9201 J-0.6924 F180.00
G1 X98.0405 Y-43.2682 Z-2.5000 F180.00
G1 X98.0405 Y-43.2682 Z-3.0000 F180.00
G1 X99.2682 Y-42.0405 Z-3.0000 F180.00
G3 X98.0405 Y-43.2682 Z-3.0000 I0.6924 J-1.9201 F180.00
G3 X98.5912 Y-45.5459 Z-3.0000 I1.9296 J-0.7389 F180.00
G1 X101.5459 Y-42.5912 Z-3.0000 F180.00
G2 X101.4827 Y-45.4827 Z-3.0000 I-1.5359 J-1.4129 F180.00
G0 X101.4827 Y-45.4827 Z5.0000
G0 X101.4827 Y-45.4827 Z5.0000
G0 X101.4827 Y-45.4827 Z0.0000
G1 X101.4827 Y-45.4827 Z-3.0000 F180.00
G2 X100.0000 Y-46.0969 Z-3.0000 I-1.4827 J1.4827 F180.00
G2 X100.0000 Y-41.9031 Z-3.0000 I0.0000 J2.0969 F180.00
G2 X101.4827 Y-45.4827 Z-3.0000 I0.0000 J-2.0969 F180.00
G1 X101.4827 Y-45.4827 Z-3.5000 F180.00
G2 X100.0000 Y-46.0969 Z-3.5000 I-1.4827 J1.4827 F180.00
G2 X100.0000 Y-41.9031 Z-3.5000 I0.0000 J2.0969 F180.00
G2 X101.4827 Y-45.4827 Z-3.5000 I0.0000 J-2.0969 F180.00
G0 X101.4827 Y-45.4827 Z5.0000
G0 X101.4827 Y-45.4827 Z5.0000
G0 X101.4827 Y-45.4827 Z-0.5000
G1 X101.4827 Y-45.4827 Z-3.5000 F180.00
G3 X101.5459 Y-42.5912 Z-3.5000 I-1.4728 J1.4786 F180.00
G1 X98.5912 Y-45.5459 Z-3.5000 F180.00
G2 X98.0405 Y-43.2682 Z-3.5000 I1.3788 J1.5388 F180.00
G2 X99.2682 Y-42.0405 Z-3.5000 I1.9201 J-0.6924 F180.00
G1 X98.0405 Y-43.2682 Z-3.5000 F180.00
G1 X98.0405 Y-43.2682 Z-4.0000 F180.00
G1 X99.2682 Y-42.0405 Z-4.0000 F180.00
G3 X98.0405 Y-43.2682 Z-4.0000 I0.6924 J-1.9201 F180.00
G3 X98.5912 Y-45.5459 Z-4.0000 I1.9296 J-0.7389 F180.00
G1 X101.5459 Y-42.5912 Z-4.0000 F180.00
G2 X101.4827 Y-45.4827 Z-4.0000 I-1.5359 J-1.4129 F180.00
G0 X101.4827 Y-45.4827 Z5.0000
G0 X101.4827 Y-45.4827 Z5.0000
G0 X101.4827 Y-45.4827 Z-1.0000
G1 X101.4827 Y-45.4827 Z-4.0000 F180.00
G2 X100.0000 Y-46.0969 Z-4.0000 I-1.4827 J1.4827 F180.00
G2 X100.0000 Y-41.9031 Z-4.0000 I0.0000 J2.0969 F180.00
G2 X101.4827 Y-45.4827 Z-4.0000 I0.0000 J-2.0969 F180.00
G1 X101.4827 Y-45.4827 Z-4.5000 F180.00
G2 X100.0000 Y-46.0969 Z-4.5000 I-1.4827 J1.4827 F180.00
G2 X100.0000 Y-41.9031 Z-4.5000 I0.0000 J2.0969 F180.00
G2 X101.4827 Y-45.4827 Z-4.5000 I0.0000 J-2.0969 F180.00
G0 X101.4827 Y-45.4827 Z5.0000
G0 X101.4827 Y-45.4827 Z5.0000
G0 X101.4827 Y-45.4827 Z-1.5000
G1 X101.4827 Y-45.4827 Z-4.5000 F180.00
G3 X101.5459 Y-42.5912 Z-4.5000 I-1.4728 J1.4786 F180.00
G1 X98.5912 Y-45.5459 Z-4.5000 F180.00
G2 X98.0405 Y-43.2682 Z-4.5000 I1.3788 J1.5388 F180.00
G2 X99.2682 Y-42.0405 Z-4.5000 I1.9201 J-0.6924 F180.00
G1 X98.0405 Y-43.2682 Z-4.5000 F180.00
G1 X98.0405 Y-43.2682 Z-5.0000 F180.00
G1 X99.2682 Y-42.0405 Z-5.0000 F180.00
G3 X98.0405 Y-43.2682 Z-5.0000 I0.6924 J-1.9201 F180.00
G3 X98.5912 Y-45.5459 Z-5.0000 I1.9296 J-0.7389 F180.00
G1 X101.5459 Y-42.5912 Z-5.0000 F180.00
G2 X101.4827 Y-45.4827 Z-5.0000 I-1.5359 J-1.4129 F180.00
G0 X101.4827 Y-45.4827 Z5.0000
G0 X101.4827 Y-45.4827 Z5.0000
G0 X101.4827 Y-45.4827 Z-2.0000
G1 X101.4827 Y-45.4827 Z-5.0000 F180.00
G2 X100.0000 Y-46.0969 Z-5.0000 I-1.4827 J1.4827 F180.00
G2 X100.0000 Y-41.9031 Z-5.0000 I0.0000 J2.0969 F180.00
G2 X101.4827 Y-45.4827 Z-5.0000 I0.0000 J-2.0969 F180.00
G1 X101.4827 Y-45.4827 Z-5.5000 F180.00
G2 X100.0000 Y-46.0969 Z-5.5000 I-1.4827 J1.4827 F180.00
G2 X100.0000 Y-41.9031 Z-5.5000 I0.0000 J2.0969 F180.00
G2 X101.4827 Y-45.4827 Z-5.5000 I0.0000 J-2.0969 F180.00
G0 X101.4827 Y-45.4827 Z5.0000
G0 X101.4827 Y-45.4827 Z5.0000
G0 X101.4827 Y-45.4827 Z-2.5000
G1 X101.4827 Y-45.4827 Z-5.5000 F180.00
G3 X101.5459 Y-42.5912 Z-5.5000 I-1.4728 J1.4786 F180.00
G1 X98.5912 Y-45.5459 Z-5.5000 F180.00
G2 X98.0405 Y-43.2682 Z-5.5000 I1.3788 J1.5388 F180.00
G2 X99.2682 Y-42.0405 Z-5.5000 I1.9201 J-0.6924 F180.00
G1 X98.0405 Y-43.2682 Z-5.5000 F180.00
G1 X98.0405 Y-43.2682 Z-6.0000 F180.00
G1 X99.2682 Y-42.0405 Z-6.0000 F180.00
G3 X98.0405 Y-43.2682 Z-6.0000 I0.6924 J-1.9201 F180.00
G3 X98.5912 Y-45.5459 Z-6.0000 I1.9296 J-0.7389 F180.00
G1 X101.5459 Y-42.5912 Z-6.0000 F180.00
G2 X101.4827 Y-45.4827 Z-6.0000 I-1.5359 J-1.4129 F180.00
G0 X101.4827 Y-45.4827 Z5.0000
G0 X101.4827 Y-45.4827 Z5.0000
G0 X101.4827 Y-45.4827 Z-3.0000
G1 X101.4827 Y-45.4827 Z-6.0000 F180.00
G2 X100.0000 Y-46.0969 Z-6.0000 I-1.4827 J1.4827 F180.00
G2 X100.0000 Y-41.9031 Z-6.0000 I0.0000 J2.0969 F180.00
G2 X101.4827 Y-45.4827 Z-6.0000 I0.0000 J-2.0969 F180.00
G0 Z5.0000
G0 X126.4827 Y-42.5173
G0 Z3.0000
G1 X126.4827 Y-42.5173 Z-0.5000 F180.00
G2 X125.0000 Y-46.0969 Z-0.5000 I-1.4827 J-1.4827 F180.00
G2 X125.0000 Y-41.9031 Z-0.5000 I0.0000 J2.0969 F180.00
G2 X126.4827 Y-42.5173 Z-0.5000 I0.0000 J-2.0969 F180.00
G0 X126.4827 Y-42.5173 Z5.0000
G0 X126.4827 Y-45.4827 Z5.0000
G0 X126.4827 Y-45.4827 Z2.5000
G1 X126.4827 Y-45.4827 Z-0.5000 F180.00
G3 X126.5459 Y-42.5912 Z-0.5000 I-1.4728 J1.4786 F180.00
G1 X123.5912 Y-45.5459 Z-0.5000 F180.00
G2 X123.0405 Y-43.2682 Z-0.5000 I1.3788 J1.5388 F180.00
G2 X124.2682 Y-42.0405 Z-0.5000 I1.9201 J-0.6924 F180.00
G1 X123.0405 Y-43.2682 Z-0.5000 F180.00
G1 X123.0405 Y-43.2682 Z-1.0000 F180.00
G1 X124.2682 Y-42.0405 Z-1.0000 F180.00
G3 X123.0405 Y-43.2682 Z-1.0000 I0.6924 J-1.9201 F180.00
G3 X123.5912 Y-45.5459 Z-1.0000 I1.9296 J-0.7389 F180.00
G1 X126.5459 Y-42.5912 Z-1.0000 F180.00
G2 X126.4827 Y-45.4827 Z-1.0000 I-1.5359 J-1.4129 F180.00
G0 X126.4827 Y-45.4827 Z5.0000
G0 X126.4827 Y-45.4827 Z5.0000
G0 X126.4827 Y-45.4827 Z2.0000
G1 X126.4827 Y-45.4827 Z-1.0000 F180.00
G2 X125.0000 Y-46.0969 Z-1.0000 I-1.4827 J1.4827 F180.00
G2 X125.0000 Y-41.9031 Z-1.0000 I0.0000 J2.0969 F180.00
G2 X126.4827 Y-45.4827 Z-1.0000 I0.0000 J-2.0969 F180.00
G1 X126.4827 Y-45.4827 Z-1.5000 F180.00
G2 X125.0000 Y-46.0969 Z-1.5000 I-1.4827 J1.4827 F180.00
G2 X125.0000 Y-41.9031 Z-1.5000 I0.0000 J2.0969 F180.00
G2 X126.4827 Y-45.4827 Z-1.5000 I0.0000 J-2.0969 F180.00
G0 X126.4827 Y-45.4827 Z5.0000
G0 X126.4827 Y-45.4827 Z5.0000
G0 X126.4827 Y-45.4827 Z1.5000
G1 X126.4827 Y-45.4827 Z-1.5000 F180.00
G3 X126.5459 Y-42.5912 Z-1.5000 I-1.4728 J1.4786 F180.00
G1 X123.5912 Y-45.5459 Z-1.5000 F180.00
G2 X123.0405 Y-43.2682 Z-1.5000 I1.3788 J1.5388 F180.00
G2 X124.2682 Y-42.0405 Z-1.5000 I1.9201 J-0.6924 F180.00
G1 X123.0405 Y-43.2682 Z-1.5000 F180.00
G1 X123.0405 Y-43.2682 Z-2.0000 F180.00
G1 X124.2682 Y-42.0405 Z-2.0000 F180.00
G3 X123.0405 Y-43.2682 Z-2.0000 I0.6924 J-1.9201 F180.00
G3 X123.5912 Y-45.5459 Z-2.0000 I1.9296 J-0.7389 F180.00
G1 X126.5459 Y-42.5912 Z-2.0000 F180.00
G2 X126.4827 Y-45.4827 Z-2.0000 I-1.5359 J-1.4129 F180.00
G0 X126.4827 Y-45.4827 Z5.0000
G0 X126.4827 Y-45.4827 Z5.0000
G0 X126.4827 Y-45.4827 Z1.0000
G1 X126.4827 Y-45.4827 Z-2.0000 F180.00
G2 X125.0000 Y-46.0969 Z-2.0000 I-1.4827 J1.4827 F180.00
G2 X125.0000 Y-41.9031 Z-2.0000 I0.0000 J2.0969 F180.00
G2 X126.4827 Y-45.4827 Z-2.0000 I0.0000 J-2.0969 F180.00
G1 X126.4827 Y-45.4827 Z-2.5000 F180.00
G2 X125.0000 Y-46.0969 Z-2.5000 I-1.4827 J1.4827 F180.00
G2 X125.0000 Y-41.9031 Z-2.5000 I0.0000 J2.0969 F180.00
G2 X126.4827 Y-45.4827 Z-2.5000 I0.0000 J-2.0969 F180.00
G0 X126.4827 Y-45.4827 Z5.0000
G0 X126.4827 Y-45.4827 Z5.0000
G0 X126.4827 Y-45.4827 Z0.5000
G1 X126.4827 Y-45.4827 Z-2.5000 F180.00
G3 X126.5459 Y-42.5912 Z-2.5000 I-1.4728 J1.4786 F180.00
G1 X123.5912 Y-45.5459 Z-2.5000 F180.00
G2 X123.0405 Y-43.2682 Z-2.5000 I1.3788 J1.5388 F180.00
G2 X124.2682 Y-42.0405 Z-2.5000 I1.9201 J-0.6924 F180.00
G1 X123.0405 Y-43.2682 Z-2.5000 F180.00
G1 X123.0405 Y-43.2682 Z-3.0000 F180.00
G1 X124.2682 Y-42.0405 Z-3.0000 F180.00
G3 X123.0405 Y-43.2682 Z-3.0000 I0.6924 J-1.9201 F180.00
G3 X123.5912 Y-45.5459 Z-3.0000 I1.9296 J-0.7389 F180.00
G1 X126.5459 Y-42.5912 Z-3.0000 F180.00
G2 X126.4827 Y-45.4827 Z-3.0000 I-1.5359 J-1.4129 F180.00
G0 X126.4827 Y-45.4827 Z5.0000
G0 X126.4827 Y-45.4827 Z5.0000
G0 X126.4827 Y-45.4827 Z0.0000
G1 X126.4827 Y-45.4827 Z-3.0000 F180.00
G2 X125.0000 Y-46.0969 Z-3.0000 I-1.4827 J1.4827 F180.00
G2 X125.0000 Y-41.9031 Z-3.0000 I0.0000 J2.0969 F180.00
G2 X126.4827 Y-45.4827 Z-3.0000 I0.0000 J-2.0969 F180.00
G1 X126.4827 Y-45.4827 Z-3.5000 F180.00
G2 X125.0000 Y-46.0969 Z-3.5000 I-1.4827 J1.4827 F180.00
G2 X125.0000 Y-41.9031 Z-3.5000 I0.0000 J2.0969 F180.00
G2 X126.4827 Y-45.4827 Z-3.5000 I0.0000 J-2.0969 F180.00
G0 X126.4827 Y-45.4827 Z5.0000
G0 X126.4827 Y-45.4827 Z5.0000
G0 X126.4827 Y-45.4827 Z-0.5000
G1 X126.4827 Y-45.4827 Z-3.5000 F180.00
G3 X126.5459 Y-42.5912 Z-3.5000 I-1.4728 J1.4786 F180.00
G1 X123.5912 Y-45.5459 Z-3.5000 F180.00
G2 X123.0405 Y-43.2682 Z-3.5000 I1.3788 J1.5388 F180.00
G2 X124.2682 Y-42.0405 Z-3.5000 I1.9201 J-0.6924 F180.00
G1 X123.0405 Y-43.2682 Z-3.5000 F180.00
G1 X123.0405 Y-43.2682 Z-4.0000 F180.00
G1 X124.2682 Y-42.0405 Z-4.0000 F180.00
G3 X123.0405 Y-43.2682 Z-4.0000 I0.6924 J-1.9201 F180.00
G3 X123.5912 Y-45.5459 Z-4.0000 I1.9296 J-0.7389 F180.00
G1 X126.5459 Y-42.5912 Z-4.0000 F180.00
G2 X126.4827 Y-45.4827 Z-4.0000 I-1.5359 J-1.4129 F180.00
G0 X126.4827 Y-45.4827 Z5.0000
G0 X126.4827 Y-45.4827 Z5.0000
G0 X126.4827 Y-45.4827 Z-1.0000
G1 X126.4827 Y-45.4827 Z-4.0000 F180.00
G2 X125.0000 Y-46.0969 Z-4.0000 I-1.4827 J1.4827 F180.00
G2 X125.0000 Y-41.9031 Z-4.0000 I0.0000 J2.0969 F180.00
G2 X126.4827 Y-45.4827 Z-4.0000 I0.0000 J-2.0969 F180.00
G1 X126.4827 Y-45.4827 Z-4.5000 F180.00
G2 X125.0000 Y-46.0969 Z-4.5000 I-1.4827 J1.4827 F180.00
G2 X125.0000 Y-41.9031 Z-4.5000 I0.0000 J2.0969 F180.00
G2 X126.4827 Y-45.4827 Z-4.5000 I0.0000 J-2.0969 F180.00
G0 X126.4827 Y-45.4827 Z5.0000
G0 X126.4827 Y-45.4827 Z5.0000
G0 X126.4827 Y-45.4827 Z-1.5000
G1 X126.4827 Y-45.4827 Z-4.5000 F180.00
G3 X126.5459 Y-42.5912 Z-4.5000 I-1.4728 J1.4786 F180.00
G1 X123.5912 Y-45.5459 Z-4.5000 F180.00
G2 X123.0405 Y-43.2682 Z-4.5000 I1.3788 J1.5388 F180.00
G2 X124.2682 Y-42.0405 Z-4.5000 I1.9201 J-0.6924 F180.00
G1 X123.0405 Y-43.2682 Z-4.5000 F180.00
G1 X123.0405 Y-43.2682 Z-5.0000 F180.00
G1 X124.2682 Y-42.0405 Z-5.0000 F180.00
G3 X123.0405 Y-43.2682 Z-5.0000 I0.6924 J-1.9201 F180.00
G3 X123.5912 Y-45.5459 Z-5.0000 I1.9296 J-0.7389 F180.00
G1 X126.5459 Y-42.5912 Z-5.0000 F180.00
G2 X126.4827 Y-45.4827 Z-5.0000 I-1.5359 J-1.4129 F180.00
G0 X126.4827 Y-45.4827 Z5.0000
G0 X126.4827 Y-45.4827 Z5.0000
G0 X126.4827 Y-45.4827 Z-2.0000
G1 X126.4827 Y-45.4827 Z-5.0000 F180.00
G2 X125.0000 Y-46.0969 Z-5.0000 I-1.4827 J1.4827 F180.00
G2 X125.0000 Y-41.9031 Z-5.0000 I0.0000 J2.0969 F180.00
G2 X126.4827 Y-45.4827 Z-5.0000 I0.0000 J-2.0969 F180.00
G1 X126.4827 Y-45.4827 Z-5.5000 F180.00
G2 X125.0000 Y-46.0969 Z-5.5000 I-1.4827 J1.4827 F180.00
G2 X125.0000 Y-41.9031 Z-5.5000 I0.0000 J2.0969 F180.00
G2 X126.4827 Y-45.4827 Z-5.5000 I0.0000 J-2.0969 F180.00
G0 X126.4827 Y-45.4827 Z5.0000
G0 X126.4827 Y-45.4827 Z5.0000
G0 X126.4827 Y-45.4827 Z-2.5000
G1 X126.4827 Y-45.4827 Z-5.5000 F180.00
G3 X126.5459 Y-42.5912 Z-5.5000 I-1.4728 J1.4786 F180.00
G1 X123.5912 Y-45.5459 Z-5.5000 F180.00
G2 X123.0405 Y-43.2682 Z-5.5000 I1.3788 J1.5388 F180.00
G2 X124.2682 Y-42.0405 Z-5.5000 I1.9201 J-0.6924 F180.00
G1 X123.0405 Y-43.2682 Z-5.5000 F180.00
G1 X123.0405 Y-43.2682 Z-6.0000 F180.00
G1 X124.2682 Y-42.0405 Z-6.0000 F180.00
G3 X123.0405 Y-43.2682 Z-6.0000 I0.6924 J-1.9201 F180.00
G3 X123.5912 Y-45.5459 Z-6.0000 I1.9296 J-0.7389 F180.00
G1 X126.5459 Y-42.5912 Z-6.0000 F180.00
G2 X126.4827 Y-45.4827 Z-6.0000 I-1.5359 J-1.4129 F180.00
G0 X126.4827 Y-45.4827 Z5.0000
G0 X126.4827 Y-45.4827 Z5.0000
G0 X126.4827 Y-45.4827 Z-3.0000
G1 X126.4827 Y-45.4827 Z-6.0000 F180.00
G2 X125.0000 Y-46.0969 Z-6.0000 I-1.4827 J1.4827 F180.00
G2 X125.0000 Y-41.9031 Z-6.0000 I0.0000 J2.0969 F180.00
G2 X126.4827 Y-45.4827 Z-6.0000 I0.0000 J-2.0969 F180.00
G0 Z5.0000
G0 X151.4827 Y-42.5173
G0 Z3.0000
G1 X151.4827 Y-42.5173 Z-0.5000 F180.00
G2 X150.0000 Y-46.0969 Z-0.5000 I-1.4827 J-1.4827 F180.00
G2 X150.0000 Y-41.9031 Z-0.5000 I0.0000 J2.0969 F180.00
G2 X151.4827 Y-42.5173 Z-0.5000 I0.0000 J-2.0969 F180.00
G0 X151.4827 Y-42.5173 Z5.0000
G0 X151.4827 Y-45.4827 Z5.0000
G0 X151.4827 Y-45.4827 Z2.5000
G1 X151.4827 Y-45.4827 Z-0.5000 F180.00
G3 X151.5459 Y-42.5912 Z-0.5000 I-1.4728 J1.4786 F180.00
G1 X148.5912 Y-45.5459 Z-0.5000 F180.00
G2 X148.0405 Y-43.2682 Z-0.5000 I1.3788 J1.5388 F180.00
G2 X149.2682 Y-42.0405 Z-0.5000 I1.9201 J-0.6924 F180.00
G1 X148.0405 Y-43.2682 Z-0.5000 F180.00
G1 X148.0405 Y-43.2682 Z-1.0000 F180.00
G1 X149.2682 Y-42.0405 Z-1.0000 F180.00
G3 X148.0405 Y-43.2682 Z-1.0000 I0.6924 J-1.9201 F180.00
G3 X148.5912 Y-45.5459 Z-1.0000 I1.9296 J-0.7389 F180.00
G1 X151.5459 Y-42.5912 Z-1.0000 F180.00
G2 X151.4827 Y-45.4827 Z-1.0000 I-1.5359 J-1.4129 F180.00
G0 X151.4827 Y-45.4827 Z5.0000
G0 X151.4827 Y-45.4827 Z5.0000
G0 X151.4827 Y-45.4827 Z2.0000
G1 X151.4827 Y-45.4827 Z-1.0000 F180.00
G2 X150.0000 Y-46.0969 Z-1.0000 I-1.4827 J1.4827 F180.00
G2 X150.0000 Y-41.9031 Z-1.0000 I0.0000 J2.0969 F180.00
G2 X151.4827 Y-45.4827 Z-1.0000 I0.0000 J-2.0969 F180.00
G1 X151.4827 Y-45.4827 Z-1.5000 F180.00
G2 X150.0000 Y-46.0969 Z-1.5000 I-1.4827 J1.4827 F180.00
G2 X150.0000 Y-41.9031 Z-1.5000 I0.0000 J2.0969 F180.00
G2 X151.4827 Y-45.4827 Z-1.5000 I0.0000 J-2.0969 F180.00
G0 X151.4827 Y-45.4827 Z5.0000
G0 X151.4827 Y-45.4827 Z5.0000
G0 X151.4827 Y-45.4827 Z1.5000
G1 X151.4827 Y-45.4827 Z-1.5000 F180.00
G3 X151.5459 Y-42.5912 Z-1.5000 I-1.4728 J1.4786 F180.00
G1 X148.5912 Y-45.5459 Z-1.5000 F180.00
G2 X148.0405 Y-43.2682 Z-1.5000 I1.3788 J1.5388 F180.00
G2 X149.2682 Y-42.0405 Z-1.5000 I1.9201 J-0.6924 F180.00
G1 X148.0405 Y-43.2682 Z-1.5000 F180.00
G1 X148.0405 Y-43.2682 Z-2.0000 F180.00
G1 X149.2682 Y-42.0405 Z-2.0000 F180.00
G3 X148.0405 Y-43.2682 Z-2.0000 I0.6924 J-1.9201 F180.00
G3 X148.5912 Y-45.5459 Z-2.0000 I1.9296 J-0.7389 F180.00
G1 X151.5459 Y-42.5912 Z-2.0000 F180.00
G2 X151.4827 Y-45.4827 Z-2.0000 I-1.5359 J-1.4129 F180.00
G0 X151.4827 Y-45.4827 Z5.0000
G0 X151.4827 Y-45.4827 Z5.0000
G0 X151.4827 Y-45.4827 Z1.0000
G1 X151.4827 Y-45.4827 Z-2.0000 F180.00
G2 X150.0000 Y-46.0969 Z-2.0000 I-1.4827 J1.4827 F180.00
G2 X150.0000 Y-41.9031 Z-2.0000 I0.0000 J2.0969 F180.00
G2 X151.4827 Y-45.4827 Z-2.0000 I0.0000 J-2.0969 F180.00
G1 X151.4827 Y-45.4827 Z-2.5000 F180.00
G2 X150.0000 Y-46.0969 Z-2.5000 I-1.4827 J1.4827 F180.00
G2 X150.0000 Y-41.9031 Z-2.5000 I0.0000 J2.0969 F180.00
G2 X151.4827 Y-45.4827 Z-2.5000 I0.0000 J-2.0969 F180.00
G0 X151.4827 Y-45.4827 Z5.0000
G0 X151.4827 Y-45.4827 Z5.0000
G0 X151.4827 Y-45.4827 Z0.5000
G1 X151.4827 Y-45.4827 Z-2.5000 F180.00
G3 X151.5459 Y-42.5912 Z-2.5000 I-1.4728 J1.4786 F180.00
G1 X148.5912 Y-45.5459 Z-2.5000 F180.00
G2 X148.0405 Y-43.2682 Z-2.5000 I1.3788 J1.5388 F180.00
G2 X149.2682 Y-42.0405 Z-2.5000 I1.9201 J-0.6924 F180.00
G1 X148.0405 Y-43.2682 Z-2.5000 F180.00
G1 X148.0405 Y-43.2682 Z-3.0000 F180.00
G1 X149.2682 Y-42.0405 Z-3.0000 F180.00
G3 X148.0405 Y-43.2682 Z-3.0000 I0.6924 J-1.9201 F180.00
G3 X148.5912 Y-45.5459 Z-3.0000 I1.9296 J-0.7389 F180.00
G1 X151.5459 Y-42.5912 Z-3.0000 F180.00
G2 X151.4827 Y-45.4827 Z-3.0000 I-1.5359 J-1.4129 F180.00
G0 X151.4827 Y-45.4827 Z5.0000
G0 X151.4827 Y-45.4827 Z5.0000
G0 X151.4827 Y-45.4827 Z0.0000
G1 X151.4827 Y-45.4827 Z-3.0000 F180.00
G2 X150.0000 Y-46.0969 Z-3.0000 I-1.4827 J1.4827 F180.00
G2 X150.0000 Y-41.9031 Z-3.0000 I0.0000 J2.0969 F180.00
G2 X151.4827 Y-45.4827 Z-3.0000 I0.0000 J-2.0969 F180.00
G1 X151.4827 Y-45.4827 Z-3.5000 F180.00
G2 X150.0000 Y-46.0969 Z-3.5000 I-1.4827 J1.4827 F180.00
G2 X150.0000 Y-41.9031 Z-3.5000 I0.0000 J2.0969 F180.00
G2 X151.4827 Y-45.4827 Z-3.5000 I0.0000 J-2.0969 F180.00
G0 X151.4827 Y-45.4827 Z5.0000
G0 X151.4827 Y-45.4827 Z5.0000
G0 X151.4827 Y-45.4827 Z-0.5000
G1 X151.4827 Y-45.4827 Z-3.5000 F180.00
G3 X151.5459 Y-42.5912 Z-3.5000 I-1.4728 J1.4786 F180.00
G1 X148.5912 Y-45.5459 Z-3.5000 F180.00
G2 X148.0405 Y-43.2682 Z-3.5000 I1.3788 J1.5388 F180.00
G2 X149.2682 Y-42.0405 Z-3.5000 I1.9201 J-0.6924 F180.00
G1 X148.0405 Y-43.2682 Z-3.5000 F180.00
G1 X148.0405 Y-43.2682 Z-4.0000 F180.00
G1 X149.2682 Y-42.0405 Z-4.0000 F180.00
G3 X148.0405 Y-43.2682 Z-4.0000 I0.6924 J-1.9201 F180.00
G3 X148.5912 Y-45.5459 Z-4.0000 I1.9296 J-0.7389 F180.00
G1 X151.5459 Y-42.5912 Z-4.0000 F180.00
G2 X151.4827 Y-45.4827 Z-4.0000 I-1.5359 J-1.4129 F180.00
G0 X151.4827 Y-45.4827 Z5.0000
G0 X151.4827 Y-45.4827 Z5.0000
G0 X151.4827 Y-45.4827 Z-1.0000
G1 X151.4827 Y-45.4827 Z-4.0000 F180.00
G2 X150.0000 Y-46.0969 Z-4.0000 I-1.4827 J1.4827 F180.00
G2 X150.0000 Y-41.9031 Z-4.0000 I0.0000 J2.0969 F180.00
G2 X151.4827 Y-45.4827 Z-4.0000 I0.0000 J-2.0969 F180.00
G1 X151.4827 Y-45.4827 Z-4.5000 F180.00
G2 X150.0000 Y-46.0969 Z-4.5000 I-1.4827 J1.4827 F180.00
G2 X150.0000 Y-41.9031 Z-4.5000 I0.0000 J2.0969 F180.00
G2 X151.4827 Y-45.4827 Z-4.5000 I0.0000 J-2.0969 F180.00
G0 X151.4827 Y-45.4827 Z5.0000
G0 X151.4827 Y-45.4827 Z5.0000
G0 X151.4827 Y-45.4827 Z-1.5000
G1 X151.4827 Y-45.4827 Z-4.5000 F180.00
G3 X151.5459 Y-42.5912 Z-4.5000 I-1.4728 J1.4786 F180.00
G1 X148.5912 Y-45.5459 Z-4.5000 F180.00
G2 X148.0405 Y-43.2682 Z-4.5000 I1.3788 J1.5388 F180.00
G2 X149.2682 Y-42.0405 Z-4.5000 I1.9201 J-0.6924 F180.00
G1 X148.0405 Y-43.2682 Z-4.5000 F180.00
G1 X148.0405 Y-43.2682 Z-5.0000 F180.00
G1 X149.2682 Y-42.0405 Z-5.0000 F180.00
G3 X148.0405 Y-43.2682 Z-5.0000 I0.6924 J-1.9201 F180.00
G3 X148.5912 Y-45.5459 Z-5.0000 I1.9296 J-0.7389 F180.00
G1 X151.5459 Y-42.5912 Z-5.0000 F180.00
G2 X151.4827 Y-45.4827 Z-5.0000 I-1.5359 J-1.4129 F180.00
G0 X151.4827 Y-45.4827 Z5.0000
G0 X151.4827 Y-45.4827 Z5.0000
G0 X151.4827 Y-45.4827 Z-2.0000
G1 X151.4827 Y-45.4827 Z-5.0000 F180.00
G2 X150.0000 Y-46.0969 Z-5.0000 I-1.4827 J1.4827 F180.00
G2 X150.0000 Y-41.9031 Z-5.0000 I0.0000 J2.0969 F180.00
G2 X151.4827 Y-45.4827 Z-5.0000 I0.0000 J-2.0969 F180.00
G1 X151.4827 Y-45.4827 Z-5.5000 F180.00
G2 X150.0000 Y-46.0969 Z-5.5000 I-1.4827 J1.4827 F180.00
G2 X150.0000 Y-41.9031 Z-5.5000 I0.0000 J2.0969 F180.00
G2 X151.4827 Y-45.4827 Z-5.5000 I0.0000 J-2.0969 F180.00
G0 X151.4827 Y-45.4827 Z5.0000
G0 X151.4827 Y-45.4827 Z5.0000
G0 X151.4827 Y-45.4827 Z-2.5000
G1 X151.4827 Y-45.4827 Z-5.5000 F180.00
G3 X151.5459 Y-42.5912 Z-5.5000 I-1.4728 J1.4786 F180.00
G1 X148.5912 Y-45.5459 Z-5.5000 F180.00
G2 X148.0405 Y-43.2682 Z-5.5000 I1.3788 J1.5388 F180.00
G2 X149.2682 Y-42.0405 Z-5.5000 I1.9201 J-0.6924 F180.00
G1 X148.0405 Y-43.2682 Z-5.5000 F180.00
G1 X148.0405 Y-43.2682 Z-6.0000 F180.00
G1 X149.2682 Y-42.0405 Z-6.0000 F180.00
G3 X148.0405 Y-43.2682 Z-6.0000 I0.6924 J-1.9201 F180.00
G3 X148.5912 Y-45.5459 Z-6.0000 I1.9296 J-0.7389 F180.00
G1 X151.5459 Y-42.5912 Z-6.0000 F180.00
G2 X151.4827 Y-45.4827 Z-6.0000 I-1.5359 J-1.4129 F180.00
G0 X151.4827 Y-45.4827 Z5.0000
G0 X151.4827 Y-45.4827 Z5.0000
G0 X151.4827 Y-45.4827 Z-3.0000
G1 X151.4827 Y-45.4827 Z-6.0000 F180.00
G2 X150.0000 Y-46.0969 Z-6.0000 I-1.4827 J1.4827 F180.00
G2 X150.0000 Y-41.9031 Z-6.0000 I0.0000 J2.0969 F180.00
G2 X151.4827 Y-45.4827 Z-6.0000 I0.0000 J-2.0969 F180.00
G0 Z5.0000
(finish operation: Pocket_Shape001)
(begin operation: TagDressup)
(Path: TagDressup)
G0 Z5.0000
G0 X160.2037 Y-65.2963 Z5.0000
G0 X160.2037 Y-65.2963 Z3.0000
G1 X160.2037 Y-65.2963 Z-0.5000 F180.00
G2 X160.5000 Y-66.0491 Z-0.5000 I-0.7169 J-0.7169 F180.00
G1 X160.5000 Y-87.9509 Z-0.5000 F180.00
G2 X159.4509 Y-89.0000 Z-0.5000 I-1.0132 J-0.0359 F180.00
G1 X90.5491 Y-89.0000 Z-0.5000 F180.00
G2 X89.5000 Y-87.9509 Z-0.5000 I-0.0359 J1.0132 F180.00
G1 X89.5000 Y-66.0491 Z-0.5000 F180.00
G2 X90.5491 Y-65.0000 Z-0.5000 I1.0132 J0.0359 F180.00
G1 X159.4509 Y-65.0000 Z-0.5000 F180.00
G2 X160.2037 Y-65.2963 Z-0.5000 I0.0359 J-1.0132 F180.00
G1 X160.2037 Y-65.2963 Z-1.0000 F180.00
G2 X160.5000 Y-66.0491 Z-1.0000 I-0.7169 J-0.7169 F180.00
G1 X160.5000 Y-87.9509 Z-1.0000 F180.00
G2 X159.4509 Y-89.0000 Z-1.0000 I-1.0132 J-0.0359 F180.00
G1 X90.5491 Y-89.0000 Z-1.0000 F180.00
G2 X89.5000 Y-87.9509 Z-1.0000 I-0.0359 J1.0132 F180.00
G1 X89.5000 Y-66.0491 Z-1.0000 F180.00
G2 X90.5491 Y-65.0000 Z-1.0000 I1.0132 J0.0359 F180.00
G1 X159.4509 Y-65.0000 Z-1.0000 F180.00
G2 X160.2037 Y-65.2963 Z-1.0000 I0.0359 J-1.0132 F180.00
G1 X160.2037 Y-65.2963 Z-1.5000 F180.00
G2 X160.5000 Y-66.0491 Z-1.5000 I-0.7169 J-0.7169 F180.00
G1 X160.5000 Y-87.9509 Z-1.5000 F180.00
G2 X159.4509 Y-89.0000 Z-1.5000 I-1.0132 J-0.0359 F180.00
G1 X90.5491 Y-89.0000 Z-1.5000 F180.00
G2 X89.5000 Y-87.9509 Z-1.5000 I-0.0359 J1.0132 F180.00
G1 X89.5000 Y-66.0491 Z-1.5000 F180.00
G2 X90.5491 Y-65.0000 Z-1.5000 I1.0132 J0.0359 F180.00
G1 X159.4509 Y-65.0000 Z-1.5000 F180.00
G2 X160.2037 Y-65.2963 Z-1.5000 I0.0359 J-1.0132 F180.00
G1 X160.2037 Y-65.2963 Z-2.0000 F180.00
G2 X160.5000 Y-66.0491 Z-2.0000 I-0.7169 J-0.7169 F180.00
G1 X160.5000 Y-87.9509 Z-2.0000 F180.00
G2 X159.4509 Y-89.0000 Z-2.0000 I-1.0132 J-0.0359 F180.00
G1 X90.5491 Y-89.0000 Z-2.0000 F180.00
G2 X89.5000 Y-87.9509 Z-2.0000 I-0.0359 J1.0132 F180.00
G1 X89.5000 Y-66.0491 Z-2.0000 F180.00
G2 X90.5491 Y-65.0000 Z-2.0000 I1.0132 J0.0359 F180.00
G1 X159.4509 Y-65.0000 Z-2.0000 F180.00
G2 X160.2037 Y-65.2963 Z-2.0000 I0.0359 J-1.0132 F180.00
G1 X160.2037 Y-65.2963 Z-2.5000 F180.00
G2 X160.5000 Y-66.0491 Z-2.5000 I-0.7169 J-0.7169 F180.00
G1 X160.5000 Y-87.9509 Z-2.5000 F180.00
G2 X159.4509 Y-89.0000 Z-2.5000 I-1.0132 J-0.0359 F180.00
G1 X90.5491 Y-89.0000 Z-2.5000 F180.00
G2 X89.5000 Y-87.9509 Z-2.5000 I-0.0359 J1.0132 F180.00
G1 X89.5000 Y-66.0491 Z-2.5000 F180.00
G2 X90.5491 Y-65.0000 Z-2.5000 I1.0132 J0.0359 F180.00
G1 X159.4509 Y-65.0000 Z-2.5000 F180.00
G2 X160.2037 Y-65.2963 Z-2.5000 I0.0359 J-1.0132 F180.00
G1 X160.2037 Y-65.2963 Z-3.0000 F180.00
G2 X160.5000 Y-66.0491 Z-3.0000 I-0.7169 J-0.7169 F180.00
G1 X160.5000 Y-87.9509 Z-3.0000 F180.00
G2 X159.4509 Y-89.0000 Z-3.0000 I-1.0132 J-0.0359 F180.00
G1 X90.5491 Y-89.0000 Z-3.0000 F180.00
G2 X89.5000 Y-87.9509 Z-3.0000 I-0.0359 J1.0132 F180.00
G1 X89.5000 Y-66.0491 Z-3.0000 F180.00
G2 X90.5491 Y-65.0000 Z-3.0000 I1.0132 J0.0359 F180.00
G1 X159.4509 Y-65.0000 Z-3.0000 F180.00
G2 X160.2037 Y-65.2963 Z-3.0000 I0.0359 J-1.0132 F180.00
G1 X160.2037 Y-65.2963 Z-3.5000 F180.00
G2 X160.5000 Y-66.0491 Z-3.5000 I-0.7169 J-0.7169 F180.00
G1 X160.5000 Y-87.9509 Z-3.5000 F180.00
G2 X159.4509 Y-89.0000 Z-3.5000 I-1.0132 J-0.0359 F180.00
G1 X144.1404 Y-89.0000 Z-3.5000 F180.00
G1 X143.6404 Y-89.0000 Z-3.0000 F180.00
G1 X140.8104 Y-89.0000 Z-3.0000 F180.00
G1 X140.3104 Y-89.0000 Z-3.5000 F180.00
G1 X109.6896 Y-89.0000 Z-3.5000 F180.00
G1 X109.1896 Y-89.0000 Z-3.0000 F180.00
G1 X106.3596 Y-89.0000 Z-3.0000 F180.00
G1 X105.8596 Y-89.0000 Z-3.5000 F180.00
G1 X90.5491 Y-89.0000 Z-3.5000 F180.00
G2 X89.5000 Y-87.9509 Z-3.5000 I-0.0359 J1.0132 F180.00
G1 X89.5000 Y-66.0491 Z-3.5000 F180.00
G2 X90.5491 Y-65.0000 Z-3.5000 I1.0132 J0.0359 F180.00
G1 X105.8596 Y-65.0000 Z-3.5000 F180.00
G1 X106.3596 Y-65.0000 Z-3.0000 F180.00
G1 X109.1896 Y-65.0000 Z-3.0000 F180.00
G1 X109.6896 Y-65.0000 Z-3.5000 F180.00
G1 X140.3104 Y-65.0000 Z-3.5000 F180.00
G1 X140.8104 Y-65.0000 Z-3.0000 F180.00
G1 X143.6404 Y-65.0000 Z-3.0000 F180.00
G1 X144.1404 Y-65.0000 Z-3.5000 F180.00
G1 X159.4509 Y-65.0000 Z-3.5000 F180.00
G2 X160.2037 Y-65.2963 Z-3.5000 I0.0359 J-1.0132 F180.00
G1 X160.2037 Y-65.2963 Z-4.0000 F180.00
G2 X160.5000 Y-66.0491 Z-4.0000 I-0.7169 J-0.7169 F180.00
G1 X160.5000 Y-87.9509 Z-4.0000 F180.00
G2 X159.4509 Y-89.0000 Z-4.0000 I-1.0132 J-0.0359 F180.00
G1 X144.6404 Y-89.0000 Z-4.0000 F180.00
G1 X143.6404 Y-89.0000 Z-3.0000 F180.00
G1 X140.8104 Y-89.0000 Z-3.0000 F180.00
G1 X139.8104 Y-89.0000 Z-4.0000 F180.00
G1 X110.1896 Y-89.0000 Z-4.0000 F180.00
G1 X109.1896 Y-89.0000 Z-3.0000 F180.00
G1 X106.3596 Y-89.0000 Z-3.0000 F180.00
G1 X105.3596 Y-89.0000 Z-4.0000 F180.00
G1 X90.5491 Y-89.0000 Z-4.0000 F180.00
G2 X89.5000 Y-87.9509 Z-4.0000 I-0.0359 J1.0132 F180.00
G1 X89.5000 Y-66.0491 Z-4.0000 F180.00
G2 X90.5491 Y-65.0000 Z-4.0000 I1.0132 J0.0359 F180.00
G1 X105.3596 Y-65.0000 Z-4.0000 F180.00
G1 X106.3596 Y-65.0000 Z-3.0000 F180.00
G1 X109.1896 Y-65.0000 Z-3.0000 F180.00
G1 X110.1896 Y-65.0000 Z-4.0000 F180.00
G1 X139.8104 Y-65.0000 Z-4.0000 F180.00
G1 X140.8104 Y-65.0000 Z-3.0000 F180.00
G1 X143.6404 Y-65.0000 Z-3.0000 F180.00
G1 X144.6404 Y-65.0000 Z-4.0000 F180.00
G1 X159.4509 Y-65.0000 Z-4.0000 F180.00
G2 X160.2037 Y-65.2963 Z-4.0000 I0.0359 J-1.0132 F180.00
G1 X160.2037 Y-65.2963 Z-4.5000 F180.00
G2 X160.5000 Y-66.0491 Z-4.5000 I-0.7169 J-0.7169 F180.00
G1 X160.5000 Y-87.9509 Z-4.5000 F180.00
G2 X159.4509 Y-89.0000 Z-4.5000 I-1.0132 J-0.0359 F180.00
G1 X145.1404 Y-89.0000 Z-4.5000 F180.00
G1 X143.6404 Y-89.0000 Z-3.0000 F180.00
G1 X140.8104 Y-89.0000 Z-3.0000 F180.00
G1 X139.3104 Y-89.0000 Z-4.5000 F180.00
G1 X110.6896 Y-89.0000 Z-4.5000 F180.00
G1 X109.1896 Y-89.0000 Z-3.0000 F180.00
G1 X106.3596 Y-89.0000 Z-3.0000 F180.00
G1 X104.8596 Y-89.0000 Z-4.5000 F180.00
G1 X90.5491 Y-89.0000 Z-4.5000 F180.00
G2 X89.5000 Y-87.9509 Z-4.5000 I-0.0359 J1.0132 F180.00
G1 X89.5000 Y-66.0491 Z-4.5000 F180.00
G2 X90.5491 Y-65.0000 Z-4.5000 I1.0132 J0.0359 F180.00
G1 X104.8596 Y-65.0000 Z-4.5000 F180.00
G1 X106.3596 Y-65.0000 Z-3.0000 F180.00
G1 X109.1896 Y-65.0000 Z-3.0000 F180.00
G1 X110.6896 Y-65.0000 Z-4.5000 F180.00
G1 X139.3104 Y-65.0000 Z-4.5000 F180.00
G1 X140.8104 Y-65.0000 Z-3.0000 F180.00
G1 X143.6404 Y-65.0000 Z-3.0000 F180.00
G1 X145.1404 Y-65.0000 Z-4.5000 F180.00
G1 X159.4509 Y-65.0000 Z-4.5000 F180.00
G2 X160.2037 Y-65.2963 Z-4.5000 I0.0359 J-1.0132 F180.00
G1 X160.2037 Y-65.2963 Z-5.0000 F180.00
G2 X160.5000 Y-66.0491 Z-5.0000 I-0.7169 J-0.7169 F180.00
G1 X160.5000 Y-87.9509 Z-5.0000 F180.00
G2 X159.4509 Y-89.0000 Z-5.0000 I-1.0132 J-0.0359 F180.00
G1 X145.6404 Y-89.0000 Z-5.0000 F180.00
G1 X143.6404 Y-89.0000 Z-3.0000 F180.00
G1 X140.8104 Y-89.0000 Z-3.0000 F180.00
G1 X138.8104 Y-89.0000 Z-5.0000 F180.00
G1 X111.1896 Y-89.0000 Z-5.0000 F180.00
G1 X109.1896 Y-89.0000 Z-3.0000 F180.00
G1 X106.3596 Y-89.0000 Z-3.0000 F180.00
G1 X104.3596 Y-89.0000 Z-5.0000 F180.00
G1 X90.5491 Y-89.0000 Z-5.0000 F180.00
G2 X89.5000 Y-87.9509 Z-5.0000 I-0.0359 J1.0132 F180.00
G1 X89.5000 Y-66.0491 Z-5.0000 F180.00
G2 X90.5491 Y-65.0000 Z-5.0000 I1.0132 J0.0359 F180.00
G1 X104.3596 Y-65.0000 Z-5.0000 F180.00
G1 X106.3596 Y-65.0000 Z-3.0000 F180.00
G1 X109.1896 Y-65.0000 Z-3.0000 F180.00
G1 X111.1896 Y-65.0000 Z-5.0000 F180.00
G1 X138.8104 Y-65.0000 Z-5.0000 F180.00
G1 X140.8104 Y-65.0000 Z-3.0000 F180.00
G1 X143.6404 Y-65.0000 Z-3.0000 F180.00
G1 X145.6404 Y-65.0000 Z-5.0000 F180.00
G1 X159.4509 Y-65.0000 Z-5.0000 F180.00
G2 X160.2037 Y-65.2963 Z-5.0000 I0.0359 J-1.0132 F180.00
G1 X160.2037 Y-65.2963 Z-5.5000 F180.00
G2 X160.5000 Y-66.0491 Z-5.5000 I-0.7169 J-0.7169 F180.00
G1 X160.5000 Y-87.9509 Z-5.5000 F180.00
G2 X159.4509 Y-89.0000 Z-5.5000 I-1.0132 J-0.0359 F180.00
G1 X146.1404 Y-89.0000 Z-5.5000 F180.00
G1 X143.6404 Y-89.0000 Z-3.0000 F180.00
G1 X140.8104 Y-89.0000 Z-3.0000 F180.00
G1 X138.3104 Y-89.0000 Z-5.5000 F180.00
G1 X111.6896 Y-89.0000 Z-5.5000 F180.00
G1 X109.1896 Y-89.0000 Z-3.0000 F180.00
G1 X106.3596 Y-89.0000 Z-3.0000 F180.00
G1 X103.8596 Y-89.0000 Z-5.5000 F180.00
G1 X90.5491 Y-89.0000 Z-5.5000 F180.00
G2 X89.5000 Y-87.9509 Z-5.5000 I-0.0359 J1.0132 F180.00
G1 X89.5000 Y-66.0491 Z-5.5000 F180.00
G2 X90.5491 Y-65.0000 Z-5.5000 I1.0132 J0.0359 F180.00
G1 X103.8596 Y-65.0000 Z-5.5000 F180.00
G1 X106.3596 Y-65.0000 Z-3.0000 F180.00
G1 X109.1896 Y-65.0000 Z-3.0000 F180.00
G1 X111.6896 Y-65.0000 Z-5.5000 F180.00
G1 X138.3104 Y-65.0000 Z-5.5000 F180.00
G1 X140.8104 Y-65.0000 Z-3.0000 F180.00
G1 X143.6404 Y-65.0000 Z-3.0000 F180.00
G1 X146.1404 Y-65.0000 Z-5.5000 F180.00
G1 X159.4509 Y-65.0000 Z-5.5000 F180.00
G2 X160.2037 Y-65.2963 Z-5.5000 I0.0359 J-1.0132 F180.00
G1 X160.2037 Y-65.2963 Z-6.0000 F180.00
G2 X160.5000 Y-66.0491 Z-6.0000 I-0.7169 J-0.7169 F180.00
G1 X160.5000 Y-87.9509 Z-6.0000 F180.00
G2 X159.4509 Y-89.0000 Z-6.0000 I-1.0132 J-0.0359 F180.00
G1 X146.6404 Y-89.0000 Z-6.0000 F180.00
G1 X143.6404 Y-89.0000 Z-3.0000 F180.00
G1 X140.8104 Y-89.0000 Z-3.0000 F180.00
G1 X137.8104 Y-89.0000 Z-6.0000 F180.00
G1 X112.1896 Y-89.0000 Z-6.0000 F180.00
G1 X109.1896 Y-89.0000 Z-3.0000 F180.00
G1 X106.3596 Y-89.0000 Z-3.0000 F180.00
G1 X103.3596 Y-89.0000 Z-6.0000 F180.00
G1 X90.5491 Y-89.0000 Z-6.0000 F180.00
G2 X89.5000 Y-87.9509 Z-6.0000 I-0.0359 J1.0132 F180.00
G1 X89.5000 Y-66.0491 Z-6.0000 F180.00
G2 X90.5491 Y-65.0000 Z-6.0000 I1.0132 J0.0359 F180.00
G1 X103.3596 Y-65.0000 Z-6.0000 F180.00
G1 X106.3596 Y-65.0000 Z-3.0000 F180.00
G1 X109.1896 Y-65.0000 Z-3.0000 F180.00
G1 X112.1896 Y-65.0000 Z-6.0000 F180.00
G1 X137.8104 Y-65.0000 Z-6.0000 F180.00
G1 X140.8104 Y-65.0000 Z-3.0000 F180.00
G1 X143.6404 Y-65.0000 Z-3.0000 F180.00
G1 X146.6404 Y-65.0000 Z-6.0000 F180.00
G1 X159.4509 Y-65.0000 Z-6.0000 F180.00
G2 X160.2037 Y-65.2963 Z-6.0000 I0.0359 J-1.0132 F180.00
G0 X160.2037 Y-65.2963 Z5.0000
(finish operation: TagDressup)
(begin operation: TagDressup001)
(Path: TagDressup001)
G0 Z5.0000
G0 X190.7071 Y0.7071 Z5.0000
G0 X190.7071 Y0.7071 Z3.0000
G1 X190.7071 Y0.7071 Z-0.5000 F180.00
G2 X191.0000 Y-0.0000 Z-0.5000 I-0.7071 J-0.7071 F180.00
G1 X191.0000 Y-110.0000 Z-0.5000 F180.00
G2 X190.0000 Y-111.0000 Z-0.5000 I-1.0000 J0.0000 F180.00
G1 X0.0000 Y-111.0000 Z-0.5000 F180.00
G2 X-1.0000 Y-110.0000 Z-0.5000 I0.0000 J1.0000 F180.00
G1 X-1.0000 Y-0.0000 Z-0.5000 F180.00
G2 X-0.0000 Y1.0000 Z-0.5000 I1.0000 J-0.0000 F180.00
G1 X190.0000 Y1.0000 Z-0.5000 F180.00
G2 X190.7071 Y0.7071 Z-0.5000 I-0.0000 J-1.0000 F180.00
G1 X190.7071 Y0.7071 Z-1.0000 F180.00
G2 X191.0000 Y-0.0000 Z-1.0000 I-0.7071 J-0.7071 F180.00
G1 X191.0000 Y-110.0000 Z-1.0000 F180.00
G2 X190.0000 Y-111.0000 Z-1.0000 I-1.0000 J0.0000 F180.00
G1 X0.0000 Y-111.0000 Z-1.0000 F180.00
G2 X-1.0000 Y-110.0000 Z-1.0000 I0.0000 J1.0000 F180.00
G1 X-1.0000 Y-0.0000 Z-1.0000 F180.00
G2 X-0.0000 Y1.0000 Z-1.0000 I1.0000 J-0.0000 F180.00
G1 X190.0000 Y1.0000 Z-1.0000 F180.00
G2 X190.7071 Y0.7071 Z-1.0000 I-0.0000 J-1.0000 F180.00
G1 X190.7071 Y0.7071 Z-1.5000 F180.00
G2 X191.0000 Y-0.0000 Z-1.5000 I-0.7071 J-0.7071 F180.00
G1 X191.0000 Y-110.0000 Z-1.5000 F180.00
G2 X190.0000 Y-111.0000 Z-1.5000 I-1.0000 J0.0000 F180.00
G1 X0.0000 Y-111.0000 Z-1.5000 F180.00
G2 X-1.0000 Y-110.0000 Z-1.5000 I0.0000 J1.0000 F180.00
G1 X-1.0000 Y-0.0000 Z-1.5000 F180.00
G2 X-0.0000 Y1.0000 Z-1.5000 I1.0000 J-0.0000 F180.00
G1 X190.0000 Y1.0000 Z-1.5000 F180.00
G2 X190.7071 Y0.7071 Z-1.5000 I-0.0000 J-1.0000 F180.00
G1 X190.7071 Y0.7071 Z-2.0000 F180.00
G2 X191.0000 Y-0.0000 Z-2.0000 I-0.7071 J-0.7071 F180.00
G1 X191.0000 Y-110.0000 Z-2.0000 F180.00
G2 X190.0000 Y-111.0000 Z-2.0000 I-1.0000 J0.0000 F180.00
G1 X0.0000 Y-111.0000 Z-2.0000 F180.00
G2 X-1.0000 Y-110.0000 Z-2.0000 I0.0000 J1.0000 F180.00
G1 X-1.0000 Y-0.0000 Z-2.0000 F180.00
G2 X-0.0000 Y1.0000 Z-2.0000 I1.0000 J-0.0000 F180.00
G1 X190.0000 Y1.0000 Z-2.0000 F180.00
G2 X190.7071 Y0.7071 Z-2.0000 I-0.0000 J-1.0000 F180.00
G1 X190.7071 Y0.7071 Z-2.5000 F180.00
G2 X191.0000 Y-0.0000 Z-2.5000 I-0.7071 J-0.7071 F180.00
G1 X191.0000 Y-110.0000 Z-2.5000 F180.00
G2 X190.0000 Y-111.0000 Z-2.5000 I-1.0000 J0.0000 F180.00
G1 X0.0000 Y-111.0000 Z-2.5000 F180.00
G2 X-1.0000 Y-110.0000 Z-2.5000 I0.0000 J1.0000 F180.00
G1 X-1.0000 Y-0.0000 Z-2.5000 F180.00
G2 X-0.0000 Y1.0000 Z-2.5000 I1.0000 J-0.0000 F180.00
G1 X190.0000 Y1.0000 Z-2.5000 F180.00
G2 X190.7071 Y0.7071 Z-2.5000 I-0.0000 J-1.0000 F180.00
G1 X190.7071 Y0.7071 Z-3.0000 F180.00
G2 X191.0000 Y-0.0000 Z-3.0000 I-0.7071 J-0.7071 F180.00
G1 X191.0000 Y-110.0000 Z-3.0000 F180.00
G2 X190.0000 Y-111.0000 Z-3.0000 I-1.0000 J0.0000 F180.00
G1 X0.0000 Y-111.0000 Z-3.0000 F180.00
G2 X-1.0000 Y-110.0000 Z-3.0000 I0.0000 J1.0000 F180.00
G1 X-1.0000 Y-0.0000 Z-3.0000 F180.00
G2 X-0.0000 Y1.0000 Z-3.0000 I1.0000 J-0.0000 F180.00
G1 X190.0000 Y1.0000 Z-3.0000 F180.00
G2 X190.7071 Y0.7071 Z-3.0000 I-0.0000 J-1.0000 F180.00
G1 X190.7071 Y0.7071 Z-3.5000 F180.00
G2 X191.0000 Y-0.0000 Z-3.5000 I-0.7071 J-0.7071 F180.00
G1 X191.0000 Y-110.0000 Z-3.5000 F180.00
G2 X190.0000 Y-111.0000 Z-3.5000 I-1.0000 J0.0000 F180.00
G1 X150.4700 Y-111.0000 Z-3.5000 F180.00
G1 X149.9700 Y-111.0000 Z-3.0000 F180.00
G1 X135.0300 Y-111.0000 Z-3.0000 F180.00
G1 X134.5300 Y-111.0000 Z-3.5000 F180.00
G1 X55.4700 Y-111.0000 Z-3.5000 F180.00
G1 X54.9700 Y-111.0000 Z-3.0000 F180.00
G1 X40.0300 Y-111.0000 Z-3.0000 F180.00
G1 X39.5300 Y-111.0000 Z-3.5000 F180.00
G1 X0.0000 Y-111.0000 Z-3.5000 F180.00
G2 X-1.0000 Y-110.0000 Z-3.5000 I0.0000 J1.0000 F180.00
G1 X-1.0000 Y-0.0000 Z-3.5000 F180.00
G2 X-0.0000 Y1.0000 Z-3.5000 I1.0000 J-0.0000 F180.00
G1 X39.5300 Y1.0000 Z-3.5000 F180.00
G1 X40.0300 Y1.0000 Z-3.0000 F180.00
G1 X54.9700 Y1.0000 Z-3.0000 F180.00
G1 X55.4700 Y1.0000 Z-3.5000 F180.00
G1 X134.5300 Y1.0000 Z-3.5000 F180.00
G1 X135.0300 Y1.0000 Z-3.0000 F180.00
G1 X149.9700 Y1.0000 Z-3.0000 F180.00
G1 X150.4700 Y1.0000 Z-3.5000 F180.00
G1 X190.0000 Y1.0000 Z-3.5000 F180.00
G2 X190.7071 Y0.7071 Z-3.5000 I-0.0000 J-1.0000 F180.00
G1 X190.7071 Y0.7071 Z-4.0000 F180.00
G2 X191.0000 Y-0.0000 Z-4.0000 I-0.7071 J-0.7071 F180.00
G1 X191.0000 Y-110.0000 Z-4.0000 F180.00
G2 X190.0000 Y-111.0000 Z-4.0000 I-1.0000 J0.0000 F180.00
G1 X150.9700 Y-111.0000 Z-4.0000 F180.00
G1 X149.9700 Y-111.0000 Z-3.0000 F180.00
G1 X135.0300 Y-111.0000 Z-3.0000 F180.00
G1 X134.0300 Y-111.0000 Z-4.0000 F180.00
G1 X55.9700 Y-111.0000 Z-4.0000 F180.00
G1 X54.9700 Y-111.0000 Z-3.0000 F180.00
G1 X40.0300 Y-111.0000 Z-3.0000 F180.00
G1 X39.0300 Y-111.0000 Z-4.0000 F180.00
G1 X0.0000 Y-111.0000 Z-4.0000 F180.00
G2 X-1.0000 Y-110.0000 Z-4.0000 I0.0000 J1.0000 F180.00
G1 X-1.0000 Y-0.0000 Z-4.0000 F180.00
G2 X-0.0000 Y1.0000 Z-4.0000 I1.0000 J-0.0000 F180.00
G1 X39.0300 Y1.0000 Z-4.0000 F180.00
G1 X40.0300 Y1.0000 Z-3.0000 F180.00
G1 X54.9700 Y1.0000 Z-3.0000 F180.00
G1 X55.9700 Y1.0000 Z-4.0000 F180.00
G1 X134.0300 Y1.0000 Z-4.0000 F180.00
G1 X135.0300 Y1.0000 Z-3.0000 F180.00
G1 X149.9700 Y1.0000 Z-3.0000 F180.00
G1 X150.9700 Y1.0000 Z-4.0000 F180.00
G1 X190.0000 Y1.0000 Z-4.0000 F180.00
G2 X190.7071 Y0.7071 Z-4.0000 I-0.0000 J-1.0000 F180.00
G1 X190.7071 Y0.7071 Z-4.5000 F180.00
G2 X191.0000 Y-0.0000 Z-4.5000 I-0.7071 J-0.7071 F180.00
G1 X191.0000 Y-110.0000 Z-4.5000 F180.00
G2 X190.0000 Y-111.0000 Z-4.5000 I-1.0000 J0.0000 F180.00
G1 X151.4700 Y-111.0000 Z-4.5000 F180.00
G1 X149.9700 Y-111.0000 Z-3.0000 F180.00
G1 X135.0300 Y-111.0000 Z-3.0000 F180.00
G1 X133.5300 Y-111.0000 Z-4.5000 F180.00
G1 X56.4700 Y-111.0000 Z-4.5000 F180.00
G1 X54.9700 Y-111.0000 Z-3.0000 F180.00
G1 X40.0300 Y-111.0000 Z-3.0000 F180.00
G1 X38.5300 Y-111.0000 Z-4.5000 F180.00
G1 X0.0000 Y-111.0000 Z-4.5000 F180.00
G2 X-1.0000 Y-110.0000 Z-4.5000 I0.0000 J1.0000 F180.00
G1 X-1.0000 Y-0.0000 Z-4.5000 F180.00
G2 X-0.0000 Y1.0000 Z-4.5000 I1.0000 J-0.0000 F180.00
G1 X38.5300 Y1.0000 Z-4.5000 F180.00
G1 X40.0300 Y1.0000 Z-3.0000 F180.00
G1 X54.9700 Y1.0000 Z-3.0000 F180.00
G1 X56.4700 Y1.0000 Z-4.5000 F180.00
G1 X133.5300 Y1.0000 Z-4.5000 F180.00
G1 X135.0300 Y1.0000 Z-3.0000 F180.00
G1 X149.9700 Y1.0000 Z-3.0000 F180.00
G1 X151.4700 Y1.0000 Z-4.5000 F180.00
G1 X190.0000 Y1.0000 Z-4.5000 F180.00
G2 X190.7071 Y0.7071 Z-4.5000 I-0.0000 J-1.0000 F180.00
G1 X190.7071 Y0.7071 Z-5.0000 F180.00
G2 X191.0000 Y-0.0000 Z-5.0000 I-0.7071 J-0.7071 F180.00
G1 X191.0000 Y-110.0000 Z-5.0000 F180.00
G2 X190.0000 Y-111.0000 Z-5.0000 I-1.0000 J0.0000 F180.00
G1 X151.9700 Y-111.0000 Z-5.0000 F180.00
G1 X149.9700 Y-111.0000 Z-3.0000 F180.00
G1 X135.0300 Y-111.0000 Z-3.0000 F180.00
G1 X133.0300 Y-111.0000 Z-5.0000 F180.00
G1 X56.9700 Y-111.0000 Z-5.0000 F180.00
G1 X54.9700 Y-111.0000 Z-3.0000 F180.00
G1 X40.0300 Y-111.0000 Z-3.0000 F180.00
G1 X38.0300 Y-111.0000 Z-5.0000 F180.00
G1 X0.0000 Y-111.0000 Z-5.0000 F180.00
G2 X-1.0000 Y-110.0000 Z-5.0000 I0.0000 J1.0000 F180.00
G1 X-1.0000 Y-0.0000 Z-5.0000 F180.00
G2 X-0.0000 Y1.0000 Z-5.0000 I1.0000 J-0.0000 F180.00
G1 X38.0300 Y1.0000 Z-5.0000 F180.00
G1 X40.0300 Y1.0000 Z-3.0000 F180.00
G1 X54.9700 Y1.0000 Z-3.0000 F180.00
G1 X56.9700 Y1.0000 Z-5.0000 F180.00
G1 X133.0300 Y1.0000 Z-5.0000 F180.00
G1 X135.0300 Y1.0000 Z-3.0000 F180.00
G1 X149.9700 Y1.0000 Z-3.0000 F180.00
G1 X151.9700 Y1.0000 Z-5.0000 F180.00
G1 X190.0000 Y1.0000 Z-5.0000 F180.00
G2 X190.7071 Y0.7071 Z-5.0000 I-0.0000 J-1.0000 F180.00
G1 X190.7071 Y0.7071 Z-5.5000 F180.00
G2 X191.0000 Y-0.0000 Z-5.5000 I-0.7071 J-0.7071 F180.00
G1 X191.0000 Y-110.0000 Z-5.5000 F180.00
G2 X190.0000 Y-111.0000 Z-5.5000 I-1.0000 J0.0000 F180.00
G1 X152.4700 Y-111.0000 Z-5.5000 F180.00
G1 X149.9700 Y-111.0000 Z-3.0000 F180.00
G1 X135.0300 Y-111.0000 Z-3.0000 F180.00
G1 X132.5300 Y-111.0000 Z-5.5000 F180.00
G1 X57.4700 Y-111.0000 Z-5.5000 F180.00
G1 X54.9700 Y-111.0000 Z-3.0000 F180.00
G1 X40.0300 Y-111.0000 Z-3.0000 F180.00
G1 X37.5300 Y-111.0000 Z-5.5000 F180.00
G1 X0.0000 Y-111.0000 Z-5.5000 F180.00
G2 X-1.0000 Y-110.0000 Z-5.5000 I0.0000 J1.0000 F180.00
G1 X-1.0000 Y-0.0000 Z-5.5000 F180.00
G2 X-0.0000 Y1.0000 Z-5.5000 I1.0000 J-0.0000 F180.00
G1 X37.5300 Y1.0000 Z-5.5000 F180.00
G1 X40.0300 Y1.0000 Z-3.0000 F180.00
G1 X54.9700 Y1.0000 Z-3.0000 F180.00
G1 X57.4700 Y1.0000 Z-5.5000 F180.00
G1 X132.5300 Y1.0000 Z-5.5000 F180.00
G1 X135.0300 Y1.0000 Z-3.0000 F180.00
G1 X149.9700 Y1.0000 Z-3.0000 F180.00
G1 X152.4700 Y1.0000 Z-5.5000 F180.00
G1 X190.0000 Y1.0000 Z-5.5000 F180.00
G2 X190.7071 Y0.7071 Z-5.5000 I-0.0000 J-1.0000 F180.00
G1 X190.7071 Y0.7071 Z-6.0000 F180.00
G2 X191.0000 Y-0.0000 Z-6.0000 I-0.7071 J-0.7071 F180.00
G1 X191.0000 Y-110.0000 Z-6.0000 F180.00
G2 X190.0000 Y-111.0000 Z-6.0000 I-1.0000 J0.0000 F180.00
G1 X152.9700 Y-111.0000 Z-6.0000 F180.00
G1 X149.9700 Y-111.0000 Z-3.0000 F180.00
G1 X135.0300 Y-111.0000 Z-3.0000 F180.00
G1 X132.0300 Y-111.0000 Z-6.0000 F180.00
G1 X57.9700 Y-111.0000 Z-6.0000 F180.00
G1 X54.9700 Y-111.0000 Z-3.0000 F180.00
G1 X40.0300 Y-111.0000 Z-3.0000 F180.00
G1 X37.0300 Y-111.0000 Z-6.0000 F180.00
G1 X0.0000 Y-111.0000 Z-6.0000 F180.00
G2 X-1.0000 Y-110.0000 Z-6.0000 I0.0000 J1.0000 F180.00
G1 X-1.0000 Y-0.0000 Z-6.0000 F180.00
G2 X-0.0000 Y1.0000 Z-6.0000 I1.0000 J-0.0000 F180.00
G1 X37.0300 Y1.0000 Z-6.0000 F180.00
G1 X40.0300 Y1.0000 Z-3.0000 F180.00
