(Exported by FreeCAD)
(Post Processor: grbl_post)
(Output Time:2020-11-14 18:55:11.565788)
(begin preamble)
G17 G90
G21
(begin operation: Default Tool001)
(Path: Default Tool001)
(Default Tool001)
(begin toolchange)
; M6 T1
M3 S800.0000
(finish operation: Default Tool001)
(begin operation: Pocket_Shape002)
(Path: Pocket_Shape002)
(Pocket_Shape002)
G0 Z5.0000
G0 X33.4120 Y-43.5880
G0 Z3.0000
G1 X33.4120 Y-43.5880 Z-0.5000 F180.00
G2 X33.9969 Y-45.0000 Z-0.5000 I-1.4120 J-1.4120 F180.00
G2 X30.0031 Y-45.0000 Z-0.5000 I-1.9969 J0.0000 F180.00
G2 X33.4120 Y-43.5880 Z-0.5000 I1.9969 J0.0000 F180.00
G0 X33.4120 Y-43.5880 Z5.0000
G0 X33.4120 Y-43.5880 Z5.0000
G0 X33.4120 Y-43.5880 Z2.5000
G1 X33.4120 Y-43.5880 Z-0.5000 F180.00
G3 X30.5860 Y-43.5903 Z-0.5000 I-1.4119 J-1.4115 F180.00
G1 X33.4097 Y-46.4140 Z-0.5000 F180.00
G2 X30.5860 Y-43.5903 Z-0.5000 I-1.4098 J1.4139 F180.00
G1 X30.5860 Y-43.5903 Z-1.0000 F180.00
G3 X33.4097 Y-46.4140 Z-1.0000 I1.4139 J-1.4098 F180.00
G1 X30.5860 Y-43.5903 Z-1.0000 F180.00
G2 X33.4120 Y-43.5880 Z-1.0000 I1.4142 J-1.4091 F180.00
G0 X33.4120 Y-43.5880 Z5.0000
G0 X33.4120 Y-43.5880 Z5.0000
G0 X33.4120 Y-43.5880 Z2.0000
G1 X33.4120 Y-43.5880 Z-1.0000 F180.00
G2 X33.9969 Y-45.0000 Z-1.0000 I-1.4120 J-1.4120 F180.00
G2 X30.0031 Y-45.0000 Z-1.0000 I-1.9969 J0.0000 F180.00
G2 X33.4120 Y-43.5880 Z-1.0000 I1.9969 J0.0000 F180.00
G1 X33.4120 Y-43.5880 Z-1.5000 F180.00
G2 X33.9969 Y-45.0000 Z-1.5000 I-1.4120 J-1.4120 F180.00
G2 X30.0031 Y-45.0000 Z-1.5000 I-1.9969 J0.0000 F180.00
G2 X33.4120 Y-43.5880 Z-1.5000 I1.9969 J0.0000 F180.00
G0 X33.4120 Y-43.5880 Z5.0000
G0 X33.4120 Y-43.5880 Z5.0000
G0 X33.4120 Y-43.5880 Z1.5000
G1 X33.4120 Y-43.5880 Z-1.5000 F180.00
G3 X30.5860 Y-43.5903 Z-1.5000 I-1.4119 J-1.4115 F180.00
G1 X33.4097 Y-46.4140 Z-1.5000 F180.00
G2 X30.5860 Y-43.5903 Z-1.5000 I-1.4098 J1.4139 F180.00
G1 X30.5860 Y-43.5903 Z-1.8000 F180.00
G3 X33.4097 Y-46.4140 Z-1.8000 I1.4139 J-1.4098 F180.00
G1 X30.5860 Y-43.5903 Z-1.8000 F180.00
G2 X33.4120 Y-43.5880 Z-1.8000 I1.4142 J-1.4091 F180.00
G0 X33.4120 Y-43.5880 Z5.0000
G0 X33.4120 Y-43.5880 Z5.0000
G0 X33.4120 Y-43.5880 Z1.2000
G1 X33.4120 Y-43.5880 Z-1.8000 F180.00
G2 X33.9969 Y-45.0000 Z-1.8000 I-1.4120 J-1.4120 F180.00
G2 X30.0031 Y-45.0000 Z-1.8000 I-1.9969 J0.0000 F180.00
G2 X33.4120 Y-43.5880 Z-1.8000 I1.9969 J0.0000 F180.00
G0 Z5.0000
G0 X5.4120 Y-43.5880
G0 Z3.0000
G1 X5.4120 Y-43.5880 Z-0.5000 F180.00
G2 X5.9969 Y-45.0000 Z-0.5000 I-1.4120 J-1.4120 F180.00
G2 X2.0031 Y-45.0000 Z-0.5000 I-1.9969 J0.0000 F180.00
G2 X5.4120 Y-43.5880 Z-0.5000 I1.9969 J0.0000 F180.00
G0 X5.4120 Y-43.5880 Z5.0000
G0 X5.4120 Y-43.5880 Z5.0000
G0 X5.4120 Y-43.5880 Z2.5000
G1 X5.4120 Y-43.5880 Z-0.5000 F180.00
G3 X2.5860 Y-43.5903 Z-0.5000 I-1.4119 J-1.4115 F180.00
G1 X5.4097 Y-46.4140 Z-0.5000 F180.00
G2 X2.5860 Y-43.5903 Z-0.5000 I-1.4098 J1.4139 F180.00
G1 X2.5860 Y-43.5903 Z-1.0000 F180.00
G3 X5.4097 Y-46.4140 Z-1.0000 I1.4139 J-1.4098 F180.00
G1 X2.5860 Y-43.5903 Z-1.0000 F180.00
G2 X5.4120 Y-43.5880 Z-1.0000 I1.4142 J-1.4091 F180.00
G0 X5.4120 Y-43.5880 Z5.0000
G0 X5.4120 Y-43.5880 Z5.0000
G0 X5.4120 Y-43.5880 Z2.0000
G1 X5.4120 Y-43.5880 Z-1.0000 F180.00
G2 X5.9969 Y-45.0000 Z-1.0000 I-1.4120 J-1.4120 F180.00
G2 X2.0031 Y-45.0000 Z-1.0000 I-1.9969 J0.0000 F180.00
G2 X5.4120 Y-43.5880 Z-1.0000 I1.9969 J0.0000 F180.00
G1 X5.4120 Y-43.5880 Z-1.5000 F180.00
G2 X5.9969 Y-45.0000 Z-1.5000 I-1.4120 J-1.4120 F180.00
G2 X2.0031 Y-45.0000 Z-1.5000 I-1.9969 J0.0000 F180.00
G2 X5.4120 Y-43.5880 Z-1.5000 I1.9969 J0.0000 F180.00
G0 X5.4120 Y-43.5880 Z5.0000
G0 X5.4120 Y-43.5880 Z5.0000
G0 X5.4120 Y-43.5880 Z1.5000
G1 X5.4120 Y-43.5880 Z-1.5000 F180.00
G3 X2.5860 Y-43.5903 Z-1.5000 I-1.4119 J-1.4115 F180.00
G1 X5.4097 Y-46.4140 Z-1.5000 F180.00
G2 X2.5860 Y-43.5903 Z-1.5000 I-1.4098 J1.4139 F180.00
G1 X2.5860 Y-43.5903 Z-1.8000 F180.00
G3 X5.4097 Y-46.4140 Z-1.8000 I1.4139 J-1.4098 F180.00
G1 X2.5860 Y-43.5903 Z-1.8000 F180.00
G2 X5.4120 Y-43.5880 Z-1.8000 I1.4142 J-1.4091 F180.00
G0 X5.4120 Y-43.5880 Z5.0000
G0 X5.4120 Y-43.5880 Z5.0000
G0 X5.4120 Y-43.5880 Z1.2000
G1 X5.4120 Y-43.5880 Z-1.8000 F180.00
G2 X5.9969 Y-45.0000 Z-1.8000 I-1.4120 J-1.4120 F180.00
G2 X2.0031 Y-45.0000 Z-1.8000 I-1.9969 J0.0000 F180.00
G2 X5.4120 Y-43.5880 Z-1.8000 I1.9969 J0.0000 F180.00
G0 Z5.0000
G0 X5.4120 Y-3.5880
G0 Z3.0000
G1 X5.4120 Y-3.5880 Z-0.5000 F180.00
G2 X4.0000 Y-6.9969 Z-0.5000 I-1.4120 J-1.4120 F180.00
G2 X4.0000 Y-3.0031 Z-0.5000 I0.0000 J1.9969 F180.00
G2 X5.4120 Y-3.5880 Z-0.5000 I0.0000 J-1.9969 F180.00
G0 X5.4120 Y-3.5880 Z5.0000
G0 X5.4097 Y-3.5860 Z5.0000
G0 X5.4097 Y-3.5860 Z2.5000
G1 X5.4097 Y-3.5860 Z-0.5000 F180.00
G3 X2.5860 Y-6.4097 Z-0.5000 I-1.4098 J-1.4139 F180.00
G1 X5.4097 Y-3.5860 Z-0.5000 F180.00
G2 X5.4120 Y-6.4120 Z-0.5000 I-1.4091 J-1.4142 F180.00
G1 X5.4120 Y-6.4120 Z-1.0000 F180.00
G3 X5.4097 Y-3.5860 Z-1.0000 I-1.4115 J1.4119 F180.00
G1 X2.5860 Y-6.4097 Z-1.0000 F180.00
G2 X5.4097 Y-3.5860 Z-1.0000 I1.4139 J1.4098 F180.00
G0 X5.4097 Y-3.5860 Z5.0000
G0 X5.4098 Y-3.5858 Z5.0000
G0 X5.4098 Y-3.5858 Z2.0000
G1 X5.4098 Y-3.5858 Z-1.0000 F180.00
G2 X4.0000 Y-6.9969 Z-1.0000 I-1.4098 J-1.4142 F180.00
G2 X4.0000 Y-3.0031 Z-1.0000 I0.0000 J1.9969 F180.00
G2 X5.4098 Y-3.5858 Z-1.0000 I0.0000 J-1.9969 F180.00
G1 X5.4098 Y-3.5858 Z-1.5000 F180.00
G2 X4.0000 Y-6.9969 Z-1.5000 I-1.4098 J-1.4142 F180.00
G2 X4.0000 Y-3.0031 Z-1.5000 I0.0000 J1.9969 F180.00
G2 X5.4098 Y-3.5858 Z-1.5000 I0.0000 J-1.9969 F180.00
G0 X5.4098 Y-3.5858 Z5.0000
G0 X5.4097 Y-3.5860 Z5.0000
G0 X5.4097 Y-3.5860 Z1.5000
G1 X5.4097 Y-3.5860 Z-1.5000 F180.00
G3 X2.5860 Y-6.4097 Z-1.5000 I-1.4098 J-1.4139 F180.00
G1 X5.4097 Y-3.5860 Z-1.5000 F180.00
G2 X5.4120 Y-6.4120 Z-1.5000 I-1.4091 J-1.4142 F180.00
G1 X5.4120 Y-6.4120 Z-1.8000 F180.00
G3 X5.4097 Y-3.5860 Z-1.8000 I-1.4115 J1.4119 F180.00
G1 X2.5860 Y-6.4097 Z-1.8000 F180.00
G2 X5.4097 Y-3.5860 Z-1.8000 I1.4139 J1.4098 F180.00
G0 X5.4097 Y-3.5860 Z5.0000
G0 X5.4098 Y-3.5858 Z5.0000
G0 X5.4098 Y-3.5858 Z1.2000
G1 X5.4098 Y-3.5858 Z-1.8000 F180.00
G2 X4.0000 Y-6.9969 Z-1.8000 I-1.4098 J-1.4142 F180.00
G2 X4.0000 Y-3.0031 Z-1.8000 I0.0000 J1.9969 F180.00
G2 X5.4098 Y-3.5858 Z-1.8000 I0.0000 J-1.9969 F180.00
G0 Z5.0000
G0 X33.4120 Y-3.5880
G0 Z3.0000
G1 X33.4120 Y-3.5880 Z-0.5000 F180.00
G2 X32.0000 Y-6.9969 Z-0.5000 I-1.4120 J-1.4120 F180.00
G2 X32.0000 Y-3.0031 Z-0.5000 I0.0000 J1.9969 F180.00
G2 X33.4120 Y-3.5880 Z-0.5000 I0.0000 J-1.9969 F180.00
G0 X33.4120 Y-3.5880 Z5.0000
G0 X33.4097 Y-3.5860 Z5.0000
G0 X33.4097 Y-3.5860 Z2.5000
G1 X33.4097 Y-3.5860 Z-0.5000 F180.00
G3 X30.5860 Y-6.4097 Z-0.5000 I-1.4098 J-1.4139 F180.00
G1 X33.4097 Y-3.5860 Z-0.5000 F180.00
G2 X33.4120 Y-6.4120 Z-0.5000 I-1.4091 J-1.4142 F180.00
G1 X33.4120 Y-6.4120 Z-1.0000 F180.00
G3 X33.4097 Y-3.5860 Z-1.0000 I-1.4115 J1.4119 F180.00
G1 X30.5860 Y-6.4097 Z-1.0000 F180.00
G2 X33.4097 Y-3.5860 Z-1.0000 I1.4139 J1.4098 F180.00
G0 X33.4097 Y-3.5860 Z5.0000
G0 X33.4098 Y-3.5858 Z5.0000
G0 X33.4098 Y-3.5858 Z2.0000
G1 X33.4098 Y-3.5858 Z-1.0000 F180.00
G2 X32.0000 Y-6.9969 Z-1.0000 I-1.4098 J-1.4142 F180.00
G2 X32.0000 Y-3.0031 Z-1.0000 I0.0000 J1.9969 F180.00
G2 X33.4098 Y-3.5858 Z-1.0000 I0.0000 J-1.9969 F180.00
G1 X33.4098 Y-3.5858 Z-1.5000 F180.00
G2 X32.0000 Y-6.9969 Z-1.5000 I-1.4098 J-1.4142 F180.00
G2 X32.0000 Y-3.0031 Z-1.5000 I0.0000 J1.9969 F180.00
G2 X33.4098 Y-3.5858 Z-1.5000 I0.0000 J-1.9969 F180.00
G0 X33.4098 Y-3.5858 Z5.0000
G0 X33.4097 Y-3.5860 Z5.0000
G0 X33.4097 Y-3.5860 Z1.5000
G1 X33.4097 Y-3.5860 Z-1.5000 F180.00
G3 X30.5860 Y-6.4097 Z-1.5000 I-1.4098 J-1.4139 F180.00
G1 X33.4097 Y-3.5860 Z-1.5000 F180.00
G2 X33.4120 Y-6.4120 Z-1.5000 I-1.4091 J-1.4142 F180.00
G1 X33.4120 Y-6.4120 Z-1.8000 F180.00
G3 X33.4097 Y-3.5860 Z-1.8000 I-1.4115 J1.4119 F180.00
G1 X30.5860 Y-6.4097 Z-1.8000 F180.00
G2 X33.4097 Y-3.5860 Z-1.8000 I1.4139 J1.4098 F180.00
G0 X33.4097 Y-3.5860 Z5.0000
G0 X33.4098 Y-3.5858 Z5.0000
G0 X33.4098 Y-3.5858 Z1.2000
G1 X33.4098 Y-3.5858 Z-1.8000 F180.00
G2 X32.0000 Y-6.9969 Z-1.8000 I-1.4098 J-1.4142 F180.00
G2 X32.0000 Y-3.0031 Z-1.8000 I0.0000 J1.9969 F180.00
G2 X33.4098 Y-3.5858 Z-1.8000 I0.0000 J-1.9969 F180.00
G0 Z5.0000
(finish operation: Pocket_Shape002)
(begin operation: Pocket_Shape003)
(Path: Pocket_Shape003)
(Pocket_Shape003)
G0 Z5.0000
G0 X32.4557 Y-4.5443
G0 Z3.0000
G1 X32.4557 Y-4.5443 Z-0.5000 F180.00
G2 X32.0674 Y-5.6410 Z-0.5000 I-0.4557 J-0.4557 F180.00
G2 X31.9326 Y-4.3590 Z-0.5000 I-0.0674 J0.6410 F180.00
G2 X32.4557 Y-4.5443 Z-0.5000 I0.0674 J-0.6410 F180.00
G0 X32.4557 Y-4.5443 Z5.0000
G0 X32.4557 Y-4.5443 Z5.0000
G0 X32.4557 Y-4.5443 Z2.5000
G1 X32.4557 Y-4.5443 Z-0.5000 F180.00
G2 X32.5214 Y-5.3788 Z-0.5000 I-0.4557 J-0.4557 F180.00
G2 X31.4786 Y-4.6212 Z-0.5000 I-0.5214 J0.3788 F180.00
G2 X32.4557 Y-4.5443 Z-0.5000 I0.5214 J-0.3788 F180.00
G1 X32.4557 Y-4.5443 Z-1.0000 F180.00
G2 X32.5214 Y-5.3788 Z-1.0000 I-0.4557 J-0.4557 F180.00
G2 X31.4786 Y-4.6212 Z-1.0000 I-0.5214 J0.3788 F180.00
G2 X32.4557 Y-4.5443 Z-1.0000 I0.5214 J-0.3788 F180.00
G0 X32.4557 Y-4.5443 Z5.0000
G0 X32.4557 Y-4.5443 Z5.0000
G0 X32.4557 Y-4.5443 Z2.0000
G1 X32.4557 Y-4.5443 Z-1.0000 F180.00
G2 X32.0674 Y-5.6410 Z-1.0000 I-0.4557 J-0.4557 F180.00
G2 X31.9326 Y-4.3590 Z-1.0000 I-0.0674 J0.6410 F180.00
G2 X32.4557 Y-4.5443 Z-1.0000 I0.0674 J-0.6410 F180.00
G1 X32.4557 Y-4.5443 Z-1.5000 F180.00
G2 X32.0674 Y-5.6410 Z-1.5000 I-0.4557 J-0.4557 F180.00
G2 X31.9326 Y-4.3590 Z-1.5000 I-0.0674 J0.6410 F180.00
G2 X32.4557 Y-4.5443 Z-1.5000 I0.0674 J-0.6410 F180.00
G0 X32.4557 Y-4.5443 Z5.0000
G0 X32.4557 Y-4.5443 Z5.0000
G0 X32.4557 Y-4.5443 Z1.5000
G1 X32.4557 Y-4.5443 Z-1.5000 F180.00
G2 X32.5214 Y-5.3788 Z-1.5000 I-0.4557 J-0.4557 F180.00
G2 X31.4786 Y-4.6212 Z-1.5000 I-0.5214 J0.3788 F180.00
G2 X32.4557 Y-4.5443 Z-1.5000 I0.5214 J-0.3788 F180.00
G1 X32.4557 Y-4.5443 Z-2.0000 F180.00
G2 X32.5214 Y-5.3788 Z-2.0000 I-0.4557 J-0.4557 F180.00
G2 X31.4786 Y-4.6212 Z-2.0000 I-0.5214 J0.3788 F180.00
G2 X32.4557 Y-4.5443 Z-2.0000 I0.5214 J-0.3788 F180.00
G0 X32.4557 Y-4.5443 Z5.0000
G0 X32.4557 Y-4.5443 Z5.0000
G0 X32.4557 Y-4.5443 Z1.0000
G1 X32.4557 Y-4.5443 Z-2.0000 F180.00
G2 X32.0674 Y-5.6410 Z-2.0000 I-0.4557 J-0.4557 F180.00
G2 X31.9326 Y-4.3590 Z-2.0000 I-0.0674 J0.6410 F180.00
G2 X32.4557 Y-4.5443 Z-2.0000 I0.0674 J-0.6410 F180.00
G1 X32.4557 Y-4.5443 Z-2.5000 F180.00
G2 X32.0674 Y-5.6410 Z-2.5000 I-0.4557 J-0.4557 F180.00
G2 X31.9326 Y-4.3590 Z-2.5000 I-0.0674 J0.6410 F180.00
G2 X32.4557 Y-4.5443 Z-2.5000 I0.0674 J-0.6410 F180.00
G0 X32.4557 Y-4.5443 Z5.0000
G0 X32.4557 Y-4.5443 Z5.0000
G0 X32.4557 Y-4.5443 Z0.5000
G1 X32.4557 Y-4.5443 Z-2.5000 F180.00
G2 X32.5214 Y-5.3788 Z-2.5000 I-0.4557 J-0.4557 F180.00
G2 X31.4786 Y-4.6212 Z-2.5000 I-0.5214 J0.3788 F180.00
G2 X32.4557 Y-4.5443 Z-2.5000 I0.5214 J-0.3788 F180.00
G1 X32.4557 Y-4.5443 Z-3.0000 F180.00
G2 X32.5214 Y-5.3788 Z-3.0000 I-0.4557 J-0.4557 F180.00
G2 X31.4786 Y-4.6212 Z-3.0000 I-0.5214 J0.3788 F180.00
G2 X32.4557 Y-4.5443 Z-3.0000 I0.5214 J-0.3788 F180.00
G0 X32.4557 Y-4.5443 Z5.0000
G0 X32.4557 Y-4.5443 Z5.0000
G0 X32.4557 Y-4.5443 Z0.0000
G1 X32.4557 Y-4.5443 Z-3.0000 F180.00
G2 X32.0674 Y-5.6410 Z-3.0000 I-0.4557 J-0.4557 F180.00
G2 X31.9326 Y-4.3590 Z-3.0000 I-0.0674 J0.6410 F180.00
G2 X32.4557 Y-4.5443 Z-3.0000 I0.0674 J-0.6410 F180.00
G1 X32.4557 Y-4.5443 Z-3.5000 F180.00
G2 X32.0674 Y-5.6410 Z-3.5000 I-0.4557 J-0.4557 F180.00
G2 X31.9326 Y-4.3590 Z-3.5000 I-0.0674 J0.6410 F180.00
G2 X32.4557 Y-4.5443 Z-3.5000 I0.0674 J-0.6410 F180.00
G0 X32.4557 Y-4.5443 Z5.0000
G0 X32.4557 Y-4.5443 Z5.0000
G0 X32.4557 Y-4.5443 Z-0.5000
G1 X32.4557 Y-4.5443 Z-3.5000 F180.00
G2 X32.5214 Y-5.3788 Z-3.5000 I-0.4557 J-0.4557 F180.00
G2 X31.4786 Y-4.6212 Z-3.5000 I-0.5214 J0.3788 F180.00
G2 X32.4557 Y-4.5443 Z-3.5000 I0.5214 J-0.3788 F180.00
G1 X32.4557 Y-4.5443 Z-4.0000 F180.00
G2 X32.5214 Y-5.3788 Z-4.0000 I-0.4557 J-0.4557 F180.00
G2 X31.4786 Y-4.6212 Z-4.0000 I-0.5214 J0.3788 F180.00
G2 X32.4557 Y-4.5443 Z-4.0000 I0.5214 J-0.3788 F180.00
G0 X32.4557 Y-4.5443 Z5.0000
G0 X32.4557 Y-4.5443 Z5.0000
G0 X32.4557 Y-4.5443 Z-1.0000
G1 X32.4557 Y-4.5443 Z-4.0000 F180.00
G2 X32.0674 Y-5.6410 Z-4.0000 I-0.4557 J-0.4557 F180.00
G2 X31.9326 Y-4.3590 Z-4.0000 I-0.0674 J0.6410 F180.00
G2 X32.4557 Y-4.5443 Z-4.0000 I0.0674 J-0.6410 F180.00
G1 X32.4557 Y-4.5443 Z-4.5000 F180.00
G2 X32.0674 Y-5.6410 Z-4.5000 I-0.4557 J-0.4557 F180.00
G2 X31.9326 Y-4.3590 Z-4.5000 I-0.0674 J0.6410 F180.00
G2 X32.4557 Y-4.5443 Z-4.5000 I0.0674 J-0.6410 F180.00
G0 X32.4557 Y-4.5443 Z5.0000
G0 X32.4557 Y-4.5443 Z5.0000
G0 X32.4557 Y-4.5443 Z-1.5000
G1 X32.4557 Y-4.5443 Z-4.5000 F180.00
G2 X32.5214 Y-5.3788 Z-4.5000 I-0.4557 J-0.4557 F180.00
G2 X31.4786 Y-4.6212 Z-4.5000 I-0.5214 J0.3788 F180.00
G2 X32.4557 Y-4.5443 Z-4.5000 I0.5214 J-0.3788 F180.00
G1 X32.4557 Y-4.5443 Z-5.0000 F180.00
G2 X32.5214 Y-5.3788 Z-5.0000 I-0.4557 J-0.4557 F180.00
G2 X31.4786 Y-4.6212 Z-5.0000 I-0.5214 J0.3788 F180.00
G2 X32.4557 Y-4.5443 Z-5.0000 I0.5214 J-0.3788 F180.00
G0 X32.4557 Y-4.5443 Z5.0000
G0 X32.4557 Y-4.5443 Z5.0000
G0 X32.4557 Y-4.5443 Z-2.0000
G1 X32.4557 Y-4.5443 Z-5.0000 F180.00
G2 X32.0674 Y-5.6410 Z-5.0000 I-0.4557 J-0.4557 F180.00
G2 X31.9326 Y-4.3590 Z-5.0000 I-0.0674 J0.6410 F180.00
G2 X32.4557 Y-4.5443 Z-5.0000 I0.0674 J-0.6410 F180.00
G1 X32.4557 Y-4.5443 Z-5.5000 F180.00
G2 X32.0674 Y-5.6410 Z-5.5000 I-0.4557 J-0.4557 F180.00
G2 X31.9326 Y-4.3590 Z-5.5000 I-0.0674 J0.6410 F180.00
G2 X32.4557 Y-4.5443 Z-5.5000 I0.0674 J-0.6410 F180.00
G0 X32.4557 Y-4.5443 Z5.0000
G0 X32.4557 Y-4.5443 Z5.0000
G0 X32.4557 Y-4.5443 Z-2.5000
G1 X32.4557 Y-4.5443 Z-5.5000 F180.00
G2 X32.5214 Y-5.3788 Z-5.5000 I-0.4557 J-0.4557 F180.00
G2 X31.4786 Y-4.6212 Z-5.5000 I-0.5214 J0.3788 F180.00
G2 X32.4557 Y-4.5443 Z-5.5000 I0.5214 J-0.3788 F180.00
G1 X32.4557 Y-4.5443 Z-6.0000 F180.00
G2 X32.5214 Y-5.3788 Z-6.0000 I-0.4557 J-0.4557 F180.00
G2 X31.4786 Y-4.6212 Z-6.0000 I-0.5214 J0.3788 F180.00
G2 X32.4557 Y-4.5443 Z-6.0000 I0.5214 J-0.3788 F180.00
G0 X32.4557 Y-4.5443 Z5.0000
G0 X32.4557 Y-4.5443 Z5.0000
G0 X32.4557 Y-4.5443 Z-3.0000
G1 X32.4557 Y-4.5443 Z-6.0000 F180.00
G2 X32.0674 Y-5.6410 Z-6.0000 I-0.4557 J-0.4557 F180.00
G2 X31.9326 Y-4.3590 Z-6.0000 I-0.0674 J0.6410 F180.00
G2 X32.4557 Y-4.5443 Z-6.0000 I0.0674 J-0.6410 F180.00
G0 Z5.0000
G0 X4.4557 Y-4.5443
G0 Z3.0000
G1 X4.4557 Y-4.5443 Z-0.5000 F180.00
G2 X4.0674 Y-5.6410 Z-0.5000 I-0.4557 J-0.4557 F180.00
G2 X3.9326 Y-4.3590 Z-0.5000 I-0.0674 J0.6410 F180.00
G2 X4.4557 Y-4.5443 Z-0.5000 I0.0674 J-0.6410 F180.00
G0 X4.4557 Y-4.5443 Z5.0000
G0 X4.4557 Y-4.5443 Z5.0000
G0 X4.4557 Y-4.5443 Z2.5000
G1 X4.4557 Y-4.5443 Z-0.5000 F180.00
G2 X4.5214 Y-5.3788 Z-0.5000 I-0.4557 J-0.4557 F180.00
G2 X3.4786 Y-4.6212 Z-0.5000 I-0.5214 J0.3788 F180.00
G2 X4.4557 Y-4.5443 Z-0.5000 I0.5214 J-0.3788 F180.00
G1 X4.4557 Y-4.5443 Z-1.0000 F180.00
G2 X4.5214 Y-5.3788 Z-1.0000 I-0.4557 J-0.4557 F180.00
G2 X3.4786 Y-4.6212 Z-1.0000 I-0.5214 J0.3788 F180.00
G2 X4.4557 Y-4.5443 Z-1.0000 I0.5214 J-0.3788 F180.00
G0 X4.4557 Y-4.5443 Z5.0000
G0 X4.4557 Y-4.5443 Z5.0000
G0 X4.4557 Y-4.5443 Z2.0000
G1 X4.4557 Y-4.5443 Z-1.0000 F180.00
G2 X4.0674 Y-5.6410 Z-1.0000 I-0.4557 J-0.4557 F180.00
G2 X3.9326 Y-4.3590 Z-1.0000 I-0.0674 J0.6410 F180.00
G2 X4.4557 Y-4.5443 Z-1.0000 I0.0674 J-0.6410 F180.00
G1 X4.4557 Y-4.5443 Z-1.5000 F180.00
G2 X4.0674 Y-5.6410 Z-1.5000 I-0.4557 J-0.4557 F180.00
G2 X3.9326 Y-4.3590 Z-1.5000 I-0.0674 J0.6410 F180.00
G2 X4.4557 Y-4.5443 Z-1.5000 I0.0674 J-0.6410 F180.00
G0 X4.4557 Y-4.5443 Z5.0000
G0 X4.4557 Y-4.5443 Z5.0000
G0 X4.4557 Y-4.5443 Z1.5000
G1 X4.4557 Y-4.5443 Z-1.5000 F180.00
G2 X4.5214 Y-5.3788 Z-1.5000 I-0.4557 J-0.4557 F180.00
G2 X3.4786 Y-4.6212 Z-1.5000 I-0.5214 J0.3788 F180.00
G2 X4.4557 Y-4.5443 Z-1.5000 I0.5214 J-0.3788 F180.00
G1 X4.4557 Y-4.5443 Z-2.0000 F180.00
G2 X4.5214 Y-5.3788 Z-2.0000 I-0.4557 J-0.4557 F180.00
G2 X3.4786 Y-4.6212 Z-2.0000 I-0.5214 J0.3788 F180.00
G2 X4.4557 Y-4.5443 Z-2.0000 I0.5214 J-0.3788 F180.00
G0 X4.4557 Y-4.5443 Z5.0000
G0 X4.4557 Y-4.5443 Z5.0000
G0 X4.4557 Y-4.5443 Z1.0000
G1 X4.4557 Y-4.5443 Z-2.0000 F180.00
G2 X4.0674 Y-5.6410 Z-2.0000 I-0.4557 J-0.4557 F180.00
G2 X3.9326 Y-4.3590 Z-2.0000 I-0.0674 J0.6410 F180.00
G2 X4.4557 Y-4.5443 Z-2.0000 I0.0674 J-0.6410 F180.00
G1 X4.4557 Y-4.5443 Z-2.5000 F180.00
G2 X4.0674 Y-5.6410 Z-2.5000 I-0.4557 J-0.4557 F180.00
G2 X3.9326 Y-4.3590 Z-2.5000 I-0.0674 J0.6410 F180.00
G2 X4.4557 Y-4.5443 Z-2.5000 I0.0674 J-0.6410 F180.00
G0 X4.4557 Y-4.5443 Z5.0000
G0 X4.4557 Y-4.5443 Z5.0000
G0 X4.4557 Y-4.5443 Z0.5000
G1 X4.4557 Y-4.5443 Z-2.5000 F180.00
G2 X4.5214 Y-5.3788 Z-2.5000 I-0.4557 J-0.4557 F180.00
G2 X3.4786 Y-4.6212 Z-2.5000 I-0.5214 J0.3788 F180.00
G2 X4.4557 Y-4.5443 Z-2.5000 I0.5214 J-0.3788 F180.00
G1 X4.4557 Y-4.5443 Z-3.0000 F180.00
G2 X4.5214 Y-5.3788 Z-3.0000 I-0.4557 J-0.4557 F180.00
G2 X3.4786 Y-4.6212 Z-3.0000 I-0.5214 J0.3788 F180.00
G2 X4.4557 Y-4.5443 Z-3.0000 I0.5214 J-0.3788 F180.00
G0 X4.4557 Y-4.5443 Z5.0000
G0 X4.4557 Y-4.5443 Z5.0000
G0 X4.4557 Y-4.5443 Z0.0000
G1 X4.4557 Y-4.5443 Z-3.0000 F180.00
G2 X4.0674 Y-5.6410 Z-3.0000 I-0.4557 J-0.4557 F180.00
G2 X3.9326 Y-4.3590 Z-3.0000 I-0.0674 J0.6410 F180.00
G2 X4.4557 Y-4.5443 Z-3.0000 I0.0674 J-0.6410 F180.00
G1 X4.4557 Y-4.5443 Z-3.5000 F180.00
G2 X4.0674 Y-5.6410 Z-3.5000 I-0.4557 J-0.4557 F180.00
G2 X3.9326 Y-4.3590 Z-3.5000 I-0.0674 J0.6410 F180.00
G2 X4.4557 Y-4.5443 Z-3.5000 I0.0674 J-0.6410 F180.00
G0 X4.4557 Y-4.5443 Z5.0000
G0 X4.4557 Y-4.5443 Z5.0000
G0 X4.4557 Y-4.5443 Z-0.5000
G1 X4.4557 Y-4.5443 Z-3.5000 F180.00
G2 X4.5214 Y-5.3788 Z-3.5000 I-0.4557 J-0.4557 F180.00
G2 X3.4786 Y-4.6212 Z-3.5000 I-0.5214 J0.3788 F180.00
G2 X4.4557 Y-4.5443 Z-3.5000 I0.5214 J-0.3788 F180.00
G1 X4.4557 Y-4.5443 Z-4.0000 F180.00
G2 X4.5214 Y-5.3788 Z-4.0000 I-0.4557 J-0.4557 F180.00
G2 X3.4786 Y-4.6212 Z-4.0000 I-0.5214 J0.3788 F180.00
G2 X4.4557 Y-4.5443 Z-4.0000 I0.5214 J-0.3788 F180.00
G0 X4.4557 Y-4.5443 Z5.0000
G0 X4.4557 Y-4.5443 Z5.0000
G0 X4.4557 Y-4.5443 Z-1.0000
G1 X4.4557 Y-4.5443 Z-4.0000 F180.00
G2 X4.0674 Y-5.6410 Z-4.0000 I-0.4557 J-0.4557 F180.00
G2 X3.9326 Y-4.3590 Z-4.0000 I-0.0674 J0.6410 F180.00
G2 X4.4557 Y-4.5443 Z-4.0000 I0.0674 J-0.6410 F180.00
G1 X4.4557 Y-4.5443 Z-4.5000 F180.00
G2 X4.0674 Y-5.6410 Z-4.5000 I-0.4557 J-0.4557 F180.00
G2 X3.9326 Y-4.3590 Z-4.5000 I-0.0674 J0.6410 F180.00
G2 X4.4557 Y-4.5443 Z-4.5000 I0.0674 J-0.6410 F180.00
G0 X4.4557 Y-4.5443 Z5.0000
G0 X4.4557 Y-4.5443 Z5.0000
G0 X4.4557 Y-4.5443 Z-1.5000
G1 X4.4557 Y-4.5443 Z-4.5000 F180.00
G2 X4.5214 Y-5.3788 Z-4.5000 I-0.4557 J-0.4557 F180.00
G2 X3.4786 Y-4.6212 Z-4.5000 I-0.5214 J0.3788 F180.00
G2 X4.4557 Y-4.5443 Z-4.5000 I0.5214 J-0.3788 F180.00
G1 X4.4557 Y-4.5443 Z-5.0000 F180.00
G2 X4.5214 Y-5.3788 Z-5.0000 I-0.4557 J-0.4557 F180.00
G2 X3.4786 Y-4.6212 Z-5.0000 I-0.5214 J0.3788 F180.00
G2 X4.4557 Y-4.5443 Z-5.0000 I0.5214 J-0.3788 F180.00
G0 X4.4557 Y-4.5443 Z5.0000
G0 X4.4557 Y-4.5443 Z5.0000
G0 X4.4557 Y-4.5443 Z-2.0000
G1 X4.4557 Y-4.5443 Z-5.0000 F180.00
G2 X4.0674 Y-5.6410 Z-5.0000 I-0.4557 J-0.4557 F180.00
G2 X3.9326 Y-4.3590 Z-5.0000 I-0.0674 J0.6410 F180.00
G2 X4.4557 Y-4.5443 Z-5.0000 I0.0674 J-0.6410 F180.00
G1 X4.4557 Y-4.5443 Z-5.5000 F180.00
G2 X4.0674 Y-5.6410 Z-5.5000 I-0.4557 J-0.4557 F180.00
G2 X3.9326 Y-4.3590 Z-5.5000 I-0.0674 J0.6410 F180.00
G2 X4.4557 Y-4.5443 Z-5.5000 I0.0674 J-0.6410 F180.00
G0 X4.4557 Y-4.5443 Z5.0000
G0 X4.4557 Y-4.5443 Z5.0000
G0 X4.4557 Y-4.5443 Z-2.5000
G1 X4.4557 Y-4.5443 Z-5.5000 F180.00
G2 X4.5214 Y-5.3788 Z-5.5000 I-0.4557 J-0.4557 F180.00
G2 X3.4786 Y-4.6212 Z-5.5000 I-0.5214 J0.3788 F180.00
G2 X4.4557 Y-4.5443 Z-5.5000 I0.5214 J-0.3788 F180.00
G1 X4.4557 Y-4.5443 Z-6.0000 F180.00
G2 X4.5214 Y-5.3788 Z-6.0000 I-0.4557 J-0.4557 F180.00
G2 X3.4786 Y-4.6212 Z-6.0000 I-0.5214 J0.3788 F180.00
G2 X4.4557 Y-4.5443 Z-6.0000 I0.5214 J-0.3788 F180.00
G0 X4.4557 Y-4.5443 Z5.0000
G0 X4.4557 Y-4.5443 Z5.0000
G0 X4.4557 Y-4.5443 Z-3.0000
G1 X4.4557 Y-4.5443 Z-6.0000 F180.00
G2 X4.0674 Y-5.6410 Z-6.0000 I-0.4557 J-0.4557 F180.00
G2 X3.9326 Y-4.3590 Z-6.0000 I-0.0674 J0.6410 F180.00
G2 X4.4557 Y-4.5443 Z-6.0000 I0.0674 J-0.6410 F180.00
G0 Z5.0000
G0 X32.4557 Y-44.5443
G0 Z3.0000
G1 X32.4557 Y-44.5443 Z-0.5000 F180.00
G2 X32.0674 Y-45.6410 Z-0.5000 I-0.4557 J-0.4557 F180.00
G2 X31.9326 Y-44.3590 Z-0.5000 I-0.0674 J0.6410 F180.00
G2 X32.4557 Y-44.5443 Z-0.5000 I0.0674 J-0.6410 F180.00
G0 X32.4557 Y-44.5443 Z5.0000
G0 X32.4557 Y-44.5443 Z5.0000
G0 X32.4557 Y-44.5443 Z2.5000
G1 X32.4557 Y-44.5443 Z-0.5000 F180.00
G2 X32.5214 Y-45.3788 Z-0.5000 I-0.4557 J-0.4557 F180.00
G2 X31.4786 Y-44.6212 Z-0.5000 I-0.5214 J0.3788 F180.00
G2 X32.4557 Y-44.5443 Z-0.5000 I0.5214 J-0.3788 F180.00
G1 X32.4557 Y-44.5443 Z-1.0000 F180.00
G2 X32.5214 Y-45.3788 Z-1.0000 I-0.4557 J-0.4557 F180.00
G2 X31.4786 Y-44.6212 Z-1.0000 I-0.5214 J0.3788 F180.00
G2 X32.4557 Y-44.5443 Z-1.0000 I0.5214 J-0.3788 F180.00
G0 X32.4557 Y-44.5443 Z5.0000
G0 X32.4557 Y-44.5443 Z5.0000
G0 X32.4557 Y-44.5443 Z2.0000
G1 X32.4557 Y-44.5443 Z-1.0000 F180.00
G2 X32.0674 Y-45.6410 Z-1.0000 I-0.4557 J-0.4557 F180.00
G2 X31.9326 Y-44.3590 Z-1.0000 I-0.0674 J0.6410 F180.00
G2 X32.4557 Y-44.5443 Z-1.0000 I0.0674 J-0.6410 F180.00
G1 X32.4557 Y-44.5443 Z-1.5000 F180.00
G2 X32.0674 Y-45.6410 Z-1.5000 I-0.4557 J-0.4557 F180.00
G2 X31.9326 Y-44.3590 Z-1.5000 I-0.0674 J0.6410 F180.00
G2 X32.4557 Y-44.5443 Z-1.5000 I0.0674 J-0.6410 F180.00
G0 X32.4557 Y-44.5443 Z5.0000
G0 X32.4557 Y-44.5443 Z5.0000
G0 X32.4557 Y-44.5443 Z1.5000
G1 X32.4557 Y-44.5443 Z-1.5000 F180.00
G2 X32.5214 Y-45.3788 Z-1.5000 I-0.4557 J-0.4557 F180.00
G2 X31.4786 Y-44.6212 Z-1.5000 I-0.5214 J0.3788 F180.00
G2 X32.4557 Y-44.5443 Z-1.5000 I0.5214 J-0.3788 F180.00
G1 X32.4557 Y-44.5443 Z-2.0000 F180.00
G2 X32.5214 Y-45.3788 Z-2.0000 I-0.4557 J-0.4557 F180.00
G2 X31.4786 Y-44.6212 Z-2.0000 I-0.5214 J0.3788 F180.00
G2 X32.4557 Y-44.5443 Z-2.0000 I0.5214 J-0.3788 F180.00
G0 X32.4557 Y-44.5443 Z5.0000
G0 X32.4557 Y-44.5443 Z5.0000
G0 X32.4557 Y-44.5443 Z1.0000
G1 X32.4557 Y-44.5443 Z-2.0000 F180.00
G2 X32.0674 Y-45.6410 Z-2.0000 I-0.4557 J-0.4557 F180.00
G2 X31.9326 Y-44.3590 Z-2.0000 I-0.0674 J0.6410 F180.00
G2 X32.4557 Y-44.5443 Z-2.0000 I0.0674 J-0.6410 F180.00
G1 X32.4557 Y-44.5443 Z-2.5000 F180.00
G2 X32.0674 Y-45.6410 Z-2.5000 I-0.4557 J-0.4557 F180.00
G2 X31.9326 Y-44.3590 Z-2.5000 I-0.0674 J0.6410 F180.00
G2 X32.4557 Y-44.5443 Z-2.5000 I0.0674 J-0.6410 F180.00
G0 X32.4557 Y-44.5443 Z5.0000
G0 X32.4557 Y-44.5443 Z5.0000
G0 X32.4557 Y-44.5443 Z0.5000
G1 X32.4557 Y-44.5443 Z-2.5000 F180.00
G2 X32.5214 Y-45.3788 Z-2.5000 I-0.4557 J-0.4557 F180.00
G2 X31.4786 Y-44.6212 Z-2.5000 I-0.5214 J0.3788 F180.00
G2 X32.4557 Y-44.5443 Z-2.5000 I0.5214 J-0.3788 F180.00
G1 X32.4557 Y-44.5443 Z-3.0000 F180.00
G2 X32.5214 Y-45.3788 Z-3.0000 I-0.4557 J-0.4557 F180.00
G2 X31.4786 Y-44.6212 Z-3.0000 I-0.5214 J0.3788 F180.00
G2 X32.4557 Y-44.5443 Z-3.0000 I0.5214 J-0.3788 F180.00
G0 X32.4557 Y-44.5443 Z5.0000
G0 X32.4557 Y-44.5443 Z5.0000
G0 X32.4557 Y-44.5443 Z0.0000
G1 X32.4557 Y-44.5443 Z-3.0000 F180.00
G2 X32.0674 Y-45.6410 Z-3.0000 I-0.4557 J-0.4557 F180.00
G2 X31.9326 Y-44.3590 Z-3.0000 I-0.0674 J0.6410 F180.00
G2 X32.4557 Y-44.5443 Z-3.0000 I0.0674 J-0.6410 F180.00
G1 X32.4557 Y-44.5443 Z-3.5000 F180.00
G2 X32.0674 Y-45.6410 Z-3.5000 I-0.4557 J-0.4557 F180.00
G2 X31.9326 Y-44.3590 Z-3.5000 I-0.0674 J0.6410 F180.00
G2 X32.4557 Y-44.5443 Z-3.5000 I0.0674 J-0.6410 F180.00
G0 X32.4557 Y-44.5443 Z5.0000
G0 X32.4557 Y-44.5443 Z5.0000
G0 X32.4557 Y-44.5443 Z-0.5000
G1 X32.4557 Y-44.5443 Z-3.5000 F180.00
G2 X32.5214 Y-45.3788 Z-3.5000 I-0.4557 J-0.4557 F180.00
G2 X31.4786 Y-44.6212 Z-3.5000 I-0.5214 J0.3788 F180.00
G2 X32.4557 Y-44.5443 Z-3.5000 I0.5214 J-0.3788 F180.00
G1 X32.4557 Y-44.5443 Z-4.0000 F180.00
G2 X32.5214 Y-45.3788 Z-4.0000 I-0.4557 J-0.4557 F180.00
G2 X31.4786 Y-44.6212 Z-4.0000 I-0.5214 J0.3788 F180.00
G2 X32.4557 Y-44.5443 Z-4.0000 I0.5214 J-0.3788 F180.00
G0 X32.4557 Y-44.5443 Z5.0000
G0 X32.4557 Y-44.5443 Z5.0000
G0 X32.4557 Y-44.5443 Z-1.0000
G1 X32.4557 Y-44.5443 Z-4.0000 F180.00
G2 X32.0674 Y-45.6410 Z-4.0000 I-0.4557 J-0.4557 F180.00
G2 X31.9326 Y-44.3590 Z-4.0000 I-0.0674 J0.6410 F180.00
G2 X32.4557 Y-44.5443 Z-4.0000 I0.0674 J-0.6410 F180.00
G1 X32.4557 Y-44.5443 Z-4.5000 F180.00
G2 X32.0674 Y-45.6410 Z-4.5000 I-0.4557 J-0.4557 F180.00
G2 X31.9326 Y-44.3590 Z-4.5000 I-0.0674 J0.6410 F180.00
G2 X32.4557 Y-44.5443 Z-4.5000 I0.0674 J-0.6410 F180.00
G0 X32.4557 Y-44.5443 Z5.0000
G0 X32.4557 Y-44.5443 Z5.0000
G0 X32.4557 Y-44.5443 Z-1.5000
G1 X32.4557 Y-44.5443 Z-4.5000 F180.00
G2 X32.5214 Y-45.3788 Z-4.5000 I-0.4557 J-0.4557 F180.00
G2 X31.4786 Y-44.6212 Z-4.5000 I-0.5214 J0.3788 F180.00
G2 X32.4557 Y-44.5443 Z-4.5000 I0.5214 J-0.3788 F180.00
G1 X32.4557 Y-44.5443 Z-5.0000 F180.00
G2 X32.5214 Y-45.3788 Z-5.0000 I-0.4557 J-0.4557 F180.00
G2 X31.4786 Y-44.6212 Z-5.0000 I-0.5214 J0.3788 F180.00
G2 X32.4557 Y-44.5443 Z-5.0000 I0.5214 J-0.3788 F180.00
G0 X32.4557 Y-44.5443 Z5.0000
G0 X32.4557 Y-44.5443 Z5.0000
G0 X32.4557 Y-44.5443 Z-2.0000
G1 X32.4557 Y-44.5443 Z-5.0000 F180.00
G2 X32.0674 Y-45.6410 Z-5.0000 I-0.4557 J-0.4557 F180.00
G2 X31.9326 Y-44.3590 Z-5.0000 I-0.0674 J0.6410 F180.00
G2 X32.4557 Y-44.5443 Z-5.0000 I0.0674 J-0.6410 F180.00
G1 X32.4557 Y-44.5443 Z-5.5000 F180.00
G2 X32.0674 Y-45.6410 Z-5.5000 I-0.4557 J-0.4557 F180.00
G2 X31.9326 Y-44.3590 Z-5.5000 I-0.0674 J0.6410 F180.00
G2 X32.4557 Y-44.5443 Z-5.5000 I0.0674 J-0.6410 F180.00
G0 X32.4557 Y-44.5443 Z5.0000
G0 X32.4557 Y-44.5443 Z5.0000
G0 X32.4557 Y-44.5443 Z-2.5000
G1 X32.4557 Y-44.5443 Z-5.5000 F180.00
G2 X32.5214 Y-45.3788 Z-5.5000 I-0.4557 J-0.4557 F180.00
G2 X31.4786 Y-44.6212 Z-5.5000 I-0.5214 J0.3788 F180.00
G2 X32.4557 Y-44.5443 Z-5.5000 I0.5214 J-0.3788 F180.00
G1 X32.4557 Y-44.5443 Z-6.0000 F180.00
G2 X32.5214 Y-45.3788 Z-6.0000 I-0.4557 J-0.4557 F180.00
G2 X31.4786 Y-44.6212 Z-6.0000 I-0.5214 J0.3788 F180.00
G2 X32.4557 Y-44.5443 Z-6.0000 I0.5214 J-0.3788 F180.00
G0 X32.4557 Y-44.5443 Z5.0000
G0 X32.4557 Y-44.5443 Z5.0000
G0 X32.4557 Y-44.5443 Z-3.0000
G1 X32.4557 Y-44.5443 Z-6.0000 F180.00
G2 X32.0674 Y-45.6410 Z-6.0000 I-0.4557 J-0.4557 F180.00
G2 X31.9326 Y-44.3590 Z-6.0000 I-0.0674 J0.6410 F180.00
G2 X32.4557 Y-44.5443 Z-6.0000 I0.0674 J-0.6410 F180.00
G0 Z5.0000
G0 X4.4557 Y-44.5443
G0 Z3.0000
G1 X4.4557 Y-44.5443 Z-0.5000 F180.00
G2 X4.0674 Y-45.6410 Z-0.5000 I-0.4557 J-0.4557 F180.00
G2 X3.9326 Y-44.3590 Z-0.5000 I-0.0674 J0.6410 F180.00
G2 X4.4557 Y-44.5443 Z-0.5000 I0.0674 J-0.6410 F180.00
G0 X4.4557 Y-44.5443 Z5.0000
G0 X4.4557 Y-44.5443 Z5.0000
G0 X4.4557 Y-44.5443 Z2.5000
G1 X4.4557 Y-44.5443 Z-0.5000 F180.00
G2 X4.5214 Y-45.3788 Z-0.5000 I-0.4557 J-0.4557 F180.00
G2 X3.4786 Y-44.6212 Z-0.5000 I-0.5214 J0.3788 F180.00
G2 X4.4557 Y-44.5443 Z-0.5000 I0.5214 J-0.3788 F180.00
G1 X4.4557 Y-44.5443 Z-1.0000 F180.00
G2 X4.5214 Y-45.3788 Z-1.0000 I-0.4557 J-0.4557 F180.00
G2 X3.4786 Y-44.6212 Z-1.0000 I-0.5214 J0.3788 F180.00
G2 X4.4557 Y-44.5443 Z-1.0000 I0.5214 J-0.3788 F180.00
G0 X4.4557 Y-44.5443 Z5.0000
G0 X4.4557 Y-44.5443 Z5.0000
G0 X4.4557 Y-44.5443 Z2.0000
G1 X4.4557 Y-44.5443 Z-1.0000 F180.00
G2 X4.0674 Y-45.6410 Z-1.0000 I-0.4557 J-0.4557 F180.00
G2 X3.9326 Y-44.3590 Z-1.0000 I-0.0674 J0.6410 F180.00
G2 X4.4557 Y-44.5443 Z-1.0000 I0.0674 J-0.6410 F180.00
G1 X4.4557 Y-44.5443 Z-1.5000 F180.00
G2 X4.0674 Y-45.6410 Z-1.5000 I-0.4557 J-0.4557 F180.00
G2 X3.9326 Y-44.3590 Z-1.5000 I-0.0674 J0.6410 F180.00
G2 X4.4557 Y-44.5443 Z-1.5000 I0.0674 J-0.6410 F180.00
G0 X4.4557 Y-44.5443 Z5.0000
G0 X4.4557 Y-44.5443 Z5.0000
G0 X4.4557 Y-44.5443 Z1.5000
G1 X4.4557 Y-44.5443 Z-1.5000 F180.00
G2 X4.5214 Y-45.3788 Z-1.5000 I-0.4557 J-0.4557 F180.00
G2 X3.4786 Y-44.6212 Z-1.5000 I-0.5214 J0.3788 F180.00
G2 X4.4557 Y-44.5443 Z-1.5000 I0.5214 J-0.3788 F180.00
G1 X4.4557 Y-44.5443 Z-2.0000 F180.00
G2 X4.5214 Y-45.3788 Z-2.0000 I-0.4557 J-0.4557 F180.00
G2 X3.4786 Y-44.6212 Z-2.0000 I-0.5214 J0.3788 F180.00
G2 X4.4557 Y-44.5443 Z-2.0000 I0.5214 J-0.3788 F180.00
G0 X4.4557 Y-44.5443 Z5.0000
G0 X4.4557 Y-44.5443 Z5.0000
G0 X4.4557 Y-44.5443 Z1.0000
G1 X4.4557 Y-44.5443 Z-2.0000 F180.00
G2 X4.0674 Y-45.6410 Z-2.0000 I-0.4557 J-0.4557 F180.00
G2 X3.9326 Y-44.3590 Z-2.0000 I-0.0674 J0.6410 F180.00
G2 X4.4557 Y-44.5443 Z-2.0000 I0.0674 J-0.6410 F180.00
G1 X4.4557 Y-44.5443 Z-2.5000 F180.00
G2 X4.0674 Y-45.6410 Z-2.5000 I-0.4557 J-0.4557 F180.00
G2 X3.9326 Y-44.3590 Z-2.5000 I-0.0674 J0.6410 F180.00
G2 X4.4557 Y-44.5443 Z-2.5000 I0.0674 J-0.6410 F180.00
G0 X4.4557 Y-44.5443 Z5.0000
G0 X4.4557 Y-44.5443 Z5.0000
G0 X4.4557 Y-44.5443 Z0.5000
G1 X4.4557 Y-44.5443 Z-2.5000 F180.00
G2 X4.5214 Y-45.3788 Z-2.5000 I-0.4557 J-0.4557 F180.00
G2 X3.4786 Y-44.6212 Z-2.5000 I-0.5214 J0.3788 F180.00
G2 X4.4557 Y-44.5443 Z-2.5000 I0.5214 J-0.3788 F180.00
G1 X4.4557 Y-44.5443 Z-3.0000 F180.00
G2 X4.5214 Y-45.3788 Z-3.0000 I-0.4557 J-0.4557 F180.00
G2 X3.4786 Y-44.6212 Z-3.0000 I-0.5214 J0.3788 F180.00
G2 X4.4557 Y-44.5443 Z-3.0000 I0.5214 J-0.3788 F180.00
G0 X4.4557 Y-44.5443 Z5.0000
G0 X4.4557 Y-44.5443 Z5.0000
G0 X4.4557 Y-44.5443 Z0.0000
G1 X4.4557 Y-44.5443 Z-3.0000 F180.00
G2 X4.0674 Y-45.6410 Z-3.0000 I-0.4557 J-0.4557 F180.00
G2 X3.9326 Y-44.3590 Z-3.0000 I-0.0674 J0.6410 F180.00
G2 X4.4557 Y-44.5443 Z-3.0000 I0.0674 J-0.6410 F180.00
G1 X4.4557 Y-44.5443 Z-3.5000 F180.00
G2 X4.0674 Y-45.6410 Z-3.5000 I-0.4557 J-0.4557 F180.00
G2 X3.9326 Y-44.3590 Z-3.5000 I-0.0674 J0.6410 F180.00
G2 X4.4557 Y-44.5443 Z-3.5000 I0.0674 J-0.6410 F180.00
G0 X4.4557 Y-44.5443 Z5.0000
G0 X4.4557 Y-44.5443 Z5.0000
G0 X4.4557 Y-44.5443 Z-0.5000
G1 X4.4557 Y-44.5443 Z-3.5000 F180.00
G2 X4.5214 Y-45.3788 Z-3.5000 I-0.4557 J-0.4557 F180.00
G2 X3.4786 Y-44.6212 Z-3.5000 I-0.5214 J0.3788 F180.00
G2 X4.4557 Y-44.5443 Z-3.5000 I0.5214 J-0.3788 F180.00
G1 X4.4557 Y-44.5443 Z-4.0000 F180.00
G2 X4.5214 Y-45.3788 Z-4.0000 I-0.4557 J-0.4557 F180.00
G2 X3.4786 Y-44.6212 Z-4.0000 I-0.5214 J0.3788 F180.00
G2 X4.4557 Y-44.5443 Z-4.0000 I0.5214 J-0.3788 F180.00
G0 X4.4557 Y-44.5443 Z5.0000
G0 X4.4557 Y-44.5443 Z5.0000
G0 X4.4557 Y-44.5443 Z-1.0000
G1 X4.4557 Y-44.5443 Z-4.0000 F180.00
G2 X4.0674 Y-45.6410 Z-4.0000 I-0.4557 J-0.4557 F180.00
G2 X3.9326 Y-44.3590 Z-4.0000 I-0.0674 J0.6410 F180.00
G2 X4.4557 Y-44.5443 Z-4.0000 I0.0674 J-0.6410 F180.00
G1 X4.4557 Y-44.5443 Z-4.5000 F180.00
G2 X4.0674 Y-45.6410 Z-4.5000 I-0.4557 J-0.4557 F180.00
G2 X3.9326 Y-44.3590 Z-4.5000 I-0.0674 J0.6410 F180.00
G2 X4.4557 Y-44.5443 Z-4.5000 I0.0674 J-0.6410 F180.00
G0 X4.4557 Y-44.5443 Z5.0000
G0 X4.4557 Y-44.5443 Z5.0000
G0 X4.4557 Y-44.5443 Z-1.5000
G1 X4.4557 Y-44.5443 Z-4.5000 F180.00
G2 X4.5214 Y-45.3788 Z-4.5000 I-0.4557 J-0.4557 F180.00
G2 X3.4786 Y-44.6212 Z-4.5000 I-0.5214 J0.3788 F180.00
G2 X4.4557 Y-44.5443 Z-4.5000 I0.5214 J-0.3788 F180.00
G1 X4.4557 Y-44.5443 Z-5.0000 F180.00
G2 X4.5214 Y-45.3788 Z-5.0000 I-0.4557 J-0.4557 F180.00
G2 X3.4786 Y-44.6212 Z-5.0000 I-0.5214 J0.3788 F180.00
G2 X4.4557 Y-44.5443 Z-5.0000 I0.5214 J-0.3788 F180.00
G0 X4.4557 Y-44.5443 Z5.0000
G0 X4.4557 Y-44.5443 Z5.0000
G0 X4.4557 Y-44.5443 Z-2.0000
G1 X4.4557 Y-44.5443 Z-5.0000 F180.00
G2 X4.0674 Y-45.6410 Z-5.0000 I-0.4557 J-0.4557 F180.00
G2 X3.9326 Y-44.3590 Z-5.0000 I-0.0674 J0.6410 F180.00
G2 X4.4557 Y-44.5443 Z-5.0000 I0.0674 J-0.6410 F180.00
G1 X4.4557 Y-44.5443 Z-5.5000 F180.00
G2 X4.0674 Y-45.6410 Z-5.5000 I-0.4557 J-0.4557 F180.00
G2 X3.9326 Y-44.3590 Z-5.5000 I-0.0674 J0.6410 F180.00
G2 X4.4557 Y-44.5443 Z-5.5000 I0.0674 J-0.6410 F180.00
G0 X4.4557 Y-44.5443 Z5.0000
G0 X4.4557 Y-44.5443 Z5.0000
G0 X4.4557 Y-44.5443 Z-2.5000
G1 X4.4557 Y-44.5443 Z-5.5000 F180.00
G2 X4.5214 Y-45.3788 Z-5.5000 I-0.4557 J-0.4557 F180.00
G2 X3.4786 Y-44.6212 Z-5.5000 I-0.5214 J0.3788 F180.00
G2 X4.4557 Y-44.5443 Z-5.5000 I0.5214 J-0.3788 F180.00
G1 X4.4557 Y-44.5443 Z-6.0000 F180.00
G2 X4.5214 Y-45.3788 Z-6.0000 I-0.4557 J-0.4557 F180.00
G2 X3.4786 Y-44.6212 Z-6.0000 I-0.5214 J0.3788 F180.00
G2 X4.4557 Y-44.5443 Z-6.0000 I0.5214 J-0.3788 F180.00
G0 X4.4557 Y-44.5443 Z5.0000
G0 X4.4557 Y-44.5443 Z5.0000
G0 X4.4557 Y-44.5443 Z-3.0000
G1 X4.4557 Y-44.5443 Z-6.0000 F180.00
G2 X4.0674 Y-45.6410 Z-6.0000 I-0.4557 J-0.4557 F180.00
G2 X3.9326 Y-44.3590 Z-6.0000 I-0.0674 J0.6410 F180.00
G2 X4.4557 Y-44.5443 Z-6.0000 I0.0674 J-0.6410 F180.00
G0 Z5.0000
G0 X3.3458 Y-24.1548
G0 Z3.0000
G1 X3.3458 Y-24.1548 Z-0.5000 F180.00
G2 X2.6103 Y-26.1906 Z-0.5000 I-0.8458 J-0.8452 F180.00
G2 X1.3094 Y-25.1103 Z-0.5000 I-0.1103 J1.1906 F180.00
G2 X2.3897 Y-23.8094 Z-0.5000 I1.1906 J0.1103 F180.00
G2 X3.3458 Y-24.1548 Z-0.5000 I0.1103 J-1.1906 F180.00
G0 X3.3458 Y-24.1548 Z5.0000
G0 X2.5514 Y-23.8094 Z5.0000
G0 X2.5514 Y-23.8094 Z2.5000
G1 X2.5514 Y-23.8094 Z-0.5000 F180.00
G3 X1.3091 Y-25.0517 Z-0.5000 I-0.0598 J-1.1825 F180.00
G1 X2.5514 Y-23.8094 Z-0.5000 F180.00
G2 X3.3836 Y-25.8055 Z-0.5000 I-0.0467 J-1.1910 F180.00
G1 X3.3836 Y-25.8055 Z-1.0000 F180.00
G3 X2.5514 Y-23.8094 Z-1.0000 I-0.8790 J0.8051 F180.00
G1 X1.3091 Y-25.0517 Z-1.0000 F180.00
G2 X2.5514 Y-23.8094 Z-1.0000 I1.1825 J0.0598 F180.00
G0 X2.5514 Y-23.8094 Z5.0000
G0 X2.5516 Y-23.8054 Z5.0000
G0 X2.5516 Y-23.8054 Z2.0000
G1 X2.5516 Y-23.8054 Z-1.0000 F180.00
G2 X2.6103 Y-26.1906 Z-1.0000 I-0.0516 J-1.1946 F180.00
G2 X1.3094 Y-25.1103 Z-1.0000 I-0.1103 J1.1906 F180.00
G2 X2.3897 Y-23.8094 Z-1.0000 I1.1906 J0.1103 F180.00
G2 X2.5516 Y-23.8054 Z-1.0000 I0.1103 J-1.1906 F180.00
G1 X2.5516 Y-23.8054 Z-1.5000 F180.00
G2 X2.6103 Y-26.1906 Z-1.5000 I-0.0516 J-1.1946 F180.00
G2 X1.3094 Y-25.1103 Z-1.5000 I-0.1103 J1.1906 F180.00
G2 X2.3897 Y-23.8094 Z-1.5000 I1.1906 J0.1103 F180.00
G2 X2.5516 Y-23.8054 Z-1.5000 I0.1103 J-1.1906 F180.00
G0 X2.5516 Y-23.8054 Z5.0000
G0 X2.5514 Y-23.8094 Z5.0000
G0 X2.5514 Y-23.8094 Z1.5000
G1 X2.5514 Y-23.8094 Z-1.5000 F180.00
G3 X1.3091 Y-25.0517 Z-1.5000 I-0.0598 J-1.1825 F180.00
G1 X2.5514 Y-23.8094 Z-1.5000 F180.00
G2 X3.3836 Y-25.8055 Z-1.5000 I-0.0467 J-1.1910 F180.00
G1 X3.3836 Y-25.8055 Z-2.0000 F180.00
G3 X2.5514 Y-23.8094 Z-2.0000 I-0.8790 J0.8051 F180.00
G1 X1.3091 Y-25.0517 Z-2.0000 F180.00
G2 X2.5514 Y-23.8094 Z-2.0000 I1.1825 J0.0598 F180.00
G0 X2.5514 Y-23.8094 Z5.0000
G0 X2.5516 Y-23.8054 Z5.0000
G0 X2.5516 Y-23.8054 Z1.0000
G1 X2.5516 Y-23.8054 Z-2.0000 F180.00
G2 X2.6103 Y-26.1906 Z-2.0000 I-0.0516 J-1.1946 F180.00
G2 X1.3094 Y-25.1103 Z-2.0000 I-0.1103 J1.1906 F180.00
G2 X2.3897 Y-23.8094 Z-2.0000 I1.1906 J0.1103 F180.00
G2 X2.5516 Y-23.8054 Z-2.0000 I0.1103 J-1.1906 F180.00
G1 X2.5516 Y-23.8054 Z-2.5000 F180.00
G2 X2.6103 Y-26.1906 Z-2.5000 I-0.0516 J-1.1946 F180.00
G2 X1.3094 Y-25.1103 Z-2.5000 I-0.1103 J1.1906 F180.00
G2 X2.3897 Y-23.8094 Z-2.5000 I1.1906 J0.1103 F180.00
G2 X2.5516 Y-23.8054 Z-2.5000 I0.1103 J-1.1906 F180.00
G0 X2.5516 Y-23.8054 Z5.0000
G0 X2.5514 Y-23.8094 Z5.0000
G0 X2.5514 Y-23.8094 Z0.5000
G1 X2.5514 Y-23.8094 Z-2.5000 F180.00
G3 X1.3091 Y-25.0517 Z-2.5000 I-0.0598 J-1.1825 F180.00
G1 X2.5514 Y-23.8094 Z-2.5000 F180.00
G2 X3.3836 Y-25.8055 Z-2.5000 I-0.0467 J-1.1910 F180.00
G1 X3.3836 Y-25.8055 Z-3.0000 F180.00
G3 X2.5514 Y-23.8094 Z-3.0000 I-0.8790 J0.8051 F180.00
G1 X1.3091 Y-25.0517 Z-3.0000 F180.00
G2 X2.5514 Y-23.8094 Z-3.0000 I1.1825 J0.0598 F180.00
G0 X2.5514 Y-23.8094 Z5.0000
G0 X2.5516 Y-23.8054 Z5.0000
G0 X2.5516 Y-23.8054 Z0.0000
G1 X2.5516 Y-23.8054 Z-3.0000 F180.00
G2 X2.6103 Y-26.1906 Z-3.0000 I-0.0516 J-1.1946 F180.00
G2 X1.3094 Y-25.1103 Z-3.0000 I-0.1103 J1.1906 F180.00
G2 X2.3897 Y-23.8094 Z-3.0000 I1.1906 J0.1103 F180.00
G2 X2.5516 Y-23.8054 Z-3.0000 I0.1103 J-1.1906 F180.00
G1 X2.5516 Y-23.8054 Z-3.5000 F180.00
G2 X2.6103 Y-26.1906 Z-3.5000 I-0.0516 J-1.1946 F180.00
G2 X1.3094 Y-25.1103 Z-3.5000 I-0.1103 J1.1906 F180.00
G2 X2.3897 Y-23.8094 Z-3.5000 I1.1906 J0.1103 F180.00
G2 X2.5516 Y-23.8054 Z-3.5000 I0.1103 J-1.1906 F180.00
G0 X2.5516 Y-23.8054 Z5.0000
G0 X2.5514 Y-23.8094 Z5.0000
G0 X2.5514 Y-23.8094 Z-0.5000
G1 X2.5514 Y-23.8094 Z-3.5000 F180.00
G3 X1.3091 Y-25.0517 Z-3.5000 I-0.0598 J-1.1825 F180.00
G1 X2.5514 Y-23.8094 Z-3.5000 F180.00
G2 X3.3836 Y-25.8055 Z-3.5000 I-0.0467 J-1.1910 F180.00
G1 X3.3836 Y-25.8055 Z-4.0000 F180.00
G3 X2.5514 Y-23.8094 Z-4.0000 I-0.8790 J0.8051 F180.00
G1 X1.3091 Y-25.0517 Z-4.0000 F180.00
G2 X2.5514 Y-23.8094 Z-4.0000 I1.1825 J0.0598 F180.00
G0 X2.5514 Y-23.8094 Z5.0000
G0 X2.5516 Y-23.8054 Z5.0000
G0 X2.5516 Y-23.8054 Z-1.0000
G1 X2.5516 Y-23.8054 Z-4.0000 F180.00
G2 X2.6103 Y-26.1906 Z-4.0000 I-0.0516 J-1.1946 F180.00
G2 X1.3094 Y-25.1103 Z-4.0000 I-0.1103 J1.1906 F180.00
G2 X2.3897 Y-23.8094 Z-4.0000 I1.1906 J0.1103 F180.00
G2 X2.5516 Y-23.8054 Z-4.0000 I0.1103 J-1.1906 F180.00
G1 X2.5516 Y-23.8054 Z-4.5000 F180.00
G2 X2.6103 Y-26.1906 Z-4.5000 I-0.0516 J-1.1946 F180.00
G2 X1.3094 Y-25.1103 Z-4.5000 I-0.1103 J1.1906 F180.00
G2 X2.3897 Y-23.8094 Z-4.5000 I1.1906 J0.1103 F180.00
G2 X2.5516 Y-23.8054 Z-4.5000 I0.1103 J-1.1906 F180.00
G0 X2.5516 Y-23.8054 Z5.0000
G0 X2.5514 Y-23.8094 Z5.0000
G0 X2.5514 Y-23.8094 Z-1.5000
G1 X2.5514 Y-23.8094 Z-4.5000 F180.00
G3 X1.3091 Y-25.0517 Z-4.5000 I-0.0598 J-1.1825 F180.00
G1 X2.5514 Y-23.8094 Z-4.5000 F180.00
G2 X3.3836 Y-25.8055 Z-4.5000 I-0.0467 J-1.1910 F180.00
G1 X3.3836 Y-25.8055 Z-5.0000 F180.00
G3 X2.5514 Y-23.8094 Z-5.0000 I-0.8790 J0.8051 F180.00
G1 X1.3091 Y-25.0517 Z-5.0000 F180.00
G2 X2.5514 Y-23.8094 Z-5.0000 I1.1825 J0.0598 F180.00
G0 X2.5514 Y-23.8094 Z5.0000
G0 X2.5516 Y-23.8054 Z5.0000
G0 X2.5516 Y-23.8054 Z-2.0000
G1 X2.5516 Y-23.8054 Z-5.0000 F180.00
G2 X2.6103 Y-26.1906 Z-5.0000 I-0.0516 J-1.1946 F180.00
G2 X1.3094 Y-25.1103 Z-5.0000 I-0.1103 J1.1906 F180.00
G2 X2.3897 Y-23.8094 Z-5.0000 I1.1906 J0.1103 F180.00
G2 X2.5516 Y-23.8054 Z-5.0000 I0.1103 J-1.1906 F180.00
G1 X2.5516 Y-23.8054 Z-5.5000 F180.00
G2 X2.6103 Y-26.1906 Z-5.5000 I-0.0516 J-1.1946 F180.00
G2 X1.3094 Y-25.1103 Z-5.5000 I-0.1103 J1.1906 F180.00
G2 X2.3897 Y-23.8094 Z-5.5000 I1.1906 J0.1103 F180.00
G2 X2.5516 Y-23.8054 Z-5.5000 I0.1103 J-1.1906 F180.00
G0 X2.5516 Y-23.8054 Z5.0000
G0 X2.5514 Y-23.8094 Z5.0000
G0 X2.5514 Y-23.8094 Z-2.5000
G1 X2.5514 Y-23.8094 Z-5.5000 F180.00
G3 X1.3091 Y-25.0517 Z-5.5000 I-0.0598 J-1.1825 F180.00
G1 X2.5514 Y-23.8094 Z-5.5000 F180.00
G2 X3.3836 Y-25.8055 Z-5.5000 I-0.0467 J-1.1910 F180.00
G1 X3.3836 Y-25.8055 Z-6.0000 F180.00
G3 X2.5514 Y-23.8094 Z-6.0000 I-0.8790 J0.8051 F180.00
G1 X1.3091 Y-25.0517 Z-6.0000 F180.00
G2 X2.5514 Y-23.8094 Z-6.0000 I1.1825 J0.0598 F180.00
G0 X2.5514 Y-23.8094 Z5.0000
G0 X2.5516 Y-23.8054 Z5.0000
G0 X2.5516 Y-23.8054 Z-3.0000
G1 X2.5516 Y-23.8054 Z-6.0000 F180.00
G2 X2.6103 Y-26.1906 Z-6.0000 I-0.0516 J-1.1946 F180.00
G2 X1.3094 Y-25.1103 Z-6.0000 I-0.1103 J1.1906 F180.00
G2 X2.3897 Y-23.8094 Z-6.0000 I1.1906 J0.1103 F180.00
G2 X2.5516 Y-23.8054 Z-6.0000 I0.1103 J-1.1906 F180.00
G0 Z5.0000
G0 X3.3458 Y-30.6548
G0 Z3.0000
G1 X3.3458 Y-30.6548 Z-0.5000 F180.00
G2 X2.6103 Y-32.6906 Z-0.5000 I-0.8458 J-0.8452 F180.00
G2 X1.3094 Y-31.6103 Z-0.5000 I-0.1103 J1.1906 F180.00
G2 X2.3897 Y-30.3094 Z-0.5000 I1.1906 J0.1103 F180.00
G2 X3.3458 Y-30.6548 Z-0.5000 I0.1103 J-1.1906 F180.00
G0 X3.3458 Y-30.6548 Z5.0000
G0 X2.5514 Y-30.3094 Z5.0000
G0 X2.5514 Y-30.3094 Z2.5000
G1 X2.5514 Y-30.3094 Z-0.5000 F180.00
G3 X1.3091 Y-31.5517 Z-0.5000 I-0.0598 J-1.1825 F180.00
G1 X2.5514 Y-30.3094 Z-0.5000 F180.00
G2 X3.3836 Y-32.3055 Z-0.5000 I-0.0467 J-1.1910 F180.00
G1 X3.3836 Y-32.3055 Z-1.0000 F180.00
G3 X2.5514 Y-30.3094 Z-1.0000 I-0.8790 J0.8051 F180.00
G1 X1.3091 Y-31.5517 Z-1.0000 F180.00
G2 X2.5514 Y-30.3094 Z-1.0000 I1.1825 J0.0598 F180.00
G0 X2.5514 Y-30.3094 Z5.0000
G0 X2.5516 Y-30.3054 Z5.0000
G0 X2.5516 Y-30.3054 Z2.0000
G1 X2.5516 Y-30.3054 Z-1.0000 F180.00
G2 X2.6103 Y-32.6906 Z-1.0000 I-0.0516 J-1.1946 F180.00
G2 X1.3094 Y-31.6103 Z-1.0000 I-0.1103 J1.1906 F180.00
G2 X2.3897 Y-30.3094 Z-1.0000 I1.1906 J0.1103 F180.00
G2 X2.5516 Y-30.3054 Z-1.0000 I0.1103 J-1.1906 F180.00
G1 X2.5516 Y-30.3054 Z-1.5000 F180.00
G2 X2.6103 Y-32.6906 Z-1.5000 I-0.0516 J-1.1946 F180.00
G2 X1.3094 Y-31.6103 Z-1.5000 I-0.1103 J1.1906 F180.00
G2 X2.3897 Y-30.3094 Z-1.5000 I1.1906 J0.1103 F180.00
G2 X2.5516 Y-30.3054 Z-1.5000 I0.1103 J-1.1906 F180.00
G0 X2.5516 Y-30.3054 Z5.0000
G0 X2.5514 Y-30.3094 Z5.0000
G0 X2.5514 Y-30.3094 Z1.5000
G1 X2.5514 Y-30.3094 Z-1.5000 F180.00
G3 X1.3091 Y-31.5517 Z-1.5000 I-0.0598 J-1.1825 F180.00
G1 X2.5514 Y-30.3094 Z-1.5000 F180.00
G2 X3.3836 Y-32.3055 Z-1.5000 I-0.0467 J-1.1910 F180.00
G1 X3.3836 Y-32.3055 Z-2.0000 F180.00
G3 X2.5514 Y-30.3094 Z-2.0000 I-0.8790 J0.8051 F180.00
G1 X1.3091 Y-31.5517 Z-2.0000 F180.00
G2 X2.5514 Y-30.3094 Z-2.0000 I1.1825 J0.0598 F180.00
G0 X2.5514 Y-30.3094 Z5.0000
G0 X2.5516 Y-30.3054 Z5.0000
G0 X2.5516 Y-30.3054 Z1.0000
G1 X2.5516 Y-30.3054 Z-2.0000 F180.00
G2 X2.6103 Y-32.6906 Z-2.0000 I-0.0516 J-1.1946 F180.00
G2 X1.3094 Y-31.6103 Z-2.0000 I-0.1103 J1.1906 F180.00
G2 X2.3897 Y-30.3094 Z-2.0000 I1.1906 J0.1103 F180.00
G2 X2.5516 Y-30.3054 Z-2.0000 I0.1103 J-1.1906 F180.00
G1 X2.5516 Y-30.3054 Z-2.5000 F180.00
G2 X2.6103 Y-32.6906 Z-2.5000 I-0.0516 J-1.1946 F180.00
G2 X1.3094 Y-31.6103 Z-2.5000 I-0.1103 J1.1906 F180.00
G2 X2.3897 Y-30.3094 Z-2.5000 I1.1906 J0.1103 F180.00
G2 X2.5516 Y-30.3054 Z-2.5000 I0.1103 J-1.1906 F180.00
G0 X2.5516 Y-30.3054 Z5.0000
G0 X2.5514 Y-30.3094 Z5.0000
G0 X2.5514 Y-30.3094 Z0.5000
G1 X2.5514 Y-30.3094 Z-2.5000 F180.00
G3 X1.3091 Y-31.5517 Z-2.5000 I-0.0598 J-1.1825 F180.00
G1 X2.5514 Y-30.3094 Z-2.5000 F180.00
G2 X3.3836 Y-32.3055 Z-2.5000 I-0.0467 J-1.1910 F180.00
G1 X3.3836 Y-32.3055 Z-3.0000 F180.00
G3 X2.5514 Y-30.3094 Z-3.0000 I-0.8790 J0.8051 F180.00
G1 X1.3091 Y-31.5517 Z-3.0000 F180.00
G2 X2.5514 Y-30.3094 Z-3.0000 I1.1825 J0.0598 F180.00
G0 X2.5514 Y-30.3094 Z5.0000
G0 X2.5516 Y-30.3054 Z5.0000
G0 X2.5516 Y-30.3054 Z0.0000
G1 X2.5516 Y-30.3054 Z-3.0000 F180.00
G2 X2.6103 Y-32.6906 Z-3.0000 I-0.0516 J-1.1946 F180.00
G2 X1.3094 Y-31.6103 Z-3.0000 I-0.1103 J1.1906 F180.00
G2 X2.3897 Y-30.3094 Z-3.0000 I1.1906 J0.1103 F180.00
G2 X2.5516 Y-30.3054 Z-3.0000 I0.1103 J-1.1906 F180.00
G1 X2.5516 Y-30.3054 Z-3.5000 F180.00
G2 X2.6103 Y-32.6906 Z-3.5000 I-0.0516 J-1.1946 F180.00
G2 X1.3094 Y-31.6103 Z-3.5000 I-0.1103 J1.1906 F180.00
G2 X2.3897 Y-30.3094 Z-3.5000 I1.1906 J0.1103 F180.00
G2 X2.5516 Y-30.3054 Z-3.5000 I0.1103 J-1.1906 F180.00
G0 X2.5516 Y-30.3054 Z5.0000
G0 X2.5514 Y-30.3094 Z5.0000
G0 X2.5514 Y-30.3094 Z-0.5000
G1 X2.5514 Y-30.3094 Z-3.5000 F180.00
G3 X1.3091 Y-31.5517 Z-3.5000 I-0.0598 J-1.1825 F180.00
G1 X2.5514 Y-30.3094 Z-3.5000 F180.00
G2 X3.3836 Y-32.3055 Z-3.5000 I-0.0467 J-1.1910 F180.00
G1 X3.3836 Y-32.3055 Z-4.0000 F180.00
G3 X2.5514 Y-30.3094 Z-4.0000 I-0.8790 J0.8051 F180.00
G1 X1.3091 Y-31.5517 Z-4.0000 F180.00
G2 X2.5514 Y-30.3094 Z-4.0000 I1.1825 J0.0598 F180.00
G0 X2.5514 Y-30.3094 Z5.0000
G0 X2.5516 Y-30.3054 Z5.0000
G0 X2.5516 Y-30.3054 Z-1.0000
G1 X2.5516 Y-30.3054 Z-4.0000 F180.00
G2 X2.6103 Y-32.6906 Z-4.0000 I-0.0516 J-1.1946 F180.00
G2 X1.3094 Y-31.6103 Z-4.0000 I-0.1103 J1.1906 F180.00
G2 X2.3897 Y-30.3094 Z-4.0000 I1.1906 J0.1103 F180.00
G2 X2.5516 Y-30.3054 Z-4.0000 I0.1103 J-1.1906 F180.00
G1 X2.5516 Y-30.3054 Z-4.5000 F180.00
G2 X2.6103 Y-32.6906 Z-4.5000 I-0.0516 J-1.1946 F180.00
G2 X1.3094 Y-31.6103 Z-4.5000 I-0.1103 J1.1906 F180.00
G2 X2.3897 Y-30.3094 Z-4.5000 I1.1906 J0.1103 F180.00
G2 X2.5516 Y-30.3054 Z-4.5000 I0.1103 J-1.1906 F180.00
G0 X2.5516 Y-30.3054 Z5.0000
G0 X2.5514 Y-30.3094 Z5.0000
G0 X2.5514 Y-30.3094 Z-1.5000
G1 X2.5514 Y-30.3094 Z-4.5000 F180.00
G3 X1.3091 Y-31.5517 Z-4.5000 I-0.0598 J-1.1825 F180.00
G1 X2.5514 Y-30.3094 Z-4.5000 F180.00
G2 X3.3836 Y-32.3055 Z-4.5000 I-0.0467 J-1.1910 F180.00
G1 X3.3836 Y-32.3055 Z-5.0000 F180.00
G3 X2.5514 Y-30.3094 Z-5.0000 I-0.8790 J0.8051 F180.00
G1 X1.3091 Y-31.5517 Z-5.0000 F180.00
G2 X2.5514 Y-30.3094 Z-5.0000 I1.1825 J0.0598 F180.00
G0 X2.5514 Y-30.3094 Z5.0000
G0 X2.5516 Y-30.3054 Z5.0000
G0 X2.5516 Y-30.3054 Z-2.0000
G1 X2.5516 Y-30.3054 Z-5.0000 F180.00
G2 X2.6103 Y-32.6906 Z-5.0000 I-0.0516 J-1.1946 F180.00
G2 X1.3094 Y-31.6103 Z-5.0000 I-0.1103 J1.1906 F180.00
G2 X2.3897 Y-30.3094 Z-5.0000 I1.1906 J0.1103 F180.00
G2 X2.5516 Y-30.3054 Z-5.0000 I0.1103 J-1.1906 F180.00
G1 X2.5516 Y-30.3054 Z-5.5000 F180.00
G2 X2.6103 Y-32.6906 Z-5.5000 I-0.0516 J-1.1946 F180.00
G2 X1.3094 Y-31.6103 Z-5.5000 I-0.1103 J1.1906 F180.00
G2 X2.3897 Y-30.3094 Z-5.5000 I1.1906 J0.1103 F180.00
G2 X2.5516 Y-30.3054 Z-5.5000 I0.1103 J-1.1906 F180.00
G0 X2.5516 Y-30.3054 Z5.0000
G0 X2.5514 Y-30.3094 Z5.0000
G0 X2.5514 Y-30.3094 Z-2.5000
G1 X2.5514 Y-30.3094 Z-5.5000 F180.00
G3 X1.3091 Y-31.5517 Z-5.5000 I-0.0598 J-1.1825 F180.00
G1 X2.5514 Y-30.3094 Z-5.5000 F180.00
G2 X3.3836 Y-32.3055 Z-5.5000 I-0.0467 J-1.1910 F180.00
G1 X3.3836 Y-32.3055 Z-6.0000 F180.00
G3 X2.5514 Y-30.3094 Z-6.0000 I-0.8790 J0.8051 F180.00
G1 X1.3091 Y-31.5517 Z-6.0000 F180.00
G2 X2.5514 Y-30.3094 Z-6.0000 I1.1825 J0.0598 F180.00
G0 X2.5514 Y-30.3094 Z5.0000
G0 X2.5516 Y-30.3054 Z5.0000
G0 X2.5516 Y-30.3054 Z-3.0000
G1 X2.5516 Y-30.3054 Z-6.0000 F180.00
G2 X2.6103 Y-32.6906 Z-6.0000 I-0.0516 J-1.1946 F180.00
G2 X1.3094 Y-31.6103 Z-6.0000 I-0.1103 J1.1906 F180.00
G2 X2.3897 Y-30.3094 Z-6.0000 I1.1906 J0.1103 F180.00
G2 X2.5516 Y-30.3054 Z-6.0000 I0.1103 J-1.1906 F180.00
G0 Z5.0000
(finish operation: Pocket_Shape003)
(begin operation: TagDressup001)
(Path: TagDressup001)
G0 Z5.0000
G0 X35.8264 Y-0.1729 Z5.0000
G0 X35.8264 Y-0.1729 Z3.0000
G1 X35.8264 Y-0.1729 Z-0.5000 F180.00
G2 X36.9969 Y-2.9215 Z-0.5000 I-2.8305 J-2.8289 F180.00
G1 X37.0000 Y-47.0000 Z-0.5000 F180.00
G2 X33.0785 Y-50.9969 Z-0.5000 I-4.0018 J0.0041 F180.00
G1 X0.0000 Y-51.0000 Z-0.5000 F180.00
G2 X-1.0000 Y-50.0000 Z-0.5000 I0.0000 J1.0000 F180.00
G1 X-1.0000 Y-0.0000 Z-0.5000 F180.00
G2 X0.0000 Y1.0000 Z-0.5000 I1.0000 J-0.0000 F180.00
G1 X33.0000 Y1.0000 Z-0.5000 F180.00
G2 X35.8264 Y-0.1729 Z-0.5000 I-0.0041 J-4.0018 F180.00
G1 X35.8264 Y-0.1729 Z-1.0000 F180.00
G2 X36.9969 Y-2.9215 Z-1.0000 I-2.8305 J-2.8289 F180.00
G1 X37.0000 Y-47.0000 Z-1.0000 F180.00
G2 X33.0785 Y-50.9969 Z-1.0000 I-4.0018 J0.0041 F180.00
G1 X0.0000 Y-51.0000 Z-1.0000 F180.00
G2 X-1.0000 Y-50.0000 Z-1.0000 I0.0000 J1.0000 F180.00
G1 X-1.0000 Y-0.0000 Z-1.0000 F180.00
G2 X0.0000 Y1.0000 Z-1.0000 I1.0000 J-0.0000 F180.00
G1 X33.0000 Y1.0000 Z-1.0000 F180.00
G2 X35.8264 Y-0.1729 Z-1.0000 I-0.0041 J-4.0018 F180.00
G1 X35.8264 Y-0.1729 Z-1.5000 F180.00
G2 X36.9969 Y-2.9215 Z-1.5000 I-2.8305 J-2.8289 F180.00
G1 X37.0000 Y-47.0000 Z-1.5000 F180.00
G2 X33.0785 Y-50.9969 Z-1.5000 I-4.0018 J0.0041 F180.00
G1 X0.0000 Y-51.0000 Z-1.5000 F180.00
G2 X-1.0000 Y-50.0000 Z-1.5000 I0.0000 J1.0000 F180.00
G1 X-1.0000 Y-0.0000 Z-1.5000 F180.00
G2 X0.0000 Y1.0000 Z-1.5000 I1.0000 J-0.0000 F180.00
G1 X33.0000 Y1.0000 Z-1.5000 F180.00
G2 X35.8264 Y-0.1729 Z-1.5000 I-0.0041 J-4.0018 F180.00
G1 X35.8264 Y-0.1729 Z-2.0000 F180.00
G2 X36.9969 Y-2.9215 Z-2.0000 I-2.8305 J-2.8289 F180.00
G1 X37.0000 Y-47.0000 Z-2.0000 F180.00
G2 X33.0785 Y-50.9969 Z-2.0000 I-4.0018 J0.0041 F180.00
G1 X0.0000 Y-51.0000 Z-2.0000 F180.00
G2 X-1.0000 Y-50.0000 Z-2.0000 I0.0000 J1.0000 F180.00
G1 X-1.0000 Y-0.0000 Z-2.0000 F180.00
G2 X0.0000 Y1.0000 Z-2.0000 I1.0000 J-0.0000 F180.00
G1 X33.0000 Y1.0000 Z-2.0000 F180.00
G2 X35.8264 Y-0.1729 Z-2.0000 I-0.0041 J-4.0018 F180.00
G1 X35.8264 Y-0.1729 Z-2.5000 F180.00
G2 X36.9969 Y-2.9215 Z-2.5000 I-2.8305 J-2.8289 F180.00
G1 X37.0000 Y-47.0000 Z-2.5000 F180.00
G2 X33.0785 Y-50.9969 Z-2.5000 I-4.0018 J0.0041 F180.00
G1 X0.0000 Y-51.0000 Z-2.5000 F180.00
G2 X-1.0000 Y-50.0000 Z-2.5000 I0.0000 J1.0000 F180.00
G1 X-1.0000 Y-0.0000 Z-2.5000 F180.00
G2 X0.0000 Y1.0000 Z-2.5000 I1.0000 J-0.0000 F180.00
G1 X33.0000 Y1.0000 Z-2.5000 F180.00
G2 X35.8264 Y-0.1729 Z-2.5000 I-0.0041 J-4.0018 F180.00
G1 X35.8264 Y-0.1729 Z-3.0000 F180.00
G2 X36.9969 Y-2.9215 Z-3.0000 I-2.8305 J-2.8289 F180.00
G1 X37.0000 Y-47.0000 Z-3.0000 F180.00
G2 X33.0785 Y-50.9969 Z-3.0000 I-4.0018 J0.0041 F180.00
G1 X0.0000 Y-51.0000 Z-3.0000 F180.00
G2 X-1.0000 Y-50.0000 Z-3.0000 I0.0000 J1.0000 F180.00
G1 X-1.0000 Y-0.0000 Z-3.0000 F180.00
G2 X0.0000 Y1.0000 Z-3.0000 I1.0000 J-0.0000 F180.00
G1 X33.0000 Y1.0000 Z-3.0000 F180.00
G2 X35.8264 Y-0.1729 Z-3.0000 I-0.0041 J-4.0018 F180.00
G1 X35.8264 Y-0.1729 Z-3.5000 F180.00
G2 X36.9969 Y-2.9215 Z-3.5000 I-2.8305 J-2.8289 F180.00
G1 X36.9976 Y-12.9712 Z-3.5000 F180.00
G1 X36.9977 Y-13.4712 Z-3.0000 F180.00
G1 X36.9977 Y-14.4112 Z-3.0000 F180.00
G1 X36.9978 Y-14.9112 Z-3.5000 F180.00
G1 X36.9992 Y-35.0104 Z-3.5000 F180.00
G1 X36.9992 Y-35.5104 Z-3.0000 F180.00
G1 X36.9993 Y-36.4504 Z-3.0000 F180.00
G1 X36.9993 Y-36.9504 Z-3.5000 F180.00
G1 X37.0000 Y-47.0000 Z-3.5000 F180.00
G2 X33.0785 Y-50.9969 Z-3.5000 I-4.0018 J0.0041 F180.00
G1 X0.0000 Y-51.0000 Z-3.5000 F180.00
G2 X-1.0000 Y-50.0000 Z-3.5000 I0.0000 J1.0000 F180.00
G1 X-1.0000 Y-38.4700 Z-3.5000 F180.00
G1 X-1.0000 Y-37.9700 Z-3.0000 F180.00
G1 X-1.0000 Y-37.0300 Z-3.0000 F180.00
G1 X-1.0000 Y-36.5300 Z-3.5000 F180.00
G1 X-1.0000 Y-13.4700 Z-3.5000 F180.00
G1 X-1.0000 Y-12.9700 Z-3.0000 F180.00
G1 X-1.0000 Y-12.0300 Z-3.0000 F180.00
G1 X-1.0000 Y-11.5300 Z-3.5000 F180.00
G1 X-1.0000 Y-0.0000 Z-3.5000 F180.00
G2 X0.0000 Y1.0000 Z-3.5000 I1.0000 J-0.0000 F180.00
G1 X33.0000 Y1.0000 Z-3.5000 F180.00
G2 X35.8264 Y-0.1729 Z-3.5000 I-0.0041 J-4.0018 F180.00
G1 X35.8264 Y-0.1729 Z-4.0000 F180.00
G2 X36.9969 Y-2.9215 Z-4.0000 I-2.8305 J-2.8289 F180.00
G1 X36.9976 Y-12.4712 Z-4.0000 F180.00
G1 X36.9977 Y-13.4712 Z-3.0000 F180.00
G1 X36.9977 Y-14.4112 Z-3.0000 F180.00
G1 X36.9978 Y-15.4112 Z-4.0000 F180.00
G1 X36.9991 Y-34.5104 Z-4.0000 F180.00
G1 X36.9992 Y-35.5104 Z-3.0000 F180.00
G1 X36.9993 Y-36.4504 Z-3.0000 F180.00
G1 X36.9993 Y-37.4504 Z-4.0000 F180.00
G1 X37.0000 Y-47.0000 Z-4.0000 F180.00
G2 X33.0785 Y-50.9969 Z-4.0000 I-4.0018 J0.0041 F180.00
G1 X0.0000 Y-51.0000 Z-4.0000 F180.00
G2 X-1.0000 Y-50.0000 Z-4.0000 I0.0000 J1.0000 F180.00
G1 X-1.0000 Y-38.9700 Z-4.0000 F180.00
G1 X-1.0000 Y-37.9700 Z-3.0000 F180.00
G1 X-1.0000 Y-37.0300 Z-3.0000 F180.00
G1 X-1.0000 Y-36.0300 Z-4.0000 F180.00
G1 X-1.0000 Y-13.9700 Z-4.0000 F180.00
G1 X-1.0000 Y-12.9700 Z-3.0000 F180.00
G1 X-1.0000 Y-12.0300 Z-3.0000 F180.00
G1 X-1.0000 Y-11.0300 Z-4.0000 F180.00
G1 X-1.0000 Y-0.0000 Z-4.0000 F180.00
G2 X0.0000 Y1.0000 Z-4.0000 I1.0000 J-0.0000 F180.00
G1 X33.0000 Y1.0000 Z-4.0000 F180.00
G2 X35.8264 Y-0.1729 Z-4.0000 I-0.0041 J-4.0018 F180.00
G1 X35.8264 Y-0.1729 Z-4.5000 F180.00
G2 X36.9969 Y-2.9215 Z-4.5000 I-2.8305 J-2.8289 F180.00
G1 X36.9976 Y-11.9712 Z-4.5000 F180.00
G1 X36.9977 Y-13.4712 Z-3.0000 F180.00
G1 X36.9977 Y-14.4112 Z-3.0000 F180.00
G1 X36.9978 Y-15.9112 Z-4.5000 F180.00
G1 X36.9991 Y-34.0104 Z-4.5000 F180.00
G1 X36.9992 Y-35.5104 Z-3.0000 F180.00
G1 X36.9993 Y-36.4504 Z-3.0000 F180.00
G1 X36.9994 Y-37.9504 Z-4.5000 F180.00
G1 X37.0000 Y-47.0000 Z-4.5000 F180.00
G2 X33.0785 Y-50.9969 Z-4.5000 I-4.0018 J0.0041 F180.00
G1 X0.0000 Y-51.0000 Z-4.5000 F180.00
G2 X-1.0000 Y-50.0000 Z-4.5000 I0.0000 J1.0000 F180.00
G1 X-1.0000 Y-39.4700 Z-4.5000 F180.00
G1 X-1.0000 Y-37.9700 Z-3.0000 F180.00
G1 X-1.0000 Y-37.0300 Z-3.0000 F180.00
G1 X-1.0000 Y-35.5300 Z-4.5000 F180.00
G1 X-1.0000 Y-14.4700 Z-4.5000 F180.00
G1 X-1.0000 Y-12.9700 Z-3.0000 F180.00
G1 X-1.0000 Y-12.0300 Z-3.0000 F180.00
G1 X-1.0000 Y-10.5300 Z-4.5000 F180.00
G1 X-1.0000 Y-0.0000 Z-4.5000 F180.00
G2 X0.0000 Y1.0000 Z-4.5000 I1.0000 J-0.0000 F180.00
G1 X33.0000 Y1.0000 Z-4.5000 F180.00
G2 X35.8264 Y-0.1729 Z-4.5000 I-0.0041 J-4.0018 F180.00
G1 X35.8264 Y-0.1729 Z-5.0000 F180.00
G2 X36.9969 Y-2.9215 Z-5.0000 I-2.8305 J-2.8289 F180.00
G1 X36.9975 Y-11.4712 Z-5.0000 F180.00
G1 X36.9977 Y-13.4712 Z-3.0000 F180.00
G1 X36.9977 Y-14.4112 Z-3.0000 F180.00
G1 X36.9979 Y-16.4112 Z-5.0000 F180.00
G1 X36.9991 Y-33.5104 Z-5.0000 F180.00
G1 X36.9992 Y-35.5104 Z-3.0000 F180.00
G1 X36.9993 Y-36.4504 Z-3.0000 F180.00
G1 X36.9994 Y-38.4504 Z-5.0000 F180.00
G1 X37.0000 Y-47.0000 Z-5.0000 F180.00
G2 X33.0785 Y-50.9969 Z-5.0000 I-4.0018 J0.0041 F180.00
G1 X0.0000 Y-51.0000 Z-5.0000 F180.00
G2 X-1.0000 Y-50.0000 Z-5.0000 I0.0000 J1.0000 F180.00
G1 X-1.0000 Y-39.9700 Z-5.0000 F180.00
G1 X-1.0000 Y-37.9700 Z-3.0000 F180.00
G1 X-1.0000 Y-37.0300 Z-3.0000 F180.00
G1 X-1.0000 Y-35.0300 Z-5.0000 F180.00
G1 X-1.0000 Y-14.9700 Z-5.0000 F180.00
G1 X-1.0000 Y-12.9700 Z-3.0000 F180.00
G1 X-1.0000 Y-12.0300 Z-3.0000 F180.00
G1 X-1.0000 Y-10.0300 Z-5.0000 F180.00
G1 X-1.0000 Y-0.0000 Z-5.0000 F180.00
G2 X0.0000 Y1.0000 Z-5.0000 I1.0000 J-0.0000 F180.00
G1 X33.0000 Y1.0000 Z-5.0000 F180.00
G2 X35.8264 Y-0.1729 Z-5.0000 I-0.0041 J-4.0018 F180.00
G1 X35.8264 Y-0.1729 Z-5.5000 F180.00
G2 X36.9969 Y-2.9215 Z-5.5000 I-2.8305 J-2.8289 F180.00
G1 X36.9975 Y-10.9712 Z-5.5000 F180.00
G1 X36.9977 Y-13.4712 Z-3.0000 F180.00
G1 X36.9977 Y-14.4112 Z-3.0000 F180.00
G1 X36.9979 Y-16.9112 Z-5.5000 F180.00
G1 X36.9990 Y-33.0104 Z-5.5000 F180.00
G1 X36.9992 Y-35.5104 Z-3.0000 F180.00
G1 X36.9993 Y-36.4504 Z-3.0000 F180.00
G1 X36.9994 Y-38.9504 Z-5.5000 F180.00
G1 X37.0000 Y-47.0000 Z-5.5000 F180.00
G2 X33.0785 Y-50.9969 Z-5.5000 I-4.0018 J0.0041 F180.00
G1 X0.0000 Y-51.0000 Z-5.5000 F180.00
G2 X-1.0000 Y-50.0000 Z-5.5000 I0.0000 J1.0000 F180.00
G1 X-1.0000 Y-40.4700 Z-5.5000 F180.00
G1 X-1.0000 Y-37.9700 Z-3.0000 F180.00
G1 X-1.0000 Y-37.0300 Z-3.0000 F180.00
G1 X-1.0000 Y-34.5300 Z-5.5000 F180.00
G1 X-1.0000 Y-15.4700 Z-5.5000 F180.00
G1 X-1.0000 Y-12.9700 Z-3.0000 F180.00
G1 X-1.0000 Y-12.0300 Z-3.0000 F180.00
G1 X-1.0000 Y-9.5300 Z-5.5000 F180.00
G1 X-1.0000 Y-0.0000 Z-5.5000 F180.00
G2 X0.0000 Y1.0000 Z-5.5000 I1.0000 J-0.0000 F180.00
G1 X33.0000 Y1.0000 Z-5.5000 F180.00
G2 X35.8264 Y-0.1729 Z-5.5000 I-0.0041 J-4.0018 F180.00
G1 X35.8264 Y-0.1729 Z-6.0000 F180.00
G2 X36.9969 Y-2.9215 Z-6.0000 I-2.8305 J-2.8289 F180.00
G1 X36.9974 Y-10.4712 Z-6.0000 F180.00
G1 X36.9977 Y-13.4712 Z-3.0000 F180.00
G1 X36.9977 Y-14.4112 Z-3.0000 F180.00
G1 X36.9979 Y-17.4112 Z-6.0000 F180.00
G1 X36.9990 Y-32.5104 Z-6.0000 F180.00
G1 X36.9992 Y-35.5104 Z-3.0000 F180.00
G1 X36.9993 Y-36.4504 Z-3.0000 F180.00
G1 X36.9995 Y-39.4504 Z-6.0000 F180.00
G1 X37.0000 Y-47.0000 Z-6.0000 F180.00
G2 X33.0785 Y-50.9969 Z-6.0000 I-4.0018 J0.0041 F180.00
G1 X0.0000 Y-51.0000 Z-6.0000 F180.00
G2 X-1.0000 Y-50.0000 Z-6.0000 I0.0000 J1.0000 F180.00
G1 X-1.0000 Y-40.9700 Z-6.0000 F180.00
G1 X-1.0000 Y-37.9700 Z-3.0000 F180.00
G1 X-1.0000 Y-37.0300 Z-3.0000 F180.00
G1 X-1.0000 Y-34.0300 Z-6.0000 F180.00
G1 X-1.0000 Y-15.9700 Z-6.0000 F180.00
G1 X-1.0000 Y-12.9700 Z-3.0000 F180.00
G1 X-1.0000 Y-12.0300 Z-3.0000 F180.00
G1 X-1.0000 Y-9.0300 Z-6.0000 F180.00
G1 X-1.0000 Y-0.0000 Z-6.0000 F180.00
G2 X0.0000 Y1.0000 Z-6.0000 I1.0000 J-0.0000 F180.00
G1 X33.0000 Y1.0000 Z-6.0000 F180.00
G2 X35.8264 Y-0.1729 Z-6.0000 I-0.0041 J-4.0018 F180.00
G0 X35.8264 Y-0.1729 Z5.0000
(finish operation: TagDressup001)
(begin postamble)
M5
G17 G90
; M2
