(Exported by FreeCAD)
(Post Processor: grbl_post)
(Output Time:2020-11-15 12:51:03.563513)
(begin preamble)
G17 G90
G21
(begin operation: Default Tool002)
(Path: Default Tool002)
(Default Tool002)
(begin toolchange)
; M6 T1
M3 S800.0000
(finish operation: Default Tool002)
(begin operation: Pocket_Shape005)
(Path: Pocket_Shape005)
(Pocket_Shape005)
G0 Z5.0000
G0 X38.5000 Y-1.0000
G0 Z3.0000
G1 X38.5000 Y-1.0000 Z-0.5000 F180.00
G1 X38.5000 Y-38.0000 Z-0.5000 F180.00
G1 X25.0000 Y-38.0000 Z-0.5000 F180.00
G1 X25.0000 Y-35.0000 Z-0.5000 F180.00
G3 X24.0000 Y-34.0000 Z-0.5000 I-1.0000 J0.0000 F180.00
G1 X18.0000 Y-34.0000 Z-0.5000 F180.00
G1 X18.0000 Y-22.0000 Z-0.5000 F180.00
G1 X29.5000 Y-22.0000 Z-0.5000 F180.00
G3 X30.5000 Y-21.0000 Z-0.5000 I-0.0000 J1.0000 F180.00
G1 X30.5000 Y-1.0000 Z-0.5000 F180.00
G1 X38.5000 Y-1.0000 Z-0.5000 F180.00
G0 X38.5000 Y-1.0000 Z5.0000
G0 X33.0736 Y-1.0000 Z5.0000
G0 X33.0736 Y-1.0000 Z2.5000
G1 X33.0736 Y-1.0000 Z-0.5000 F180.00
G1 X30.5000 Y-3.5736 Z-0.5000 F180.00
G1 X30.5000 Y-1.0000 Z-0.5000 F180.00
G1 X33.0736 Y-1.0000 Z-0.5000 F180.00
G1 X35.9020 Y-1.0000 Z-0.5000 F180.00
G1 X30.5000 Y-6.4020 Z-0.5000 F180.00
G1 X30.5000 Y-9.2304 Z-0.5000 F180.00
G1 X38.5000 Y-1.2304 Z-0.5000 F180.00
G1 X38.5000 Y-4.0589 Z-0.5000 F180.00
G1 X30.5000 Y-12.0589 Z-0.5000 F180.00
G1 X30.5000 Y-14.8873 Z-0.5000 F180.00
G1 X38.5000 Y-6.8873 Z-0.5000 F180.00
G1 X38.5000 Y-9.7157 Z-0.5000 F180.00
G1 X30.5000 Y-17.7157 Z-0.5000 F180.00
G1 X30.5000 Y-20.5442 Z-0.5000 F180.00
G1 X38.5000 Y-12.5442 Z-0.5000 F180.00
G1 X38.5000 Y-15.3726 Z-0.5000 F180.00
G1 X19.8726 Y-34.0000 Z-0.5000 F180.00
G1 X22.7010 Y-34.0000 Z-0.5000 F180.00
G1 X38.5000 Y-18.2010 Z-0.5000 F180.00
G1 X38.5000 Y-21.0294 Z-0.5000 F180.00
G1 X24.9139 Y-34.6155 Z-0.5000 F180.00
G2 X25.0000 Y-35.0000 Z-0.5000 I-0.6743 J-0.3529 F180.00
G1 X25.0000 Y-37.3579 Z-0.5000 F180.00
G1 X38.5000 Y-23.8579 Z-0.5000 F180.00
G1 X38.5000 Y-26.6863 Z-0.5000 F180.00
G1 X27.1863 Y-38.0000 Z-0.5000 F180.00
G1 X30.0147 Y-38.0000 Z-0.5000 F180.00
G1 X38.5000 Y-29.5147 Z-0.5000 F180.00
G1 X38.5000 Y-32.3431 Z-0.5000 F180.00
G1 X32.8431 Y-38.0000 Z-0.5000 F180.00
G1 X35.6716 Y-38.0000 Z-0.5000 F180.00
G1 X38.5000 Y-35.1716 Z-0.5000 F180.00
G1 X38.5000 Y-38.0000 Z-0.5000 F180.00
G0 X38.5000 Y-38.0000 Z5.0000
G0 X29.0442 Y-22.0000 Z5.0000
G0 X29.0442 Y-22.0000 Z2.5000
G1 X29.0442 Y-22.0000 Z-0.5000 F180.00
G1 X18.0000 Y-33.0442 Z-0.5000 F180.00
G1 X18.0000 Y-30.2157 Z-0.5000 F180.00
G1 X26.2157 Y-22.0000 Z-0.5000 F180.00
G1 X23.3873 Y-22.0000 Z-0.5000 F180.00
G1 X18.0000 Y-27.3873 Z-0.5000 F180.00
G1 X18.0000 Y-24.5589 Z-0.5000 F180.00
G1 X20.5589 Y-22.0000 Z-0.5000 F180.00
G1 X18.0000 Y-22.0000 Z-0.5000 F180.00
G1 X18.0000 Y-24.5589 Z-0.5000 F180.00
G1 X18.0000 Y-24.5589 Z-1.0000 F180.00
G1 X18.0000 Y-22.0000 Z-1.0000 F180.00
G1 X20.5589 Y-22.0000 Z-1.0000 F180.00
G1 X18.0000 Y-24.5589 Z-1.0000 F180.00
G1 X18.0000 Y-27.3873 Z-1.0000 F180.00
G1 X23.3873 Y-22.0000 Z-1.0000 F180.00
G1 X26.2157 Y-22.0000 Z-1.0000 F180.00
G1 X18.0000 Y-30.2157 Z-1.0000 F180.00
G1 X18.0000 Y-33.0442 Z-1.0000 F180.00
G1 X29.0442 Y-22.0000 Z-1.0000 F180.00
G1 X29.0442 Y-22.0000 Z-1.0000 F180.00
G1 X29.5000 Y-22.0000 Z-1.0000 F180.00
G3 X30.5000 Y-21.0000 Z-1.0000 I-0.0000 J1.0000 F180.00
G1 X30.5000 Y-1.0000 Z-1.0000 F180.00
G1 X38.5000 Y-1.0000 Z-1.0000 F180.00
G1 X38.5000 Y-38.0000 Z-1.0000 F180.00
G1 X25.0000 Y-38.0000 Z-1.0000 F180.00
G1 X25.0000 Y-35.0000 Z-1.0000 F180.00
G3 X24.0000 Y-34.0000 Z-1.0000 I-1.0000 J0.0000 F180.00
G1 X18.0000 Y-34.0000 Z-1.0000 F180.00
G1 X18.0000 Y-22.0000 Z-1.0000 F180.00
G1 X29.0442 Y-22.0000 Z-1.0000 F180.00
G0 X29.0442 Y-22.0000 Z5.0000
G0 X38.5000 Y-38.0000 Z5.0000
G0 X38.5000 Y-38.0000 Z2.0000
G1 X38.5000 Y-38.0000 Z-1.0000 F180.00
G1 X38.5000 Y-35.1716 Z-1.0000 F180.00
G1 X35.6716 Y-38.0000 Z-1.0000 F180.00
G1 X32.8431 Y-38.0000 Z-1.0000 F180.00
G1 X38.5000 Y-32.3431 Z-1.0000 F180.00
G1 X38.5000 Y-29.5147 Z-1.0000 F180.00
G1 X30.0147 Y-38.0000 Z-1.0000 F180.00
G1 X27.1863 Y-38.0000 Z-1.0000 F180.00
G1 X38.5000 Y-26.6863 Z-1.0000 F180.00
G1 X38.5000 Y-23.8579 Z-1.0000 F180.00
G1 X25.0000 Y-37.3579 Z-1.0000 F180.00
G1 X25.0000 Y-35.0000 Z-1.0000 F180.00
G3 X24.9139 Y-34.6155 Z-1.0000 I-0.7604 J0.0315 F180.00
G1 X38.5000 Y-21.0294 Z-1.0000 F180.00
G1 X38.5000 Y-18.2010 Z-1.0000 F180.00
G1 X22.7010 Y-34.0000 Z-1.0000 F180.00
G1 X19.8726 Y-34.0000 Z-1.0000 F180.00
G1 X38.5000 Y-15.3726 Z-1.0000 F180.00
G1 X38.5000 Y-12.5442 Z-1.0000 F180.00
G1 X30.5000 Y-20.5442 Z-1.0000 F180.00
G1 X30.5000 Y-17.7157 Z-1.0000 F180.00
G1 X38.5000 Y-9.7157 Z-1.0000 F180.00
G1 X38.5000 Y-6.8873 Z-1.0000 F180.00
G1 X30.5000 Y-14.8873 Z-1.0000 F180.00
G1 X30.5000 Y-12.0589 Z-1.0000 F180.00
G1 X38.5000 Y-4.0589 Z-1.0000 F180.00
G1 X38.5000 Y-1.2304 Z-1.0000 F180.00
G1 X30.5000 Y-9.2304 Z-1.0000 F180.00
G1 X30.5000 Y-6.4020 Z-1.0000 F180.00
G1 X35.9020 Y-1.0000 Z-1.0000 F180.00
G1 X33.0736 Y-1.0000 Z-1.0000 F180.00
G1 X30.5000 Y-1.0000 Z-1.0000 F180.00
G1 X30.5000 Y-3.5736 Z-1.0000 F180.00
G1 X33.0736 Y-1.0000 Z-1.0000 F180.00
G1 X33.0736 Y-1.0000 Z-1.5000 F180.00
G1 X30.5000 Y-3.5736 Z-1.5000 F180.00
G1 X30.5000 Y-1.0000 Z-1.5000 F180.00
G1 X33.0736 Y-1.0000 Z-1.5000 F180.00
G1 X35.9020 Y-1.0000 Z-1.5000 F180.00
G1 X30.5000 Y-6.4020 Z-1.5000 F180.00
G1 X30.5000 Y-9.2304 Z-1.5000 F180.00
G1 X38.5000 Y-1.2304 Z-1.5000 F180.00
G1 X38.5000 Y-4.0589 Z-1.5000 F180.00
G1 X30.5000 Y-12.0589 Z-1.5000 F180.00
G1 X30.5000 Y-14.8873 Z-1.5000 F180.00
G1 X38.5000 Y-6.8873 Z-1.5000 F180.00
G1 X38.5000 Y-9.7157 Z-1.5000 F180.00
G1 X30.5000 Y-17.7157 Z-1.5000 F180.00
G1 X30.5000 Y-20.5442 Z-1.5000 F180.00
G1 X38.5000 Y-12.5442 Z-1.5000 F180.00
G1 X38.5000 Y-15.3726 Z-1.5000 F180.00
G1 X19.8726 Y-34.0000 Z-1.5000 F180.00
G1 X22.7010 Y-34.0000 Z-1.5000 F180.00
G1 X38.5000 Y-18.2010 Z-1.5000 F180.00
G1 X38.5000 Y-21.0294 Z-1.5000 F180.00
G1 X24.9139 Y-34.6155 Z-1.5000 F180.00
G2 X25.0000 Y-35.0000 Z-1.5000 I-0.6743 J-0.3529 F180.00
G1 X25.0000 Y-37.3579 Z-1.5000 F180.00
G1 X38.5000 Y-23.8579 Z-1.5000 F180.00
G1 X38.5000 Y-26.6863 Z-1.5000 F180.00
G1 X27.1863 Y-38.0000 Z-1.5000 F180.00
G1 X30.0147 Y-38.0000 Z-1.5000 F180.00
G1 X38.5000 Y-29.5147 Z-1.5000 F180.00
G1 X38.5000 Y-32.3431 Z-1.5000 F180.00
G1 X32.8431 Y-38.0000 Z-1.5000 F180.00
G1 X35.6716 Y-38.0000 Z-1.5000 F180.00
G1 X38.5000 Y-35.1716 Z-1.5000 F180.00
G1 X38.5000 Y-38.0000 Z-1.5000 F180.00
G1 X38.5000 Y-38.0000 Z-1.5000 F180.00
G1 X25.0000 Y-38.0000 Z-1.5000 F180.00
G1 X25.0000 Y-35.0000 Z-1.5000 F180.00
G3 X24.0000 Y-34.0000 Z-1.5000 I-1.0000 J0.0000 F180.00
G1 X18.0000 Y-34.0000 Z-1.5000 F180.00
G1 X18.0000 Y-22.0000 Z-1.5000 F180.00
G1 X29.5000 Y-22.0000 Z-1.5000 F180.00
G3 X30.5000 Y-21.0000 Z-1.5000 I-0.0000 J1.0000 F180.00
G1 X30.5000 Y-1.0000 Z-1.5000 F180.00
G1 X38.5000 Y-1.0000 Z-1.5000 F180.00
G1 X38.5000 Y-38.0000 Z-1.5000 F180.00
G0 X38.5000 Y-38.0000 Z5.0000
G0 X29.0442 Y-22.0000 Z5.0000
G0 X29.0442 Y-22.0000 Z1.5000
G1 X29.0442 Y-22.0000 Z-1.5000 F180.00
G1 X18.0000 Y-33.0442 Z-1.5000 F180.00
G1 X18.0000 Y-30.2157 Z-1.5000 F180.00
G1 X26.2157 Y-22.0000 Z-1.5000 F180.00
G1 X23.3873 Y-22.0000 Z-1.5000 F180.00
G1 X18.0000 Y-27.3873 Z-1.5000 F180.00
G1 X18.0000 Y-24.5589 Z-1.5000 F180.00
G1 X20.5589 Y-22.0000 Z-1.5000 F180.00
G1 X18.0000 Y-22.0000 Z-1.5000 F180.00
G1 X18.0000 Y-24.5589 Z-1.5000 F180.00
G1 X18.0000 Y-24.5589 Z-2.0000 F180.00
G1 X18.0000 Y-22.0000 Z-2.0000 F180.00
G1 X20.5589 Y-22.0000 Z-2.0000 F180.00
G1 X18.0000 Y-24.5589 Z-2.0000 F180.00
G1 X18.0000 Y-27.3873 Z-2.0000 F180.00
G1 X23.3873 Y-22.0000 Z-2.0000 F180.00
G1 X26.2157 Y-22.0000 Z-2.0000 F180.00
G1 X18.0000 Y-30.2157 Z-2.0000 F180.00
G1 X18.0000 Y-33.0442 Z-2.0000 F180.00
G1 X29.0442 Y-22.0000 Z-2.0000 F180.00
G1 X29.0442 Y-22.0000 Z-2.0000 F180.00
G1 X29.5000 Y-22.0000 Z-2.0000 F180.00
G3 X30.5000 Y-21.0000 Z-2.0000 I-0.0000 J1.0000 F180.00
G1 X30.5000 Y-1.0000 Z-2.0000 F180.00
G1 X38.5000 Y-1.0000 Z-2.0000 F180.00
G1 X38.5000 Y-38.0000 Z-2.0000 F180.00
G1 X25.0000 Y-38.0000 Z-2.0000 F180.00
G1 X25.0000 Y-35.0000 Z-2.0000 F180.00
G3 X24.0000 Y-34.0000 Z-2.0000 I-1.0000 J0.0000 F180.00
G1 X18.0000 Y-34.0000 Z-2.0000 F180.00
G1 X18.0000 Y-22.0000 Z-2.0000 F180.00
G1 X29.0442 Y-22.0000 Z-2.0000 F180.00
G0 X29.0442 Y-22.0000 Z5.0000
G0 X38.5000 Y-38.0000 Z5.0000
G0 X38.5000 Y-38.0000 Z1.0000
G1 X38.5000 Y-38.0000 Z-2.0000 F180.00
G1 X38.5000 Y-35.1716 Z-2.0000 F180.00
G1 X35.6716 Y-38.0000 Z-2.0000 F180.00
G1 X32.8431 Y-38.0000 Z-2.0000 F180.00
G1 X38.5000 Y-32.3431 Z-2.0000 F180.00
G1 X38.5000 Y-29.5147 Z-2.0000 F180.00
G1 X30.0147 Y-38.0000 Z-2.0000 F180.00
G1 X27.1863 Y-38.0000 Z-2.0000 F180.00
G1 X38.5000 Y-26.6863 Z-2.0000 F180.00
G1 X38.5000 Y-23.8579 Z-2.0000 F180.00
G1 X25.0000 Y-37.3579 Z-2.0000 F180.00
G1 X25.0000 Y-35.0000 Z-2.0000 F180.00
G3 X24.9139 Y-34.6155 Z-2.0000 I-0.7604 J0.0315 F180.00
G1 X38.5000 Y-21.0294 Z-2.0000 F180.00
G1 X38.5000 Y-18.2010 Z-2.0000 F180.00
G1 X22.7010 Y-34.0000 Z-2.0000 F180.00
G1 X19.8726 Y-34.0000 Z-2.0000 F180.00
G1 X38.5000 Y-15.3726 Z-2.0000 F180.00
G1 X38.5000 Y-12.5442 Z-2.0000 F180.00
G1 X30.5000 Y-20.5442 Z-2.0000 F180.00
G1 X30.5000 Y-17.7157 Z-2.0000 F180.00
G1 X38.5000 Y-9.7157 Z-2.0000 F180.00
G1 X38.5000 Y-6.8873 Z-2.0000 F180.00
G1 X30.5000 Y-14.8873 Z-2.0000 F180.00
G1 X30.5000 Y-12.0589 Z-2.0000 F180.00
G1 X38.5000 Y-4.0589 Z-2.0000 F180.00
G1 X38.5000 Y-1.2304 Z-2.0000 F180.00
G1 X30.5000 Y-9.2304 Z-2.0000 F180.00
G1 X30.5000 Y-6.4020 Z-2.0000 F180.00
G1 X35.9020 Y-1.0000 Z-2.0000 F180.00
G1 X33.0736 Y-1.0000 Z-2.0000 F180.00
G1 X30.5000 Y-1.0000 Z-2.0000 F180.00
G1 X30.5000 Y-3.5736 Z-2.0000 F180.00
G1 X33.0736 Y-1.0000 Z-2.0000 F180.00
G1 X33.0736 Y-1.0000 Z-2.5000 F180.00
G1 X30.5000 Y-3.5736 Z-2.5000 F180.00
G1 X30.5000 Y-1.0000 Z-2.5000 F180.00
G1 X33.0736 Y-1.0000 Z-2.5000 F180.00
G1 X35.9020 Y-1.0000 Z-2.5000 F180.00
G1 X30.5000 Y-6.4020 Z-2.5000 F180.00
G1 X30.5000 Y-9.2304 Z-2.5000 F180.00
G1 X38.5000 Y-1.2304 Z-2.5000 F180.00
G1 X38.5000 Y-4.0589 Z-2.5000 F180.00
G1 X30.5000 Y-12.0589 Z-2.5000 F180.00
G1 X30.5000 Y-14.8873 Z-2.5000 F180.00
G1 X38.5000 Y-6.8873 Z-2.5000 F180.00
G1 X38.5000 Y-9.7157 Z-2.5000 F180.00
G1 X30.5000 Y-17.7157 Z-2.5000 F180.00
G1 X30.5000 Y-20.5442 Z-2.5000 F180.00
G1 X38.5000 Y-12.5442 Z-2.5000 F180.00
G1 X38.5000 Y-15.3726 Z-2.5000 F180.00
G1 X19.8726 Y-34.0000 Z-2.5000 F180.00
G1 X22.7010 Y-34.0000 Z-2.5000 F180.00
G1 X38.5000 Y-18.2010 Z-2.5000 F180.00
G1 X38.5000 Y-21.0294 Z-2.5000 F180.00
G1 X24.9139 Y-34.6155 Z-2.5000 F180.00
G2 X25.0000 Y-35.0000 Z-2.5000 I-0.6743 J-0.3529 F180.00
G1 X25.0000 Y-37.3579 Z-2.5000 F180.00
G1 X38.5000 Y-23.8579 Z-2.5000 F180.00
G1 X38.5000 Y-26.6863 Z-2.5000 F180.00
G1 X27.1863 Y-38.0000 Z-2.5000 F180.00
G1 X30.0147 Y-38.0000 Z-2.5000 F180.00
G1 X38.5000 Y-29.5147 Z-2.5000 F180.00
G1 X38.5000 Y-32.3431 Z-2.5000 F180.00
G1 X32.8431 Y-38.0000 Z-2.5000 F180.00
G1 X35.6716 Y-38.0000 Z-2.5000 F180.00
G1 X38.5000 Y-35.1716 Z-2.5000 F180.00
G1 X38.5000 Y-38.0000 Z-2.5000 F180.00
G1 X38.5000 Y-38.0000 Z-2.5000 F180.00
G1 X25.0000 Y-38.0000 Z-2.5000 F180.00
G1 X25.0000 Y-35.0000 Z-2.5000 F180.00
G3 X24.0000 Y-34.0000 Z-2.5000 I-1.0000 J0.0000 F180.00
G1 X18.0000 Y-34.0000 Z-2.5000 F180.00
G1 X18.0000 Y-22.0000 Z-2.5000 F180.00
G1 X29.5000 Y-22.0000 Z-2.5000 F180.00
G3 X30.5000 Y-21.0000 Z-2.5000 I-0.0000 J1.0000 F180.00
G1 X30.5000 Y-1.0000 Z-2.5000 F180.00
G1 X38.5000 Y-1.0000 Z-2.5000 F180.00
G1 X38.5000 Y-38.0000 Z-2.5000 F180.00
G0 X38.5000 Y-38.0000 Z5.0000
G0 X29.0442 Y-22.0000 Z5.0000
G0 X29.0442 Y-22.0000 Z0.5000
G1 X29.0442 Y-22.0000 Z-2.5000 F180.00
G1 X18.0000 Y-33.0442 Z-2.5000 F180.00
G1 X18.0000 Y-30.2157 Z-2.5000 F180.00
G1 X26.2157 Y-22.0000 Z-2.5000 F180.00
G1 X23.3873 Y-22.0000 Z-2.5000 F180.00
G1 X18.0000 Y-27.3873 Z-2.5000 F180.00
G1 X18.0000 Y-24.5589 Z-2.5000 F180.00
G1 X20.5589 Y-22.0000 Z-2.5000 F180.00
G1 X18.0000 Y-22.0000 Z-2.5000 F180.00
G1 X18.0000 Y-24.5589 Z-2.5000 F180.00
G1 X18.0000 Y-24.5589 Z-3.0000 F180.00
G1 X18.0000 Y-22.0000 Z-3.0000 F180.00
G1 X20.5589 Y-22.0000 Z-3.0000 F180.00
G1 X18.0000 Y-24.5589 Z-3.0000 F180.00
G1 X18.0000 Y-27.3873 Z-3.0000 F180.00
G1 X23.3873 Y-22.0000 Z-3.0000 F180.00
G1 X26.2157 Y-22.0000 Z-3.0000 F180.00
G1 X18.0000 Y-30.2157 Z-3.0000 F180.00
G1 X18.0000 Y-33.0442 Z-3.0000 F180.00
G1 X29.0442 Y-22.0000 Z-3.0000 F180.00
G1 X29.0442 Y-22.0000 Z-3.0000 F180.00
G1 X29.5000 Y-22.0000 Z-3.0000 F180.00
G3 X30.5000 Y-21.0000 Z-3.0000 I-0.0000 J1.0000 F180.00
G1 X30.5000 Y-1.0000 Z-3.0000 F180.00
G1 X38.5000 Y-1.0000 Z-3.0000 F180.00
G1 X38.5000 Y-38.0000 Z-3.0000 F180.00
G1 X25.0000 Y-38.0000 Z-3.0000 F180.00
G1 X25.0000 Y-35.0000 Z-3.0000 F180.00
G3 X24.0000 Y-34.0000 Z-3.0000 I-1.0000 J0.0000 F180.00
G1 X18.0000 Y-34.0000 Z-3.0000 F180.00
G1 X18.0000 Y-22.0000 Z-3.0000 F180.00
G1 X29.0442 Y-22.0000 Z-3.0000 F180.00
G0 X29.0442 Y-22.0000 Z5.0000
G0 X38.5000 Y-38.0000 Z5.0000
G0 X38.5000 Y-38.0000 Z0.0000
G1 X38.5000 Y-38.0000 Z-3.0000 F180.00
G1 X38.5000 Y-35.1716 Z-3.0000 F180.00
G1 X35.6716 Y-38.0000 Z-3.0000 F180.00
G1 X32.8431 Y-38.0000 Z-3.0000 F180.00
G1 X38.5000 Y-32.3431 Z-3.0000 F180.00
G1 X38.5000 Y-29.5147 Z-3.0000 F180.00
G1 X30.0147 Y-38.0000 Z-3.0000 F180.00
G1 X27.1863 Y-38.0000 Z-3.0000 F180.00
G1 X38.5000 Y-26.6863 Z-3.0000 F180.00
G1 X38.5000 Y-23.8579 Z-3.0000 F180.00
G1 X25.0000 Y-37.3579 Z-3.0000 F180.00
G1 X25.0000 Y-35.0000 Z-3.0000 F180.00
G3 X24.9139 Y-34.6155 Z-3.0000 I-0.7604 J0.0315 F180.00
G1 X38.5000 Y-21.0294 Z-3.0000 F180.00
G1 X38.5000 Y-18.2010 Z-3.0000 F180.00
G1 X22.7010 Y-34.0000 Z-3.0000 F180.00
G1 X19.8726 Y-34.0000 Z-3.0000 F180.00
G1 X38.5000 Y-15.3726 Z-3.0000 F180.00
G1 X38.5000 Y-12.5442 Z-3.0000 F180.00
G1 X30.5000 Y-20.5442 Z-3.0000 F180.00
G1 X30.5000 Y-17.7157 Z-3.0000 F180.00
G1 X38.5000 Y-9.7157 Z-3.0000 F180.00
G1 X38.5000 Y-6.8873 Z-3.0000 F180.00
G1 X30.5000 Y-14.8873 Z-3.0000 F180.00
G1 X30.5000 Y-12.0589 Z-3.0000 F180.00
G1 X38.5000 Y-4.0589 Z-3.0000 F180.00
G1 X38.5000 Y-1.2304 Z-3.0000 F180.00
G1 X30.5000 Y-9.2304 Z-3.0000 F180.00
G1 X30.5000 Y-6.4020 Z-3.0000 F180.00
G1 X35.9020 Y-1.0000 Z-3.0000 F180.00
G1 X33.0736 Y-1.0000 Z-3.0000 F180.00
G1 X30.5000 Y-1.0000 Z-3.0000 F180.00
G1 X30.5000 Y-3.5736 Z-3.0000 F180.00
G1 X33.0736 Y-1.0000 Z-3.0000 F180.00
G1 X33.0736 Y-1.0000 Z-3.5000 F180.00
G1 X30.5000 Y-3.5736 Z-3.5000 F180.00
G1 X30.5000 Y-1.0000 Z-3.5000 F180.00
G1 X33.0736 Y-1.0000 Z-3.5000 F180.00
G1 X35.9020 Y-1.0000 Z-3.5000 F180.00
G1 X30.5000 Y-6.4020 Z-3.5000 F180.00
G1 X30.5000 Y-9.2304 Z-3.5000 F180.00
G1 X38.5000 Y-1.2304 Z-3.5000 F180.00
G1 X38.5000 Y-4.0589 Z-3.5000 F180.00
G1 X30.5000 Y-12.0589 Z-3.5000 F180.00
G1 X30.5000 Y-14.8873 Z-3.5000 F180.00
G1 X38.5000 Y-6.8873 Z-3.5000 F180.00
G1 X38.5000 Y-9.7157 Z-3.5000 F180.00
G1 X30.5000 Y-17.7157 Z-3.5000 F180.00
G1 X30.5000 Y-20.5442 Z-3.5000 F180.00
G1 X38.5000 Y-12.5442 Z-3.5000 F180.00
G1 X38.5000 Y-15.3726 Z-3.5000 F180.00
G1 X19.8726 Y-34.0000 Z-3.5000 F180.00
G1 X22.7010 Y-34.0000 Z-3.5000 F180.00
G1 X38.5000 Y-18.2010 Z-3.5000 F180.00
G1 X38.5000 Y-21.0294 Z-3.5000 F180.00
G1 X24.9139 Y-34.6155 Z-3.5000 F180.00
G2 X25.0000 Y-35.0000 Z-3.5000 I-0.6743 J-0.3529 F180.00
G1 X25.0000 Y-37.3579 Z-3.5000 F180.00
G1 X38.5000 Y-23.8579 Z-3.5000 F180.00
G1 X38.5000 Y-26.6863 Z-3.5000 F180.00
G1 X27.1863 Y-38.0000 Z-3.5000 F180.00
G1 X30.0147 Y-38.0000 Z-3.5000 F180.00
G1 X38.5000 Y-29.5147 Z-3.5000 F180.00
G1 X38.5000 Y-32.3431 Z-3.5000 F180.00
G1 X32.8431 Y-38.0000 Z-3.5000 F180.00
G1 X35.6716 Y-38.0000 Z-3.5000 F180.00
G1 X38.5000 Y-35.1716 Z-3.5000 F180.00
G1 X38.5000 Y-38.0000 Z-3.5000 F180.00
G1 X38.5000 Y-38.0000 Z-3.5000 F180.00
G1 X25.0000 Y-38.0000 Z-3.5000 F180.00
G1 X25.0000 Y-35.0000 Z-3.5000 F180.00
G3 X24.0000 Y-34.0000 Z-3.5000 I-1.0000 J0.0000 F180.00
G1 X18.0000 Y-34.0000 Z-3.5000 F180.00
G1 X18.0000 Y-22.0000 Z-3.5000 F180.00
G1 X29.5000 Y-22.0000 Z-3.5000 F180.00
G3 X30.5000 Y-21.0000 Z-3.5000 I-0.0000 J1.0000 F180.00
G1 X30.5000 Y-1.0000 Z-3.5000 F180.00
G1 X38.5000 Y-1.0000 Z-3.5000 F180.00
G1 X38.5000 Y-38.0000 Z-3.5000 F180.00
G0 X38.5000 Y-38.0000 Z5.0000
G0 X29.0442 Y-22.0000 Z5.0000
G0 X29.0442 Y-22.0000 Z-0.5000
G1 X29.0442 Y-22.0000 Z-3.5000 F180.00
G1 X18.0000 Y-33.0442 Z-3.5000 F180.00
G1 X18.0000 Y-30.2157 Z-3.5000 F180.00
G1 X26.2157 Y-22.0000 Z-3.5000 F180.00
G1 X23.3873 Y-22.0000 Z-3.5000 F180.00
G1 X18.0000 Y-27.3873 Z-3.5000 F180.00
G1 X18.0000 Y-24.5589 Z-3.5000 F180.00
G1 X20.5589 Y-22.0000 Z-3.5000 F180.00
G1 X18.0000 Y-22.0000 Z-3.5000 F180.00
G1 X18.0000 Y-24.5589 Z-3.5000 F180.00
G1 X18.0000 Y-24.5589 Z-4.0000 F180.00
G1 X18.0000 Y-22.0000 Z-4.0000 F180.00
G1 X20.5589 Y-22.0000 Z-4.0000 F180.00
G1 X18.0000 Y-24.5589 Z-4.0000 F180.00
G1 X18.0000 Y-27.3873 Z-4.0000 F180.00
G1 X23.3873 Y-22.0000 Z-4.0000 F180.00
G1 X26.2157 Y-22.0000 Z-4.0000 F180.00
G1 X18.0000 Y-30.2157 Z-4.0000 F180.00
G1 X18.0000 Y-33.0442 Z-4.0000 F180.00
G1 X29.0442 Y-22.0000 Z-4.0000 F180.00
G1 X29.0442 Y-22.0000 Z-4.0000 F180.00
G1 X29.5000 Y-22.0000 Z-4.0000 F180.00
G3 X30.5000 Y-21.0000 Z-4.0000 I-0.0000 J1.0000 F180.00
G1 X30.5000 Y-1.0000 Z-4.0000 F180.00
G1 X38.5000 Y-1.0000 Z-4.0000 F180.00
G1 X38.5000 Y-38.0000 Z-4.0000 F180.00
G1 X25.0000 Y-38.0000 Z-4.0000 F180.00
G1 X25.0000 Y-35.0000 Z-4.0000 F180.00
G3 X24.0000 Y-34.0000 Z-4.0000 I-1.0000 J0.0000 F180.00
G1 X18.0000 Y-34.0000 Z-4.0000 F180.00
G1 X18.0000 Y-22.0000 Z-4.0000 F180.00
G1 X29.0442 Y-22.0000 Z-4.0000 F180.00
G0 X29.0442 Y-22.0000 Z5.0000
G0 X38.5000 Y-38.0000 Z5.0000
G0 X38.5000 Y-38.0000 Z-1.0000
G1 X38.5000 Y-38.0000 Z-4.0000 F180.00
G1 X38.5000 Y-35.1716 Z-4.0000 F180.00
G1 X35.6716 Y-38.0000 Z-4.0000 F180.00
G1 X32.8431 Y-38.0000 Z-4.0000 F180.00
G1 X38.5000 Y-32.3431 Z-4.0000 F180.00
G1 X38.5000 Y-29.5147 Z-4.0000 F180.00
G1 X30.0147 Y-38.0000 Z-4.0000 F180.00
G1 X27.1863 Y-38.0000 Z-4.0000 F180.00
G1 X38.5000 Y-26.6863 Z-4.0000 F180.00
G1 X38.5000 Y-23.8579 Z-4.0000 F180.00
G1 X25.0000 Y-37.3579 Z-4.0000 F180.00
G1 X25.0000 Y-35.0000 Z-4.0000 F180.00
G3 X24.9139 Y-34.6155 Z-4.0000 I-0.7604 J0.0315 F180.00
G1 X38.5000 Y-21.0294 Z-4.0000 F180.00
G1 X38.5000 Y-18.2010 Z-4.0000 F180.00
G1 X22.7010 Y-34.0000 Z-4.0000 F180.00
G1 X19.8726 Y-34.0000 Z-4.0000 F180.00
G1 X38.5000 Y-15.3726 Z-4.0000 F180.00
G1 X38.5000 Y-12.5442 Z-4.0000 F180.00
G1 X30.5000 Y-20.5442 Z-4.0000 F180.00
G1 X30.5000 Y-17.7157 Z-4.0000 F180.00
G1 X38.5000 Y-9.7157 Z-4.0000 F180.00
G1 X38.5000 Y-6.8873 Z-4.0000 F180.00
G1 X30.5000 Y-14.8873 Z-4.0000 F180.00
G1 X30.5000 Y-12.0589 Z-4.0000 F180.00
G1 X38.5000 Y-4.0589 Z-4.0000 F180.00
G1 X38.5000 Y-1.2304 Z-4.0000 F180.00
G1 X30.5000 Y-9.2304 Z-4.0000 F180.00
G1 X30.5000 Y-6.4020 Z-4.0000 F180.00
G1 X35.9020 Y-1.0000 Z-4.0000 F180.00
G1 X33.0736 Y-1.0000 Z-4.0000 F180.00
G1 X30.5000 Y-1.0000 Z-4.0000 F180.00
G1 X30.5000 Y-3.5736 Z-4.0000 F180.00
G1 X33.0736 Y-1.0000 Z-4.0000 F180.00
G1 X33.0736 Y-1.0000 Z-4.5000 F180.00
G1 X30.5000 Y-3.5736 Z-4.5000 F180.00
G1 X30.5000 Y-1.0000 Z-4.5000 F180.00
G1 X33.0736 Y-1.0000 Z-4.5000 F180.00
G1 X35.9020 Y-1.0000 Z-4.5000 F180.00
G1 X30.5000 Y-6.4020 Z-4.5000 F180.00
G1 X30.5000 Y-9.2304 Z-4.5000 F180.00
G1 X38.5000 Y-1.2304 Z-4.5000 F180.00
G1 X38.5000 Y-4.0589 Z-4.5000 F180.00
G1 X30.5000 Y-12.0589 Z-4.5000 F180.00
G1 X30.5000 Y-14.8873 Z-4.5000 F180.00
G1 X38.5000 Y-6.8873 Z-4.5000 F180.00
G1 X38.5000 Y-9.7157 Z-4.5000 F180.00
G1 X30.5000 Y-17.7157 Z-4.5000 F180.00
G1 X30.5000 Y-20.5442 Z-4.5000 F180.00
G1 X38.5000 Y-12.5442 Z-4.5000 F180.00
G1 X38.5000 Y-15.3726 Z-4.5000 F180.00
G1 X19.8726 Y-34.0000 Z-4.5000 F180.00
G1 X22.7010 Y-34.0000 Z-4.5000 F180.00
G1 X38.5000 Y-18.2010 Z-4.5000 F180.00
G1 X38.5000 Y-21.0294 Z-4.5000 F180.00
G1 X24.9139 Y-34.6155 Z-4.5000 F180.00
G2 X25.0000 Y-35.0000 Z-4.5000 I-0.6743 J-0.3529 F180.00
G1 X25.0000 Y-37.3579 Z-4.5000 F180.00
G1 X38.5000 Y-23.8579 Z-4.5000 F180.00
G1 X38.5000 Y-26.6863 Z-4.5000 F180.00
G1 X27.1863 Y-38.0000 Z-4.5000 F180.00
G1 X30.0147 Y-38.0000 Z-4.5000 F180.00
G1 X38.5000 Y-29.5147 Z-4.5000 F180.00
G1 X38.5000 Y-32.3431 Z-4.5000 F180.00
G1 X32.8431 Y-38.0000 Z-4.5000 F180.00
G1 X35.6716 Y-38.0000 Z-4.5000 F180.00
G1 X38.5000 Y-35.1716 Z-4.5000 F180.00
G1 X38.5000 Y-38.0000 Z-4.5000 F180.00
G1 X38.5000 Y-38.0000 Z-4.5000 F180.00
G1 X25.0000 Y-38.0000 Z-4.5000 F180.00
G1 X25.0000 Y-35.0000 Z-4.5000 F180.00
G3 X24.0000 Y-34.0000 Z-4.5000 I-1.0000 J0.0000 F180.00
G1 X18.0000 Y-34.0000 Z-4.5000 F180.00
G1 X18.0000 Y-22.0000 Z-4.5000 F180.00
G1 X29.5000 Y-22.0000 Z-4.5000 F180.00
G3 X30.5000 Y-21.0000 Z-4.5000 I-0.0000 J1.0000 F180.00
G1 X30.5000 Y-1.0000 Z-4.5000 F180.00
G1 X38.5000 Y-1.0000 Z-4.5000 F180.00
G1 X38.5000 Y-38.0000 Z-4.5000 F180.00
G0 X38.5000 Y-38.0000 Z5.0000
G0 X29.0442 Y-22.0000 Z5.0000
G0 X29.0442 Y-22.0000 Z-1.5000
G1 X29.0442 Y-22.0000 Z-4.5000 F180.00
G1 X18.0000 Y-33.0442 Z-4.5000 F180.00
G1 X18.0000 Y-30.2157 Z-4.5000 F180.00
G1 X26.2157 Y-22.0000 Z-4.5000 F180.00
G1 X23.3873 Y-22.0000 Z-4.5000 F180.00
G1 X18.0000 Y-27.3873 Z-4.5000 F180.00
G1 X18.0000 Y-24.5589 Z-4.5000 F180.00
G1 X20.5589 Y-22.0000 Z-4.5000 F180.00
G1 X18.0000 Y-22.0000 Z-4.5000 F180.00
G1 X18.0000 Y-24.5589 Z-4.5000 F180.00
G1 X18.0000 Y-24.5589 Z-5.0000 F180.00
G1 X18.0000 Y-22.0000 Z-5.0000 F180.00
G1 X20.5589 Y-22.0000 Z-5.0000 F180.00
G1 X18.0000 Y-24.5589 Z-5.0000 F180.00
G1 X18.0000 Y-27.3873 Z-5.0000 F180.00
G1 X23.3873 Y-22.0000 Z-5.0000 F180.00
G1 X26.2157 Y-22.0000 Z-5.0000 F180.00
G1 X18.0000 Y-30.2157 Z-5.0000 F180.00
G1 X18.0000 Y-33.0442 Z-5.0000 F180.00
G1 X29.0442 Y-22.0000 Z-5.0000 F180.00
G1 X29.0442 Y-22.0000 Z-5.0000 F180.00
G1 X29.5000 Y-22.0000 Z-5.0000 F180.00
G3 X30.5000 Y-21.0000 Z-5.0000 I-0.0000 J1.0000 F180.00
G1 X30.5000 Y-1.0000 Z-5.0000 F180.00
G1 X38.5000 Y-1.0000 Z-5.0000 F180.00
G1 X38.5000 Y-38.0000 Z-5.0000 F180.00
G1 X25.0000 Y-38.0000 Z-5.0000 F180.00
G1 X25.0000 Y-35.0000 Z-5.0000 F180.00
G3 X24.0000 Y-34.0000 Z-5.0000 I-1.0000 J0.0000 F180.00
G1 X18.0000 Y-34.0000 Z-5.0000 F180.00
G1 X18.0000 Y-22.0000 Z-5.0000 F180.00
G1 X29.0442 Y-22.0000 Z-5.0000 F180.00
G0 X29.0442 Y-22.0000 Z5.0000
G0 X38.5000 Y-38.0000 Z5.0000
G0 X38.5000 Y-38.0000 Z-2.0000
G1 X38.5000 Y-38.0000 Z-5.0000 F180.00
G1 X38.5000 Y-35.1716 Z-5.0000 F180.00
G1 X35.6716 Y-38.0000 Z-5.0000 F180.00
G1 X32.8431 Y-38.0000 Z-5.0000 F180.00
G1 X38.5000 Y-32.3431 Z-5.0000 F180.00
G1 X38.5000 Y-29.5147 Z-5.0000 F180.00
G1 X30.0147 Y-38.0000 Z-5.0000 F180.00
G1 X27.1863 Y-38.0000 Z-5.0000 F180.00
G1 X38.5000 Y-26.6863 Z-5.0000 F180.00
G1 X38.5000 Y-23.8579 Z-5.0000 F180.00
G1 X25.0000 Y-37.3579 Z-5.0000 F180.00
G1 X25.0000 Y-35.0000 Z-5.0000 F180.00
G3 X24.9139 Y-34.6155 Z-5.0000 I-0.7604 J0.0315 F180.00
G1 X38.5000 Y-21.0294 Z-5.0000 F180.00
G1 X38.5000 Y-18.2010 Z-5.0000 F180.00
G1 X22.7010 Y-34.0000 Z-5.0000 F180.00
G1 X19.8726 Y-34.0000 Z-5.0000 F180.00
G1 X38.5000 Y-15.3726 Z-5.0000 F180.00
G1 X38.5000 Y-12.5442 Z-5.0000 F180.00
G1 X30.5000 Y-20.5442 Z-5.0000 F180.00
G1 X30.5000 Y-17.7157 Z-5.0000 F180.00
G1 X38.5000 Y-9.7157 Z-5.0000 F180.00
G1 X38.5000 Y-6.8873 Z-5.0000 F180.00
G1 X30.5000 Y-14.8873 Z-5.0000 F180.00
G1 X30.5000 Y-12.0589 Z-5.0000 F180.00
G1 X38.5000 Y-4.0589 Z-5.0000 F180.00
G1 X38.5000 Y-1.2304 Z-5.0000 F180.00
G1 X30.5000 Y-9.2304 Z-5.0000 F180.00
G1 X30.5000 Y-6.4020 Z-5.0000 F180.00
G1 X35.9020 Y-1.0000 Z-5.0000 F180.00
G1 X33.0736 Y-1.0000 Z-5.0000 F180.00
G1 X30.5000 Y-1.0000 Z-5.0000 F180.00
G1 X30.5000 Y-3.5736 Z-5.0000 F180.00
G1 X33.0736 Y-1.0000 Z-5.0000 F180.00
G1 X33.0736 Y-1.0000 Z-5.5000 F180.00
G1 X30.5000 Y-3.5736 Z-5.5000 F180.00
G1 X30.5000 Y-1.0000 Z-5.5000 F180.00
G1 X33.0736 Y-1.0000 Z-5.5000 F180.00
G1 X35.9020 Y-1.0000 Z-5.5000 F180.00
G1 X30.5000 Y-6.4020 Z-5.5000 F180.00
G1 X30.5000 Y-9.2304 Z-5.5000 F180.00
G1 X38.5000 Y-1.2304 Z-5.5000 F180.00
G1 X38.5000 Y-4.0589 Z-5.5000 F180.00
G1 X30.5000 Y-12.0589 Z-5.5000 F180.00
G1 X30.5000 Y-14.8873 Z-5.5000 F180.00
G1 X38.5000 Y-6.8873 Z-5.5000 F180.00
G1 X38.5000 Y-9.7157 Z-5.5000 F180.00
G1 X30.5000 Y-17.7157 Z-5.5000 F180.00
G1 X30.5000 Y-20.5442 Z-5.5000 F180.00
G1 X38.5000 Y-12.5442 Z-5.5000 F180.00
G1 X38.5000 Y-15.3726 Z-5.5000 F180.00
G1 X19.8726 Y-34.0000 Z-5.5000 F180.00
G1 X22.7010 Y-34.0000 Z-5.5000 F180.00
G1 X38.5000 Y-18.2010 Z-5.5000 F180.00
G1 X38.5000 Y-21.0294 Z-5.5000 F180.00
G1 X24.9139 Y-34.6155 Z-5.5000 F180.00
G2 X25.0000 Y-35.0000 Z-5.5000 I-0.6743 J-0.3529 F180.00
G1 X25.0000 Y-37.3579 Z-5.5000 F180.00
G1 X38.5000 Y-23.8579 Z-5.5000 F180.00
G1 X38.5000 Y-26.6863 Z-5.5000 F180.00
G1 X27.1863 Y-38.0000 Z-5.5000 F180.00
G1 X30.0147 Y-38.0000 Z-5.5000 F180.00
G1 X38.5000 Y-29.5147 Z-5.5000 F180.00
G1 X38.5000 Y-32.3431 Z-5.5000 F180.00
G1 X32.8431 Y-38.0000 Z-5.5000 F180.00
G1 X35.6716 Y-38.0000 Z-5.5000 F180.00
G1 X38.5000 Y-35.1716 Z-5.5000 F180.00
G1 X38.5000 Y-38.0000 Z-5.5000 F180.00
G1 X38.5000 Y-38.0000 Z-5.5000 F180.00
G1 X25.0000 Y-38.0000 Z-5.5000 F180.00
G1 X25.0000 Y-35.0000 Z-5.5000 F180.00
G3 X24.0000 Y-34.0000 Z-5.5000 I-1.0000 J0.0000 F180.00
G1 X18.0000 Y-34.0000 Z-5.5000 F180.00
G1 X18.0000 Y-22.0000 Z-5.5000 F180.00
G1 X29.5000 Y-22.0000 Z-5.5000 F180.00
G3 X30.5000 Y-21.0000 Z-5.5000 I-0.0000 J1.0000 F180.00
G1 X30.5000 Y-1.0000 Z-5.5000 F180.00
G1 X38.5000 Y-1.0000 Z-5.5000 F180.00
G1 X38.5000 Y-38.0000 Z-5.5000 F180.00
G0 X38.5000 Y-38.0000 Z5.0000
G0 X29.0442 Y-22.0000 Z5.0000
G0 X29.0442 Y-22.0000 Z-2.5000
G1 X29.0442 Y-22.0000 Z-5.5000 F180.00
G1 X18.0000 Y-33.0442 Z-5.5000 F180.00
G1 X18.0000 Y-30.2157 Z-5.5000 F180.00
G1 X26.2157 Y-22.0000 Z-5.5000 F180.00
G1 X23.3873 Y-22.0000 Z-5.5000 F180.00
G1 X18.0000 Y-27.3873 Z-5.5000 F180.00
G1 X18.0000 Y-24.5589 Z-5.5000 F180.00
G1 X20.5589 Y-22.0000 Z-5.5000 F180.00
G1 X18.0000 Y-22.0000 Z-5.5000 F180.00
G1 X18.0000 Y-24.5589 Z-5.5000 F180.00
G1 X18.0000 Y-24.5589 Z-6.0000 F180.00
G1 X18.0000 Y-22.0000 Z-6.0000 F180.00
G1 X20.5589 Y-22.0000 Z-6.0000 F180.00
G1 X18.0000 Y-24.5589 Z-6.0000 F180.00
G1 X18.0000 Y-27.3873 Z-6.0000 F180.00
G1 X23.3873 Y-22.0000 Z-6.0000 F180.00
G1 X26.2157 Y-22.0000 Z-6.0000 F180.00
G1 X18.0000 Y-30.2157 Z-6.0000 F180.00
G1 X18.0000 Y-33.0442 Z-6.0000 F180.00
G1 X29.0442 Y-22.0000 Z-6.0000 F180.00
G1 X29.0442 Y-22.0000 Z-6.0000 F180.00
G1 X29.5000 Y-22.0000 Z-6.0000 F180.00
G3 X30.5000 Y-21.0000 Z-6.0000 I-0.0000 J1.0000 F180.00
G1 X30.5000 Y-1.0000 Z-6.0000 F180.00
G1 X38.5000 Y-1.0000 Z-6.0000 F180.00
G1 X38.5000 Y-38.0000 Z-6.0000 F180.00
G1 X25.0000 Y-38.0000 Z-6.0000 F180.00
G1 X25.0000 Y-35.0000 Z-6.0000 F180.00
G3 X24.0000 Y-34.0000 Z-6.0000 I-1.0000 J0.0000 F180.00
G1 X18.0000 Y-34.0000 Z-6.0000 F180.00
G1 X18.0000 Y-22.0000 Z-6.0000 F180.00
G1 X29.0442 Y-22.0000 Z-6.0000 F180.00
G0 X29.0442 Y-22.0000 Z5.0000
G0 X38.5000 Y-38.0000 Z5.0000
G0 X38.5000 Y-38.0000 Z-3.0000
G1 X38.5000 Y-38.0000 Z-6.0000 F180.00
G1 X38.5000 Y-35.1716 Z-6.0000 F180.00
G1 X35.6716 Y-38.0000 Z-6.0000 F180.00
G1 X32.8431 Y-38.0000 Z-6.0000 F180.00
G1 X38.5000 Y-32.3431 Z-6.0000 F180.00
G1 X38.5000 Y-29.5147 Z-6.0000 F180.00
G1 X30.0147 Y-38.0000 Z-6.0000 F180.00
G1 X27.1863 Y-38.0000 Z-6.0000 F180.00
G1 X38.5000 Y-26.6863 Z-6.0000 F180.00
G1 X38.5000 Y-23.8579 Z-6.0000 F180.00
G1 X25.0000 Y-37.3579 Z-6.0000 F180.00
G1 X25.0000 Y-35.0000 Z-6.0000 F180.00
G3 X24.9139 Y-34.6155 Z-6.0000 I-0.7604 J0.0315 F180.00
G1 X38.5000 Y-21.0294 Z-6.0000 F180.00
G1 X38.5000 Y-18.2010 Z-6.0000 F180.00
G1 X22.7010 Y-34.0000 Z-6.0000 F180.00
G1 X19.8726 Y-34.0000 Z-6.0000 F180.00
G1 X38.5000 Y-15.3726 Z-6.0000 F180.00
G1 X38.5000 Y-12.5442 Z-6.0000 F180.00
G1 X30.5000 Y-20.5442 Z-6.0000 F180.00
G1 X30.5000 Y-17.7157 Z-6.0000 F180.00
G1 X38.5000 Y-9.7157 Z-6.0000 F180.00
G1 X38.5000 Y-6.8873 Z-6.0000 F180.00
G1 X30.5000 Y-14.8873 Z-6.0000 F180.00
G1 X30.5000 Y-12.0589 Z-6.0000 F180.00
G1 X38.5000 Y-4.0589 Z-6.0000 F180.00
G1 X38.5000 Y-1.2304 Z-6.0000 F180.00
G1 X30.5000 Y-9.2304 Z-6.0000 F180.00
G1 X30.5000 Y-6.4020 Z-6.0000 F180.00
G1 X35.9020 Y-1.0000 Z-6.0000 F180.00
G1 X33.0736 Y-1.0000 Z-6.0000 F180.00
G1 X30.5000 Y-1.0000 Z-6.0000 F180.00
G1 X30.5000 Y-3.5736 Z-6.0000 F180.00
G1 X33.0736 Y-1.0000 Z-6.0000 F180.00
G0 Z5.0000
(finish operation: Pocket_Shape005)
(begin operation: Pocket_Shape007)
(Path: Pocket_Shape007)
(Pocket_Shape007)
G0 Z5.0000
G0 X8.4120 Y-3.5880
G0 Z3.0000
G1 X8.4120 Y-3.5880 Z-0.5000 F180.00
G2 X7.0000 Y-6.9969 Z-0.5000 I-1.4120 J-1.4120 F180.00
G2 X7.0000 Y-3.0031 Z-0.5000 I0.0000 J1.9969 F180.00
G2 X8.4120 Y-3.5880 Z-0.5000 I0.0000 J-1.9969 F180.00
G0 X8.4120 Y-3.5880 Z5.0000
G0 X8.4097 Y-3.5860 Z5.0000
G0 X8.4097 Y-3.5860 Z2.5000
G1 X8.4097 Y-3.5860 Z-0.5000 F180.00
G3 X5.5860 Y-6.4097 Z-0.5000 I-1.4098 J-1.4139 F180.00
G1 X8.4097 Y-3.5860 Z-0.5000 F180.00
G2 X8.4120 Y-6.4120 Z-0.5000 I-1.4091 J-1.4142 F180.00
G1 X8.4120 Y-6.4120 Z-1.0000 F180.00
G3 X8.4097 Y-3.5860 Z-1.0000 I-1.4115 J1.4119 F180.00
G1 X5.5860 Y-6.4097 Z-1.0000 F180.00
G2 X8.4097 Y-3.5860 Z-1.0000 I1.4139 J1.4098 F180.00
G0 X8.4097 Y-3.5860 Z5.0000
G0 X8.4098 Y-3.5858 Z5.0000
G0 X8.4098 Y-3.5858 Z2.0000
G1 X8.4098 Y-3.5858 Z-1.0000 F180.00
G2 X7.0000 Y-6.9969 Z-1.0000 I-1.4098 J-1.4142 F180.00
G2 X7.0000 Y-3.0031 Z-1.0000 I0.0000 J1.9969 F180.00
G2 X8.4098 Y-3.5858 Z-1.0000 I0.0000 J-1.9969 F180.00
G1 X8.4098 Y-3.5858 Z-1.5000 F180.00
G2 X7.0000 Y-6.9969 Z-1.5000 I-1.4098 J-1.4142 F180.00
G2 X7.0000 Y-3.0031 Z-1.5000 I0.0000 J1.9969 F180.00
G2 X8.4098 Y-3.5858 Z-1.5000 I0.0000 J-1.9969 F180.00
G0 X8.4098 Y-3.5858 Z5.0000
G0 X8.4097 Y-3.5860 Z5.0000
G0 X8.4097 Y-3.5860 Z1.5000
G1 X8.4097 Y-3.5860 Z-1.5000 F180.00
G3 X5.5860 Y-6.4097 Z-1.5000 I-1.4098 J-1.4139 F180.00
G1 X8.4097 Y-3.5860 Z-1.5000 F180.00
G2 X8.4120 Y-6.4120 Z-1.5000 I-1.4091 J-1.4142 F180.00
G1 X8.4120 Y-6.4120 Z-1.8000 F180.00
G3 X8.4097 Y-3.5860 Z-1.8000 I-1.4115 J1.4119 F180.00
G1 X5.5860 Y-6.4097 Z-1.8000 F180.00
G2 X8.4097 Y-3.5860 Z-1.8000 I1.4139 J1.4098 F180.00
G0 X8.4097 Y-3.5860 Z5.0000
G0 X8.4098 Y-3.5858 Z5.0000
G0 X8.4098 Y-3.5858 Z1.2000
G1 X8.4098 Y-3.5858 Z-1.8000 F180.00
G2 X7.0000 Y-6.9969 Z-1.8000 I-1.4098 J-1.4142 F180.00
G2 X7.0000 Y-3.0031 Z-1.8000 I0.0000 J1.9969 F180.00
G2 X8.4098 Y-3.5858 Z-1.8000 I0.0000 J-1.9969 F180.00
G0 Z5.0000
G0 X8.4120 Y-43.5880
G0 Z3.0000
G1 X8.4120 Y-43.5880 Z-0.5000 F180.00
G2 X8.9969 Y-45.0000 Z-0.5000 I-1.4120 J-1.4120 F180.00
G2 X5.0031 Y-45.0000 Z-0.5000 I-1.9969 J0.0000 F180.00
G2 X8.4120 Y-43.5880 Z-0.5000 I1.9969 J0.0000 F180.00
G0 X8.4120 Y-43.5880 Z5.0000
G0 X8.4120 Y-43.5880 Z5.0000
G0 X8.4120 Y-43.5880 Z2.5000
G1 X8.4120 Y-43.5880 Z-0.5000 F180.00
G3 X5.5860 Y-43.5903 Z-0.5000 I-1.4119 J-1.4115 F180.00
G1 X8.4097 Y-46.4140 Z-0.5000 F180.00
G2 X5.5860 Y-43.5903 Z-0.5000 I-1.4098 J1.4139 F180.00
G1 X5.5860 Y-43.5903 Z-1.0000 F180.00
G3 X8.4097 Y-46.4140 Z-1.0000 I1.4139 J-1.4098 F180.00
G1 X5.5860 Y-43.5903 Z-1.0000 F180.00
G2 X8.4120 Y-43.5880 Z-1.0000 I1.4142 J-1.4091 F180.00
G0 X8.4120 Y-43.5880 Z5.0000
G0 X8.4120 Y-43.5880 Z5.0000
G0 X8.4120 Y-43.5880 Z2.0000
G1 X8.4120 Y-43.5880 Z-1.0000 F180.00
G2 X8.9969 Y-45.0000 Z-1.0000 I-1.4120 J-1.4120 F180.00
G2 X5.0031 Y-45.0000 Z-1.0000 I-1.9969 J0.0000 F180.00
G2 X8.4120 Y-43.5880 Z-1.0000 I1.9969 J0.0000 F180.00
G1 X8.4120 Y-43.5880 Z-1.5000 F180.00
G2 X8.9969 Y-45.0000 Z-1.5000 I-1.4120 J-1.4120 F180.00
G2 X5.0031 Y-45.0000 Z-1.5000 I-1.9969 J0.0000 F180.00
G2 X8.4120 Y-43.5880 Z-1.5000 I1.9969 J0.0000 F180.00
G0 X8.4120 Y-43.5880 Z5.0000
G0 X8.4120 Y-43.5880 Z5.0000
G0 X8.4120 Y-43.5880 Z1.5000
G1 X8.4120 Y-43.5880 Z-1.5000 F180.00
G3 X5.5860 Y-43.5903 Z-1.5000 I-1.4119 J-1.4115 F180.00
G1 X8.4097 Y-46.4140 Z-1.5000 F180.00
G2 X5.5860 Y-43.5903 Z-1.5000 I-1.4098 J1.4139 F180.00
G1 X5.5860 Y-43.5903 Z-1.8000 F180.00
G3 X8.4097 Y-46.4140 Z-1.8000 I1.4139 J-1.4098 F180.00
G1 X5.5860 Y-43.5903 Z-1.8000 F180.00
G2 X8.4120 Y-43.5880 Z-1.8000 I1.4142 J-1.4091 F180.00
G0 X8.4120 Y-43.5880 Z5.0000
G0 X8.4120 Y-43.5880 Z5.0000
G0 X8.4120 Y-43.5880 Z1.2000
G1 X8.4120 Y-43.5880 Z-1.8000 F180.00
G2 X8.9969 Y-45.0000 Z-1.8000 I-1.4120 J-1.4120 F180.00
G2 X5.0031 Y-45.0000 Z-1.8000 I-1.9969 J0.0000 F180.00
G2 X8.4120 Y-43.5880 Z-1.8000 I1.9969 J0.0000 F180.00
G0 Z5.0000
(finish operation: Pocket_Shape007)
(begin operation: Pocket_Shape008)
(Path: Pocket_Shape008)
(Pocket_Shape008)
G0 Z5.0000
G0 X49.4557 Y-4.5443
G0 Z3.0000
G1 X49.4557 Y-4.5443 Z-0.5000 F180.00
G2 X49.0674 Y-5.6410 Z-0.5000 I-0.4557 J-0.4557 F180.00
G2 X48.9326 Y-4.3590 Z-0.5000 I-0.0674 J0.6410 F180.00
G2 X49.4557 Y-4.5443 Z-0.5000 I0.0674 J-0.6410 F180.00
G0 X49.4557 Y-4.5443 Z5.0000
G0 X49.4557 Y-4.5443 Z5.0000
G0 X49.4557 Y-4.5443 Z2.5000
G1 X49.4557 Y-4.5443 Z-0.5000 F180.00
G2 X49.5214 Y-5.3788 Z-0.5000 I-0.4557 J-0.4557 F180.00
G2 X48.4786 Y-4.6212 Z-0.5000 I-0.5214 J0.3788 F180.00
G2 X49.4557 Y-4.5443 Z-0.5000 I0.5214 J-0.3788 F180.00
G1 X49.4557 Y-4.5443 Z-1.0000 F180.00
G2 X49.5214 Y-5.3788 Z-1.0000 I-0.4557 J-0.4557 F180.00
G2 X48.4786 Y-4.6212 Z-1.0000 I-0.5214 J0.3788 F180.00
G2 X49.4557 Y-4.5443 Z-1.0000 I0.5214 J-0.3788 F180.00
G0 X49.4557 Y-4.5443 Z5.0000
G0 X49.4557 Y-4.5443 Z5.0000
G0 X49.4557 Y-4.5443 Z2.0000
G1 X49.4557 Y-4.5443 Z-1.0000 F180.00
G2 X49.0674 Y-5.6410 Z-1.0000 I-0.4557 J-0.4557 F180.00
G2 X48.9326 Y-4.3590 Z-1.0000 I-0.0674 J0.6410 F180.00
G2 X49.4557 Y-4.5443 Z-1.0000 I0.0674 J-0.6410 F180.00
G1 X49.4557 Y-4.5443 Z-1.5000 F180.00
G2 X49.0674 Y-5.6410 Z-1.5000 I-0.4557 J-0.4557 F180.00
G2 X48.9326 Y-4.3590 Z-1.5000 I-0.0674 J0.6410 F180.00
G2 X49.4557 Y-4.5443 Z-1.5000 I0.0674 J-0.6410 F180.00
G0 X49.4557 Y-4.5443 Z5.0000
G0 X49.4557 Y-4.5443 Z5.0000
G0 X49.4557 Y-4.5443 Z1.5000
G1 X49.4557 Y-4.5443 Z-1.5000 F180.00
G2 X49.5214 Y-5.3788 Z-1.5000 I-0.4557 J-0.4557 F180.00
G2 X48.4786 Y-4.6212 Z-1.5000 I-0.5214 J0.3788 F180.00
G2 X49.4557 Y-4.5443 Z-1.5000 I0.5214 J-0.3788 F180.00
G1 X49.4557 Y-4.5443 Z-2.0000 F180.00
G2 X49.5214 Y-5.3788 Z-2.0000 I-0.4557 J-0.4557 F180.00
G2 X48.4786 Y-4.6212 Z-2.0000 I-0.5214 J0.3788 F180.00
G2 X49.4557 Y-4.5443 Z-2.0000 I0.5214 J-0.3788 F180.00
G0 X49.4557 Y-4.5443 Z5.0000
G0 X49.4557 Y-4.5443 Z5.0000
G0 X49.4557 Y-4.5443 Z1.0000
G1 X49.4557 Y-4.5443 Z-2.0000 F180.00
G2 X49.0674 Y-5.6410 Z-2.0000 I-0.4557 J-0.4557 F180.00
G2 X48.9326 Y-4.3590 Z-2.0000 I-0.0674 J0.6410 F180.00
G2 X49.4557 Y-4.5443 Z-2.0000 I0.0674 J-0.6410 F180.00
G1 X49.4557 Y-4.5443 Z-2.5000 F180.00
G2 X49.0674 Y-5.6410 Z-2.5000 I-0.4557 J-0.4557 F180.00
G2 X48.9326 Y-4.3590 Z-2.5000 I-0.0674 J0.6410 F180.00
G2 X49.4557 Y-4.5443 Z-2.5000 I0.0674 J-0.6410 F180.00
G0 X49.4557 Y-4.5443 Z5.0000
G0 X49.4557 Y-4.5443 Z5.0000
G0 X49.4557 Y-4.5443 Z0.5000
G1 X49.4557 Y-4.5443 Z-2.5000 F180.00
G2 X49.5214 Y-5.3788 Z-2.5000 I-0.4557 J-0.4557 F180.00
G2 X48.4786 Y-4.6212 Z-2.5000 I-0.5214 J0.3788 F180.00
G2 X49.4557 Y-4.5443 Z-2.5000 I0.5214 J-0.3788 F180.00
G1 X49.4557 Y-4.5443 Z-3.0000 F180.00
G2 X49.5214 Y-5.3788 Z-3.0000 I-0.4557 J-0.4557 F180.00
G2 X48.4786 Y-4.6212 Z-3.0000 I-0.5214 J0.3788 F180.00
G2 X49.4557 Y-4.5443 Z-3.0000 I0.5214 J-0.3788 F180.00
G0 X49.4557 Y-4.5443 Z5.0000
G0 X49.4557 Y-4.5443 Z5.0000
G0 X49.4557 Y-4.5443 Z0.0000
G1 X49.4557 Y-4.5443 Z-3.0000 F180.00
G2 X49.0674 Y-5.6410 Z-3.0000 I-0.4557 J-0.4557 F180.00
G2 X48.9326 Y-4.3590 Z-3.0000 I-0.0674 J0.6410 F180.00
G2 X49.4557 Y-4.5443 Z-3.0000 I0.0674 J-0.6410 F180.00
G1 X49.4557 Y-4.5443 Z-3.5000 F180.00
G2 X49.0674 Y-5.6410 Z-3.5000 I-0.4557 J-0.4557 F180.00
G2 X48.9326 Y-4.3590 Z-3.5000 I-0.0674 J0.6410 F180.00
G2 X49.4557 Y-4.5443 Z-3.5000 I0.0674 J-0.6410 F180.00
G0 X49.4557 Y-4.5443 Z5.0000
G0 X49.4557 Y-4.5443 Z5.0000
G0 X49.4557 Y-4.5443 Z-0.5000
G1 X49.4557 Y-4.5443 Z-3.5000 F180.00
G2 X49.5214 Y-5.3788 Z-3.5000 I-0.4557 J-0.4557 F180.00
G2 X48.4786 Y-4.6212 Z-3.5000 I-0.5214 J0.3788 F180.00
G2 X49.4557 Y-4.5443 Z-3.5000 I0.5214 J-0.3788 F180.00
G1 X49.4557 Y-4.5443 Z-4.0000 F180.00
G2 X49.5214 Y-5.3788 Z-4.0000 I-0.4557 J-0.4557 F180.00
G2 X48.4786 Y-4.6212 Z-4.0000 I-0.5214 J0.3788 F180.00
G2 X49.4557 Y-4.5443 Z-4.0000 I0.5214 J-0.3788 F180.00
G0 X49.4557 Y-4.5443 Z5.0000
G0 X49.4557 Y-4.5443 Z5.0000
G0 X49.4557 Y-4.5443 Z-1.0000
G1 X49.4557 Y-4.5443 Z-4.0000 F180.00
G2 X49.0674 Y-5.6410 Z-4.0000 I-0.4557 J-0.4557 F180.00
G2 X48.9326 Y-4.3590 Z-4.0000 I-0.0674 J0.6410 F180.00
G2 X49.4557 Y-4.5443 Z-4.0000 I0.0674 J-0.6410 F180.00
G1 X49.4557 Y-4.5443 Z-4.5000 F180.00
G2 X49.0674 Y-5.6410 Z-4.5000 I-0.4557 J-0.4557 F180.00
G2 X48.9326 Y-4.3590 Z-4.5000 I-0.0674 J0.6410 F180.00
G2 X49.4557 Y-4.5443 Z-4.5000 I0.0674 J-0.6410 F180.00
G0 X49.4557 Y-4.5443 Z5.0000
G0 X49.4557 Y-4.5443 Z5.0000
G0 X49.4557 Y-4.5443 Z-1.5000
G1 X49.4557 Y-4.5443 Z-4.5000 F180.00
G2 X49.5214 Y-5.3788 Z-4.5000 I-0.4557 J-0.4557 F180.00
G2 X48.4786 Y-4.6212 Z-4.5000 I-0.5214 J0.3788 F180.00
G2 X49.4557 Y-4.5443 Z-4.5000 I0.5214 J-0.3788 F180.00
G1 X49.4557 Y-4.5443 Z-5.0000 F180.00
G2 X49.5214 Y-5.3788 Z-5.0000 I-0.4557 J-0.4557 F180.00
G2 X48.4786 Y-4.6212 Z-5.0000 I-0.5214 J0.3788 F180.00
G2 X49.4557 Y-4.5443 Z-5.0000 I0.5214 J-0.3788 F180.00
G0 X49.4557 Y-4.5443 Z5.0000
G0 X49.4557 Y-4.5443 Z5.0000
G0 X49.4557 Y-4.5443 Z-2.0000
G1 X49.4557 Y-4.5443 Z-5.0000 F180.00
G2 X49.0674 Y-5.6410 Z-5.0000 I-0.4557 J-0.4557 F180.00
G2 X48.9326 Y-4.3590 Z-5.0000 I-0.0674 J0.6410 F180.00
G2 X49.4557 Y-4.5443 Z-5.0000 I0.0674 J-0.6410 F180.00
G1 X49.4557 Y-4.5443 Z-5.5000 F180.00
G2 X49.0674 Y-5.6410 Z-5.5000 I-0.4557 J-0.4557 F180.00
G2 X48.9326 Y-4.3590 Z-5.5000 I-0.0674 J0.6410 F180.00
G2 X49.4557 Y-4.5443 Z-5.5000 I0.0674 J-0.6410 F180.00
G0 X49.4557 Y-4.5443 Z5.0000
G0 X49.4557 Y-4.5443 Z5.0000
G0 X49.4557 Y-4.5443 Z-2.5000
G1 X49.4557 Y-4.5443 Z-5.5000 F180.00
G2 X49.5214 Y-5.3788 Z-5.5000 I-0.4557 J-0.4557 F180.00
G2 X48.4786 Y-4.6212 Z-5.5000 I-0.5214 J0.3788 F180.00
G2 X49.4557 Y-4.5443 Z-5.5000 I0.5214 J-0.3788 F180.00
G1 X49.4557 Y-4.5443 Z-6.0000 F180.00
G2 X49.5214 Y-5.3788 Z-6.0000 I-0.4557 J-0.4557 F180.00
G2 X48.4786 Y-4.6212 Z-6.0000 I-0.5214 J0.3788 F180.00
G2 X49.4557 Y-4.5443 Z-6.0000 I0.5214 J-0.3788 F180.00
G0 X49.4557 Y-4.5443 Z5.0000
G0 X49.4557 Y-4.5443 Z5.0000
G0 X49.4557 Y-4.5443 Z-3.0000
G1 X49.4557 Y-4.5443 Z-6.0000 F180.00
G2 X49.0674 Y-5.6410 Z-6.0000 I-0.4557 J-0.4557 F180.00
G2 X48.9326 Y-4.3590 Z-6.0000 I-0.0674 J0.6410 F180.00
G2 X49.4557 Y-4.5443 Z-6.0000 I0.0674 J-0.6410 F180.00
G1 X49.4557 Y-4.5443 Z-6.5000 F180.00
G2 X49.0674 Y-5.6410 Z-6.5000 I-0.4557 J-0.4557 F180.00
G2 X48.9326 Y-4.3590 Z-6.5000 I-0.0674 J0.6410 F180.00
G2 X49.4557 Y-4.5443 Z-6.5000 I0.0674 J-0.6410 F180.00
G0 X49.4557 Y-4.5443 Z5.0000
G0 X49.4557 Y-4.5443 Z5.0000
G0 X49.4557 Y-4.5443 Z-3.5000
G1 X49.4557 Y-4.5443 Z-6.5000 F180.00
G2 X49.5214 Y-5.3788 Z-6.5000 I-0.4557 J-0.4557 F180.00
G2 X48.4786 Y-4.6212 Z-6.5000 I-0.5214 J0.3788 F180.00
G2 X49.4557 Y-4.5443 Z-6.5000 I0.5214 J-0.3788 F180.00
G1 X49.4557 Y-4.5443 Z-7.0000 F180.00
G2 X49.5214 Y-5.3788 Z-7.0000 I-0.4557 J-0.4557 F180.00
G2 X48.4786 Y-4.6212 Z-7.0000 I-0.5214 J0.3788 F180.00
G2 X49.4557 Y-4.5443 Z-7.0000 I0.5214 J-0.3788 F180.00
G0 X49.4557 Y-4.5443 Z5.0000
G0 X49.4557 Y-4.5443 Z5.0000
G0 X49.4557 Y-4.5443 Z-4.0000
G1 X49.4557 Y-4.5443 Z-7.0000 F180.00
G2 X49.0674 Y-5.6410 Z-7.0000 I-0.4557 J-0.4557 F180.00
G2 X48.9326 Y-4.3590 Z-7.0000 I-0.0674 J0.6410 F180.00
G2 X49.4557 Y-4.5443 Z-7.0000 I0.0674 J-0.6410 F180.00
G1 X49.4557 Y-4.5443 Z-7.5000 F180.00
G2 X49.0674 Y-5.6410 Z-7.5000 I-0.4557 J-0.4557 F180.00
G2 X48.9326 Y-4.3590 Z-7.5000 I-0.0674 J0.6410 F180.00
G2 X49.4557 Y-4.5443 Z-7.5000 I0.0674 J-0.6410 F180.00
G0 X49.4557 Y-4.5443 Z5.0000
G0 X49.4557 Y-4.5443 Z5.0000
G0 X49.4557 Y-4.5443 Z-4.5000
G1 X49.4557 Y-4.5443 Z-7.5000 F180.00
G2 X49.5214 Y-5.3788 Z-7.5000 I-0.4557 J-0.4557 F180.00
G2 X48.4786 Y-4.6212 Z-7.5000 I-0.5214 J0.3788 F180.00
G2 X49.4557 Y-4.5443 Z-7.5000 I0.5214 J-0.3788 F180.00
G1 X49.4557 Y-4.5443 Z-8.0000 F180.00
G2 X49.5214 Y-5.3788 Z-8.0000 I-0.4557 J-0.4557 F180.00
G2 X48.4786 Y-4.6212 Z-8.0000 I-0.5214 J0.3788 F180.00
G2 X49.4557 Y-4.5443 Z-8.0000 I0.5214 J-0.3788 F180.00
G0 X49.4557 Y-4.5443 Z5.0000
G0 X49.4557 Y-4.5443 Z5.0000
G0 X49.4557 Y-4.5443 Z-5.0000
G1 X49.4557 Y-4.5443 Z-8.0000 F180.00
G2 X49.0674 Y-5.6410 Z-8.0000 I-0.4557 J-0.4557 F180.00
G2 X48.9326 Y-4.3590 Z-8.0000 I-0.0674 J0.6410 F180.00
G2 X49.4557 Y-4.5443 Z-8.0000 I0.0674 J-0.6410 F180.00
G1 X49.4557 Y-4.5443 Z-8.5000 F180.00
G2 X49.0674 Y-5.6410 Z-8.5000 I-0.4557 J-0.4557 F180.00
G2 X48.9326 Y-4.3590 Z-8.5000 I-0.0674 J0.6410 F180.00
G2 X49.4557 Y-4.5443 Z-8.5000 I0.0674 J-0.6410 F180.00
G0 X49.4557 Y-4.5443 Z5.0000
G0 X49.4557 Y-4.5443 Z5.0000
G0 X49.4557 Y-4.5443 Z-5.5000
G1 X49.4557 Y-4.5443 Z-8.5000 F180.00
G2 X49.5214 Y-5.3788 Z-8.5000 I-0.4557 J-0.4557 F180.00
G2 X48.4786 Y-4.6212 Z-8.5000 I-0.5214 J0.3788 F180.00
G2 X49.4557 Y-4.5443 Z-8.5000 I0.5214 J-0.3788 F180.00
G1 X49.4557 Y-4.5443 Z-9.0000 F180.00
G2 X49.5214 Y-5.3788 Z-9.0000 I-0.4557 J-0.4557 F180.00
G2 X48.4786 Y-4.6212 Z-9.0000 I-0.5214 J0.3788 F180.00
G2 X49.4557 Y-4.5443 Z-9.0000 I0.5214 J-0.3788 F180.00
G0 X49.4557 Y-4.5443 Z5.0000
G0 X49.4557 Y-4.5443 Z5.0000
G0 X49.4557 Y-4.5443 Z-6.0000
G1 X49.4557 Y-4.5443 Z-9.0000 F180.00
G2 X49.0674 Y-5.6410 Z-9.0000 I-0.4557 J-0.4557 F180.00
G2 X48.9326 Y-4.3590 Z-9.0000 I-0.0674 J0.6410 F180.00
G2 X49.4557 Y-4.5443 Z-9.0000 I0.0674 J-0.6410 F180.00
G1 X49.4557 Y-4.5443 Z-9.5000 F180.00
G2 X49.0674 Y-5.6410 Z-9.5000 I-0.4557 J-0.4557 F180.00
G2 X48.9326 Y-4.3590 Z-9.5000 I-0.0674 J0.6410 F180.00
G2 X49.4557 Y-4.5443 Z-9.5000 I0.0674 J-0.6410 F180.00
G0 X49.4557 Y-4.5443 Z5.0000
G0 X49.4557 Y-4.5443 Z5.0000
G0 X49.4557 Y-4.5443 Z-6.5000
G1 X49.4557 Y-4.5443 Z-9.5000 F180.00
G2 X49.5214 Y-5.3788 Z-9.5000 I-0.4557 J-0.4557 F180.00
G2 X48.4786 Y-4.6212 Z-9.5000 I-0.5214 J0.3788 F180.00
G2 X49.4557 Y-4.5443 Z-9.5000 I0.5214 J-0.3788 F180.00
G1 X49.4557 Y-4.5443 Z-10.0000 F180.00
G2 X49.5214 Y-5.3788 Z-10.0000 I-0.4557 J-0.4557 F180.00
G2 X48.4786 Y-4.6212 Z-10.0000 I-0.5214 J0.3788 F180.00
G2 X49.4557 Y-4.5443 Z-10.0000 I0.5214 J-0.3788 F180.00
G0 X49.4557 Y-4.5443 Z5.0000
G0 X49.4557 Y-4.5443 Z5.0000
G0 X49.4557 Y-4.5443 Z-7.0000
G1 X49.4557 Y-4.5443 Z-10.0000 F180.00
G2 X49.0674 Y-5.6410 Z-10.0000 I-0.4557 J-0.4557 F180.00
G2 X48.9326 Y-4.3590 Z-10.0000 I-0.0674 J0.6410 F180.00
G2 X49.4557 Y-4.5443 Z-10.0000 I0.0674 J-0.6410 F180.00
G1 X49.4557 Y-4.5443 Z-10.5000 F180.00
G2 X49.0674 Y-5.6410 Z-10.5000 I-0.4557 J-0.4557 F180.00
G2 X48.9326 Y-4.3590 Z-10.5000 I-0.0674 J0.6410 F180.00
G2 X49.4557 Y-4.5443 Z-10.5000 I0.0674 J-0.6410 F180.00
G0 X49.4557 Y-4.5443 Z5.0000
G0 X49.4557 Y-4.5443 Z5.0000
G0 X49.4557 Y-4.5443 Z-7.5000
G1 X49.4557 Y-4.5443 Z-10.5000 F180.00
G2 X49.5214 Y-5.3788 Z-10.5000 I-0.4557 J-0.4557 F180.00
G2 X48.4786 Y-4.6212 Z-10.5000 I-0.5214 J0.3788 F180.00
G2 X49.4557 Y-4.5443 Z-10.5000 I0.5214 J-0.3788 F180.00
G1 X49.4557 Y-4.5443 Z-11.0000 F180.00
G2 X49.5214 Y-5.3788 Z-11.0000 I-0.4557 J-0.4557 F180.00
G2 X48.4786 Y-4.6212 Z-11.0000 I-0.5214 J0.3788 F180.00
G2 X49.4557 Y-4.5443 Z-11.0000 I0.5214 J-0.3788 F180.00
G0 X49.4557 Y-4.5443 Z5.0000
G0 X49.4557 Y-4.5443 Z5.0000
G0 X49.4557 Y-4.5443 Z-8.0000
G1 X49.4557 Y-4.5443 Z-11.0000 F180.00
G2 X49.0674 Y-5.6410 Z-11.0000 I-0.4557 J-0.4557 F180.00
G2 X48.9326 Y-4.3590 Z-11.0000 I-0.0674 J0.6410 F180.00
G2 X49.4557 Y-4.5443 Z-11.0000 I0.0674 J-0.6410 F180.00
G0 Z5.0000
G0 X49.4557 Y-44.5443
G0 Z3.0000
G1 X49.4557 Y-44.5443 Z-0.5000 F180.00
G2 X49.0674 Y-45.6410 Z-0.5000 I-0.4557 J-0.4557 F180.00
G2 X48.9326 Y-44.3590 Z-0.5000 I-0.0674 J0.6410 F180.00
G2 X49.4557 Y-44.5443 Z-0.5000 I0.0674 J-0.6410 F180.00
G0 X49.4557 Y-44.5443 Z5.0000
G0 X49.4557 Y-44.5443 Z5.0000
G0 X49.4557 Y-44.5443 Z2.5000
G1 X49.4557 Y-44.5443 Z-0.5000 F180.00
G2 X49.5214 Y-45.3788 Z-0.5000 I-0.4557 J-0.4557 F180.00
G2 X48.4786 Y-44.6212 Z-0.5000 I-0.5214 J0.3788 F180.00
G2 X49.4557 Y-44.5443 Z-0.5000 I0.5214 J-0.3788 F180.00
G1 X49.4557 Y-44.5443 Z-1.0000 F180.00
G2 X49.5214 Y-45.3788 Z-1.0000 I-0.4557 J-0.4557 F180.00
G2 X48.4786 Y-44.6212 Z-1.0000 I-0.5214 J0.3788 F180.00
G2 X49.4557 Y-44.5443 Z-1.0000 I0.5214 J-0.3788 F180.00
G0 X49.4557 Y-44.5443 Z5.0000
G0 X49.4557 Y-44.5443 Z5.0000
G0 X49.4557 Y-44.5443 Z2.0000
G1 X49.4557 Y-44.5443 Z-1.0000 F180.00
G2 X49.0674 Y-45.6410 Z-1.0000 I-0.4557 J-0.4557 F180.00
G2 X48.9326 Y-44.3590 Z-1.0000 I-0.0674 J0.6410 F180.00
G2 X49.4557 Y-44.5443 Z-1.0000 I0.0674 J-0.6410 F180.00
G1 X49.4557 Y-44.5443 Z-1.5000 F180.00
G2 X49.0674 Y-45.6410 Z-1.5000 I-0.4557 J-0.4557 F180.00
G2 X48.9326 Y-44.3590 Z-1.5000 I-0.0674 J0.6410 F180.00
G2 X49.4557 Y-44.5443 Z-1.5000 I0.0674 J-0.6410 F180.00
G0 X49.4557 Y-44.5443 Z5.0000
G0 X49.4557 Y-44.5443 Z5.0000
G0 X49.4557 Y-44.5443 Z1.5000
G1 X49.4557 Y-44.5443 Z-1.5000 F180.00
G2 X49.5214 Y-45.3788 Z-1.5000 I-0.4557 J-0.4557 F180.00
G2 X48.4786 Y-44.6212 Z-1.5000 I-0.5214 J0.3788 F180.00
G2 X49.4557 Y-44.5443 Z-1.5000 I0.5214 J-0.3788 F180.00
G1 X49.4557 Y-44.5443 Z-2.0000 F180.00
G2 X49.5214 Y-45.3788 Z-2.0000 I-0.4557 J-0.4557 F180.00
G2 X48.4786 Y-44.6212 Z-2.0000 I-0.5214 J0.3788 F180.00
G2 X49.4557 Y-44.5443 Z-2.0000 I0.5214 J-0.3788 F180.00
G0 X49.4557 Y-44.5443 Z5.0000
G0 X49.4557 Y-44.5443 Z5.0000
G0 X49.4557 Y-44.5443 Z1.0000
G1 X49.4557 Y-44.5443 Z-2.0000 F180.00
G2 X49.0674 Y-45.6410 Z-2.0000 I-0.4557 J-0.4557 F180.00
G2 X48.9326 Y-44.3590 Z-2.0000 I-0.0674 J0.6410 F180.00
G2 X49.4557 Y-44.5443 Z-2.0000 I0.0674 J-0.6410 F180.00
G1 X49.4557 Y-44.5443 Z-2.5000 F180.00
G2 X49.0674 Y-45.6410 Z-2.5000 I-0.4557 J-0.4557 F180.00
G2 X48.9326 Y-44.3590 Z-2.5000 I-0.0674 J0.6410 F180.00
G2 X49.4557 Y-44.5443 Z-2.5000 I0.0674 J-0.6410 F180.00
G0 X49.4557 Y-44.5443 Z5.0000
G0 X49.4557 Y-44.5443 Z5.0000
G0 X49.4557 Y-44.5443 Z0.5000
G1 X49.4557 Y-44.5443 Z-2.5000 F180.00
G2 X49.5214 Y-45.3788 Z-2.5000 I-0.4557 J-0.4557 F180.00
G2 X48.4786 Y-44.6212 Z-2.5000 I-0.5214 J0.3788 F180.00
G2 X49.4557 Y-44.5443 Z-2.5000 I0.5214 J-0.3788 F180.00
G1 X49.4557 Y-44.5443 Z-3.0000 F180.00
G2 X49.5214 Y-45.3788 Z-3.0000 I-0.4557 J-0.4557 F180.00
G2 X48.4786 Y-44.6212 Z-3.0000 I-0.5214 J0.3788 F180.00
G2 X49.4557 Y-44.5443 Z-3.0000 I0.5214 J-0.3788 F180.00
G0 X49.4557 Y-44.5443 Z5.0000
G0 X49.4557 Y-44.5443 Z5.0000
G0 X49.4557 Y-44.5443 Z0.0000
G1 X49.4557 Y-44.5443 Z-3.0000 F180.00
G2 X49.0674 Y-45.6410 Z-3.0000 I-0.4557 J-0.4557 F180.00
G2 X48.9326 Y-44.3590 Z-3.0000 I-0.0674 J0.6410 F180.00
G2 X49.4557 Y-44.5443 Z-3.0000 I0.0674 J-0.6410 F180.00
G1 X49.4557 Y-44.5443 Z-3.5000 F180.00
G2 X49.0674 Y-45.6410 Z-3.5000 I-0.4557 J-0.4557 F180.00
G2 X48.9326 Y-44.3590 Z-3.5000 I-0.0674 J0.6410 F180.00
G2 X49.4557 Y-44.5443 Z-3.5000 I0.0674 J-0.6410 F180.00
G0 X49.4557 Y-44.5443 Z5.0000
G0 X49.4557 Y-44.5443 Z5.0000
G0 X49.4557 Y-44.5443 Z-0.5000
G1 X49.4557 Y-44.5443 Z-3.5000 F180.00
G2 X49.5214 Y-45.3788 Z-3.5000 I-0.4557 J-0.4557 F180.00
G2 X48.4786 Y-44.6212 Z-3.5000 I-0.5214 J0.3788 F180.00
G2 X49.4557 Y-44.5443 Z-3.5000 I0.5214 J-0.3788 F180.00
G1 X49.4557 Y-44.5443 Z-4.0000 F180.00
G2 X49.5214 Y-45.3788 Z-4.0000 I-0.4557 J-0.4557 F180.00
G2 X48.4786 Y-44.6212 Z-4.0000 I-0.5214 J0.3788 F180.00
G2 X49.4557 Y-44.5443 Z-4.0000 I0.5214 J-0.3788 F180.00
G0 X49.4557 Y-44.5443 Z5.0000
G0 X49.4557 Y-44.5443 Z5.0000
G0 X49.4557 Y-44.5443 Z-1.0000
G1 X49.4557 Y-44.5443 Z-4.0000 F180.00
G2 X49.0674 Y-45.6410 Z-4.0000 I-0.4557 J-0.4557 F180.00
G2 X48.9326 Y-44.3590 Z-4.0000 I-0.0674 J0.6410 F180.00
G2 X49.4557 Y-44.5443 Z-4.0000 I0.0674 J-0.6410 F180.00
G1 X49.4557 Y-44.5443 Z-4.5000 F180.00
G2 X49.0674 Y-45.6410 Z-4.5000 I-0.4557 J-0.4557 F180.00
G2 X48.9326 Y-44.3590 Z-4.5000 I-0.0674 J0.6410 F180.00
G2 X49.4557 Y-44.5443 Z-4.5000 I0.0674 J-0.6410 F180.00
G0 X49.4557 Y-44.5443 Z5.0000
G0 X49.4557 Y-44.5443 Z5.0000
G0 X49.4557 Y-44.5443 Z-1.5000
G1 X49.4557 Y-44.5443 Z-4.5000 F180.00
G2 X49.5214 Y-45.3788 Z-4.5000 I-0.4557 J-0.4557 F180.00
G2 X48.4786 Y-44.6212 Z-4.5000 I-0.5214 J0.3788 F180.00
G2 X49.4557 Y-44.5443 Z-4.5000 I0.5214 J-0.3788 F180.00
G1 X49.4557 Y-44.5443 Z-5.0000 F180.00
G2 X49.5214 Y-45.3788 Z-5.0000 I-0.4557 J-0.4557 F180.00
G2 X48.4786 Y-44.6212 Z-5.0000 I-0.5214 J0.3788 F180.00
G2 X49.4557 Y-44.5443 Z-5.0000 I0.5214 J-0.3788 F180.00
G0 X49.4557 Y-44.5443 Z5.0000
G0 X49.4557 Y-44.5443 Z5.0000
G0 X49.4557 Y-44.5443 Z-2.0000
G1 X49.4557 Y-44.5443 Z-5.0000 F180.00
G2 X49.0674 Y-45.6410 Z-5.0000 I-0.4557 J-0.4557 F180.00
G2 X48.9326 Y-44.3590 Z-5.0000 I-0.0674 J0.6410 F180.00
G2 X49.4557 Y-44.5443 Z-5.0000 I0.0674 J-0.6410 F180.00
G1 X49.4557 Y-44.5443 Z-5.5000 F180.00
G2 X49.0674 Y-45.6410 Z-5.5000 I-0.4557 J-0.4557 F180.00
G2 X48.9326 Y-44.3590 Z-5.5000 I-0.0674 J0.6410 F180.00
G2 X49.4557 Y-44.5443 Z-5.5000 I0.0674 J-0.6410 F180.00
G0 X49.4557 Y-44.5443 Z5.0000
G0 X49.4557 Y-44.5443 Z5.0000
G0 X49.4557 Y-44.5443 Z-2.5000
G1 X49.4557 Y-44.5443 Z-5.5000 F180.00
G2 X49.5214 Y-45.3788 Z-5.5000 I-0.4557 J-0.4557 F180.00
G2 X48.4786 Y-44.6212 Z-5.5000 I-0.5214 J0.3788 F180.00
G2 X49.4557 Y-44.5443 Z-5.5000 I0.5214 J-0.3788 F180.00
G1 X49.4557 Y-44.5443 Z-6.0000 F180.00
G2 X49.5214 Y-45.3788 Z-6.0000 I-0.4557 J-0.4557 F180.00
G2 X48.4786 Y-44.6212 Z-6.0000 I-0.5214 J0.3788 F180.00
G2 X49.4557 Y-44.5443 Z-6.0000 I0.5214 J-0.3788 F180.00
G0 X49.4557 Y-44.5443 Z5.0000
G0 X49.4557 Y-44.5443 Z5.0000
G0 X49.4557 Y-44.5443 Z-3.0000
G1 X49.4557 Y-44.5443 Z-6.0000 F180.00
G2 X49.0674 Y-45.6410 Z-6.0000 I-0.4557 J-0.4557 F180.00
G2 X48.9326 Y-44.3590 Z-6.0000 I-0.0674 J0.6410 F180.00
G2 X49.4557 Y-44.5443 Z-6.0000 I0.0674 J-0.6410 F180.00
G1 X49.4557 Y-44.5443 Z-6.5000 F180.00
G2 X49.0674 Y-45.6410 Z-6.5000 I-0.4557 J-0.4557 F180.00
G2 X48.9326 Y-44.3590 Z-6.5000 I-0.0674 J0.6410 F180.00
G2 X49.4557 Y-44.5443 Z-6.5000 I0.0674 J-0.6410 F180.00
G0 X49.4557 Y-44.5443 Z5.0000
G0 X49.4557 Y-44.5443 Z5.0000
G0 X49.4557 Y-44.5443 Z-3.5000
G1 X49.4557 Y-44.5443 Z-6.5000 F180.00
G2 X49.5214 Y-45.3788 Z-6.5000 I-0.4557 J-0.4557 F180.00
G2 X48.4786 Y-44.6212 Z-6.5000 I-0.5214 J0.3788 F180.00
G2 X49.4557 Y-44.5443 Z-6.5000 I0.5214 J-0.3788 F180.00
G1 X49.4557 Y-44.5443 Z-7.0000 F180.00
G2 X49.5214 Y-45.3788 Z-7.0000 I-0.4557 J-0.4557 F180.00
G2 X48.4786 Y-44.6212 Z-7.0000 I-0.5214 J0.3788 F180.00
G2 X49.4557 Y-44.5443 Z-7.0000 I0.5214 J-0.3788 F180.00
G0 X49.4557 Y-44.5443 Z5.0000
G0 X49.4557 Y-44.5443 Z5.0000
G0 X49.4557 Y-44.5443 Z-4.0000
G1 X49.4557 Y-44.5443 Z-7.0000 F180.00
G2 X49.0674 Y-45.6410 Z-7.0000 I-0.4557 J-0.4557 F180.00
G2 X48.9326 Y-44.3590 Z-7.0000 I-0.0674 J0.6410 F180.00
G2 X49.4557 Y-44.5443 Z-7.0000 I0.0674 J-0.6410 F180.00
G1 X49.4557 Y-44.5443 Z-7.5000 F180.00
G2 X49.0674 Y-45.6410 Z-7.5000 I-0.4557 J-0.4557 F180.00
G2 X48.9326 Y-44.3590 Z-7.5000 I-0.0674 J0.6410 F180.00
G2 X49.4557 Y-44.5443 Z-7.5000 I0.0674 J-0.6410 F180.00
G0 X49.4557 Y-44.5443 Z5.0000
G0 X49.4557 Y-44.5443 Z5.0000
G0 X49.4557 Y-44.5443 Z-4.5000
G1 X49.4557 Y-44.5443 Z-7.5000 F180.00
G2 X49.5214 Y-45.3788 Z-7.5000 I-0.4557 J-0.4557 F180.00
G2 X48.4786 Y-44.6212 Z-7.5000 I-0.5214 J0.3788 F180.00
G2 X49.4557 Y-44.5443 Z-7.5000 I0.5214 J-0.3788 F180.00
G1 X49.4557 Y-44.5443 Z-8.0000 F180.00
G2 X49.5214 Y-45.3788 Z-8.0000 I-0.4557 J-0.4557 F180.00
G2 X48.4786 Y-44.6212 Z-8.0000 I-0.5214 J0.3788 F180.00
G2 X49.4557 Y-44.5443 Z-8.0000 I0.5214 J-0.3788 F180.00
G0 X49.4557 Y-44.5443 Z5.0000
G0 X49.4557 Y-44.5443 Z5.0000
G0 X49.4557 Y-44.5443 Z-5.0000
G1 X49.4557 Y-44.5443 Z-8.0000 F180.00
G2 X49.0674 Y-45.6410 Z-8.0000 I-0.4557 J-0.4557 F180.00
G2 X48.9326 Y-44.3590 Z-8.0000 I-0.0674 J0.6410 F180.00
G2 X49.4557 Y-44.5443 Z-8.0000 I0.0674 J-0.6410 F180.00
G1 X49.4557 Y-44.5443 Z-8.5000 F180.00
G2 X49.0674 Y-45.6410 Z-8.5000 I-0.4557 J-0.4557 F180.00
G2 X48.9326 Y-44.3590 Z-8.5000 I-0.0674 J0.6410 F180.00
G2 X49.4557 Y-44.5443 Z-8.5000 I0.0674 J-0.6410 F180.00
G0 X49.4557 Y-44.5443 Z5.0000
G0 X49.4557 Y-44.5443 Z5.0000
G0 X49.4557 Y-44.5443 Z-5.5000
G1 X49.4557 Y-44.5443 Z-8.5000 F180.00
G2 X49.5214 Y-45.3788 Z-8.5000 I-0.4557 J-0.4557 F180.00
G2 X48.4786 Y-44.6212 Z-8.5000 I-0.5214 J0.3788 F180.00
G2 X49.4557 Y-44.5443 Z-8.5000 I0.5214 J-0.3788 F180.00
G1 X49.4557 Y-44.5443 Z-9.0000 F180.00
G2 X49.5214 Y-45.3788 Z-9.0000 I-0.4557 J-0.4557 F180.00
G2 X48.4786 Y-44.6212 Z-9.0000 I-0.5214 J0.3788 F180.00
G2 X49.4557 Y-44.5443 Z-9.0000 I0.5214 J-0.3788 F180.00
G0 X49.4557 Y-44.5443 Z5.0000
G0 X49.4557 Y-44.5443 Z5.0000
G0 X49.4557 Y-44.5443 Z-6.0000
G1 X49.4557 Y-44.5443 Z-9.0000 F180.00
G2 X49.0674 Y-45.6410 Z-9.0000 I-0.4557 J-0.4557 F180.00
G2 X48.9326 Y-44.3590 Z-9.0000 I-0.0674 J0.6410 F180.00
G2 X49.4557 Y-44.5443 Z-9.0000 I0.0674 J-0.6410 F180.00
G1 X49.4557 Y-44.5443 Z-9.5000 F180.00
G2 X49.0674 Y-45.6410 Z-9.5000 I-0.4557 J-0.4557 F180.00
G2 X48.9326 Y-44.3590 Z-9.5000 I-0.0674 J0.6410 F180.00
G2 X49.4557 Y-44.5443 Z-9.5000 I0.0674 J-0.6410 F180.00
G0 X49.4557 Y-44.5443 Z5.0000
G0 X49.4557 Y-44.5443 Z5.0000
G0 X49.4557 Y-44.5443 Z-6.5000
G1 X49.4557 Y-44.5443 Z-9.5000 F180.00
G2 X49.5214 Y-45.3788 Z-9.5000 I-0.4557 J-0.4557 F180.00
G2 X48.4786 Y-44.6212 Z-9.5000 I-0.5214 J0.3788 F180.00
G2 X49.4557 Y-44.5443 Z-9.5000 I0.5214 J-0.3788 F180.00
G1 X49.4557 Y-44.5443 Z-10.0000 F180.00
G2 X49.5214 Y-45.3788 Z-10.0000 I-0.4557 J-0.4557 F180.00
G2 X48.4786 Y-44.6212 Z-10.0000 I-0.5214 J0.3788 F180.00
G2 X49.4557 Y-44.5443 Z-10.0000 I0.5214 J-0.3788 F180.00
G0 X49.4557 Y-44.5443 Z5.0000
G0 X49.4557 Y-44.5443 Z5.0000
G0 X49.4557 Y-44.5443 Z-7.0000
G1 X49.4557 Y-44.5443 Z-10.0000 F180.00
G2 X49.0674 Y-45.6410 Z-10.0000 I-0.4557 J-0.4557 F180.00
G2 X48.9326 Y-44.3590 Z-10.0000 I-0.0674 J0.6410 F180.00
G2 X49.4557 Y-44.5443 Z-10.0000 I0.0674 J-0.6410 F180.00
G1 X49.4557 Y-44.5443 Z-10.5000 F180.00
G2 X49.0674 Y-45.6410 Z-10.5000 I-0.4557 J-0.4557 F180.00
G2 X48.9326 Y-44.3590 Z-10.5000 I-0.0674 J0.6410 F180.00
G2 X49.4557 Y-44.5443 Z-10.5000 I0.0674 J-0.6410 F180.00
G0 X49.4557 Y-44.5443 Z5.0000
G0 X49.4557 Y-44.5443 Z5.0000
G0 X49.4557 Y-44.5443 Z-7.5000
G1 X49.4557 Y-44.5443 Z-10.5000 F180.00
G2 X49.5214 Y-45.3788 Z-10.5000 I-0.4557 J-0.4557 F180.00
G2 X48.4786 Y-44.6212 Z-10.5000 I-0.5214 J0.3788 F180.00
G2 X49.4557 Y-44.5443 Z-10.5000 I0.5214 J-0.3788 F180.00
G1 X49.4557 Y-44.5443 Z-11.0000 F180.00
G2 X49.5214 Y-45.3788 Z-11.0000 I-0.4557 J-0.4557 F180.00
G2 X48.4786 Y-44.6212 Z-11.0000 I-0.5214 J0.3788 F180.00
G2 X49.4557 Y-44.5443 Z-11.0000 I0.5214 J-0.3788 F180.00
G0 X49.4557 Y-44.5443 Z5.0000
G0 X49.4557 Y-44.5443 Z5.0000
G0 X49.4557 Y-44.5443 Z-8.0000
G1 X49.4557 Y-44.5443 Z-11.0000 F180.00
G2 X49.0674 Y-45.6410 Z-11.0000 I-0.4557 J-0.4557 F180.00
G2 X48.9326 Y-44.3590 Z-11.0000 I-0.0674 J0.6410 F180.00
G2 X49.4557 Y-44.5443 Z-11.0000 I0.0674 J-0.6410 F180.00
G0 Z5.0000
G0 X21.4557 Y-4.5443
G0 Z3.0000
G1 X21.4557 Y-4.5443 Z-0.5000 F180.00
G2 X21.0674 Y-5.6410 Z-0.5000 I-0.4557 J-0.4557 F180.00
G2 X20.3590 Y-5.0674 Z-0.5000 I-0.0674 J0.6410 F180.00
G2 X20.9326 Y-4.3590 Z-0.5000 I0.6410 J0.0674 F180.00
G2 X21.4557 Y-4.5443 Z-0.5000 I0.0674 J-0.6410 F180.00
G0 X21.4557 Y-4.5443 Z5.0000
G0 X21.4557 Y-4.5443 Z5.0000
G0 X21.4557 Y-4.5443 Z2.5000
G1 X21.4557 Y-4.5443 Z-0.5000 F180.00
G2 X21.5214 Y-5.3788 Z-0.5000 I-0.4557 J-0.4557 F180.00
G2 X20.4786 Y-4.6212 Z-0.5000 I-0.5214 J0.3788 F180.00
G2 X21.4557 Y-4.5443 Z-0.5000 I0.5214 J-0.3788 F180.00
G1 X21.4557 Y-4.5443 Z-1.0000 F180.00
G2 X21.5214 Y-5.3788 Z-1.0000 I-0.4557 J-0.4557 F180.00
G2 X20.4786 Y-4.6212 Z-1.0000 I-0.5214 J0.3788 F180.00
G2 X21.4557 Y-4.5443 Z-1.0000 I0.5214 J-0.3788 F180.00
G0 X21.4557 Y-4.5443 Z5.0000
G0 X21.4557 Y-4.5443 Z5.0000
G0 X21.4557 Y-4.5443 Z2.0000
G1 X21.4557 Y-4.5443 Z-1.0000 F180.00
G2 X21.0674 Y-5.6410 Z-1.0000 I-0.4557 J-0.4557 F180.00
G2 X20.3590 Y-5.0674 Z-1.0000 I-0.0674 J0.6410 F180.00
G2 X20.9326 Y-4.3590 Z-1.0000 I0.6410 J0.0674 F180.00
G2 X21.4557 Y-4.5443 Z-1.0000 I0.0674 J-0.6410 F180.00
G1 X21.4557 Y-4.5443 Z-1.5000 F180.00
G2 X21.0674 Y-5.6410 Z-1.5000 I-0.4557 J-0.4557 F180.00
G2 X20.3590 Y-5.0674 Z-1.5000 I-0.0674 J0.6410 F180.00
G2 X20.9326 Y-4.3590 Z-1.5000 I0.6410 J0.0674 F180.00
G2 X21.4557 Y-4.5443 Z-1.5000 I0.0674 J-0.6410 F180.00
G0 X21.4557 Y-4.5443 Z5.0000
G0 X21.4557 Y-4.5443 Z5.0000
G0 X21.4557 Y-4.5443 Z1.5000
G1 X21.4557 Y-4.5443 Z-1.5000 F180.00
G2 X21.5214 Y-5.3788 Z-1.5000 I-0.4557 J-0.4557 F180.00
G2 X20.4786 Y-4.6212 Z-1.5000 I-0.5214 J0.3788 F180.00
G2 X21.4557 Y-4.5443 Z-1.5000 I0.5214 J-0.3788 F180.00
G1 X21.4557 Y-4.5443 Z-2.0000 F180.00
G2 X21.5214 Y-5.3788 Z-2.0000 I-0.4557 J-0.4557 F180.00
G2 X20.4786 Y-4.6212 Z-2.0000 I-0.5214 J0.3788 F180.00
G2 X21.4557 Y-4.5443 Z-2.0000 I0.5214 J-0.3788 F180.00
G0 X21.4557 Y-4.5443 Z5.0000
G0 X21.4557 Y-4.5443 Z5.0000
G0 X21.4557 Y-4.5443 Z1.0000
G1 X21.4557 Y-4.5443 Z-2.0000 F180.00
G2 X21.0674 Y-5.6410 Z-2.0000 I-0.4557 J-0.4557 F180.00
G2 X20.3590 Y-5.0674 Z-2.0000 I-0.0674 J0.6410 F180.00
G2 X20.9326 Y-4.3590 Z-2.0000 I0.6410 J0.0674 F180.00
G2 X21.4557 Y-4.5443 Z-2.0000 I0.0674 J-0.6410 F180.00
G1 X21.4557 Y-4.5443 Z-2.5000 F180.00
G2 X21.0674 Y-5.6410 Z-2.5000 I-0.4557 J-0.4557 F180.00
G2 X20.3590 Y-5.0674 Z-2.5000 I-0.0674 J0.6410 F180.00
G2 X20.9326 Y-4.3590 Z-2.5000 I0.6410 J0.0674 F180.00
G2 X21.4557 Y-4.5443 Z-2.5000 I0.0674 J-0.6410 F180.00
G0 X21.4557 Y-4.5443 Z5.0000
G0 X21.4557 Y-4.5443 Z5.0000
G0 X21.4557 Y-4.5443 Z0.5000
G1 X21.4557 Y-4.5443 Z-2.5000 F180.00
G2 X21.5214 Y-5.3788 Z-2.5000 I-0.4557 J-0.4557 F180.00
G2 X20.4786 Y-4.6212 Z-2.5000 I-0.5214 J0.3788 F180.00
G2 X21.4557 Y-4.5443 Z-2.5000 I0.5214 J-0.3788 F180.00
G1 X21.4557 Y-4.5443 Z-3.0000 F180.00
G2 X21.5214 Y-5.3788 Z-3.0000 I-0.4557 J-0.4557 F180.00
G2 X20.4786 Y-4.6212 Z-3.0000 I-0.5214 J0.3788 F180.00
G2 X21.4557 Y-4.5443 Z-3.0000 I0.5214 J-0.3788 F180.00
G0 X21.4557 Y-4.5443 Z5.0000
G0 X21.4557 Y-4.5443 Z5.0000
G0 X21.4557 Y-4.5443 Z0.0000
G1 X21.4557 Y-4.5443 Z-3.0000 F180.00
G2 X21.0674 Y-5.6410 Z-3.0000 I-0.4557 J-0.4557 F180.00
G2 X20.3590 Y-5.0674 Z-3.0000 I-0.0674 J0.6410 F180.00
G2 X20.9326 Y-4.3590 Z-3.0000 I0.6410 J0.0674 F180.00
G2 X21.4557 Y-4.5443 Z-3.0000 I0.0674 J-0.6410 F180.00
G1 X21.4557 Y-4.5443 Z-3.5000 F180.00
G2 X21.0674 Y-5.6410 Z-3.5000 I-0.4557 J-0.4557 F180.00
G2 X20.3590 Y-5.0674 Z-3.5000 I-0.0674 J0.6410 F180.00
G2 X20.9326 Y-4.3590 Z-3.5000 I0.6410 J0.0674 F180.00
G2 X21.4557 Y-4.5443 Z-3.5000 I0.0674 J-0.6410 F180.00
G0 X21.4557 Y-4.5443 Z5.0000
G0 X21.4557 Y-4.5443 Z5.0000
G0 X21.4557 Y-4.5443 Z-0.5000
G1 X21.4557 Y-4.5443 Z-3.5000 F180.00
G2 X21.5214 Y-5.3788 Z-3.5000 I-0.4557 J-0.4557 F180.00
G2 X20.4786 Y-4.6212 Z-3.5000 I-0.5214 J0.3788 F180.00
G2 X21.4557 Y-4.5443 Z-3.5000 I0.5214 J-0.3788 F180.00
G1 X21.4557 Y-4.5443 Z-4.0000 F180.00
G2 X21.5214 Y-5.3788 Z-4.0000 I-0.4557 J-0.4557 F180.00
G2 X20.4786 Y-4.6212 Z-4.0000 I-0.5214 J0.3788 F180.00
G2 X21.4557 Y-4.5443 Z-4.0000 I0.5214 J-0.3788 F180.00
G0 X21.4557 Y-4.5443 Z5.0000
G0 X21.4557 Y-4.5443 Z5.0000
G0 X21.4557 Y-4.5443 Z-1.0000
G1 X21.4557 Y-4.5443 Z-4.0000 F180.00
G2 X21.0674 Y-5.6410 Z-4.0000 I-0.4557 J-0.4557 F180.00
G2 X20.3590 Y-5.0674 Z-4.0000 I-0.0674 J0.6410 F180.00
G2 X20.9326 Y-4.3590 Z-4.0000 I0.6410 J0.0674 F180.00
G2 X21.4557 Y-4.5443 Z-4.0000 I0.0674 J-0.6410 F180.00
G1 X21.4557 Y-4.5443 Z-4.5000 F180.00
G2 X21.0674 Y-5.6410 Z-4.5000 I-0.4557 J-0.4557 F180.00
G2 X20.3590 Y-5.0674 Z-4.5000 I-0.0674 J0.6410 F180.00
G2 X20.9326 Y-4.3590 Z-4.5000 I0.6410 J0.0674 F180.00
G2 X21.4557 Y-4.5443 Z-4.5000 I0.0674 J-0.6410 F180.00
G0 X21.4557 Y-4.5443 Z5.0000
G0 X21.4557 Y-4.5443 Z5.0000
G0 X21.4557 Y-4.5443 Z-1.5000
G1 X21.4557 Y-4.5443 Z-4.5000 F180.00
G2 X21.5214 Y-5.3788 Z-4.5000 I-0.4557 J-0.4557 F180.00
G2 X20.4786 Y-4.6212 Z-4.5000 I-0.5214 J0.3788 F180.00
G2 X21.4557 Y-4.5443 Z-4.5000 I0.5214 J-0.3788 F180.00
G1 X21.4557 Y-4.5443 Z-5.0000 F180.00
G2 X21.5214 Y-5.3788 Z-5.0000 I-0.4557 J-0.4557 F180.00
G2 X20.4786 Y-4.6212 Z-5.0000 I-0.5214 J0.3788 F180.00
G2 X21.4557 Y-4.5443 Z-5.0000 I0.5214 J-0.3788 F180.00
G0 X21.4557 Y-4.5443 Z5.0000
G0 X21.4557 Y-4.5443 Z5.0000
G0 X21.4557 Y-4.5443 Z-2.0000
G1 X21.4557 Y-4.5443 Z-5.0000 F180.00
G2 X21.0674 Y-5.6410 Z-5.0000 I-0.4557 J-0.4557 F180.00
G2 X20.3590 Y-5.0674 Z-5.0000 I-0.0674 J0.6410 F180.00
G2 X20.9326 Y-4.3590 Z-5.0000 I0.6410 J0.0674 F180.00
G2 X21.4557 Y-4.5443 Z-5.0000 I0.0674 J-0.6410 F180.00
G1 X21.4557 Y-4.5443 Z-5.5000 F180.00
G2 X21.0674 Y-5.6410 Z-5.5000 I-0.4557 J-0.4557 F180.00
G2 X20.3590 Y-5.0674 Z-5.5000 I-0.0674 J0.6410 F180.00
G2 X20.9326 Y-4.3590 Z-5.5000 I0.6410 J0.0674 F180.00
G2 X21.4557 Y-4.5443 Z-5.5000 I0.0674 J-0.6410 F180.00
G0 X21.4557 Y-4.5443 Z5.0000
G0 X21.4557 Y-4.5443 Z5.0000
G0 X21.4557 Y-4.5443 Z-2.5000
G1 X21.4557 Y-4.5443 Z-5.5000 F180.00
G2 X21.5214 Y-5.3788 Z-5.5000 I-0.4557 J-0.4557 F180.00
G2 X20.4786 Y-4.6212 Z-5.5000 I-0.5214 J0.3788 F180.00
G2 X21.4557 Y-4.5443 Z-5.5000 I0.5214 J-0.3788 F180.00
G1 X21.4557 Y-4.5443 Z-6.0000 F180.00
G2 X21.5214 Y-5.3788 Z-6.0000 I-0.4557 J-0.4557 F180.00
G2 X20.4786 Y-4.6212 Z-6.0000 I-0.5214 J0.3788 F180.00
G2 X21.4557 Y-4.5443 Z-6.0000 I0.5214 J-0.3788 F180.00
G0 X21.4557 Y-4.5443 Z5.0000
G0 X21.4557 Y-4.5443 Z5.0000
G0 X21.4557 Y-4.5443 Z-3.0000
G1 X21.4557 Y-4.5443 Z-6.0000 F180.00
G2 X21.0674 Y-5.6410 Z-6.0000 I-0.4557 J-0.4557 F180.00
G2 X20.3590 Y-5.0674 Z-6.0000 I-0.0674 J0.6410 F180.00
G2 X20.9326 Y-4.3590 Z-6.0000 I0.6410 J0.0674 F180.00
G2 X21.4557 Y-4.5443 Z-6.0000 I0.0674 J-0.6410 F180.00
G1 X21.4557 Y-4.5443 Z-6.5000 F180.00
G2 X21.0674 Y-5.6410 Z-6.5000 I-0.4557 J-0.4557 F180.00
G2 X20.3590 Y-5.0674 Z-6.5000 I-0.0674 J0.6410 F180.00
G2 X20.9326 Y-4.3590 Z-6.5000 I0.6410 J0.0674 F180.00
G2 X21.4557 Y-4.5443 Z-6.5000 I0.0674 J-0.6410 F180.00
G0 X21.4557 Y-4.5443 Z5.0000
G0 X21.4557 Y-4.5443 Z5.0000
G0 X21.4557 Y-4.5443 Z-3.5000
G1 X21.4557 Y-4.5443 Z-6.5000 F180.00
G2 X21.5214 Y-5.3788 Z-6.5000 I-0.4557 J-0.4557 F180.00
G2 X20.4786 Y-4.6212 Z-6.5000 I-0.5214 J0.3788 F180.00
G2 X21.4557 Y-4.5443 Z-6.5000 I0.5214 J-0.3788 F180.00
G1 X21.4557 Y-4.5443 Z-7.0000 F180.00
G2 X21.5214 Y-5.3788 Z-7.0000 I-0.4557 J-0.4557 F180.00
G2 X20.4786 Y-4.6212 Z-7.0000 I-0.5214 J0.3788 F180.00
G2 X21.4557 Y-4.5443 Z-7.0000 I0.5214 J-0.3788 F180.00
G0 X21.4557 Y-4.5443 Z5.0000
G0 X21.4557 Y-4.5443 Z5.0000
G0 X21.4557 Y-4.5443 Z-4.0000
G1 X21.4557 Y-4.5443 Z-7.0000 F180.00
G2 X21.0674 Y-5.6410 Z-7.0000 I-0.4557 J-0.4557 F180.00
G2 X20.3590 Y-5.0674 Z-7.0000 I-0.0674 J0.6410 F180.00
G2 X20.9326 Y-4.3590 Z-7.0000 I0.6410 J0.0674 F180.00
G2 X21.4557 Y-4.5443 Z-7.0000 I0.0674 J-0.6410 F180.00
G1 X21.4557 Y-4.5443 Z-7.5000 F180.00
G2 X21.0674 Y-5.6410 Z-7.5000 I-0.4557 J-0.4557 F180.00
G2 X20.3590 Y-5.0674 Z-7.5000 I-0.0674 J0.6410 F180.00
G2 X20.9326 Y-4.3590 Z-7.5000 I0.6410 J0.0674 F180.00
G2 X21.4557 Y-4.5443 Z-7.5000 I0.0674 J-0.6410 F180.00
G0 X21.4557 Y-4.5443 Z5.0000
G0 X21.4557 Y-4.5443 Z5.0000
G0 X21.4557 Y-4.5443 Z-4.5000
G1 X21.4557 Y-4.5443 Z-7.5000 F180.00
G2 X21.5214 Y-5.3788 Z-7.5000 I-0.4557 J-0.4557 F180.00
G2 X20.4786 Y-4.6212 Z-7.5000 I-0.5214 J0.3788 F180.00
G2 X21.4557 Y-4.5443 Z-7.5000 I0.5214 J-0.3788 F180.00
G1 X21.4557 Y-4.5443 Z-8.0000 F180.00
G2 X21.5214 Y-5.3788 Z-8.0000 I-0.4557 J-0.4557 F180.00
G2 X20.4786 Y-4.6212 Z-8.0000 I-0.5214 J0.3788 F180.00
G2 X21.4557 Y-4.5443 Z-8.0000 I0.5214 J-0.3788 F180.00
G0 X21.4557 Y-4.5443 Z5.0000
G0 X21.4557 Y-4.5443 Z5.0000
G0 X21.4557 Y-4.5443 Z-5.0000
G1 X21.4557 Y-4.5443 Z-8.0000 F180.00
G2 X21.0674 Y-5.6410 Z-8.0000 I-0.4557 J-0.4557 F180.00
G2 X20.3590 Y-5.0674 Z-8.0000 I-0.0674 J0.6410 F180.00
G2 X20.9326 Y-4.3590 Z-8.0000 I0.6410 J0.0674 F180.00
G2 X21.4557 Y-4.5443 Z-8.0000 I0.0674 J-0.6410 F180.00
G1 X21.4557 Y-4.5443 Z-8.5000 F180.00
G2 X21.0674 Y-5.6410 Z-8.5000 I-0.4557 J-0.4557 F180.00
G2 X20.3590 Y-5.0674 Z-8.5000 I-0.0674 J0.6410 F180.00
G2 X20.9326 Y-4.3590 Z-8.5000 I0.6410 J0.0674 F180.00
G2 X21.4557 Y-4.5443 Z-8.5000 I0.0674 J-0.6410 F180.00
G0 X21.4557 Y-4.5443 Z5.0000
G0 X21.4557 Y-4.5443 Z5.0000
G0 X21.4557 Y-4.5443 Z-5.5000
G1 X21.4557 Y-4.5443 Z-8.5000 F180.00
G2 X21.5214 Y-5.3788 Z-8.5000 I-0.4557 J-0.4557 F180.00
G2 X20.4786 Y-4.6212 Z-8.5000 I-0.5214 J0.3788 F180.00
G2 X21.4557 Y-4.5443 Z-8.5000 I0.5214 J-0.3788 F180.00
G1 X21.4557 Y-4.5443 Z-9.0000 F180.00
G2 X21.5214 Y-5.3788 Z-9.0000 I-0.4557 J-0.4557 F180.00
G2 X20.4786 Y-4.6212 Z-9.0000 I-0.5214 J0.3788 F180.00
G2 X21.4557 Y-4.5443 Z-9.0000 I0.5214 J-0.3788 F180.00
G0 X21.4557 Y-4.5443 Z5.0000
G0 X21.4557 Y-4.5443 Z5.0000
G0 X21.4557 Y-4.5443 Z-6.0000
G1 X21.4557 Y-4.5443 Z-9.0000 F180.00
G2 X21.0674 Y-5.6410 Z-9.0000 I-0.4557 J-0.4557 F180.00
G2 X20.3590 Y-5.0674 Z-9.0000 I-0.0674 J0.6410 F180.00
G2 X20.9326 Y-4.3590 Z-9.0000 I0.6410 J0.0674 F180.00
G2 X21.4557 Y-4.5443 Z-9.0000 I0.0674 J-0.6410 F180.00
G1 X21.4557 Y-4.5443 Z-9.5000 F180.00
G2 X21.0674 Y-5.6410 Z-9.5000 I-0.4557 J-0.4557 F180.00
G2 X20.3590 Y-5.0674 Z-9.5000 I-0.0674 J0.6410 F180.00
G2 X20.9326 Y-4.3590 Z-9.5000 I0.6410 J0.0674 F180.00
G2 X21.4557 Y-4.5443 Z-9.5000 I0.0674 J-0.6410 F180.00
G0 X21.4557 Y-4.5443 Z5.0000
G0 X21.4557 Y-4.5443 Z5.0000
G0 X21.4557 Y-4.5443 Z-6.5000
G1 X21.4557 Y-4.5443 Z-9.5000 F180.00
G2 X21.5214 Y-5.3788 Z-9.5000 I-0.4557 J-0.4557 F180.00
G2 X20.4786 Y-4.6212 Z-9.5000 I-0.5214 J0.3788 F180.00
G2 X21.4557 Y-4.5443 Z-9.5000 I0.5214 J-0.3788 F180.00
G1 X21.4557 Y-4.5443 Z-10.0000 F180.00
G2 X21.5214 Y-5.3788 Z-10.0000 I-0.4557 J-0.4557 F180.00
G2 X20.4786 Y-4.6212 Z-10.0000 I-0.5214 J0.3788 F180.00
G2 X21.4557 Y-4.5443 Z-10.0000 I0.5214 J-0.3788 F180.00
G0 X21.4557 Y-4.5443 Z5.0000
G0 X21.4557 Y-4.5443 Z5.0000
G0 X21.4557 Y-4.5443 Z-7.0000
G1 X21.4557 Y-4.5443 Z-10.0000 F180.00
G2 X21.0674 Y-5.6410 Z-10.0000 I-0.4557 J-0.4557 F180.00
G2 X20.3590 Y-5.0674 Z-10.0000 I-0.0674 J0.6410 F180.00
G2 X20.9326 Y-4.3590 Z-10.0000 I0.6410 J0.0674 F180.00
G2 X21.4557 Y-4.5443 Z-10.0000 I0.0674 J-0.6410 F180.00
G1 X21.4557 Y-4.5443 Z-10.5000 F180.00
G2 X21.0674 Y-5.6410 Z-10.5000 I-0.4557 J-0.4557 F180.00
G2 X20.3590 Y-5.0674 Z-10.5000 I-0.0674 J0.6410 F180.00
G2 X20.9326 Y-4.3590 Z-10.5000 I0.6410 J0.0674 F180.00
G2 X21.4557 Y-4.5443 Z-10.5000 I0.0674 J-0.6410 F180.00
G0 X21.4557 Y-4.5443 Z5.0000
G0 X21.4557 Y-4.5443 Z5.0000
G0 X21.4557 Y-4.5443 Z-7.5000
G1 X21.4557 Y-4.5443 Z-10.5000 F180.00
G2 X21.5214 Y-5.3788 Z-10.5000 I-0.4557 J-0.4557 F180.00
G2 X20.4786 Y-4.6212 Z-10.5000 I-0.5214 J0.3788 F180.00
G2 X21.4557 Y-4.5443 Z-10.5000 I0.5214 J-0.3788 F180.00
G1 X21.4557 Y-4.5443 Z-11.0000 F180.00
G2 X21.5214 Y-5.3788 Z-11.0000 I-0.4557 J-0.4557 F180.00
G2 X20.4786 Y-4.6212 Z-11.0000 I-0.5214 J0.3788 F180.00
G2 X21.4557 Y-4.5443 Z-11.0000 I0.5214 J-0.3788 F180.00
G0 X21.4557 Y-4.5443 Z5.0000
G0 X21.4557 Y-4.5443 Z5.0000
G0 X21.4557 Y-4.5443 Z-8.0000
G1 X21.4557 Y-4.5443 Z-11.0000 F180.00
G2 X21.0674 Y-5.6410 Z-11.0000 I-0.4557 J-0.4557 F180.00
G2 X20.3590 Y-5.0674 Z-11.0000 I-0.0674 J0.6410 F180.00
G2 X20.9326 Y-4.3590 Z-11.0000 I0.6410 J0.0674 F180.00
G2 X21.4557 Y-4.5443 Z-11.0000 I0.0674 J-0.6410 F180.00
G0 Z5.0000
G0 X7.4557 Y-4.5443
G0 Z3.0000
G1 X7.4557 Y-4.5443 Z-0.5000 F180.00
G2 X7.6445 Y-5.0000 Z-0.5000 I-0.4557 J-0.4557 F180.00
G2 X6.3555 Y-5.0000 Z-0.5000 I-0.6445 J0.0000 F180.00
G2 X7.4557 Y-4.5443 Z-0.5000 I0.6445 J-0.0000 F180.00
G0 X7.4557 Y-4.5443 Z5.0000
G0 X7.4557 Y-4.5443 Z5.0000
G0 X7.4557 Y-4.5443 Z2.5000
G1 X7.4557 Y-4.5443 Z-0.5000 F180.00
G2 X6.6778 Y-5.5581 Z-0.5000 I-0.4557 J-0.4557 F180.00
G2 X7.3222 Y-4.4419 Z-0.5000 I0.3222 J0.5581 F180.00
G2 X7.4557 Y-4.5443 Z-0.5000 I-0.3222 J-0.5581 F180.00
G1 X7.4557 Y-4.5443 Z-1.0000 F180.00
G2 X6.6778 Y-5.5581 Z-1.0000 I-0.4557 J-0.4557 F180.00
G2 X7.3222 Y-4.4419 Z-1.0000 I0.3222 J0.5581 F180.00
G2 X7.4557 Y-4.5443 Z-1.0000 I-0.3222 J-0.5581 F180.00
G0 X7.4557 Y-4.5443 Z5.0000
G0 X7.4557 Y-4.5443 Z5.0000
G0 X7.4557 Y-4.5443 Z2.0000
G1 X7.4557 Y-4.5443 Z-1.0000 F180.00
G2 X7.6445 Y-5.0000 Z-1.0000 I-0.4557 J-0.4557 F180.00
G2 X6.3555 Y-5.0000 Z-1.0000 I-0.6445 J0.0000 F180.00
G2 X7.4557 Y-4.5443 Z-1.0000 I0.6445 J-0.0000 F180.00
G1 X7.4557 Y-4.5443 Z-1.5000 F180.00
G2 X7.6445 Y-5.0000 Z-1.5000 I-0.4557 J-0.4557 F180.00
G2 X6.3555 Y-5.0000 Z-1.5000 I-0.6445 J0.0000 F180.00
G2 X7.4557 Y-4.5443 Z-1.5000 I0.6445 J-0.0000 F180.00
G0 X7.4557 Y-4.5443 Z5.0000
G0 X7.4557 Y-4.5443 Z5.0000
G0 X7.4557 Y-4.5443 Z1.5000
G1 X7.4557 Y-4.5443 Z-1.5000 F180.00
G2 X6.6778 Y-5.5581 Z-1.5000 I-0.4557 J-0.4557 F180.00
G2 X7.3222 Y-4.4419 Z-1.5000 I0.3222 J0.5581 F180.00
G2 X7.4557 Y-4.5443 Z-1.5000 I-0.3222 J-0.5581 F180.00
G1 X7.4557 Y-4.5443 Z-2.0000 F180.00
G2 X6.6778 Y-5.5581 Z-2.0000 I-0.4557 J-0.4557 F180.00
G2 X7.3222 Y-4.4419 Z-2.0000 I0.3222 J0.5581 F180.00
G2 X7.4557 Y-4.5443 Z-2.0000 I-0.3222 J-0.5581 F180.00
G0 X7.4557 Y-4.5443 Z5.0000
G0 X7.4557 Y-4.5443 Z5.0000
G0 X7.4557 Y-4.5443 Z1.0000
G1 X7.4557 Y-4.5443 Z-2.0000 F180.00
G2 X7.6445 Y-5.0000 Z-2.0000 I-0.4557 J-0.4557 F180.00
G2 X6.3555 Y-5.0000 Z-2.0000 I-0.6445 J0.0000 F180.00
G2 X7.4557 Y-4.5443 Z-2.0000 I0.6445 J-0.0000 F180.00
G1 X7.4557 Y-4.5443 Z-2.5000 F180.00
G2 X7.6445 Y-5.0000 Z-2.5000 I-0.4557 J-0.4557 F180.00
G2 X6.3555 Y-5.0000 Z-2.5000 I-0.6445 J0.0000 F180.00
G2 X7.4557 Y-4.5443 Z-2.5000 I0.6445 J-0.0000 F180.00
G0 X7.4557 Y-4.5443 Z5.0000
G0 X7.4557 Y-4.5443 Z5.0000
G0 X7.4557 Y-4.5443 Z0.5000
G1 X7.4557 Y-4.5443 Z-2.5000 F180.00
G2 X6.6778 Y-5.5581 Z-2.5000 I-0.4557 J-0.4557 F180.00
G2 X7.3222 Y-4.4419 Z-2.5000 I0.3222 J0.5581 F180.00
G2 X7.4557 Y-4.5443 Z-2.5000 I-0.3222 J-0.5581 F180.00
G1 X7.4557 Y-4.5443 Z-3.0000 F180.00
G2 X6.6778 Y-5.5581 Z-3.0000 I-0.4557 J-0.4557 F180.00
G2 X7.3222 Y-4.4419 Z-3.0000 I0.3222 J0.5581 F180.00
G2 X7.4557 Y-4.5443 Z-3.0000 I-0.3222 J-0.5581 F180.00
G0 X7.4557 Y-4.5443 Z5.0000
G0 X7.4557 Y-4.5443 Z5.0000
G0 X7.4557 Y-4.5443 Z0.0000
G1 X7.4557 Y-4.5443 Z-3.0000 F180.00
G2 X7.6445 Y-5.0000 Z-3.0000 I-0.4557 J-0.4557 F180.00
G2 X6.3555 Y-5.0000 Z-3.0000 I-0.6445 J0.0000 F180.00
G2 X7.4557 Y-4.5443 Z-3.0000 I0.6445 J-0.0000 F180.00
G1 X7.4557 Y-4.5443 Z-3.5000 F180.00
G2 X7.6445 Y-5.0000 Z-3.5000 I-0.4557 J-0.4557 F180.00
G2 X6.3555 Y-5.0000 Z-3.5000 I-0.6445 J0.0000 F180.00
G2 X7.4557 Y-4.5443 Z-3.5000 I0.6445 J-0.0000 F180.00
G0 X7.4557 Y-4.5443 Z5.0000
G0 X7.4557 Y-4.5443 Z5.0000
G0 X7.4557 Y-4.5443 Z-0.5000
G1 X7.4557 Y-4.5443 Z-3.5000 F180.00
G2 X6.6778 Y-5.5581 Z-3.5000 I-0.4557 J-0.4557 F180.00
G2 X7.3222 Y-4.4419 Z-3.5000 I0.3222 J0.5581 F180.00
G2 X7.4557 Y-4.5443 Z-3.5000 I-0.3222 J-0.5581 F180.00
G1 X7.4557 Y-4.5443 Z-4.0000 F180.00
G2 X6.6778 Y-5.5581 Z-4.0000 I-0.4557 J-0.4557 F180.00
G2 X7.3222 Y-4.4419 Z-4.0000 I0.3222 J0.5581 F180.00
G2 X7.4557 Y-4.5443 Z-4.0000 I-0.3222 J-0.5581 F180.00
G0 X7.4557 Y-4.5443 Z5.0000
G0 X7.4557 Y-4.5443 Z5.0000
G0 X7.4557 Y-4.5443 Z-1.0000
G1 X7.4557 Y-4.5443 Z-4.0000 F180.00
G2 X7.6445 Y-5.0000 Z-4.0000 I-0.4557 J-0.4557 F180.00
G2 X6.3555 Y-5.0000 Z-4.0000 I-0.6445 J0.0000 F180.00
G2 X7.4557 Y-4.5443 Z-4.0000 I0.6445 J-0.0000 F180.00
G1 X7.4557 Y-4.5443 Z-4.5000 F180.00
G2 X7.6445 Y-5.0000 Z-4.5000 I-0.4557 J-0.4557 F180.00
G2 X6.3555 Y-5.0000 Z-4.5000 I-0.6445 J0.0000 F180.00
G2 X7.4557 Y-4.5443 Z-4.5000 I0.6445 J-0.0000 F180.00
G0 X7.4557 Y-4.5443 Z5.0000
G0 X7.4557 Y-4.5443 Z5.0000
G0 X7.4557 Y-4.5443 Z-1.5000
G1 X7.4557 Y-4.5443 Z-4.5000 F180.00
G2 X6.6778 Y-5.5581 Z-4.5000 I-0.4557 J-0.4557 F180.00
G2 X7.3222 Y-4.4419 Z-4.5000 I0.3222 J0.5581 F180.00
G2 X7.4557 Y-4.5443 Z-4.5000 I-0.3222 J-0.5581 F180.00
G1 X7.4557 Y-4.5443 Z-5.0000 F180.00
G2 X6.6778 Y-5.5581 Z-5.0000 I-0.4557 J-0.4557 F180.00
G2 X7.3222 Y-4.4419 Z-5.0000 I0.3222 J0.5581 F180.00
G2 X7.4557 Y-4.5443 Z-5.0000 I-0.3222 J-0.5581 F180.00
G0 X7.4557 Y-4.5443 Z5.0000
G0 X7.4557 Y-4.5443 Z5.0000
G0 X7.4557 Y-4.5443 Z-2.0000
G1 X7.4557 Y-4.5443 Z-5.0000 F180.00
G2 X7.6445 Y-5.0000 Z-5.0000 I-0.4557 J-0.4557 F180.00
G2 X6.3555 Y-5.0000 Z-5.0000 I-0.6445 J0.0000 F180.00
G2 X7.4557 Y-4.5443 Z-5.0000 I0.6445 J-0.0000 F180.00
G1 X7.4557 Y-4.5443 Z-5.5000 F180.00
G2 X7.6445 Y-5.0000 Z-5.5000 I-0.4557 J-0.4557 F180.00
G2 X6.3555 Y-5.0000 Z-5.5000 I-0.6445 J0.0000 F180.00
G2 X7.4557 Y-4.5443 Z-5.5000 I0.6445 J-0.0000 F180.00
G0 X7.4557 Y-4.5443 Z5.0000
G0 X7.4557 Y-4.5443 Z5.0000
G0 X7.4557 Y-4.5443 Z-2.5000
G1 X7.4557 Y-4.5443 Z-5.5000 F180.00
G2 X6.6778 Y-5.5581 Z-5.5000 I-0.4557 J-0.4557 F180.00
G2 X7.3222 Y-4.4419 Z-5.5000 I0.3222 J0.5581 F180.00
G2 X7.4557 Y-4.5443 Z-5.5000 I-0.3222 J-0.5581 F180.00
G1 X7.4557 Y-4.5443 Z-6.0000 F180.00
G2 X6.6778 Y-5.5581 Z-6.0000 I-0.4557 J-0.4557 F180.00
G2 X7.3222 Y-4.4419 Z-6.0000 I0.3222 J0.5581 F180.00
G2 X7.4557 Y-4.5443 Z-6.0000 I-0.3222 J-0.5581 F180.00
G0 X7.4557 Y-4.5443 Z5.0000
G0 X7.4557 Y-4.5443 Z5.0000
G0 X7.4557 Y-4.5443 Z-3.0000
G1 X7.4557 Y-4.5443 Z-6.0000 F180.00
G2 X7.6445 Y-5.0000 Z-6.0000 I-0.4557 J-0.4557 F180.00
G2 X6.3555 Y-5.0000 Z-6.0000 I-0.6445 J0.0000 F180.00
G2 X7.4557 Y-4.5443 Z-6.0000 I0.6445 J-0.0000 F180.00
G1 X7.4557 Y-4.5443 Z-6.5000 F180.00
G2 X7.6445 Y-5.0000 Z-6.5000 I-0.4557 J-0.4557 F180.00
G2 X6.3555 Y-5.0000 Z-6.5000 I-0.6445 J0.0000 F180.00
G2 X7.4557 Y-4.5443 Z-6.5000 I0.6445 J-0.0000 F180.00
G0 X7.4557 Y-4.5443 Z5.0000
G0 X7.4557 Y-4.5443 Z5.0000
G0 X7.4557 Y-4.5443 Z-3.5000
G1 X7.4557 Y-4.5443 Z-6.5000 F180.00
G2 X6.6778 Y-5.5581 Z-6.5000 I-0.4557 J-0.4557 F180.00
G2 X7.3222 Y-4.4419 Z-6.5000 I0.3222 J0.5581 F180.00
G2 X7.4557 Y-4.5443 Z-6.5000 I-0.3222 J-0.5581 F180.00
G1 X7.4557 Y-4.5443 Z-7.0000 F180.00
G2 X6.6778 Y-5.5581 Z-7.0000 I-0.4557 J-0.4557 F180.00
G2 X7.3222 Y-4.4419 Z-7.0000 I0.3222 J0.5581 F180.00
G2 X7.4557 Y-4.5443 Z-7.0000 I-0.3222 J-0.5581 F180.00
G0 X7.4557 Y-4.5443 Z5.0000
G0 X7.4557 Y-4.5443 Z5.0000
G0 X7.4557 Y-4.5443 Z-4.0000
G1 X7.4557 Y-4.5443 Z-7.0000 F180.00
G2 X7.6445 Y-5.0000 Z-7.0000 I-0.4557 J-0.4557 F180.00
G2 X6.3555 Y-5.0000 Z-7.0000 I-0.6445 J0.0000 F180.00
G2 X7.4557 Y-4.5443 Z-7.0000 I0.6445 J-0.0000 F180.00
G1 X7.4557 Y-4.5443 Z-7.5000 F180.00
G2 X7.6445 Y-5.0000 Z-7.5000 I-0.4557 J-0.4557 F180.00
G2 X6.3555 Y-5.0000 Z-7.5000 I-0.6445 J0.0000 F180.00
G2 X7.4557 Y-4.5443 Z-7.5000 I0.6445 J-0.0000 F180.00
G0 X7.4557 Y-4.5443 Z5.0000
G0 X7.4557 Y-4.5443 Z5.0000
G0 X7.4557 Y-4.5443 Z-4.5000
G1 X7.4557 Y-4.5443 Z-7.5000 F180.00
G2 X6.6778 Y-5.5581 Z-7.5000 I-0.4557 J-0.4557 F180.00
G2 X7.3222 Y-4.4419 Z-7.5000 I0.3222 J0.5581 F180.00
G2 X7.4557 Y-4.5443 Z-7.5000 I-0.3222 J-0.5581 F180.00
G1 X7.4557 Y-4.5443 Z-8.0000 F180.00
G2 X6.6778 Y-5.5581 Z-8.0000 I-0.4557 J-0.4557 F180.00
G2 X7.3222 Y-4.4419 Z-8.0000 I0.3222 J0.5581 F180.00
G2 X7.4557 Y-4.5443 Z-8.0000 I-0.3222 J-0.5581 F180.00
G0 X7.4557 Y-4.5443 Z5.0000
G0 X7.4557 Y-4.5443 Z5.0000
G0 X7.4557 Y-4.5443 Z-5.0000
G1 X7.4557 Y-4.5443 Z-8.0000 F180.00
G2 X7.6445 Y-5.0000 Z-8.0000 I-0.4557 J-0.4557 F180.00
G2 X6.3555 Y-5.0000 Z-8.0000 I-0.6445 J0.0000 F180.00
G2 X7.4557 Y-4.5443 Z-8.0000 I0.6445 J-0.0000 F180.00
G1 X7.4557 Y-4.5443 Z-8.5000 F180.00
G2 X7.6445 Y-5.0000 Z-8.5000 I-0.4557 J-0.4557 F180.00
G2 X6.3555 Y-5.0000 Z-8.5000 I-0.6445 J0.0000 F180.00
G2 X7.4557 Y-4.5443 Z-8.5000 I0.6445 J-0.0000 F180.00
G0 X7.4557 Y-4.5443 Z5.0000
G0 X7.4557 Y-4.5443 Z5.0000
G0 X7.4557 Y-4.5443 Z-5.5000
G1 X7.4557 Y-4.5443 Z-8.5000 F180.00
G2 X6.6778 Y-5.5581 Z-8.5000 I-0.4557 J-0.4557 F180.00
G2 X7.3222 Y-4.4419 Z-8.5000 I0.3222 J0.5581 F180.00
G2 X7.4557 Y-4.5443 Z-8.5000 I-0.3222 J-0.5581 F180.00
G1 X7.4557 Y-4.5443 Z-9.0000 F180.00
G2 X6.6778 Y-5.5581 Z-9.0000 I-0.4557 J-0.4557 F180.00
G2 X7.3222 Y-4.4419 Z-9.0000 I0.3222 J0.5581 F180.00
G2 X7.4557 Y-4.5443 Z-9.0000 I-0.3222 J-0.5581 F180.00
G0 X7.4557 Y-4.5443 Z5.0000
G0 X7.4557 Y-4.5443 Z5.0000
G0 X7.4557 Y-4.5443 Z-6.0000
G1 X7.4557 Y-4.5443 Z-9.0000 F180.00
G2 X7.6445 Y-5.0000 Z-9.0000 I-0.4557 J-0.4557 F180.00
G2 X6.3555 Y-5.0000 Z-9.0000 I-0.6445 J0.0000 F180.00
G2 X7.4557 Y-4.5443 Z-9.0000 I0.6445 J-0.0000 F180.00
G1 X7.4557 Y-4.5443 Z-9.5000 F180.00
G2 X7.6445 Y-5.0000 Z-9.5000 I-0.4557 J-0.4557 F180.00
G2 X6.3555 Y-5.0000 Z-9.5000 I-0.6445 J0.0000 F180.00
G2 X7.4557 Y-4.5443 Z-9.5000 I0.6445 J-0.0000 F180.00
G0 X7.4557 Y-4.5443 Z5.0000
G0 X7.4557 Y-4.5443 Z5.0000
G0 X7.4557 Y-4.5443 Z-6.5000
G1 X7.4557 Y-4.5443 Z-9.5000 F180.00
G2 X6.6778 Y-5.5581 Z-9.5000 I-0.4557 J-0.4557 F180.00
G2 X7.3222 Y-4.4419 Z-9.5000 I0.3222 J0.5581 F180.00
G2 X7.4557 Y-4.5443 Z-9.5000 I-0.3222 J-0.5581 F180.00
G1 X7.4557 Y-4.5443 Z-10.0000 F180.00
G2 X6.6778 Y-5.5581 Z-10.0000 I-0.4557 J-0.4557 F180.00
G2 X7.3222 Y-4.4419 Z-10.0000 I0.3222 J0.5581 F180.00
G2 X7.4557 Y-4.5443 Z-10.0000 I-0.3222 J-0.5581 F180.00
G0 X7.4557 Y-4.5443 Z5.0000
G0 X7.4557 Y-4.5443 Z5.0000
G0 X7.4557 Y-4.5443 Z-7.0000
G1 X7.4557 Y-4.5443 Z-10.0000 F180.00
G2 X7.6445 Y-5.0000 Z-10.0000 I-0.4557 J-0.4557 F180.00
G2 X6.3555 Y-5.0000 Z-10.0000 I-0.6445 J0.0000 F180.00
G2 X7.4557 Y-4.5443 Z-10.0000 I0.6445 J-0.0000 F180.00
G1 X7.4557 Y-4.5443 Z-10.5000 F180.00
G2 X7.6445 Y-5.0000 Z-10.5000 I-0.4557 J-0.4557 F180.00
G2 X6.3555 Y-5.0000 Z-10.5000 I-0.6445 J0.0000 F180.00
G2 X7.4557 Y-4.5443 Z-10.5000 I0.6445 J-0.0000 F180.00
G0 X7.4557 Y-4.5443 Z5.0000
G0 X7.4557 Y-4.5443 Z5.0000
G0 X7.4557 Y-4.5443 Z-7.5000
G1 X7.4557 Y-4.5443 Z-10.5000 F180.00
G2 X6.6778 Y-5.5581 Z-10.5000 I-0.4557 J-0.4557 F180.00
G2 X7.3222 Y-4.4419 Z-10.5000 I0.3222 J0.5581 F180.00
G2 X7.4557 Y-4.5443 Z-10.5000 I-0.3222 J-0.5581 F180.00
G1 X7.4557 Y-4.5443 Z-11.0000 F180.00
G2 X6.6778 Y-5.5581 Z-11.0000 I-0.4557 J-0.4557 F180.00
G2 X7.3222 Y-4.4419 Z-11.0000 I0.3222 J0.5581 F180.00
G2 X7.4557 Y-4.5443 Z-11.0000 I-0.3222 J-0.5581 F180.00
G0 X7.4557 Y-4.5443 Z5.0000
G0 X7.4557 Y-4.5443 Z5.0000
G0 X7.4557 Y-4.5443 Z-8.0000
G1 X7.4557 Y-4.5443 Z-11.0000 F180.00
G2 X7.6445 Y-5.0000 Z-11.0000 I-0.4557 J-0.4557 F180.00
G2 X6.3555 Y-5.0000 Z-11.0000 I-0.6445 J0.0000 F180.00
G2 X7.4557 Y-4.5443 Z-11.0000 I0.6445 J-0.0000 F180.00
G0 Z5.0000
G0 X19.5646 Y-24.9354
G0 Z3.0000
G1 X19.5646 Y-24.9354 Z-0.5000 F180.00
G2 X19.5000 Y-25.0914 Z-0.5000 I-0.0646 J-0.0646 F180.00
G2 X19.5000 Y-24.9086 Z-0.5000 I0.0000 J0.0914 F180.00
G2 X19.5646 Y-24.9354 Z-0.5000 I0.0000 J-0.0914 F180.00
G1 X19.5646 Y-24.9354 Z-0.5000 F180.00
G2 X19.5791 Y-25.0457 Z-0.5000 I-0.0646 J-0.0646 F180.00
G2 X19.4209 Y-24.9543 Z-0.5000 I-0.0791 J0.0457 F180.00
G2 X19.5646 Y-24.9354 Z-0.5000 I0.0791 J-0.0457 F180.00
G1 X19.5646 Y-24.9354 Z-1.0000 F180.00
G2 X19.5791 Y-25.0457 Z-1.0000 I-0.0646 J-0.0646 F180.00
G2 X19.4209 Y-24.9543 Z-1.0000 I-0.0791 J0.0457 F180.00
G2 X19.5646 Y-24.9354 Z-1.0000 I0.0791 J-0.0457 F180.00
G1 X19.5646 Y-24.9354 Z-1.0000 F180.00
G2 X19.5000 Y-25.0914 Z-1.0000 I-0.0646 J-0.0646 F180.00
G2 X19.5000 Y-24.9086 Z-1.0000 I0.0000 J0.0914 F180.00
G2 X19.5646 Y-24.9354 Z-1.0000 I0.0000 J-0.0914 F180.00
G1 X19.5646 Y-24.9354 Z-1.5000 F180.00
G2 X19.5000 Y-25.0914 Z-1.5000 I-0.0646 J-0.0646 F180.00
G2 X19.5000 Y-24.9086 Z-1.5000 I0.0000 J0.0914 F180.00
G2 X19.5646 Y-24.9354 Z-1.5000 I0.0000 J-0.0914 F180.00
G1 X19.5646 Y-24.9354 Z-1.5000 F180.00
G2 X19.5791 Y-25.0457 Z-1.5000 I-0.0646 J-0.0646 F180.00
G2 X19.4209 Y-24.9543 Z-1.5000 I-0.0791 J0.0457 F180.00
G2 X19.5646 Y-24.9354 Z-1.5000 I0.0791 J-0.0457 F180.00
G1 X19.5646 Y-24.9354 Z-2.0000 F180.00
G2 X19.5791 Y-25.0457 Z-2.0000 I-0.0646 J-0.0646 F180.00
G2 X19.4209 Y-24.9543 Z-2.0000 I-0.0791 J0.0457 F180.00
G2 X19.5646 Y-24.9354 Z-2.0000 I0.0791 J-0.0457 F180.00
G1 X19.5646 Y-24.9354 Z-2.0000 F180.00
G2 X19.5000 Y-25.0914 Z-2.0000 I-0.0646 J-0.0646 F180.00
G2 X19.5000 Y-24.9086 Z-2.0000 I0.0000 J0.0914 F180.00
G2 X19.5646 Y-24.9354 Z-2.0000 I0.0000 J-0.0914 F180.00
G1 X19.5646 Y-24.9354 Z-2.5000 F180.00
G2 X19.5000 Y-25.0914 Z-2.5000 I-0.0646 J-0.0646 F180.00
G2 X19.5000 Y-24.9086 Z-2.5000 I0.0000 J0.0914 F180.00
G2 X19.5646 Y-24.9354 Z-2.5000 I0.0000 J-0.0914 F180.00
G1 X19.5646 Y-24.9354 Z-2.5000 F180.00
G2 X19.5791 Y-25.0457 Z-2.5000 I-0.0646 J-0.0646 F180.00
G2 X19.4209 Y-24.9543 Z-2.5000 I-0.0791 J0.0457 F180.00
G2 X19.5646 Y-24.9354 Z-2.5000 I0.0791 J-0.0457 F180.00
G1 X19.5646 Y-24.9354 Z-3.0000 F180.00
G2 X19.5791 Y-25.0457 Z-3.0000 I-0.0646 J-0.0646 F180.00
G2 X19.4209 Y-24.9543 Z-3.0000 I-0.0791 J0.0457 F180.00
G2 X19.5646 Y-24.9354 Z-3.0000 I0.0791 J-0.0457 F180.00
G1 X19.5646 Y-24.9354 Z-3.0000 F180.00
G2 X19.5000 Y-25.0914 Z-3.0000 I-0.0646 J-0.0646 F180.00
G2 X19.5000 Y-24.9086 Z-3.0000 I0.0000 J0.0914 F180.00
G2 X19.5646 Y-24.9354 Z-3.0000 I0.0000 J-0.0914 F180.00
G1 X19.5646 Y-24.9354 Z-3.5000 F180.00
G2 X19.5000 Y-25.0914 Z-3.5000 I-0.0646 J-0.0646 F180.00
G2 X19.5000 Y-24.9086 Z-3.5000 I0.0000 J0.0914 F180.00
G2 X19.5646 Y-24.9354 Z-3.5000 I0.0000 J-0.0914 F180.00
G1 X19.5646 Y-24.9354 Z-3.5000 F180.00
G2 X19.5791 Y-25.0457 Z-3.5000 I-0.0646 J-0.0646 F180.00
G2 X19.4209 Y-24.9543 Z-3.5000 I-0.0791 J0.0457 F180.00
G2 X19.5646 Y-24.9354 Z-3.5000 I0.0791 J-0.0457 F180.00
G1 X19.5646 Y-24.9354 Z-4.0000 F180.00
G2 X19.5791 Y-25.0457 Z-4.0000 I-0.0646 J-0.0646 F180.00
G2 X19.4209 Y-24.9543 Z-4.0000 I-0.0791 J0.0457 F180.00
G2 X19.5646 Y-24.9354 Z-4.0000 I0.0791 J-0.0457 F180.00
G1 X19.5646 Y-24.9354 Z-4.0000 F180.00
G2 X19.5000 Y-25.0914 Z-4.0000 I-0.0646 J-0.0646 F180.00
G2 X19.5000 Y-24.9086 Z-4.0000 I0.0000 J0.0914 F180.00
G2 X19.5646 Y-24.9354 Z-4.0000 I0.0000 J-0.0914 F180.00
G1 X19.5646 Y-24.9354 Z-4.5000 F180.00
G2 X19.5000 Y-25.0914 Z-4.5000 I-0.0646 J-0.0646 F180.00
G2 X19.5000 Y-24.9086 Z-4.5000 I0.0000 J0.0914 F180.00
G2 X19.5646 Y-24.9354 Z-4.5000 I0.0000 J-0.0914 F180.00
G1 X19.5646 Y-24.9354 Z-4.5000 F180.00
G2 X19.5791 Y-25.0457 Z-4.5000 I-0.0646 J-0.0646 F180.00
G2 X19.4209 Y-24.9543 Z-4.5000 I-0.0791 J0.0457 F180.00
G2 X19.5646 Y-24.9354 Z-4.5000 I0.0791 J-0.0457 F180.00
G1 X19.5646 Y-24.9354 Z-5.0000 F180.00
G2 X19.5791 Y-25.0457 Z-5.0000 I-0.0646 J-0.0646 F180.00
G2 X19.4209 Y-24.9543 Z-5.0000 I-0.0791 J0.0457 F180.00
G2 X19.5646 Y-24.9354 Z-5.0000 I0.0791 J-0.0457 F180.00
G1 X19.5646 Y-24.9354 Z-5.0000 F180.00
G2 X19.5000 Y-25.0914 Z-5.0000 I-0.0646 J-0.0646 F180.00
G2 X19.5000 Y-24.9086 Z-5.0000 I0.0000 J0.0914 F180.00
G2 X19.5646 Y-24.9354 Z-5.0000 I0.0000 J-0.0914 F180.00
G1 X19.5646 Y-24.9354 Z-5.5000 F180.00
G2 X19.5000 Y-25.0914 Z-5.5000 I-0.0646 J-0.0646 F180.00
G2 X19.5000 Y-24.9086 Z-5.5000 I0.0000 J0.0914 F180.00
G2 X19.5646 Y-24.9354 Z-5.5000 I0.0000 J-0.0914 F180.00
G1 X19.5646 Y-24.9354 Z-5.5000 F180.00
G2 X19.5791 Y-25.0457 Z-5.5000 I-0.0646 J-0.0646 F180.00
G2 X19.4209 Y-24.9543 Z-5.5000 I-0.0791 J0.0457 F180.00
G2 X19.5646 Y-24.9354 Z-5.5000 I0.0791 J-0.0457 F180.00
G1 X19.5646 Y-24.9354 Z-6.0000 F180.00
G2 X19.5791 Y-25.0457 Z-6.0000 I-0.0646 J-0.0646 F180.00
G2 X19.4209 Y-24.9543 Z-6.0000 I-0.0791 J0.0457 F180.00
G2 X19.5646 Y-24.9354 Z-6.0000 I0.0791 J-0.0457 F180.00
G1 X19.5646 Y-24.9354 Z-6.0000 F180.00
G2 X19.5000 Y-25.0914 Z-6.0000 I-0.0646 J-0.0646 F180.00
G2 X19.5000 Y-24.9086 Z-6.0000 I0.0000 J0.0914 F180.00
G2 X19.5646 Y-24.9354 Z-6.0000 I0.0000 J-0.0914 F180.00
G1 X19.5646 Y-24.9354 Z-6.5000 F180.00
G2 X19.5000 Y-25.0914 Z-6.5000 I-0.0646 J-0.0646 F180.00
G2 X19.5000 Y-24.9086 Z-6.5000 I0.0000 J0.0914 F180.00
G2 X19.5646 Y-24.9354 Z-6.5000 I0.0000 J-0.0914 F180.00
G1 X19.5646 Y-24.9354 Z-6.5000 F180.00
G2 X19.5791 Y-25.0457 Z-6.5000 I-0.0646 J-0.0646 F180.00
G2 X19.4209 Y-24.9543 Z-6.5000 I-0.0791 J0.0457 F180.00
G2 X19.5646 Y-24.9354 Z-6.5000 I0.0791 J-0.0457 F180.00
G1 X19.5646 Y-24.9354 Z-7.0000 F180.00
G2 X19.5791 Y-25.0457 Z-7.0000 I-0.0646 J-0.0646 F180.00
G2 X19.4209 Y-24.9543 Z-7.0000 I-0.0791 J0.0457 F180.00
G2 X19.5646 Y-24.9354 Z-7.0000 I0.0791 J-0.0457 F180.00
G1 X19.5646 Y-24.9354 Z-7.0000 F180.00
G2 X19.5000 Y-25.0914 Z-7.0000 I-0.0646 J-0.0646 F180.00
G2 X19.5000 Y-24.9086 Z-7.0000 I0.0000 J0.0914 F180.00
G2 X19.5646 Y-24.9354 Z-7.0000 I0.0000 J-0.0914 F180.00
G1 X19.5646 Y-24.9354 Z-7.5000 F180.00
G2 X19.5000 Y-25.0914 Z-7.5000 I-0.0646 J-0.0646 F180.00
G2 X19.5000 Y-24.9086 Z-7.5000 I0.0000 J0.0914 F180.00
G2 X19.5646 Y-24.9354 Z-7.5000 I0.0000 J-0.0914 F180.00
G1 X19.5646 Y-24.9354 Z-7.5000 F180.00
G2 X19.5791 Y-25.0457 Z-7.5000 I-0.0646 J-0.0646 F180.00
G2 X19.4209 Y-24.9543 Z-7.5000 I-0.0791 J0.0457 F180.00
G2 X19.5646 Y-24.9354 Z-7.5000 I0.0791 J-0.0457 F180.00
G1 X19.5646 Y-24.9354 Z-8.0000 F180.00
G2 X19.5791 Y-25.0457 Z-8.0000 I-0.0646 J-0.0646 F180.00
G2 X19.4209 Y-24.9543 Z-8.0000 I-0.0791 J0.0457 F180.00
G2 X19.5646 Y-24.9354 Z-8.0000 I0.0791 J-0.0457 F180.00
G1 X19.5646 Y-24.9354 Z-8.0000 F180.00
G2 X19.5000 Y-25.0914 Z-8.0000 I-0.0646 J-0.0646 F180.00
G2 X19.5000 Y-24.9086 Z-8.0000 I0.0000 J0.0914 F180.00
G2 X19.5646 Y-24.9354 Z-8.0000 I0.0000 J-0.0914 F180.00
G1 X19.5646 Y-24.9354 Z-8.5000 F180.00
G2 X19.5000 Y-25.0914 Z-8.5000 I-0.0646 J-0.0646 F180.00
G2 X19.5000 Y-24.9086 Z-8.5000 I0.0000 J0.0914 F180.00
G2 X19.5646 Y-24.9354 Z-8.5000 I0.0000 J-0.0914 F180.00
G1 X19.5646 Y-24.9354 Z-8.5000 F180.00
G2 X19.5791 Y-25.0457 Z-8.5000 I-0.0646 J-0.0646 F180.00
G2 X19.4209 Y-24.9543 Z-8.5000 I-0.0791 J0.0457 F180.00
G2 X19.5646 Y-24.9354 Z-8.5000 I0.0791 J-0.0457 F180.00
G1 X19.5646 Y-24.9354 Z-9.0000 F180.00
G2 X19.5791 Y-25.0457 Z-9.0000 I-0.0646 J-0.0646 F180.00
G2 X19.4209 Y-24.9543 Z-9.0000 I-0.0791 J0.0457 F180.00
G2 X19.5646 Y-24.9354 Z-9.0000 I0.0791 J-0.0457 F180.00
G1 X19.5646 Y-24.9354 Z-9.0000 F180.00
G2 X19.5000 Y-25.0914 Z-9.0000 I-0.0646 J-0.0646 F180.00
G2 X19.5000 Y-24.9086 Z-9.0000 I0.0000 J0.0914 F180.00
G2 X19.5646 Y-24.9354 Z-9.0000 I0.0000 J-0.0914 F180.00
G1 X19.5646 Y-24.9354 Z-9.5000 F180.00
G2 X19.5000 Y-25.0914 Z-9.5000 I-0.0646 J-0.0646 F180.00
G2 X19.5000 Y-24.9086 Z-9.5000 I0.0000 J0.0914 F180.00
G2 X19.5646 Y-24.9354 Z-9.5000 I0.0000 J-0.0914 F180.00
G1 X19.5646 Y-24.9354 Z-9.5000 F180.00
G2 X19.5791 Y-25.0457 Z-9.5000 I-0.0646 J-0.0646 F180.00
G2 X19.4209 Y-24.9543 Z-9.5000 I-0.0791 J0.0457 F180.00
G2 X19.5646 Y-24.9354 Z-9.5000 I0.0791 J-0.0457 F180.00
G1 X19.5646 Y-24.9354 Z-10.0000 F180.00
G2 X19.5791 Y-25.0457 Z-10.0000 I-0.0646 J-0.0646 F180.00
G2 X19.4209 Y-24.9543 Z-10.0000 I-0.0791 J0.0457 F180.00
G2 X19.5646 Y-24.9354 Z-10.0000 I0.0791 J-0.0457 F180.00
G1 X19.5646 Y-24.9354 Z-10.0000 F180.00
G2 X19.5000 Y-25.0914 Z-10.0000 I-0.0646 J-0.0646 F180.00
G2 X19.5000 Y-24.9086 Z-10.0000 I0.0000 J0.0914 F180.00
G2 X19.5646 Y-24.9354 Z-10.0000 I0.0000 J-0.0914 F180.00
G1 X19.5646 Y-24.9354 Z-10.5000 F180.00
G2 X19.5000 Y-25.0914 Z-10.5000 I-0.0646 J-0.0646 F180.00
G2 X19.5000 Y-24.9086 Z-10.5000 I0.0000 J0.0914 F180.00
G2 X19.5646 Y-24.9354 Z-10.5000 I0.0000 J-0.0914 F180.00
G1 X19.5646 Y-24.9354 Z-10.5000 F180.00
G2 X19.5791 Y-25.0457 Z-10.5000 I-0.0646 J-0.0646 F180.00
G2 X19.4209 Y-24.9543 Z-10.5000 I-0.0791 J0.0457 F180.00
G2 X19.5646 Y-24.9354 Z-10.5000 I0.0791 J-0.0457 F180.00
G1 X19.5646 Y-24.9354 Z-11.0000 F180.00
G2 X19.5791 Y-25.0457 Z-11.0000 I-0.0646 J-0.0646 F180.00
G2 X19.4209 Y-24.9543 Z-11.0000 I-0.0791 J0.0457 F180.00
G2 X19.5646 Y-24.9354 Z-11.0000 I0.0791 J-0.0457 F180.00
G1 X19.5646 Y-24.9354 Z-11.0000 F180.00
G2 X19.5000 Y-25.0914 Z-11.0000 I-0.0646 J-0.0646 F180.00
G2 X19.5000 Y-24.9086 Z-11.0000 I0.0000 J0.0914 F180.00
G2 X19.5646 Y-24.9354 Z-11.0000 I0.0000 J-0.0914 F180.00
G0 Z5.0000
G0 X19.5646 Y-31.4354
G0 Z3.0000
G1 X19.5646 Y-31.4354 Z-0.5000 F180.00
G2 X19.5000 Y-31.5914 Z-0.5000 I-0.0646 J-0.0646 F180.00
G2 X19.5000 Y-31.4086 Z-0.5000 I0.0000 J0.0914 F180.00
G2 X19.5646 Y-31.4354 Z-0.5000 I0.0000 J-0.0914 F180.00
G1 X19.5646 Y-31.4354 Z-0.5000 F180.00
G2 X19.5791 Y-31.5457 Z-0.5000 I-0.0646 J-0.0646 F180.00
G2 X19.4209 Y-31.4543 Z-0.5000 I-0.0791 J0.0457 F180.00
G2 X19.5646 Y-31.4354 Z-0.5000 I0.0791 J-0.0457 F180.00
G1 X19.5646 Y-31.4354 Z-1.0000 F180.00
G2 X19.5791 Y-31.5457 Z-1.0000 I-0.0646 J-0.0646 F180.00
G2 X19.4209 Y-31.4543 Z-1.0000 I-0.0791 J0.0457 F180.00
G2 X19.5646 Y-31.4354 Z-1.0000 I0.0791 J-0.0457 F180.00
G1 X19.5646 Y-31.4354 Z-1.0000 F180.00
G2 X19.5000 Y-31.5914 Z-1.0000 I-0.0646 J-0.0646 F180.00
G2 X19.5000 Y-31.4086 Z-1.0000 I0.0000 J0.0914 F180.00
G2 X19.5646 Y-31.4354 Z-1.0000 I0.0000 J-0.0914 F180.00
G1 X19.5646 Y-31.4354 Z-1.5000 F180.00
G2 X19.5000 Y-31.5914 Z-1.5000 I-0.0646 J-0.0646 F180.00
G2 X19.5000 Y-31.4086 Z-1.5000 I0.0000 J0.0914 F180.00
G2 X19.5646 Y-31.4354 Z-1.5000 I0.0000 J-0.0914 F180.00
G1 X19.5646 Y-31.4354 Z-1.5000 F180.00
G2 X19.5791 Y-31.5457 Z-1.5000 I-0.0646 J-0.0646 F180.00
G2 X19.4209 Y-31.4543 Z-1.5000 I-0.0791 J0.0457 F180.00
G2 X19.5646 Y-31.4354 Z-1.5000 I0.0791 J-0.0457 F180.00
G1 X19.5646 Y-31.4354 Z-2.0000 F180.00
G2 X19.5791 Y-31.5457 Z-2.0000 I-0.0646 J-0.0646 F180.00
G2 X19.4209 Y-31.4543 Z-2.0000 I-0.0791 J0.0457 F180.00
G2 X19.5646 Y-31.4354 Z-2.0000 I0.0791 J-0.0457 F180.00
G1 X19.5646 Y-31.4354 Z-2.0000 F180.00
G2 X19.5000 Y-31.5914 Z-2.0000 I-0.0646 J-0.0646 F180.00
G2 X19.5000 Y-31.4086 Z-2.0000 I0.0000 J0.0914 F180.00
G2 X19.5646 Y-31.4354 Z-2.0000 I0.0000 J-0.0914 F180.00
G1 X19.5646 Y-31.4354 Z-2.5000 F180.00
G2 X19.5000 Y-31.5914 Z-2.5000 I-0.0646 J-0.0646 F180.00
G2 X19.5000 Y-31.4086 Z-2.5000 I0.0000 J0.0914 F180.00
G2 X19.5646 Y-31.4354 Z-2.5000 I0.0000 J-0.0914 F180.00
G1 X19.5646 Y-31.4354 Z-2.5000 F180.00
G2 X19.5791 Y-31.5457 Z-2.5000 I-0.0646 J-0.0646 F180.00
G2 X19.4209 Y-31.4543 Z-2.5000 I-0.0791 J0.0457 F180.00
G2 X19.5646 Y-31.4354 Z-2.5000 I0.0791 J-0.0457 F180.00
G1 X19.5646 Y-31.4354 Z-3.0000 F180.00
G2 X19.5791 Y-31.5457 Z-3.0000 I-0.0646 J-0.0646 F180.00
G2 X19.4209 Y-31.4543 Z-3.0000 I-0.0791 J0.0457 F180.00
G2 X19.5646 Y-31.4354 Z-3.0000 I0.0791 J-0.0457 F180.00
G1 X19.5646 Y-31.4354 Z-3.0000 F180.00
G2 X19.5000 Y-31.5914 Z-3.0000 I-0.0646 J-0.0646 F180.00
G2 X19.5000 Y-31.4086 Z-3.0000 I0.0000 J0.0914 F180.00
G2 X19.5646 Y-31.4354 Z-3.0000 I0.0000 J-0.0914 F180.00
G1 X19.5646 Y-31.4354 Z-3.5000 F180.00
G2 X19.5000 Y-31.5914 Z-3.5000 I-0.0646 J-0.0646 F180.00
G2 X19.5000 Y-31.4086 Z-3.5000 I0.0000 J0.0914 F180.00
G2 X19.5646 Y-31.4354 Z-3.5000 I0.0000 J-0.0914 F180.00
G1 X19.5646 Y-31.4354 Z-3.5000 F180.00
G2 X19.5791 Y-31.5457 Z-3.5000 I-0.0646 J-0.0646 F180.00
G2 X19.4209 Y-31.4543 Z-3.5000 I-0.0791 J0.0457 F180.00
G2 X19.5646 Y-31.4354 Z-3.5000 I0.0791 J-0.0457 F180.00
G1 X19.5646 Y-31.4354 Z-4.0000 F180.00
G2 X19.5791 Y-31.5457 Z-4.0000 I-0.0646 J-0.0646 F180.00
G2 X19.4209 Y-31.4543 Z-4.0000 I-0.0791 J0.0457 F180.00
G2 X19.5646 Y-31.4354 Z-4.0000 I0.0791 J-0.0457 F180.00
G1 X19.5646 Y-31.4354 Z-4.0000 F180.00
G2 X19.5000 Y-31.5914 Z-4.0000 I-0.0646 J-0.0646 F180.00
G2 X19.5000 Y-31.4086 Z-4.0000 I0.0000 J0.0914 F180.00
G2 X19.5646 Y-31.4354 Z-4.0000 I0.0000 J-0.0914 F180.00
G1 X19.5646 Y-31.4354 Z-4.5000 F180.00
G2 X19.5000 Y-31.5914 Z-4.5000 I-0.0646 J-0.0646 F180.00
G2 X19.5000 Y-31.4086 Z-4.5000 I0.0000 J0.0914 F180.00
G2 X19.5646 Y-31.4354 Z-4.5000 I0.0000 J-0.0914 F180.00
G1 X19.5646 Y-31.4354 Z-4.5000 F180.00
G2 X19.5791 Y-31.5457 Z-4.5000 I-0.0646 J-0.0646 F180.00
G2 X19.4209 Y-31.4543 Z-4.5000 I-0.0791 J0.0457 F180.00
G2 X19.5646 Y-31.4354 Z-4.5000 I0.0791 J-0.0457 F180.00
G1 X19.5646 Y-31.4354 Z-5.0000 F180.00
G2 X19.5791 Y-31.5457 Z-5.0000 I-0.0646 J-0.0646 F180.00
G2 X19.4209 Y-31.4543 Z-5.0000 I-0.0791 J0.0457 F180.00
G2 X19.5646 Y-31.4354 Z-5.0000 I0.0791 J-0.0457 F180.00
G1 X19.5646 Y-31.4354 Z-5.0000 F180.00
G2 X19.5000 Y-31.5914 Z-5.0000 I-0.0646 J-0.0646 F180.00
G2 X19.5000 Y-31.4086 Z-5.0000 I0.0000 J0.0914 F180.00
G2 X19.5646 Y-31.4354 Z-5.0000 I0.0000 J-0.0914 F180.00
G1 X19.5646 Y-31.4354 Z-5.5000 F180.00
G2 X19.5000 Y-31.5914 Z-5.5000 I-0.0646 J-0.0646 F180.00
G2 X19.5000 Y-31.4086 Z-5.5000 I0.0000 J0.0914 F180.00
G2 X19.5646 Y-31.4354 Z-5.5000 I0.0000 J-0.0914 F180.00
G1 X19.5646 Y-31.4354 Z-5.5000 F180.00
G2 X19.5791 Y-31.5457 Z-5.5000 I-0.0646 J-0.0646 F180.00
G2 X19.4209 Y-31.4543 Z-5.5000 I-0.0791 J0.0457 F180.00
G2 X19.5646 Y-31.4354 Z-5.5000 I0.0791 J-0.0457 F180.00
G1 X19.5646 Y-31.4354 Z-6.0000 F180.00
G2 X19.5791 Y-31.5457 Z-6.0000 I-0.0646 J-0.0646 F180.00
G2 X19.4209 Y-31.4543 Z-6.0000 I-0.0791 J0.0457 F180.00
G2 X19.5646 Y-31.4354 Z-6.0000 I0.0791 J-0.0457 F180.00
G1 X19.5646 Y-31.4354 Z-6.0000 F180.00
G2 X19.5000 Y-31.5914 Z-6.0000 I-0.0646 J-0.0646 F180.00
G2 X19.5000 Y-31.4086 Z-6.0000 I0.0000 J0.0914 F180.00
G2 X19.5646 Y-31.4354 Z-6.0000 I0.0000 J-0.0914 F180.00
G1 X19.5646 Y-31.4354 Z-6.5000 F180.00
G2 X19.5000 Y-31.5914 Z-6.5000 I-0.0646 J-0.0646 F180.00
G2 X19.5000 Y-31.4086 Z-6.5000 I0.0000 J0.0914 F180.00
G2 X19.5646 Y-31.4354 Z-6.5000 I0.0000 J-0.0914 F180.00
G1 X19.5646 Y-31.4354 Z-6.5000 F180.00
G2 X19.5791 Y-31.5457 Z-6.5000 I-0.0646 J-0.0646 F180.00
G2 X19.4209 Y-31.4543 Z-6.5000 I-0.0791 J0.0457 F180.00
G2 X19.5646 Y-31.4354 Z-6.5000 I0.0791 J-0.0457 F180.00
G1 X19.5646 Y-31.4354 Z-7.0000 F180.00
G2 X19.5791 Y-31.5457 Z-7.0000 I-0.0646 J-0.0646 F180.00
G2 X19.4209 Y-31.4543 Z-7.0000 I-0.0791 J0.0457 F180.00
G2 X19.5646 Y-31.4354 Z-7.0000 I0.0791 J-0.0457 F180.00
G1 X19.5646 Y-31.4354 Z-7.0000 F180.00
G2 X19.5000 Y-31.5914 Z-7.0000 I-0.0646 J-0.0646 F180.00
G2 X19.5000 Y-31.4086 Z-7.0000 I0.0000 J0.0914 F180.00
G2 X19.5646 Y-31.4354 Z-7.0000 I0.0000 J-0.0914 F180.00
G1 X19.5646 Y-31.4354 Z-7.5000 F180.00
G2 X19.5000 Y-31.5914 Z-7.5000 I-0.0646 J-0.0646 F180.00
G2 X19.5000 Y-31.4086 Z-7.5000 I0.0000 J0.0914 F180.00
G2 X19.5646 Y-31.4354 Z-7.5000 I0.0000 J-0.0914 F180.00
G1 X19.5646 Y-31.4354 Z-7.5000 F180.00
G2 X19.5791 Y-31.5457 Z-7.5000 I-0.0646 J-0.0646 F180.00
G2 X19.4209 Y-31.4543 Z-7.5000 I-0.0791 J0.0457 F180.00
G2 X19.5646 Y-31.4354 Z-7.5000 I0.0791 J-0.0457 F180.00
G1 X19.5646 Y-31.4354 Z-8.0000 F180.00
G2 X19.5791 Y-31.5457 Z-8.0000 I-0.0646 J-0.0646 F180.00
G2 X19.4209 Y-31.4543 Z-8.0000 I-0.0791 J0.0457 F180.00
G2 X19.5646 Y-31.4354 Z-8.0000 I0.0791 J-0.0457 F180.00
G1 X19.5646 Y-31.4354 Z-8.0000 F180.00
G2 X19.5000 Y-31.5914 Z-8.0000 I-0.0646 J-0.0646 F180.00
G2 X19.5000 Y-31.4086 Z-8.0000 I0.0000 J0.0914 F180.00
G2 X19.5646 Y-31.4354 Z-8.0000 I0.0000 J-0.0914 F180.00
G1 X19.5646 Y-31.4354 Z-8.5000 F180.00
G2 X19.5000 Y-31.5914 Z-8.5000 I-0.0646 J-0.0646 F180.00
G2 X19.5000 Y-31.4086 Z-8.5000 I0.0000 J0.0914 F180.00
G2 X19.5646 Y-31.4354 Z-8.5000 I0.0000 J-0.0914 F180.00
G1 X19.5646 Y-31.4354 Z-8.5000 F180.00
G2 X19.5791 Y-31.5457 Z-8.5000 I-0.0646 J-0.0646 F180.00
G2 X19.4209 Y-31.4543 Z-8.5000 I-0.0791 J0.0457 F180.00
G2 X19.5646 Y-31.4354 Z-8.5000 I0.0791 J-0.0457 F180.00
G1 X19.5646 Y-31.4354 Z-9.0000 F180.00
G2 X19.5791 Y-31.5457 Z-9.0000 I-0.0646 J-0.0646 F180.00
G2 X19.4209 Y-31.4543 Z-9.0000 I-0.0791 J0.0457 F180.00
G2 X19.5646 Y-31.4354 Z-9.0000 I0.0791 J-0.0457 F180.00
G1 X19.5646 Y-31.4354 Z-9.0000 F180.00
G2 X19.5000 Y-31.5914 Z-9.0000 I-0.0646 J-0.0646 F180.00
G2 X19.5000 Y-31.4086 Z-9.0000 I0.0000 J0.0914 F180.00
G2 X19.5646 Y-31.4354 Z-9.0000 I0.0000 J-0.0914 F180.00
G1 X19.5646 Y-31.4354 Z-9.5000 F180.00
G2 X19.5000 Y-31.5914 Z-9.5000 I-0.0646 J-0.0646 F180.00
G2 X19.5000 Y-31.4086 Z-9.5000 I0.0000 J0.0914 F180.00
G2 X19.5646 Y-31.4354 Z-9.5000 I0.0000 J-0.0914 F180.00
G1 X19.5646 Y-31.4354 Z-9.5000 F180.00
G2 X19.5791 Y-31.5457 Z-9.5000 I-0.0646 J-0.0646 F180.00
G2 X19.4209 Y-31.4543 Z-9.5000 I-0.0791 J0.0457 F180.00
G2 X19.5646 Y-31.4354 Z-9.5000 I0.0791 J-0.0457 F180.00
G1 X19.5646 Y-31.4354 Z-10.0000 F180.00
G2 X19.5791 Y-31.5457 Z-10.0000 I-0.0646 J-0.0646 F180.00
G2 X19.4209 Y-31.4543 Z-10.0000 I-0.0791 J0.0457 F180.00
G2 X19.5646 Y-31.4354 Z-10.0000 I0.0791 J-0.0457 F180.00
G1 X19.5646 Y-31.4354 Z-10.0000 F180.00
G2 X19.5000 Y-31.5914 Z-10.0000 I-0.0646 J-0.0646 F180.00
G2 X19.5000 Y-31.4086 Z-10.0000 I0.0000 J0.0914 F180.00
G2 X19.5646 Y-31.4354 Z-10.0000 I0.0000 J-0.0914 F180.00
G1 X19.5646 Y-31.4354 Z-10.5000 F180.00
G2 X19.5000 Y-31.5914 Z-10.5000 I-0.0646 J-0.0646 F180.00
G2 X19.5000 Y-31.4086 Z-10.5000 I0.0000 J0.0914 F180.00
G2 X19.5646 Y-31.4354 Z-10.5000 I0.0000 J-0.0914 F180.00
G1 X19.5646 Y-31.4354 Z-10.5000 F180.00
G2 X19.5791 Y-31.5457 Z-10.5000 I-0.0646 J-0.0646 F180.00
G2 X19.4209 Y-31.4543 Z-10.5000 I-0.0791 J0.0457 F180.00
G2 X19.5646 Y-31.4354 Z-10.5000 I0.0791 J-0.0457 F180.00
G1 X19.5646 Y-31.4354 Z-11.0000 F180.00
G2 X19.5791 Y-31.5457 Z-11.0000 I-0.0646 J-0.0646 F180.00
G2 X19.4209 Y-31.4543 Z-11.0000 I-0.0791 J0.0457 F180.00
G2 X19.5646 Y-31.4354 Z-11.0000 I0.0791 J-0.0457 F180.00
G1 X19.5646 Y-31.4354 Z-11.0000 F180.00
G2 X19.5000 Y-31.5914 Z-11.0000 I-0.0646 J-0.0646 F180.00
G2 X19.5000 Y-31.4086 Z-11.0000 I0.0000 J0.0914 F180.00
G2 X19.5646 Y-31.4354 Z-11.0000 I0.0000 J-0.0914 F180.00
G0 Z5.0000
G0 X21.4557 Y-44.5443
G0 Z3.0000
G1 X21.4557 Y-44.5443 Z-0.5000 F180.00
G2 X21.0674 Y-45.6410 Z-0.5000 I-0.4557 J-0.4557 F180.00
G2 X20.3590 Y-45.0674 Z-0.5000 I-0.0674 J0.6410 F180.00
G2 X20.9326 Y-44.3590 Z-0.5000 I0.6410 J0.0674 F180.00
G2 X21.4557 Y-44.5443 Z-0.5000 I0.0674 J-0.6410 F180.00
G0 X21.4557 Y-44.5443 Z5.0000
G0 X21.4557 Y-44.5443 Z5.0000
G0 X21.4557 Y-44.5443 Z2.5000
G1 X21.4557 Y-44.5443 Z-0.5000 F180.00
G2 X21.5214 Y-45.3788 Z-0.5000 I-0.4557 J-0.4557 F180.00
G2 X20.4786 Y-44.6212 Z-0.5000 I-0.5214 J0.3788 F180.00
G2 X21.4557 Y-44.5443 Z-0.5000 I0.5214 J-0.3788 F180.00
G1 X21.4557 Y-44.5443 Z-1.0000 F180.00
G2 X21.5214 Y-45.3788 Z-1.0000 I-0.4557 J-0.4557 F180.00
G2 X20.4786 Y-44.6212 Z-1.0000 I-0.5214 J0.3788 F180.00
G2 X21.4557 Y-44.5443 Z-1.0000 I0.5214 J-0.3788 F180.00
G0 X21.4557 Y-44.5443 Z5.0000
G0 X21.4557 Y-44.5443 Z5.0000
G0 X21.4557 Y-44.5443 Z2.0000
G1 X21.4557 Y-44.5443 Z-1.0000 F180.00
G2 X21.0674 Y-45.6410 Z-1.0000 I-0.4557 J-0.4557 F180.00
G2 X20.3590 Y-45.0674 Z-1.0000 I-0.0674 J0.6410 F180.00
G2 X20.9326 Y-44.3590 Z-1.0000 I0.6410 J0.0674 F180.00
G2 X21.4557 Y-44.5443 Z-1.0000 I0.0674 J-0.6410 F180.00
G1 X21.4557 Y-44.5443 Z-1.5000 F180.00
G2 X21.0674 Y-45.6410 Z-1.5000 I-0.4557 J-0.4557 F180.00
G2 X20.3590 Y-45.0674 Z-1.5000 I-0.0674 J0.6410 F180.00
G2 X20.9326 Y-44.3590 Z-1.5000 I0.6410 J0.0674 F180.00
G2 X21.4557 Y-44.5443 Z-1.5000 I0.0674 J-0.6410 F180.00
G0 X21.4557 Y-44.5443 Z5.0000
G0 X21.4557 Y-44.5443 Z5.0000
G0 X21.4557 Y-44.5443 Z1.5000
G1 X21.4557 Y-44.5443 Z-1.5000 F180.00
G2 X21.5214 Y-45.3788 Z-1.5000 I-0.4557 J-0.4557 F180.00
G2 X20.4786 Y-44.6212 Z-1.5000 I-0.5214 J0.3788 F180.00
G2 X21.4557 Y-44.5443 Z-1.5000 I0.5214 J-0.3788 F180.00
G1 X21.4557 Y-44.5443 Z-2.0000 F180.00
G2 X21.5214 Y-45.3788 Z-2.0000 I-0.4557 J-0.4557 F180.00
G2 X20.4786 Y-44.6212 Z-2.0000 I-0.5214 J0.3788 F180.00
G2 X21.4557 Y-44.5443 Z-2.0000 I0.5214 J-0.3788 F180.00
G0 X21.4557 Y-44.5443 Z5.0000
G0 X21.4557 Y-44.5443 Z5.0000
G0 X21.4557 Y-44.5443 Z1.0000
G1 X21.4557 Y-44.5443 Z-2.0000 F180.00
G2 X21.0674 Y-45.6410 Z-2.0000 I-0.4557 J-0.4557 F180.00
G2 X20.3590 Y-45.0674 Z-2.0000 I-0.0674 J0.6410 F180.00
G2 X20.9326 Y-44.3590 Z-2.0000 I0.6410 J0.0674 F180.00
G2 X21.4557 Y-44.5443 Z-2.0000 I0.0674 J-0.6410 F180.00
G1 X21.4557 Y-44.5443 Z-2.5000 F180.00
G2 X21.0674 Y-45.6410 Z-2.5000 I-0.4557 J-0.4557 F180.00
G2 X20.3590 Y-45.0674 Z-2.5000 I-0.0674 J0.6410 F180.00
G2 X20.9326 Y-44.3590 Z-2.5000 I0.6410 J0.0674 F180.00
G2 X21.4557 Y-44.5443 Z-2.5000 I0.0674 J-0.6410 F180.00
G0 X21.4557 Y-44.5443 Z5.0000
G0 X21.4557 Y-44.5443 Z5.0000
G0 X21.4557 Y-44.5443 Z0.5000
G1 X21.4557 Y-44.5443 Z-2.5000 F180.00
G2 X21.5214 Y-45.3788 Z-2.5000 I-0.4557 J-0.4557 F180.00
G2 X20.4786 Y-44.6212 Z-2.5000 I-0.5214 J0.3788 F180.00
G2 X21.4557 Y-44.5443 Z-2.5000 I0.5214 J-0.3788 F180.00
G1 X21.4557 Y-44.5443 Z-3.0000 F180.00
G2 X21.5214 Y-45.3788 Z-3.0000 I-0.4557 J-0.4557 F180.00
G2 X20.4786 Y-44.6212 Z-3.0000 I-0.5214 J0.3788 F180.00
G2 X21.4557 Y-44.5443 Z-3.0000 I0.5214 J-0.3788 F180.00
G0 X21.4557 Y-44.5443 Z5.0000
G0 X21.4557 Y-44.5443 Z5.0000
G0 X21.4557 Y-44.5443 Z0.0000
G1 X21.4557 Y-44.5443 Z-3.0000 F180.00
G2 X21.0674 Y-45.6410 Z-3.0000 I-0.4557 J-0.4557 F180.00
G2 X20.3590 Y-45.0674 Z-3.0000 I-0.0674 J0.6410 F180.00
G2 X20.9326 Y-44.3590 Z-3.0000 I0.6410 J0.0674 F180.00
G2 X21.4557 Y-44.5443 Z-3.0000 I0.0674 J-0.6410 F180.00
G1 X21.4557 Y-44.5443 Z-3.5000 F180.00
G2 X21.0674 Y-45.6410 Z-3.5000 I-0.4557 J-0.4557 F180.00
G2 X20.3590 Y-45.0674 Z-3.5000 I-0.0674 J0.6410 F180.00
G2 X20.9326 Y-44.3590 Z-3.5000 I0.6410 J0.0674 F180.00
G2 X21.4557 Y-44.5443 Z-3.5000 I0.0674 J-0.6410 F180.00
G0 X21.4557 Y-44.5443 Z5.0000
G0 X21.4557 Y-44.5443 Z5.0000
G0 X21.4557 Y-44.5443 Z-0.5000
G1 X21.4557 Y-44.5443 Z-3.5000 F180.00
G2 X21.5214 Y-45.3788 Z-3.5000 I-0.4557 J-0.4557 F180.00
G2 X20.4786 Y-44.6212 Z-3.5000 I-0.5214 J0.3788 F180.00
G2 X21.4557 Y-44.5443 Z-3.5000 I0.5214 J-0.3788 F180.00
G1 X21.4557 Y-44.5443 Z-4.0000 F180.00
G2 X21.5214 Y-45.3788 Z-4.0000 I-0.4557 J-0.4557 F180.00
G2 X20.4786 Y-44.6212 Z-4.0000 I-0.5214 J0.3788 F180.00
G2 X21.4557 Y-44.5443 Z-4.0000 I0.5214 J-0.3788 F180.00
G0 X21.4557 Y-44.5443 Z5.0000
G0 X21.4557 Y-44.5443 Z5.0000
G0 X21.4557 Y-44.5443 Z-1.0000
G1 X21.4557 Y-44.5443 Z-4.0000 F180.00
G2 X21.0674 Y-45.6410 Z-4.0000 I-0.4557 J-0.4557 F180.00
