(Exported by FreeCAD)
(Post Processor: grbl_post)
(Output Time:2020-11-14 18:49:28.662792)
(begin preamble)
G17 G90
G21
(begin operation: Default Tool)
(Path: Default Tool)
(Default Tool)
(begin toolchange)
; M6 T1
M3 S800.0000
(finish operation: Default Tool)
(begin operation: Pocket_Shape)
(Path: Pocket_Shape)
(Pocket_Shape)
G0 Z5.0000
G0 X11.4120 Y-5.5880
G0 Z3.0000
G1 X11.4120 Y-5.5880 Z-0.5000 F180.00
G2 X10.0000 Y-8.9969 Z-0.5000 I-1.4120 J-1.4120 F180.00
G2 X10.0000 Y-5.0031 Z-0.5000 I0.0000 J1.9969 F180.00
G2 X11.4120 Y-5.5880 Z-0.5000 I0.0000 J-1.9969 F180.00
G0 X11.4120 Y-5.5880 Z5.0000
G0 X11.4097 Y-5.5860 Z5.0000
G0 X11.4097 Y-5.5860 Z2.5000
G1 X11.4097 Y-5.5860 Z-0.5000 F180.00
G3 X8.5860 Y-8.4097 Z-0.5000 I-1.4098 J-1.4139 F180.00
G1 X11.4097 Y-5.5860 Z-0.5000 F180.00
G2 X11.4120 Y-8.4120 Z-0.5000 I-1.4091 J-1.4142 F180.00
G1 X11.4120 Y-8.4120 Z-1.0000 F180.00
G3 X11.4097 Y-5.5860 Z-1.0000 I-1.4115 J1.4119 F180.00
G1 X8.5860 Y-8.4097 Z-1.0000 F180.00
G2 X11.4097 Y-5.5860 Z-1.0000 I1.4139 J1.4098 F180.00
G0 X11.4097 Y-5.5860 Z5.0000
G0 X11.4098 Y-5.5858 Z5.0000
G0 X11.4098 Y-5.5858 Z2.0000
G1 X11.4098 Y-5.5858 Z-1.0000 F180.00
G2 X10.0000 Y-8.9969 Z-1.0000 I-1.4098 J-1.4142 F180.00
G2 X10.0000 Y-5.0031 Z-1.0000 I0.0000 J1.9969 F180.00
G2 X11.4098 Y-5.5858 Z-1.0000 I0.0000 J-1.9969 F180.00
G1 X11.4098 Y-5.5858 Z-1.5000 F180.00
G2 X10.0000 Y-8.9969 Z-1.5000 I-1.4098 J-1.4142 F180.00
G2 X10.0000 Y-5.0031 Z-1.5000 I0.0000 J1.9969 F180.00
G2 X11.4098 Y-5.5858 Z-1.5000 I0.0000 J-1.9969 F180.00
G0 X11.4098 Y-5.5858 Z5.0000
G0 X11.4097 Y-5.5860 Z5.0000
G0 X11.4097 Y-5.5860 Z1.5000
G1 X11.4097 Y-5.5860 Z-1.5000 F180.00
G3 X8.5860 Y-8.4097 Z-1.5000 I-1.4098 J-1.4139 F180.00
G1 X11.4097 Y-5.5860 Z-1.5000 F180.00
G2 X11.4120 Y-8.4120 Z-1.5000 I-1.4091 J-1.4142 F180.00
G1 X11.4120 Y-8.4120 Z-2.0000 F180.00
G3 X11.4097 Y-5.5860 Z-2.0000 I-1.4115 J1.4119 F180.00
G1 X8.5860 Y-8.4097 Z-2.0000 F180.00
G2 X11.4097 Y-5.5860 Z-2.0000 I1.4139 J1.4098 F180.00
G0 X11.4097 Y-5.5860 Z5.0000
G0 X11.4098 Y-5.5858 Z5.0000
G0 X11.4098 Y-5.5858 Z1.0000
G1 X11.4098 Y-5.5858 Z-2.0000 F180.00
G2 X10.0000 Y-8.9969 Z-2.0000 I-1.4098 J-1.4142 F180.00
G2 X10.0000 Y-5.0031 Z-2.0000 I0.0000 J1.9969 F180.00
G2 X11.4098 Y-5.5858 Z-2.0000 I0.0000 J-1.9969 F180.00
G1 X11.4098 Y-5.5858 Z-2.5000 F180.00
G2 X10.0000 Y-8.9969 Z-2.5000 I-1.4098 J-1.4142 F180.00
G2 X10.0000 Y-5.0031 Z-2.5000 I0.0000 J1.9969 F180.00
G2 X11.4098 Y-5.5858 Z-2.5000 I0.0000 J-1.9969 F180.00
G0 X11.4098 Y-5.5858 Z5.0000
G0 X11.4097 Y-5.5860 Z5.0000
G0 X11.4097 Y-5.5860 Z0.5000
G1 X11.4097 Y-5.5860 Z-2.5000 F180.00
G3 X8.5860 Y-8.4097 Z-2.5000 I-1.4098 J-1.4139 F180.00
G1 X11.4097 Y-5.5860 Z-2.5000 F180.00
G2 X11.4120 Y-8.4120 Z-2.5000 I-1.4091 J-1.4142 F180.00
G1 X11.4120 Y-8.4120 Z-3.0000 F180.00
G3 X11.4097 Y-5.5860 Z-3.0000 I-1.4115 J1.4119 F180.00
G1 X8.5860 Y-8.4097 Z-3.0000 F180.00
G2 X11.4097 Y-5.5860 Z-3.0000 I1.4139 J1.4098 F180.00
G0 X11.4097 Y-5.5860 Z5.0000
G0 X11.4098 Y-5.5858 Z5.0000
G0 X11.4098 Y-5.5858 Z0.0000
G1 X11.4098 Y-5.5858 Z-3.0000 F180.00
G2 X10.0000 Y-8.9969 Z-3.0000 I-1.4098 J-1.4142 F180.00
G2 X10.0000 Y-5.0031 Z-3.0000 I0.0000 J1.9969 F180.00
G2 X11.4098 Y-5.5858 Z-3.0000 I0.0000 J-1.9969 F180.00
G1 X11.4098 Y-5.5858 Z-3.5000 F180.00
G2 X10.0000 Y-8.9969 Z-3.5000 I-1.4098 J-1.4142 F180.00
G2 X10.0000 Y-5.0031 Z-3.5000 I0.0000 J1.9969 F180.00
G2 X11.4098 Y-5.5858 Z-3.5000 I0.0000 J-1.9969 F180.00
G0 X11.4098 Y-5.5858 Z5.0000
G0 X11.4097 Y-5.5860 Z5.0000
G0 X11.4097 Y-5.5860 Z-0.5000
G1 X11.4097 Y-5.5860 Z-3.5000 F180.00
G3 X8.5860 Y-8.4097 Z-3.5000 I-1.4098 J-1.4139 F180.00
G1 X11.4097 Y-5.5860 Z-3.5000 F180.00
G2 X11.4120 Y-8.4120 Z-3.5000 I-1.4091 J-1.4142 F180.00
G1 X11.4120 Y-8.4120 Z-4.0000 F180.00
G3 X11.4097 Y-5.5860 Z-4.0000 I-1.4115 J1.4119 F180.00
G1 X8.5860 Y-8.4097 Z-4.0000 F180.00
G2 X11.4097 Y-5.5860 Z-4.0000 I1.4139 J1.4098 F180.00
G0 X11.4097 Y-5.5860 Z5.0000
G0 X11.4098 Y-5.5858 Z5.0000
G0 X11.4098 Y-5.5858 Z-1.0000
G1 X11.4098 Y-5.5858 Z-4.0000 F180.00
G2 X10.0000 Y-8.9969 Z-4.0000 I-1.4098 J-1.4142 F180.00
G2 X10.0000 Y-5.0031 Z-4.0000 I0.0000 J1.9969 F180.00
G2 X11.4098 Y-5.5858 Z-4.0000 I0.0000 J-1.9969 F180.00
G1 X11.4098 Y-5.5858 Z-4.5000 F180.00
G2 X10.0000 Y-8.9969 Z-4.5000 I-1.4098 J-1.4142 F180.00
G2 X10.0000 Y-5.0031 Z-4.5000 I0.0000 J1.9969 F180.00
G2 X11.4098 Y-5.5858 Z-4.5000 I0.0000 J-1.9969 F180.00
G0 X11.4098 Y-5.5858 Z5.0000
G0 X11.4097 Y-5.5860 Z5.0000
G0 X11.4097 Y-5.5860 Z-1.5000
G1 X11.4097 Y-5.5860 Z-4.5000 F180.00
G3 X8.5860 Y-8.4097 Z-4.5000 I-1.4098 J-1.4139 F180.00
G1 X11.4097 Y-5.5860 Z-4.5000 F180.00
G2 X11.4120 Y-8.4120 Z-4.5000 I-1.4091 J-1.4142 F180.00
G1 X11.4120 Y-8.4120 Z-5.0000 F180.00
G3 X11.4097 Y-5.5860 Z-5.0000 I-1.4115 J1.4119 F180.00
G1 X8.5860 Y-8.4097 Z-5.0000 F180.00
G2 X11.4097 Y-5.5860 Z-5.0000 I1.4139 J1.4098 F180.00
G0 X11.4097 Y-5.5860 Z5.0000
G0 X11.4098 Y-5.5858 Z5.0000
G0 X11.4098 Y-5.5858 Z-2.0000
G1 X11.4098 Y-5.5858 Z-5.0000 F180.00
G2 X10.0000 Y-8.9969 Z-5.0000 I-1.4098 J-1.4142 F180.00
G2 X10.0000 Y-5.0031 Z-5.0000 I0.0000 J1.9969 F180.00
G2 X11.4098 Y-5.5858 Z-5.0000 I0.0000 J-1.9969 F180.00
G1 X11.4098 Y-5.5858 Z-5.5000 F180.00
G2 X10.0000 Y-8.9969 Z-5.5000 I-1.4098 J-1.4142 F180.00
G2 X10.0000 Y-5.0031 Z-5.5000 I0.0000 J1.9969 F180.00
G2 X11.4098 Y-5.5858 Z-5.5000 I0.0000 J-1.9969 F180.00
G0 X11.4098 Y-5.5858 Z5.0000
G0 X11.4097 Y-5.5860 Z5.0000
G0 X11.4097 Y-5.5860 Z-2.5000
G1 X11.4097 Y-5.5860 Z-5.5000 F180.00
G3 X8.5860 Y-8.4097 Z-5.5000 I-1.4098 J-1.4139 F180.00
G1 X11.4097 Y-5.5860 Z-5.5000 F180.00
G2 X11.4120 Y-8.4120 Z-5.5000 I-1.4091 J-1.4142 F180.00
G1 X11.4120 Y-8.4120 Z-6.0000 F180.00
G3 X11.4097 Y-5.5860 Z-6.0000 I-1.4115 J1.4119 F180.00
G1 X8.5860 Y-8.4097 Z-6.0000 F180.00
G2 X11.4097 Y-5.5860 Z-6.0000 I1.4139 J1.4098 F180.00
G0 X11.4097 Y-5.5860 Z5.0000
G0 X11.4098 Y-5.5858 Z5.0000
G0 X11.4098 Y-5.5858 Z-3.0000
G1 X11.4098 Y-5.5858 Z-6.0000 F180.00
G2 X10.0000 Y-8.9969 Z-6.0000 I-1.4098 J-1.4142 F180.00
G2 X10.0000 Y-5.0031 Z-6.0000 I0.0000 J1.9969 F180.00
G2 X11.4098 Y-5.5858 Z-6.0000 I0.0000 J-1.9969 F180.00
G0 Z5.0000
(finish operation: Pocket_Shape)
(begin operation: TagDressup)
(Path: TagDressup)
G0 Z5.0000
G0 X22.8264 Y-0.1729 Z5.0000
G0 X22.8264 Y-0.1729 Z3.0000
G1 X22.8264 Y-0.1729 Z-0.5000 F180.00
G2 X23.9969 Y-2.9215 Z-0.5000 I-2.8305 J-2.8289 F180.00
G1 X24.0000 Y-13.0000 Z-0.5000 F180.00
G2 X20.0785 Y-16.9969 Z-0.5000 I-4.0018 J0.0041 F180.00
G1 X17.5399 Y-17.0000 Z-0.5000 F180.00
G3 X15.5000 Y-19.0393 Z-0.5000 I-0.0317 J-2.0081 F180.00
G1 X15.5000 Y-52.0000 Z-0.5000 F180.00
G2 X11.5785 Y-55.9969 Z-0.5000 I-4.0018 J0.0041 F180.00
G1 X8.5000 Y-56.0000 Z-0.5000 F180.00
G2 X4.5031 Y-52.0785 Z-0.5000 I0.0041 J4.0018 F180.00
G1 X4.5000 Y-19.0393 Z-0.5000 F180.00
G3 X2.4607 Y-17.0000 Z-0.5000 I-2.0081 J0.0313 F180.00
G1 X0.0000 Y-17.0000 Z-0.5000 F180.00
G2 X-3.9969 Y-13.0785 Z-0.5000 I0.0041 J4.0018 F180.00
G1 X-4.0000 Y-3.0000 Z-0.5000 F180.00
G2 X-0.0785 Y0.9969 Z-0.5000 I4.0018 J-0.0041 F180.00
G1 X20.0000 Y1.0000 Z-0.5000 F180.00
G2 X22.8264 Y-0.1729 Z-0.5000 I-0.0041 J-4.0018 F180.00
G1 X22.8264 Y-0.1729 Z-1.0000 F180.00
G2 X23.9969 Y-2.9215 Z-1.0000 I-2.8305 J-2.8289 F180.00
G1 X24.0000 Y-13.0000 Z-1.0000 F180.00
G2 X20.0785 Y-16.9969 Z-1.0000 I-4.0018 J0.0041 F180.00
G1 X17.5399 Y-17.0000 Z-1.0000 F180.00
G3 X15.5000 Y-19.0393 Z-1.0000 I-0.0317 J-2.0081 F180.00
G1 X15.5000 Y-52.0000 Z-1.0000 F180.00
G2 X11.5785 Y-55.9969 Z-1.0000 I-4.0018 J0.0041 F180.00
G1 X8.5000 Y-56.0000 Z-1.0000 F180.00
G2 X4.5031 Y-52.0785 Z-1.0000 I0.0041 J4.0018 F180.00
G1 X4.5000 Y-19.0393 Z-1.0000 F180.00
G3 X2.4607 Y-17.0000 Z-1.0000 I-2.0081 J0.0313 F180.00
G1 X0.0000 Y-17.0000 Z-1.0000 F180.00
G2 X-3.9969 Y-13.0785 Z-1.0000 I0.0041 J4.0018 F180.00
G1 X-4.0000 Y-3.0000 Z-1.0000 F180.00
G2 X-0.0785 Y0.9969 Z-1.0000 I4.0018 J-0.0041 F180.00
G1 X20.0000 Y1.0000 Z-1.0000 F180.00
G2 X22.8264 Y-0.1729 Z-1.0000 I-0.0041 J-4.0018 F180.00
G1 X22.8264 Y-0.1729 Z-1.5000 F180.00
G2 X23.9969 Y-2.9215 Z-1.5000 I-2.8305 J-2.8289 F180.00
G1 X24.0000 Y-13.0000 Z-1.5000 F180.00
G2 X20.0785 Y-16.9969 Z-1.5000 I-4.0018 J0.0041 F180.00
G1 X17.5399 Y-17.0000 Z-1.5000 F180.00
G3 X15.5000 Y-19.0393 Z-1.5000 I-0.0317 J-2.0081 F180.00
G1 X15.5000 Y-52.0000 Z-1.5000 F180.00
G2 X11.5785 Y-55.9969 Z-1.5000 I-4.0018 J0.0041 F180.00
G1 X8.5000 Y-56.0000 Z-1.5000 F180.00
G2 X4.5031 Y-52.0785 Z-1.5000 I0.0041 J4.0018 F180.00
G1 X4.5000 Y-19.0393 Z-1.5000 F180.00
G3 X2.4607 Y-17.0000 Z-1.5000 I-2.0081 J0.0313 F180.00
G1 X0.0000 Y-17.0000 Z-1.5000 F180.00
G2 X-3.9969 Y-13.0785 Z-1.5000 I0.0041 J4.0018 F180.00
G1 X-4.0000 Y-3.0000 Z-1.5000 F180.00
G2 X-0.0785 Y0.9969 Z-1.5000 I4.0018 J-0.0041 F180.00
G1 X20.0000 Y1.0000 Z-1.5000 F180.00
G2 X22.8264 Y-0.1729 Z-1.5000 I-0.0041 J-4.0018 F180.00
G1 X22.8264 Y-0.1729 Z-2.0000 F180.00
G2 X23.9969 Y-2.9215 Z-2.0000 I-2.8305 J-2.8289 F180.00
G1 X24.0000 Y-13.0000 Z-2.0000 F180.00
G2 X20.0785 Y-16.9969 Z-2.0000 I-4.0018 J0.0041 F180.00
G1 X17.5399 Y-17.0000 Z-2.0000 F180.00
G3 X15.5000 Y-19.0393 Z-2.0000 I-0.0317 J-2.0081 F180.00
G1 X15.5000 Y-52.0000 Z-2.0000 F180.00
G2 X11.5785 Y-55.9969 Z-2.0000 I-4.0018 J0.0041 F180.00
G1 X8.5000 Y-56.0000 Z-2.0000 F180.00
G2 X4.5031 Y-52.0785 Z-2.0000 I0.0041 J4.0018 F180.00
G1 X4.5000 Y-19.0393 Z-2.0000 F180.00
G3 X2.4607 Y-17.0000 Z-2.0000 I-2.0081 J0.0313 F180.00
G1 X0.0000 Y-17.0000 Z-2.0000 F180.00
G2 X-3.9969 Y-13.0785 Z-2.0000 I0.0041 J4.0018 F180.00
G1 X-4.0000 Y-3.0000 Z-2.0000 F180.00
G2 X-0.0785 Y0.9969 Z-2.0000 I4.0018 J-0.0041 F180.00
G1 X20.0000 Y1.0000 Z-2.0000 F180.00
G2 X22.8264 Y-0.1729 Z-2.0000 I-0.0041 J-4.0018 F180.00
G1 X22.8264 Y-0.1729 Z-2.5000 F180.00
G2 X23.9969 Y-2.9215 Z-2.5000 I-2.8305 J-2.8289 F180.00
G1 X24.0000 Y-13.0000 Z-2.5000 F180.00
G2 X20.0785 Y-16.9969 Z-2.5000 I-4.0018 J0.0041 F180.00
G1 X17.5399 Y-17.0000 Z-2.5000 F180.00
G3 X15.5000 Y-19.0393 Z-2.5000 I-0.0317 J-2.0081 F180.00
G1 X15.5000 Y-52.0000 Z-2.5000 F180.00
G2 X11.5785 Y-55.9969 Z-2.5000 I-4.0018 J0.0041 F180.00
G1 X8.5000 Y-56.0000 Z-2.5000 F180.00
G2 X4.5031 Y-52.0785 Z-2.5000 I0.0041 J4.0018 F180.00
G1 X4.5000 Y-19.0393 Z-2.5000 F180.00
G3 X2.4607 Y-17.0000 Z-2.5000 I-2.0081 J0.0313 F180.00
G1 X0.0000 Y-17.0000 Z-2.5000 F180.00
G2 X-3.9969 Y-13.0785 Z-2.5000 I0.0041 J4.0018 F180.00
G1 X-4.0000 Y-3.0000 Z-2.5000 F180.00
G2 X-0.0785 Y0.9969 Z-2.5000 I4.0018 J-0.0041 F180.00
G1 X20.0000 Y1.0000 Z-2.5000 F180.00
G2 X22.8264 Y-0.1729 Z-2.5000 I-0.0041 J-4.0018 F180.00
G1 X22.8264 Y-0.1729 Z-3.0000 F180.00
G2 X23.9969 Y-2.9215 Z-3.0000 I-2.8305 J-2.8289 F180.00
G1 X24.0000 Y-13.0000 Z-3.0000 F180.00
G2 X20.0785 Y-16.9969 Z-3.0000 I-4.0018 J0.0041 F180.00
G1 X17.5399 Y-17.0000 Z-3.0000 F180.00
G3 X15.5000 Y-19.0393 Z-3.0000 I-0.0317 J-2.0081 F180.00
G1 X15.5000 Y-52.0000 Z-3.0000 F180.00
G2 X11.5785 Y-55.9969 Z-3.0000 I-4.0018 J0.0041 F180.00
G1 X8.5000 Y-56.0000 Z-3.0000 F180.00
G2 X4.5031 Y-52.0785 Z-3.0000 I0.0041 J4.0018 F180.00
G1 X4.5000 Y-19.0393 Z-3.0000 F180.00
G3 X2.4607 Y-17.0000 Z-3.0000 I-2.0081 J0.0313 F180.00
G1 X0.0000 Y-17.0000 Z-3.0000 F180.00
G2 X-3.9969 Y-13.0785 Z-3.0000 I0.0041 J4.0018 F180.00
G1 X-4.0000 Y-3.0000 Z-3.0000 F180.00
G2 X-0.0785 Y0.9969 Z-3.0000 I4.0018 J-0.0041 F180.00
G1 X20.0000 Y1.0000 Z-3.0000 F180.00
G2 X22.8264 Y-0.1729 Z-3.0000 I-0.0041 J-4.0018 F180.00
G1 X22.8264 Y-0.1729 Z-3.5000 F180.00
G2 X23.9969 Y-2.9215 Z-3.5000 I-2.8305 J-2.8289 F180.00
G1 X23.9984 Y-7.8125 Z-3.5000 F180.00
G1 X23.9985 Y-7.9608 Z-3.3503 F180.00
G1 X23.9985 Y-8.1090 Z-3.5000 F180.00
G1 X24.0000 Y-13.0000 Z-3.5000 F180.00
G2 X20.0785 Y-16.9969 Z-3.5000 I-4.0018 J0.0041 F180.00
G1 X17.5399 Y-17.0000 Z-3.5000 F180.00
G3 X15.5000 Y-19.0393 Z-3.5000 I-0.0317 J-2.0081 F180.00
G1 X15.5000 Y-35.3714 Z-3.5000 F180.00
G1 X15.5000 Y-35.5196 Z-3.3503 F180.00
G1 X15.5000 Y-35.6679 Z-3.5000 F180.00
G1 X15.5000 Y-52.0000 Z-3.5000 F180.00
G2 X11.5785 Y-55.9969 Z-3.5000 I-4.0018 J0.0041 F180.00
G1 X8.5000 Y-56.0000 Z-3.5000 F180.00
G2 X4.5031 Y-52.0785 Z-3.5000 I0.0041 J4.0018 F180.00
G1 X4.5016 Y-35.7072 Z-3.5000 F180.00
G1 X4.5015 Y-35.5589 Z-3.3503 F180.00
G1 X4.5015 Y-35.4106 Z-3.5000 F180.00
G1 X4.5000 Y-19.0393 Z-3.5000 F180.00
G3 X2.4607 Y-17.0000 Z-3.5000 I-2.0081 J0.0313 F180.00
G1 X0.0000 Y-17.0000 Z-3.5000 F180.00
G2 X-3.9969 Y-13.0785 Z-3.5000 I0.0041 J4.0018 F180.00
G1 X-4.0000 Y-3.0000 Z-3.5000 F180.00
G2 X-0.0785 Y0.9969 Z-3.5000 I4.0018 J-0.0041 F180.00
G1 X9.8125 Y0.9984 Z-3.5000 F180.00
G1 X9.9608 Y0.9985 Z-3.3503 F180.00
G1 X10.1090 Y0.9985 Z-3.5000 F180.00
G1 X20.0000 Y1.0000 Z-3.5000 F180.00
G2 X22.8264 Y-0.1729 Z-3.5000 I-0.0041 J-4.0018 F180.00
G1 X22.8264 Y-0.1729 Z-4.0000 F180.00
G2 X23.9969 Y-2.9215 Z-4.0000 I-2.8305 J-2.8289 F180.00
G1 X23.9983 Y-7.3175 Z-4.0000 F180.00
G1 X23.9985 Y-7.9608 Z-3.3503 F180.00
G1 X23.9987 Y-8.6041 Z-4.0000 F180.00
G1 X24.0000 Y-13.0000 Z-4.0000 F180.00
G2 X20.0785 Y-16.9969 Z-4.0000 I-4.0018 J0.0041 F180.00
G1 X17.5399 Y-17.0000 Z-4.0000 F180.00
G3 X15.5000 Y-19.0393 Z-4.0000 I-0.0317 J-2.0081 F180.00
G1 X15.5000 Y-34.8763 Z-4.0000 F180.00
G1 X15.5000 Y-35.5196 Z-3.3503 F180.00
G1 X15.5000 Y-36.1629 Z-4.0000 F180.00
G1 X15.5000 Y-52.0000 Z-4.0000 F180.00
G2 X11.5785 Y-55.9969 Z-4.0000 I-4.0018 J0.0041 F180.00
G1 X8.5000 Y-56.0000 Z-4.0000 F180.00
G2 X4.5031 Y-52.0785 Z-4.0000 I0.0041 J4.0018 F180.00
G1 X4.5016 Y-36.2022 Z-4.0000 F180.00
G1 X4.5015 Y-35.5589 Z-3.3503 F180.00
G1 X4.5015 Y-34.9156 Z-4.0000 F180.00
G1 X4.5000 Y-19.0393 Z-4.0000 F180.00
G3 X2.4607 Y-17.0000 Z-4.0000 I-2.0081 J0.0313 F180.00
G1 X0.0000 Y-17.0000 Z-4.0000 F180.00
G2 X-3.9969 Y-13.0785 Z-4.0000 I0.0041 J4.0018 F180.00
G1 X-4.0000 Y-3.0000 Z-4.0000 F180.00
G2 X-0.0785 Y0.9969 Z-4.0000 I4.0018 J-0.0041 F180.00
G1 X9.3175 Y0.9984 Z-4.0000 F180.00
G1 X9.9608 Y0.9985 Z-3.3503 F180.00
G1 X10.6041 Y0.9986 Z-4.0000 F180.00
G1 X20.0000 Y1.0000 Z-4.0000 F180.00
G2 X22.8264 Y-0.1729 Z-4.0000 I-0.0041 J-4.0018 F180.00
G1 X22.8264 Y-0.1729 Z-4.5000 F180.00
G2 X23.9969 Y-2.9215 Z-4.5000 I-2.8305 J-2.8289 F180.00
G1 X23.9981 Y-6.8224 Z-4.5000 F180.00
G1 X23.9985 Y-7.9608 Z-3.3503 F180.00
G1 X23.9988 Y-9.0991 Z-4.5000 F180.00
G1 X24.0000 Y-13.0000 Z-4.5000 F180.00
G2 X20.0785 Y-16.9969 Z-4.5000 I-4.0018 J0.0041 F180.00
G1 X17.5399 Y-17.0000 Z-4.5000 F180.00
G3 X15.5000 Y-19.0393 Z-4.5000 I-0.0317 J-2.0081 F180.00
G1 X15.5000 Y-34.3813 Z-4.5000 F180.00
G1 X15.5000 Y-35.5196 Z-3.3503 F180.00
G1 X15.5000 Y-36.6580 Z-4.5000 F180.00
G1 X15.5000 Y-52.0000 Z-4.5000 F180.00
G2 X11.5785 Y-55.9969 Z-4.5000 I-4.0018 J0.0041 F180.00
G1 X8.5000 Y-56.0000 Z-4.5000 F180.00
G2 X4.5031 Y-52.0785 Z-4.5000 I0.0041 J4.0018 F180.00
G1 X4.5016 Y-36.6973 Z-4.5000 F180.00
G1 X4.5015 Y-35.5589 Z-3.3503 F180.00
G1 X4.5014 Y-34.4205 Z-4.5000 F180.00
G1 X4.5000 Y-19.0393 Z-4.5000 F180.00
G3 X2.4607 Y-17.0000 Z-4.5000 I-2.0081 J0.0313 F180.00
G1 X0.0000 Y-17.0000 Z-4.5000 F180.00
G2 X-3.9969 Y-13.0785 Z-4.5000 I0.0041 J4.0018 F180.00
G1 X-4.0000 Y-3.0000 Z-4.5000 F180.00
G2 X-0.0785 Y0.9969 Z-4.5000 I4.0018 J-0.0041 F180.00
G1 X8.8224 Y0.9983 Z-4.5000 F180.00
G1 X9.9608 Y0.9985 Z-3.3503 F180.00
G1 X11.0991 Y0.9986 Z-4.5000 F180.00
G1 X20.0000 Y1.0000 Z-4.5000 F180.00
G2 X22.8264 Y-0.1729 Z-4.5000 I-0.0041 J-4.0018 F180.00
G1 X22.8264 Y-0.1729 Z-5.0000 F180.00
G2 X23.9969 Y-2.9215 Z-5.0000 I-2.8305 J-2.8289 F180.00
G1 X23.9980 Y-6.3274 Z-5.0000 F180.00
G1 X23.9985 Y-7.9608 Z-3.3503 F180.00
G1 X23.9990 Y-9.5942 Z-5.0000 F180.00
G1 X24.0000 Y-13.0000 Z-5.0000 F180.00
G2 X20.0785 Y-16.9969 Z-5.0000 I-4.0018 J0.0041 F180.00
G1 X17.5399 Y-17.0000 Z-5.0000 F180.00
G3 X15.5000 Y-19.0393 Z-5.0000 I-0.0317 J-2.0081 F180.00
G1 X15.5000 Y-33.8862 Z-5.0000 F180.00
G1 X15.5000 Y-35.5196 Z-3.3503 F180.00
G1 X15.5000 Y-37.1530 Z-5.0000 F180.00
G1 X15.5000 Y-52.0000 Z-5.0000 F180.00
G2 X11.5785 Y-55.9969 Z-5.0000 I-4.0018 J0.0041 F180.00
G1 X8.5000 Y-56.0000 Z-5.0000 F180.00
G2 X4.5031 Y-52.0785 Z-5.0000 I0.0041 J4.0018 F180.00
G1 X4.5017 Y-37.1923 Z-5.0000 F180.00
G1 X4.5015 Y-35.5589 Z-3.3503 F180.00
G1 X4.5014 Y-33.9255 Z-5.0000 F180.00
G1 X4.5000 Y-19.0393 Z-5.0000 F180.00
G3 X2.4607 Y-17.0000 Z-5.0000 I-2.0081 J0.0313 F180.00
G1 X0.0000 Y-17.0000 Z-5.0000 F180.00
G2 X-3.9969 Y-13.0785 Z-5.0000 I0.0041 J4.0018 F180.00
G1 X-4.0000 Y-3.0000 Z-5.0000 F180.00
G2 X-0.0785 Y0.9969 Z-5.0000 I4.0018 J-0.0041 F180.00
G1 X8.3274 Y0.9982 Z-5.0000 F180.00
G1 X9.9608 Y0.9985 Z-3.3503 F180.00
G1 X11.5942 Y0.9987 Z-5.0000 F180.00
G1 X20.0000 Y1.0000 Z-5.0000 F180.00
G2 X22.8264 Y-0.1729 Z-5.0000 I-0.0041 J-4.0018 F180.00
G1 X22.8264 Y-0.1729 Z-5.5000 F180.00
G2 X23.9969 Y-2.9215 Z-5.5000 I-2.8305 J-2.8289 F180.00
G1 X23.9978 Y-5.8323 Z-5.5000 F180.00
G1 X23.9985 Y-7.9608 Z-3.3503 F180.00
G1 X23.9991 Y-10.0892 Z-5.5000 F180.00
G1 X24.0000 Y-13.0000 Z-5.5000 F180.00
G2 X20.0785 Y-16.9969 Z-5.5000 I-4.0018 J0.0041 F180.00
G1 X17.5399 Y-17.0000 Z-5.5000 F180.00
G3 X15.5000 Y-19.0393 Z-5.5000 I-0.0317 J-2.0081 F180.00
G1 X15.5000 Y-33.3912 Z-5.5000 F180.00
G1 X15.5000 Y-35.5196 Z-3.3503 F180.00
G1 X15.5000 Y-37.6481 Z-5.5000 F180.00
G1 X15.5000 Y-52.0000 Z-5.5000 F180.00
G2 X11.5785 Y-55.9969 Z-5.5000 I-4.0018 J0.0041 F180.00
G1 X8.5000 Y-56.0000 Z-5.5000 F180.00
G2 X4.5031 Y-52.0785 Z-5.5000 I0.0041 J4.0018 F180.00
G1 X4.5017 Y-37.6873 Z-5.5000 F180.00
G1 X4.5015 Y-35.5589 Z-3.3503 F180.00
G1 X4.5013 Y-33.4304 Z-5.5000 F180.00
G1 X4.5000 Y-19.0393 Z-5.5000 F180.00
G3 X2.4607 Y-17.0000 Z-5.5000 I-2.0081 J0.0313 F180.00
G1 X0.0000 Y-17.0000 Z-5.5000 F180.00
G2 X-3.9969 Y-13.0785 Z-5.5000 I0.0041 J4.0018 F180.00
G1 X-4.0000 Y-3.0000 Z-5.5000 F180.00
G2 X-0.0785 Y0.9969 Z-5.5000 I4.0018 J-0.0041 F180.00
G1 X7.8323 Y0.9981 Z-5.5000 F180.00
G1 X9.9608 Y0.9985 Z-3.3503 F180.00
G1 X12.0892 Y0.9988 Z-5.5000 F180.00
G1 X20.0000 Y1.0000 Z-5.5000 F180.00
G2 X22.8264 Y-0.1729 Z-5.5000 I-0.0041 J-4.0018 F180.00
G1 X22.8264 Y-0.1729 Z-6.0000 F180.00
G2 X23.9969 Y-2.9215 Z-6.0000 I-2.8305 J-2.8289 F180.00
G1 X23.9977 Y-5.3373 Z-6.0000 F180.00
G1 X23.9985 Y-7.9608 Z-3.3503 F180.00
G1 X23.9993 Y-10.5843 Z-6.0000 F180.00
G1 X24.0000 Y-13.0000 Z-6.0000 F180.00
G2 X20.0785 Y-16.9969 Z-6.0000 I-4.0018 J0.0041 F180.00
G1 X17.5399 Y-17.0000 Z-6.0000 F180.00
G3 X15.5000 Y-19.0393 Z-6.0000 I-0.0317 J-2.0081 F180.00
G1 X15.5000 Y-32.8961 Z-6.0000 F180.00
G1 X15.5000 Y-35.5196 Z-3.3503 F180.00
G1 X15.5000 Y-38.1431 Z-6.0000 F180.00
G1 X15.5000 Y-52.0000 Z-6.0000 F180.00
G2 X11.5785 Y-55.9969 Z-6.0000 I-4.0018 J0.0041 F180.00
G1 X8.5000 Y-56.0000 Z-6.0000 F180.00
G2 X4.5031 Y-52.0785 Z-6.0000 I0.0041 J4.0018 F180.00
G1 X4.5018 Y-38.1824 Z-6.0000 F180.00
G1 X4.5015 Y-35.5589 Z-3.3503 F180.00
G1 X4.5013 Y-32.9354 Z-6.0000 F180.00
G1 X4.5000 Y-19.0393 Z-6.0000 F180.00
G3 X2.4607 Y-17.0000 Z-6.0000 I-2.0081 J0.0313 F180.00
G1 X0.0000 Y-17.0000 Z-6.0000 F180.00
G2 X-3.9969 Y-13.0785 Z-6.0000 I0.0041 J4.0018 F180.00
G1 X-4.0000 Y-3.0000 Z-6.0000 F180.00
G2 X-0.0785 Y0.9969 Z-6.0000 I4.0018 J-0.0041 F180.00
G1 X7.3373 Y0.9981 Z-6.0000 F180.00
G1 X9.9608 Y0.9985 Z-3.3503 F180.00
G1 X12.5843 Y0.9989 Z-6.0000 F180.00
G1 X20.0000 Y1.0000 Z-6.0000 F180.00
G2 X22.8264 Y-0.1729 Z-6.0000 I-0.0041 J-4.0018 F180.00
G0 X22.8264 Y-0.1729 Z5.0000
(finish operation: TagDressup)
(begin postamble)
M5
G17 G90
; M2
