(Exported by FreeCAD)
(Post Processor: grbl_post)
(Output Time:2020-01-24 21:10:21.988780)
(begin preamble)
G17 G90
G21
(begin operation: Default Tool)
(Path: Default Tool)
(Default Tool)
(begin toolchange)
; M6 T1
M3 S800.0000
(finish operation: Default Tool)
(begin operation: TagDressup)
(Path: TagDressup)
G0 Z5.0000
G0 X102.1185 Y0.1195 Z5.0000
G0 X102.1185 Y0.1195 Z3.0000
G1 X102.1185 Y0.1195 Z-0.5000 F120.00
G2 X102.9952 Y-1.9020 Z-0.5000 I-2.1243 J-2.1221 F120.00
G1 X103.0000 Y-98.0000 Z-0.5000 F120.00
G2 X100.0980 Y-100.9952 Z-0.5000 I-3.0026 J0.0057 F120.00
G1 X0.0000 Y-101.0000 Z-0.5000 F120.00
G2 X-2.9952 Y-98.0980 Z-0.5000 I0.0057 J3.0026 F120.00
G1 X-3.0000 Y-2.0000 Z-0.5000 F120.00
G2 X-0.0980 Y0.9952 Z-0.5000 I3.0026 J-0.0057 F120.00
G1 X100.0000 Y1.0000 Z-0.5000 F120.00
G2 X102.1185 Y0.1195 Z-0.5000 I-0.0057 J-3.0026 F120.00
G1 X102.1185 Y0.1195 Z-1.0000 F120.00
G2 X102.9952 Y-1.9020 Z-1.0000 I-2.1243 J-2.1221 F120.00
G1 X103.0000 Y-98.0000 Z-1.0000 F120.00
G2 X100.0980 Y-100.9952 Z-1.0000 I-3.0026 J0.0057 F120.00
G1 X0.0000 Y-101.0000 Z-1.0000 F120.00
G2 X-2.9952 Y-98.0980 Z-1.0000 I0.0057 J3.0026 F120.00
G1 X-3.0000 Y-2.0000 Z-1.0000 F120.00
G2 X-0.0980 Y0.9952 Z-1.0000 I3.0026 J-0.0057 F120.00
G1 X100.0000 Y1.0000 Z-1.0000 F120.00
G2 X102.1185 Y0.1195 Z-1.0000 I-0.0057 J-3.0026 F120.00
G1 X102.1185 Y0.1195 Z-1.5000 F120.00
G2 X102.9952 Y-1.9020 Z-1.5000 I-2.1243 J-2.1221 F120.00
G1 X103.0000 Y-98.0000 Z-1.5000 F120.00
G2 X100.0980 Y-100.9952 Z-1.5000 I-3.0026 J0.0057 F120.00
G1 X0.0000 Y-101.0000 Z-1.5000 F120.00
G2 X-2.9952 Y-98.0980 Z-1.5000 I0.0057 J3.0026 F120.00
G1 X-3.0000 Y-2.0000 Z-1.5000 F120.00
G2 X-0.0980 Y0.9952 Z-1.5000 I3.0026 J-0.0057 F120.00
G1 X100.0000 Y1.0000 Z-1.5000 F120.00
G2 X102.1185 Y0.1195 Z-1.5000 I-0.0057 J-3.0026 F120.00
G1 X102.1185 Y0.1195 Z-2.0000 F120.00
G2 X102.9952 Y-1.9020 Z-2.0000 I-2.1243 J-2.1221 F120.00
G1 X103.0000 Y-98.0000 Z-2.0000 F120.00
G2 X100.0980 Y-100.9952 Z-2.0000 I-3.0026 J0.0057 F120.00
G1 X0.0000 Y-101.0000 Z-2.0000 F120.00
G2 X-2.9952 Y-98.0980 Z-2.0000 I0.0057 J3.0026 F120.00
G1 X-3.0000 Y-2.0000 Z-2.0000 F120.00
G2 X-0.0980 Y0.9952 Z-2.0000 I3.0026 J-0.0057 F120.00
G1 X100.0000 Y1.0000 Z-2.0000 F120.00
G2 X102.1185 Y0.1195 Z-2.0000 I-0.0057 J-3.0026 F120.00
G1 X102.1185 Y0.1195 Z-2.5000 F120.00
G2 X102.9952 Y-1.9020 Z-2.5000 I-2.1243 J-2.1221 F120.00
G1 X103.0000 Y-98.0000 Z-2.5000 F120.00
G2 X100.0980 Y-100.9952 Z-2.5000 I-3.0026 J0.0057 F120.00
G1 X0.0000 Y-101.0000 Z-2.5000 F120.00
G2 X-2.9952 Y-98.0980 Z-2.5000 I0.0057 J3.0026 F120.00
G1 X-3.0000 Y-2.0000 Z-2.5000 F120.00
G2 X-0.0980 Y0.9952 Z-2.5000 I3.0026 J-0.0057 F120.00
G1 X100.0000 Y1.0000 Z-2.5000 F120.00
G2 X102.1185 Y0.1195 Z-2.5000 I-0.0057 J-3.0026 F120.00
G1 X102.1185 Y0.1195 Z-3.0000 F120.00
G2 X102.9952 Y-1.9020 Z-3.0000 I-2.1243 J-2.1221 F120.00
G1 X103.0000 Y-98.0000 Z-3.0000 F120.00
G2 X100.0980 Y-100.9952 Z-3.0000 I-3.0026 J0.0057 F120.00
G1 X0.0000 Y-101.0000 Z-3.0000 F120.00
G2 X-2.9952 Y-98.0980 Z-3.0000 I0.0057 J3.0026 F120.00
G1 X-3.0000 Y-2.0000 Z-3.0000 F120.00
G2 X-0.0980 Y0.9952 Z-3.0000 I3.0026 J-0.0057 F120.00
G1 X100.0000 Y1.0000 Z-3.0000 F120.00
G2 X102.1185 Y0.1195 Z-3.0000 I-0.0057 J-3.0026 F120.00
G1 X102.1185 Y0.1195 Z-3.5000 F120.00
G2 X102.9952 Y-1.9020 Z-3.5000 I-2.1243 J-2.1221 F120.00
G1 X103.0000 Y-98.0000 Z-3.5000 F120.00
G2 X100.0980 Y-100.9952 Z-3.5000 I-3.0026 J0.0057 F120.00
G1 X0.0000 Y-101.0000 Z-3.5000 F120.00
G2 X-2.9952 Y-98.0980 Z-3.5000 I0.0057 J3.0026 F120.00
G1 X-3.0000 Y-2.0000 Z-3.5000 F120.00
G2 X-0.0980 Y0.9952 Z-3.5000 I3.0026 J-0.0057 F120.00
G1 X100.0000 Y1.0000 Z-3.5000 F120.00
G2 X102.1185 Y0.1195 Z-3.5000 I-0.0057 J-3.0026 F120.00
G1 X102.1185 Y0.1195 Z-4.0000 F120.00
G2 X102.9952 Y-1.9020 Z-4.0000 I-2.1243 J-2.1221 F120.00
G1 X103.0000 Y-98.0000 Z-4.0000 F120.00
G2 X100.0980 Y-100.9952 Z-4.0000 I-3.0026 J0.0057 F120.00
G1 X0.0000 Y-101.0000 Z-4.0000 F120.00
G2 X-2.9952 Y-98.0980 Z-4.0000 I0.0057 J3.0026 F120.00
G1 X-3.0000 Y-2.0000 Z-4.0000 F120.00
G2 X-0.0980 Y0.9952 Z-4.0000 I3.0026 J-0.0057 F120.00
G1 X100.0000 Y1.0000 Z-4.0000 F120.00
G2 X102.1185 Y0.1195 Z-4.0000 I-0.0057 J-3.0026 F120.00
G1 X102.1185 Y0.1195 Z-4.5000 F120.00
G2 X102.9952 Y-1.9020 Z-4.5000 I-2.1243 J-2.1221 F120.00
G1 X103.0000 Y-98.0000 Z-4.5000 F120.00
G2 X100.0980 Y-100.9952 Z-4.5000 I-3.0026 J0.0057 F120.00
G1 X0.0000 Y-101.0000 Z-4.5000 F120.00
G2 X-2.9952 Y-98.0980 Z-4.5000 I0.0057 J3.0026 F120.00
G1 X-3.0000 Y-2.0000 Z-4.5000 F120.00
G2 X-0.0980 Y0.9952 Z-4.5000 I3.0026 J-0.0057 F120.00
G1 X100.0000 Y1.0000 Z-4.5000 F120.00
G2 X102.1185 Y0.1195 Z-4.5000 I-0.0057 J-3.0026 F120.00
G1 X102.1185 Y0.1195 Z-5.0000 F120.00
G2 X102.9952 Y-1.9020 Z-5.0000 I-2.1243 J-2.1221 F120.00
G1 X103.0000 Y-98.0000 Z-5.0000 F120.00
G2 X100.0980 Y-100.9952 Z-5.0000 I-3.0026 J0.0057 F120.00
G1 X0.0000 Y-101.0000 Z-5.0000 F120.00
G2 X-2.9952 Y-98.0980 Z-5.0000 I0.0057 J3.0026 F120.00
G1 X-3.0000 Y-2.0000 Z-5.0000 F120.00
G2 X-0.0980 Y0.9952 Z-5.0000 I3.0026 J-0.0057 F120.00
G1 X100.0000 Y1.0000 Z-5.0000 F120.00
G2 X102.1185 Y0.1195 Z-5.0000 I-0.0057 J-3.0026 F120.00
G1 X102.1185 Y0.1195 Z-5.5000 F120.00
G2 X102.9952 Y-1.9020 Z-5.5000 I-2.1243 J-2.1221 F120.00
G1 X103.0000 Y-98.0000 Z-5.5000 F120.00
G2 X100.0980 Y-100.9952 Z-5.5000 I-3.0026 J0.0057 F120.00
G1 X0.0000 Y-101.0000 Z-5.5000 F120.00
G2 X-2.9952 Y-98.0980 Z-5.5000 I0.0057 J3.0026 F120.00
G1 X-3.0000 Y-2.0000 Z-5.5000 F120.00
G2 X-0.0980 Y0.9952 Z-5.5000 I3.0026 J-0.0057 F120.00
G1 X100.0000 Y1.0000 Z-5.5000 F120.00
G2 X102.1185 Y0.1195 Z-5.5000 I-0.0057 J-3.0026 F120.00
G1 X102.1185 Y0.1195 Z-6.0000 F120.00
G2 X102.9952 Y-1.9020 Z-6.0000 I-2.1243 J-2.1221 F120.00
G1 X102.9976 Y-49.9466 Z-6.0000 F120.00
G1 X102.9976 Y-49.9510 Z-5.9956 F120.00
G1 X102.9976 Y-49.9553 Z-6.0000 F120.00
G1 X103.0000 Y-98.0000 Z-6.0000 F120.00
G2 X100.0980 Y-100.9952 Z-6.0000 I-3.0026 J0.0057 F120.00
G1 X50.0534 Y-100.9976 Z-6.0000 F120.00
G1 X50.0490 Y-100.9976 Z-5.9956 F120.00
G1 X50.0447 Y-100.9976 Z-6.0000 F120.00
G1 X0.0000 Y-101.0000 Z-6.0000 F120.00
G2 X-2.9952 Y-98.0980 Z-6.0000 I0.0057 J3.0026 F120.00
G1 X-2.9976 Y-50.0534 Z-6.0000 F120.00
G1 X-2.9976 Y-50.0490 Z-5.9956 F120.00
G1 X-2.9976 Y-50.0447 Z-6.0000 F120.00
G1 X-3.0000 Y-2.0000 Z-6.0000 F120.00
G2 X-0.0980 Y0.9952 Z-6.0000 I3.0026 J-0.0057 F120.00
G1 X49.9466 Y0.9976 Z-6.0000 F120.00
G1 X49.9510 Y0.9976 Z-5.9956 F120.00
G1 X49.9553 Y0.9976 Z-6.0000 F120.00
G1 X100.0000 Y1.0000 Z-6.0000 F120.00
G2 X102.1185 Y0.1195 Z-6.0000 I-0.0057 J-3.0026 F120.00
G1 X102.1185 Y0.1195 Z-6.5000 F120.00
G2 X102.9952 Y-1.9020 Z-6.5000 I-2.1243 J-2.1221 F120.00
G1 X102.9976 Y-49.4516 Z-6.5000 F120.00
G1 X102.9976 Y-49.9510 Z-5.9956 F120.00
G1 X102.9976 Y-50.4504 Z-6.5000 F120.00
G1 X103.0000 Y-98.0000 Z-6.5000 F120.00
G2 X100.0980 Y-100.9952 Z-6.5000 I-3.0026 J0.0057 F120.00
G1 X50.5484 Y-100.9976 Z-6.5000 F120.00
G1 X50.0490 Y-100.9976 Z-5.9956 F120.00
G1 X49.5496 Y-100.9976 Z-6.5000 F120.00
G1 X0.0000 Y-101.0000 Z-6.5000 F120.00
G2 X-2.9952 Y-98.0980 Z-6.5000 I0.0057 J3.0026 F120.00
G1 X-2.9976 Y-50.5484 Z-6.5000 F120.00
G1 X-2.9976 Y-50.0490 Z-5.9956 F120.00
G1 X-2.9976 Y-49.5496 Z-6.5000 F120.00
G1 X-3.0000 Y-2.0000 Z-6.5000 F120.00
G2 X-0.0980 Y0.9952 Z-6.5000 I3.0026 J-0.0057 F120.00
G1 X49.4516 Y0.9976 Z-6.5000 F120.00
G1 X49.9510 Y0.9976 Z-5.9956 F120.00
G1 X50.4504 Y0.9976 Z-6.5000 F120.00
G1 X100.0000 Y1.0000 Z-6.5000 F120.00
G2 X102.1185 Y0.1195 Z-6.5000 I-0.0057 J-3.0026 F120.00
G1 X102.1185 Y0.1195 Z-7.0000 F120.00
G2 X102.9952 Y-1.9020 Z-7.0000 I-2.1243 J-2.1221 F120.00
G1 X102.9975 Y-48.9565 Z-7.0000 F120.00
G1 X102.9976 Y-49.9510 Z-5.9956 F120.00
G1 X102.9976 Y-50.9454 Z-7.0000 F120.00
G1 X103.0000 Y-98.0000 Z-7.0000 F120.00
G2 X100.0980 Y-100.9952 Z-7.0000 I-3.0026 J0.0057 F120.00
G1 X51.0435 Y-100.9975 Z-7.0000 F120.00
G1 X50.0490 Y-100.9976 Z-5.9956 F120.00
G1 X49.0546 Y-100.9976 Z-7.0000 F120.00
G1 X0.0000 Y-101.0000 Z-7.0000 F120.00
G2 X-2.9952 Y-98.0980 Z-7.0000 I0.0057 J3.0026 F120.00
G1 X-2.9975 Y-51.0435 Z-7.0000 F120.00
G1 X-2.9976 Y-50.0490 Z-5.9956 F120.00
G1 X-2.9976 Y-49.0546 Z-7.0000 F120.00
G1 X-3.0000 Y-2.0000 Z-7.0000 F120.00
G2 X-0.0980 Y0.9952 Z-7.0000 I3.0026 J-0.0057 F120.00
G1 X48.9565 Y0.9975 Z-7.0000 F120.00
G1 X49.9510 Y0.9976 Z-5.9956 F120.00
G1 X50.9454 Y0.9976 Z-7.0000 F120.00
G1 X100.0000 Y1.0000 Z-7.0000 F120.00
G2 X102.1185 Y0.1195 Z-7.0000 I-0.0057 J-3.0026 F120.00
G1 X102.1185 Y0.1195 Z-7.5000 F120.00
G2 X102.9952 Y-1.9020 Z-7.5000 I-2.1243 J-2.1221 F120.00
G1 X102.9975 Y-48.4615 Z-7.5000 F120.00
G1 X102.9976 Y-49.9510 Z-5.9956 F120.00
G1 X102.9977 Y-51.4405 Z-7.5000 F120.00
G1 X103.0000 Y-98.0000 Z-7.5000 F120.00
G2 X100.0980 Y-100.9952 Z-7.5000 I-3.0026 J0.0057 F120.00
G1 X51.5385 Y-100.9975 Z-7.5000 F120.00
G1 X50.0490 Y-100.9976 Z-5.9956 F120.00
G1 X48.5595 Y-100.9977 Z-7.5000 F120.00
G1 X0.0000 Y-101.0000 Z-7.5000 F120.00
G2 X-2.9952 Y-98.0980 Z-7.5000 I0.0057 J3.0026 F120.00
G1 X-2.9975 Y-51.5385 Z-7.5000 F120.00
G1 X-2.9976 Y-50.0490 Z-5.9956 F120.00
G1 X-2.9977 Y-48.5595 Z-7.5000 F120.00
G1 X-3.0000 Y-2.0000 Z-7.5000 F120.00
G2 X-0.0980 Y0.9952 Z-7.5000 I3.0026 J-0.0057 F120.00
G1 X48.4615 Y0.9975 Z-7.5000 F120.00
G1 X49.9510 Y0.9976 Z-5.9956 F120.00
G1 X51.4405 Y0.9977 Z-7.5000 F120.00
G1 X100.0000 Y1.0000 Z-7.5000 F120.00
G2 X102.1185 Y0.1195 Z-7.5000 I-0.0057 J-3.0026 F120.00
G1 X102.1185 Y0.1195 Z-8.0000 F120.00
G2 X102.9952 Y-1.9020 Z-8.0000 I-2.1243 J-2.1221 F120.00
G1 X102.9975 Y-47.9664 Z-8.0000 F120.00
G1 X102.9976 Y-49.9510 Z-5.9956 F120.00
G1 X102.9977 Y-51.9355 Z-8.0000 F120.00
G1 X103.0000 Y-98.0000 Z-8.0000 F120.00
G2 X100.0980 Y-100.9952 Z-8.0000 I-3.0026 J0.0057 F120.00
G1 X52.0336 Y-100.9975 Z-8.0000 F120.00
G1 X50.0490 Y-100.9976 Z-5.9956 F120.00
G1 X48.0645 Y-100.9977 Z-8.0000 F120.00
G1 X0.0000 Y-101.0000 Z-8.0000 F120.00
G2 X-2.9952 Y-98.0980 Z-8.0000 I0.0057 J3.0026 F120.00
G1 X-2.9975 Y-52.0336 Z-8.0000 F120.00
G1 X-2.9976 Y-50.0490 Z-5.9956 F120.00
G1 X-2.9977 Y-48.0645 Z-8.0000 F120.00
G1 X-3.0000 Y-2.0000 Z-8.0000 F120.00
G2 X-0.0980 Y0.9952 Z-8.0000 I3.0026 J-0.0057 F120.00
G1 X47.9664 Y0.9975 Z-8.0000 F120.00
G1 X49.9510 Y0.9976 Z-5.9956 F120.00
G1 X51.9355 Y0.9977 Z-8.0000 F120.00
G1 X100.0000 Y1.0000 Z-8.0000 F120.00
G2 X102.1185 Y0.1195 Z-8.0000 I-0.0057 J-3.0026 F120.00
G1 X102.1185 Y0.1195 Z-8.5000 F120.00
G2 X102.9952 Y-1.9020 Z-8.5000 I-2.1243 J-2.1221 F120.00
G1 X102.9975 Y-47.4714 Z-8.5000 F120.00
G1 X102.9976 Y-49.9510 Z-5.9956 F120.00
G1 X102.9977 Y-52.4306 Z-8.5000 F120.00
G1 X103.0000 Y-98.0000 Z-8.5000 F120.00
G2 X100.0980 Y-100.9952 Z-8.5000 I-3.0026 J0.0057 F120.00
G1 X52.5286 Y-100.9975 Z-8.5000 F120.00
G1 X50.0490 Y-100.9976 Z-5.9956 F120.00
G1 X47.5694 Y-100.9977 Z-8.5000 F120.00
G1 X0.0000 Y-101.0000 Z-8.5000 F120.00
G2 X-2.9952 Y-98.0980 Z-8.5000 I0.0057 J3.0026 F120.00
G1 X-2.9975 Y-52.5286 Z-8.5000 F120.00
G1 X-2.9976 Y-50.0490 Z-5.9956 F120.00
G1 X-2.9977 Y-47.5694 Z-8.5000 F120.00
G1 X-3.0000 Y-2.0000 Z-8.5000 F120.00
G2 X-0.0980 Y0.9952 Z-8.5000 I3.0026 J-0.0057 F120.00
G1 X47.4714 Y0.9975 Z-8.5000 F120.00
G1 X49.9510 Y0.9976 Z-5.9956 F120.00
G1 X52.4306 Y0.9977 Z-8.5000 F120.00
G1 X100.0000 Y1.0000 Z-8.5000 F120.00
G2 X102.1185 Y0.1195 Z-8.5000 I-0.0057 J-3.0026 F120.00
G1 X102.1185 Y0.1195 Z-9.0000 F120.00
G2 X102.9952 Y-1.9020 Z-9.0000 I-2.1243 J-2.1221 F120.00
G1 X102.9974 Y-46.9763 Z-9.0000 F120.00
G1 X102.9976 Y-49.9510 Z-5.9956 F120.00
G1 X102.9977 Y-52.9256 Z-9.0000 F120.00
G1 X103.0000 Y-98.0000 Z-9.0000 F120.00
G2 X100.0980 Y-100.9952 Z-9.0000 I-3.0026 J0.0057 F120.00
G1 X53.0237 Y-100.9974 Z-9.0000 F120.00
G1 X50.0490 Y-100.9976 Z-5.9956 F120.00
G1 X47.0744 Y-100.9977 Z-9.0000 F120.00
G1 X0.0000 Y-101.0000 Z-9.0000 F120.00
G2 X-2.9952 Y-98.0980 Z-9.0000 I0.0057 J3.0026 F120.00
G1 X-2.9974 Y-53.0237 Z-9.0000 F120.00
G1 X-2.9976 Y-50.0490 Z-5.9956 F120.00
G1 X-2.9977 Y-47.0744 Z-9.0000 F120.00
G1 X-3.0000 Y-2.0000 Z-9.0000 F120.00
G2 X-0.0980 Y0.9952 Z-9.0000 I3.0026 J-0.0057 F120.00
G1 X46.9763 Y0.9974 Z-9.0000 F120.00
G1 X49.9510 Y0.9976 Z-5.9956 F120.00
G1 X52.9256 Y0.9977 Z-9.0000 F120.00
G1 X100.0000 Y1.0000 Z-9.0000 F120.00
G2 X102.1185 Y0.1195 Z-9.0000 I-0.0057 J-3.0026 F120.00
G1 X102.1185 Y0.1195 Z-9.5000 F120.00
G2 X102.9952 Y-1.9020 Z-9.5000 I-2.1243 J-2.1221 F120.00
G1 X102.9974 Y-46.4813 Z-9.5000 F120.00
G1 X102.9976 Y-49.9510 Z-5.9956 F120.00
G1 X102.9978 Y-53.4207 Z-9.5000 F120.00
G1 X103.0000 Y-98.0000 Z-9.5000 F120.00
G2 X100.0980 Y-100.9952 Z-9.5000 I-3.0026 J0.0057 F120.00
G1 X53.5187 Y-100.9974 Z-9.5000 F120.00
G1 X50.0490 Y-100.9976 Z-5.9956 F120.00
G1 X46.5793 Y-100.9978 Z-9.5000 F120.00
G1 X0.0000 Y-101.0000 Z-9.5000 F120.00
G2 X-2.9952 Y-98.0980 Z-9.5000 I0.0057 J3.0026 F120.00
G1 X-2.9974 Y-53.5187 Z-9.5000 F120.00
G1 X-2.9976 Y-50.0490 Z-5.9956 F120.00
G1 X-2.9978 Y-46.5793 Z-9.5000 F120.00
G1 X-3.0000 Y-2.0000 Z-9.5000 F120.00
G2 X-0.0980 Y0.9952 Z-9.5000 I3.0026 J-0.0057 F120.00
G1 X46.4813 Y0.9974 Z-9.5000 F120.00
G1 X49.9510 Y0.9976 Z-5.9956 F120.00
G1 X53.4207 Y0.9978 Z-9.5000 F120.00
G1 X100.0000 Y1.0000 Z-9.5000 F120.00
G2 X102.1185 Y0.1195 Z-9.5000 I-0.0057 J-3.0026 F120.00
G1 X102.1185 Y0.1195 Z-10.0000 F120.00
G2 X102.9952 Y-1.9020 Z-10.0000 I-2.1243 J-2.1221 F120.00
G1 X102.9974 Y-45.9862 Z-10.0000 F120.00
G1 X102.9976 Y-49.9510 Z-5.9956 F120.00
G1 X102.9978 Y-53.9157 Z-10.0000 F120.00
G1 X103.0000 Y-98.0000 Z-10.0000 F120.00
G2 X100.0980 Y-100.9952 Z-10.0000 I-3.0026 J0.0057 F120.00
G1 X54.0138 Y-100.9974 Z-10.0000 F120.00
G1 X50.0490 Y-100.9976 Z-5.9956 F120.00
G1 X46.0843 Y-100.9978 Z-10.0000 F120.00
G1 X0.0000 Y-101.0000 Z-10.0000 F120.00
G2 X-2.9952 Y-98.0980 Z-10.0000 I0.0057 J3.0026 F120.00
G1 X-2.9974 Y-54.0138 Z-10.0000 F120.00
G1 X-2.9976 Y-50.0490 Z-5.9956 F120.00
G1 X-2.9978 Y-46.0843 Z-10.0000 F120.00
G1 X-3.0000 Y-2.0000 Z-10.0000 F120.00
G2 X-0.0980 Y0.9952 Z-10.0000 I3.0026 J-0.0057 F120.00
G1 X45.9862 Y0.9974 Z-10.0000 F120.00
G1 X49.9510 Y0.9976 Z-5.9956 F120.00
G1 X53.9157 Y0.9978 Z-10.0000 F120.00
G1 X100.0000 Y1.0000 Z-10.0000 F120.00
G2 X102.1185 Y0.1195 Z-10.0000 I-0.0057 J-3.0026 F120.00
G1 X102.1185 Y0.1195 Z-10.5000 F120.00
G2 X102.9952 Y-1.9020 Z-10.5000 I-2.1243 J-2.1221 F120.00
G1 X102.9974 Y-45.4912 Z-10.5000 F120.00
G1 X102.9976 Y-49.9510 Z-5.9956 F120.00
G1 X102.9978 Y-54.4108 Z-10.5000 F120.00
G1 X103.0000 Y-98.0000 Z-10.5000 F120.00
G2 X100.0980 Y-100.9952 Z-10.5000 I-3.0026 J0.0057 F120.00
G1 X54.5088 Y-100.9974 Z-10.5000 F120.00
G1 X50.0490 Y-100.9976 Z-5.9956 F120.00
G1 X45.5892 Y-100.9978 Z-10.5000 F120.00
G1 X0.0000 Y-101.0000 Z-10.5000 F120.00
G2 X-2.9952 Y-98.0980 Z-10.5000 I0.0057 J3.0026 F120.00
G1 X-2.9974 Y-54.5088 Z-10.5000 F120.00
G1 X-2.9976 Y-50.0490 Z-5.9956 F120.00
G1 X-2.9978 Y-45.5892 Z-10.5000 F120.00
G1 X-3.0000 Y-2.0000 Z-10.5000 F120.00
G2 X-0.0980 Y0.9952 Z-10.5000 I3.0026 J-0.0057 F120.00
G1 X45.4912 Y0.9974 Z-10.5000 F120.00
G1 X49.9510 Y0.9976 Z-5.9956 F120.00
G1 X54.4108 Y0.9978 Z-10.5000 F120.00
G1 X100.0000 Y1.0000 Z-10.5000 F120.00
G2 X102.1185 Y0.1195 Z-10.5000 I-0.0057 J-3.0026 F120.00
G1 X102.1185 Y0.1195 Z-11.0000 F120.00
G2 X102.9952 Y-1.9020 Z-11.0000 I-2.1243 J-2.1221 F120.00
G1 X102.9973 Y-44.9961 Z-11.0000 F120.00
G1 X102.9976 Y-49.9510 Z-5.9956 F120.00
G1 X102.9978 Y-54.9058 Z-11.0000 F120.00
G1 X103.0000 Y-98.0000 Z-11.0000 F120.00
G2 X100.0980 Y-100.9952 Z-11.0000 I-3.0026 J0.0057 F120.00
G1 X55.0039 Y-100.9974 Z-11.0000 F120.00
G1 X50.0490 Y-100.9976 Z-5.9956 F120.00
G1 X45.0942 Y-100.9978 Z-11.0000 F120.00
G1 X0.0000 Y-101.0000 Z-11.0000 F120.00
G2 X-2.9952 Y-98.0980 Z-11.0000 I0.0057 J3.0026 F120.00
G1 X-2.9973 Y-55.0039 Z-11.0000 F120.00
G1 X-2.9976 Y-50.0490 Z-5.9956 F120.00
G1 X-2.9978 Y-45.0942 Z-11.0000 F120.00
G1 X-3.0000 Y-2.0000 Z-11.0000 F120.00
G2 X-0.0980 Y0.9952 Z-11.0000 I3.0026 J-0.0057 F120.00
G1 X44.9961 Y0.9974 Z-11.0000 F120.00
G1 X49.9510 Y0.9976 Z-5.9956 F120.00
G1 X54.9058 Y0.9978 Z-11.0000 F120.00
G1 X100.0000 Y1.0000 Z-11.0000 F120.00
G2 X102.1185 Y0.1195 Z-11.0000 I-0.0057 J-3.0026 F120.00
G1 X102.1185 Y0.1195 Z-11.5000 F120.00
G2 X102.9952 Y-1.9020 Z-11.5000 I-2.1243 J-2.1221 F120.00
G1 X102.9973 Y-44.5011 Z-11.5000 F120.00
G1 X102.9976 Y-49.9510 Z-5.9956 F120.00
G1 X102.9979 Y-55.4009 Z-11.5000 F120.00
G1 X103.0000 Y-98.0000 Z-11.5000 F120.00
G2 X100.0980 Y-100.9952 Z-11.5000 I-3.0026 J0.0057 F120.00
G1 X55.4989 Y-100.9973 Z-11.5000 F120.00
G1 X50.0490 Y-100.9976 Z-5.9956 F120.00
G1 X44.5991 Y-100.9979 Z-11.5000 F120.00
G1 X0.0000 Y-101.0000 Z-11.5000 F120.00
G2 X-2.9952 Y-98.0980 Z-11.5000 I0.0057 J3.0026 F120.00
G1 X-2.9973 Y-55.4989 Z-11.5000 F120.00
G1 X-2.9976 Y-50.0490 Z-5.9956 F120.00
G1 X-2.9979 Y-44.5991 Z-11.5000 F120.00
G1 X-3.0000 Y-2.0000 Z-11.5000 F120.00
G2 X-0.0980 Y0.9952 Z-11.5000 I3.0026 J-0.0057 F120.00
G1 X44.5011 Y0.9973 Z-11.5000 F120.00
G1 X49.9510 Y0.9976 Z-5.9956 F120.00
G1 X55.4009 Y0.9979 Z-11.5000 F120.00
G1 X100.0000 Y1.0000 Z-11.5000 F120.00
G2 X102.1185 Y0.1195 Z-11.5000 I-0.0057 J-3.0026 F120.00
G1 X102.1185 Y0.1195 Z-12.0000 F120.00
G2 X102.9952 Y-1.9020 Z-12.0000 I-2.1243 J-2.1221 F120.00
G1 X102.9973 Y-44.0060 Z-12.0000 F120.00
G1 X102.9976 Y-49.9510 Z-5.9956 F120.00
G1 X102.9979 Y-55.8959 Z-12.0000 F120.00
G1 X103.0000 Y-98.0000 Z-12.0000 F120.00
G2 X100.0980 Y-100.9952 Z-12.0000 I-3.0026 J0.0057 F120.00
G1 X55.9940 Y-100.9973 Z-12.0000 F120.00
G1 X50.0490 Y-100.9976 Z-5.9956 F120.00
G1 X44.1041 Y-100.9979 Z-12.0000 F120.00
G1 X0.0000 Y-101.0000 Z-12.0000 F120.00
G2 X-2.9952 Y-98.0980 Z-12.0000 I0.0057 J3.0026 F120.00
G1 X-2.9973 Y-55.9940 Z-12.0000 F120.00
G1 X-2.9976 Y-50.0490 Z-5.9956 F120.00
G1 X-2.9979 Y-44.1041 Z-12.0000 F120.00
G1 X-3.0000 Y-2.0000 Z-12.0000 F120.00
G2 X-0.0980 Y0.9952 Z-12.0000 I3.0026 J-0.0057 F120.00
G1 X44.0060 Y0.9973 Z-12.0000 F120.00
G1 X49.9510 Y0.9976 Z-5.9956 F120.00
G1 X55.8959 Y0.9979 Z-12.0000 F120.00
G1 X100.0000 Y1.0000 Z-12.0000 F120.00
G2 X102.1185 Y0.1195 Z-12.0000 I-0.0057 J-3.0026 F120.00
G0 X102.1185 Y0.1195 Z5.0000
(finish operation: TagDressup)
(begin operation: Pocket_Shape)
(Path: Pocket_Shape)
(Pocket_Shape)
G0 Z5.0000
G0 X77.7184 Y-22.2816
G0 Z3.0000
G1 X77.7184 Y-22.2816 Z-0.5000 F120.00
G3 X10.9536 Y-53.4645 Z-0.5000 I-27.7184 J-27.7184 F120.00
G3 X53.4645 Y-89.0464 Z-0.5000 I39.0464 J3.4645 F120.00
G3 X89.0464 Y-46.5355 Z-0.5000 I-3.4645 J39.0464 F120.00
G3 X77.7184 Y-22.2816 Z-0.5000 I-39.0464 J-3.4645 F120.00
G0 X77.7184 Y-22.2816 Z5.0000
G0 X77.3648 Y-22.6352 Z5.0000
G0 X77.3648 Y-22.6352 Z2.5000
G1 X77.3648 Y-22.6352 Z-0.5000 F120.00
G3 X11.4518 Y-53.4203 Z-0.5000 I-27.3648 J-27.3648 F120.00
G3 X53.4203 Y-88.5482 Z-0.5000 I38.5482 J3.4203 F120.00
G3 X88.5482 Y-46.5797 Z-0.5000 I-3.4203 J38.5482 F120.00
G3 X77.3648 Y-22.6352 Z-0.5000 I-38.5482 J-3.4203 F120.00
G0 X77.3648 Y-22.6352 Z5.0000
G0 X77.0819 Y-22.9181 Z5.0000
G0 X77.0819 Y-22.9181 Z2.5000
G1 X77.0819 Y-22.9181 Z-0.5000 F120.00
G3 X11.8670 Y-46.4317 Z-0.5000 I-27.0819 J-27.0819 F120.00
G3 X88.1330 Y-53.5683 Z-0.5000 I38.1330 J-3.5683 F120.00
G3 X77.0819 Y-22.9181 Z-0.5000 I-38.1330 J3.5683 F120.00
G0 X77.0819 Y-22.9181 Z5.0000
G0 X76.7285 Y-23.2715 Z5.0000
G0 X76.7285 Y-23.2715 Z2.5000
G1 X76.7285 Y-23.2715 Z-0.5000 F120.00
G3 X12.3636 Y-46.4893 Z-0.5000 I-26.7285 J-26.7285 F120.00
G3 X87.6364 Y-53.5107 Z-0.5000 I37.6364 J-3.5107 F120.00
G3 X76.7285 Y-23.2715 Z-0.5000 I-37.6364 J3.5107 F120.00
G1 X76.7285 Y-23.2715 Z-1.0000 F120.00
G3 X12.3636 Y-46.4893 Z-1.0000 I-26.7285 J-26.7285 F120.00
G3 X87.6364 Y-53.5107 Z-1.0000 I37.6364 J-3.5107 F120.00
G3 X76.7285 Y-23.2715 Z-1.0000 I-37.6364 J3.5107 F120.00
G0 X76.7285 Y-23.2715 Z5.0000
G0 X77.0819 Y-22.9181 Z5.0000
G0 X77.0819 Y-22.9181 Z2.0000
G1 X77.0819 Y-22.9181 Z-1.0000 F120.00
G3 X11.8670 Y-46.4317 Z-1.0000 I-27.0819 J-27.0819 F120.00
G3 X88.1330 Y-53.5683 Z-1.0000 I38.1330 J-3.5683 F120.00
G3 X77.0819 Y-22.9181 Z-1.0000 I-38.1330 J3.5683 F120.00
G0 X77.0819 Y-22.9181 Z5.0000
G0 X77.3648 Y-22.6352 Z5.0000
G0 X77.3648 Y-22.6352 Z2.0000
G1 X77.3648 Y-22.6352 Z-1.0000 F120.00
G3 X11.4518 Y-53.4203 Z-1.0000 I-27.3648 J-27.3648 F120.00
G3 X53.4203 Y-88.5482 Z-1.0000 I38.5482 J3.4203 F120.00
G3 X88.5482 Y-46.5797 Z-1.0000 I-3.4203 J38.5482 F120.00
G3 X77.3648 Y-22.6352 Z-1.0000 I-38.5482 J-3.4203 F120.00
G0 X77.3648 Y-22.6352 Z5.0000
G0 X77.7184 Y-22.2816 Z5.0000
G0 X77.7184 Y-22.2816 Z2.0000
G1 X77.7184 Y-22.2816 Z-1.0000 F120.00
G3 X10.9536 Y-53.4645 Z-1.0000 I-27.7184 J-27.7184 F120.00
G3 X53.4645 Y-89.0464 Z-1.0000 I39.0464 J3.4645 F120.00
G3 X89.0464 Y-46.5355 Z-1.0000 I-3.4645 J39.0464 F120.00
G3 X77.7184 Y-22.2816 Z-1.0000 I-39.0464 J-3.4645 F120.00
G1 X77.7184 Y-22.2816 Z-1.5000 F120.00
G3 X10.9536 Y-53.4645 Z-1.5000 I-27.7184 J-27.7184 F120.00
G3 X53.4645 Y-89.0464 Z-1.5000 I39.0464 J3.4645 F120.00
G3 X89.0464 Y-46.5355 Z-1.5000 I-3.4645 J39.0464 F120.00
G3 X77.7184 Y-22.2816 Z-1.5000 I-39.0464 J-3.4645 F120.00
G0 X77.7184 Y-22.2816 Z5.0000
G0 X77.3648 Y-22.6352 Z5.0000
G0 X77.3648 Y-22.6352 Z1.5000
G1 X77.3648 Y-22.6352 Z-1.5000 F120.00
G3 X11.4518 Y-53.4203 Z-1.5000 I-27.3648 J-27.3648 F120.00
G3 X53.4203 Y-88.5482 Z-1.5000 I38.5482 J3.4203 F120.00
G3 X88.5482 Y-46.5797 Z-1.5000 I-3.4203 J38.5482 F120.00
G3 X77.3648 Y-22.6352 Z-1.5000 I-38.5482 J-3.4203 F120.00
G0 X77.3648 Y-22.6352 Z5.0000
G0 X77.0819 Y-22.9181 Z5.0000
G0 X77.0819 Y-22.9181 Z1.5000
G1 X77.0819 Y-22.9181 Z-1.5000 F120.00
G3 X11.8670 Y-46.4317 Z-1.5000 I-27.0819 J-27.0819 F120.00
G3 X88.1330 Y-53.5683 Z-1.5000 I38.1330 J-3.5683 F120.00
G3 X77.0819 Y-22.9181 Z-1.5000 I-38.1330 J3.5683 F120.00
G0 X77.0819 Y-22.9181 Z5.0000
G0 X76.7285 Y-23.2715 Z5.0000
G0 X76.7285 Y-23.2715 Z1.5000
G1 X76.7285 Y-23.2715 Z-1.5000 F120.00
G3 X12.3636 Y-46.4893 Z-1.5000 I-26.7285 J-26.7285 F120.00
G3 X87.6364 Y-53.5107 Z-1.5000 I37.6364 J-3.5107 F120.00
G3 X76.7285 Y-23.2715 Z-1.5000 I-37.6364 J3.5107 F120.00
G1 X76.7285 Y-23.2715 Z-2.0000 F120.00
G3 X12.3636 Y-46.4893 Z-2.0000 I-26.7285 J-26.7285 F120.00
G3 X87.6364 Y-53.5107 Z-2.0000 I37.6364 J-3.5107 F120.00
G3 X76.7285 Y-23.2715 Z-2.0000 I-37.6364 J3.5107 F120.00
G0 X76.7285 Y-23.2715 Z5.0000
G0 X77.0819 Y-22.9181 Z5.0000
G0 X77.0819 Y-22.9181 Z1.0000
G1 X77.0819 Y-22.9181 Z-2.0000 F120.00
G3 X11.8670 Y-46.4317 Z-2.0000 I-27.0819 J-27.0819 F120.00
G3 X88.1330 Y-53.5683 Z-2.0000 I38.1330 J-3.5683 F120.00
G3 X77.0819 Y-22.9181 Z-2.0000 I-38.1330 J3.5683 F120.00
G0 X77.0819 Y-22.9181 Z5.0000
G0 X77.3648 Y-22.6352 Z5.0000
G0 X77.3648 Y-22.6352 Z1.0000
G1 X77.3648 Y-22.6352 Z-2.0000 F120.00
G3 X11.4518 Y-53.4203 Z-2.0000 I-27.3648 J-27.3648 F120.00
G3 X53.4203 Y-88.5482 Z-2.0000 I38.5482 J3.4203 F120.00
G3 X88.5482 Y-46.5797 Z-2.0000 I-3.4203 J38.5482 F120.00
G3 X77.3648 Y-22.6352 Z-2.0000 I-38.5482 J-3.4203 F120.00
G0 X77.3648 Y-22.6352 Z5.0000
G0 X77.7184 Y-22.2816 Z5.0000
G0 X77.7184 Y-22.2816 Z1.0000
G1 X77.7184 Y-22.2816 Z-2.0000 F120.00
G3 X10.9536 Y-53.4645 Z-2.0000 I-27.7184 J-27.7184 F120.00
G3 X53.4645 Y-89.0464 Z-2.0000 I39.0464 J3.4645 F120.00
G3 X89.0464 Y-46.5355 Z-2.0000 I-3.4645 J39.0464 F120.00
G3 X77.7184 Y-22.2816 Z-2.0000 I-39.0464 J-3.4645 F120.00
G1 X77.7184 Y-22.2816 Z-2.5000 F120.00
G3 X10.9536 Y-53.4645 Z-2.5000 I-27.7184 J-27.7184 F120.00
G3 X53.4645 Y-89.0464 Z-2.5000 I39.0464 J3.4645 F120.00
G3 X89.0464 Y-46.5355 Z-2.5000 I-3.4645 J39.0464 F120.00
G3 X77.7184 Y-22.2816 Z-2.5000 I-39.0464 J-3.4645 F120.00
G0 X77.7184 Y-22.2816 Z5.0000
G0 X77.3648 Y-22.6352 Z5.0000
G0 X77.3648 Y-22.6352 Z0.5000
G1 X77.3648 Y-22.6352 Z-2.5000 F120.00
G3 X11.4518 Y-53.4203 Z-2.5000 I-27.3648 J-27.3648 F120.00
G3 X53.4203 Y-88.5482 Z-2.5000 I38.5482 J3.4203 F120.00
G3 X88.5482 Y-46.5797 Z-2.5000 I-3.4203 J38.5482 F120.00
G3 X77.3648 Y-22.6352 Z-2.5000 I-38.5482 J-3.4203 F120.00
G0 X77.3648 Y-22.6352 Z5.0000
G0 X77.0819 Y-22.9181 Z5.0000
G0 X77.0819 Y-22.9181 Z0.5000
G1 X77.0819 Y-22.9181 Z-2.5000 F120.00
G3 X11.8670 Y-46.4317 Z-2.5000 I-27.0819 J-27.0819 F120.00
G3 X88.1330 Y-53.5683 Z-2.5000 I38.1330 J-3.5683 F120.00
G3 X77.0819 Y-22.9181 Z-2.5000 I-38.1330 J3.5683 F120.00
G0 X77.0819 Y-22.9181 Z5.0000
G0 X76.7285 Y-23.2715 Z5.0000
G0 X76.7285 Y-23.2715 Z0.5000
G1 X76.7285 Y-23.2715 Z-2.5000 F120.00
G3 X12.3636 Y-46.4893 Z-2.5000 I-26.7285 J-26.7285 F120.00
G3 X87.6364 Y-53.5107 Z-2.5000 I37.6364 J-3.5107 F120.00
G3 X76.7285 Y-23.2715 Z-2.5000 I-37.6364 J3.5107 F120.00
G1 X76.7285 Y-23.2715 Z-3.0000 F120.00
G3 X12.3636 Y-46.4893 Z-3.0000 I-26.7285 J-26.7285 F120.00
G3 X87.6364 Y-53.5107 Z-3.0000 I37.6364 J-3.5107 F120.00
G3 X76.7285 Y-23.2715 Z-3.0000 I-37.6364 J3.5107 F120.00
G0 X76.7285 Y-23.2715 Z5.0000
G0 X77.0819 Y-22.9181 Z5.0000
G0 X77.0819 Y-22.9181 Z0.0000
G1 X77.0819 Y-22.9181 Z-3.0000 F120.00
G3 X11.8670 Y-46.4317 Z-3.0000 I-27.0819 J-27.0819 F120.00
G3 X88.1330 Y-53.5683 Z-3.0000 I38.1330 J-3.5683 F120.00
G3 X77.0819 Y-22.9181 Z-3.0000 I-38.1330 J3.5683 F120.00
G0 X77.0819 Y-22.9181 Z5.0000
G0 X77.3648 Y-22.6352 Z5.0000
G0 X77.3648 Y-22.6352 Z0.0000
G1 X77.3648 Y-22.6352 Z-3.0000 F120.00
G3 X11.4518 Y-53.4203 Z-3.0000 I-27.3648 J-27.3648 F120.00
G3 X53.4203 Y-88.5482 Z-3.0000 I38.5482 J3.4203 F120.00
G3 X88.5482 Y-46.5797 Z-3.0000 I-3.4203 J38.5482 F120.00
G3 X77.3648 Y-22.6352 Z-3.0000 I-38.5482 J-3.4203 F120.00
G0 X77.3648 Y-22.6352 Z5.0000
G0 X77.7184 Y-22.2816 Z5.0000
G0 X77.7184 Y-22.2816 Z0.0000
G1 X77.7184 Y-22.2816 Z-3.0000 F120.00
G3 X10.9536 Y-53.4645 Z-3.0000 I-27.7184 J-27.7184 F120.00
G3 X53.4645 Y-89.0464 Z-3.0000 I39.0464 J3.4645 F120.00
G3 X89.0464 Y-46.5355 Z-3.0000 I-3.4645 J39.0464 F120.00
G3 X77.7184 Y-22.2816 Z-3.0000 I-39.0464 J-3.4645 F120.00
G1 X77.7184 Y-22.2816 Z-3.5000 F120.00
G3 X10.9536 Y-53.4645 Z-3.5000 I-27.7184 J-27.7184 F120.00
G3 X53.4645 Y-89.0464 Z-3.5000 I39.0464 J3.4645 F120.00
G3 X89.0464 Y-46.5355 Z-3.5000 I-3.4645 J39.0464 F120.00
G3 X77.7184 Y-22.2816 Z-3.5000 I-39.0464 J-3.4645 F120.00
G0 X77.7184 Y-22.2816 Z5.0000
G0 X77.3648 Y-22.6352 Z5.0000
G0 X77.3648 Y-22.6352 Z-0.5000
G1 X77.3648 Y-22.6352 Z-3.5000 F120.00
G3 X11.4518 Y-53.4203 Z-3.5000 I-27.3648 J-27.3648 F120.00
G3 X53.4203 Y-88.5482 Z-3.5000 I38.5482 J3.4203 F120.00
G3 X88.5482 Y-46.5797 Z-3.5000 I-3.4203 J38.5482 F120.00
G3 X77.3648 Y-22.6352 Z-3.5000 I-38.5482 J-3.4203 F120.00
G0 X77.3648 Y-22.6352 Z5.0000
G0 X77.0819 Y-22.9181 Z5.0000
G0 X77.0819 Y-22.9181 Z-0.5000
G1 X77.0819 Y-22.9181 Z-3.5000 F120.00
G3 X11.8670 Y-46.4317 Z-3.5000 I-27.0819 J-27.0819 F120.00
G3 X88.1330 Y-53.5683 Z-3.5000 I38.1330 J-3.5683 F120.00
G3 X77.0819 Y-22.9181 Z-3.5000 I-38.1330 J3.5683 F120.00
G0 X77.0819 Y-22.9181 Z5.0000
G0 X76.7285 Y-23.2715 Z5.0000
G0 X76.7285 Y-23.2715 Z-0.5000
G1 X76.7285 Y-23.2715 Z-3.5000 F120.00
G3 X12.3636 Y-46.4893 Z-3.5000 I-26.7285 J-26.7285 F120.00
G3 X87.6364 Y-53.5107 Z-3.5000 I37.6364 J-3.5107 F120.00
G3 X76.7285 Y-23.2715 Z-3.5000 I-37.6364 J3.5107 F120.00
G1 X76.7285 Y-23.2715 Z-4.0000 F120.00
G3 X12.3636 Y-46.4893 Z-4.0000 I-26.7285 J-26.7285 F120.00
G3 X87.6364 Y-53.5107 Z-4.0000 I37.6364 J-3.5107 F120.00
G3 X76.7285 Y-23.2715 Z-4.0000 I-37.6364 J3.5107 F120.00
G0 X76.7285 Y-23.2715 Z5.0000
G0 X77.0819 Y-22.9181 Z5.0000
G0 X77.0819 Y-22.9181 Z-1.0000
G1 X77.0819 Y-22.9181 Z-4.0000 F120.00
G3 X11.8670 Y-46.4317 Z-4.0000 I-27.0819 J-27.0819 F120.00
G3 X88.1330 Y-53.5683 Z-4.0000 I38.1330 J-3.5683 F120.00
G3 X77.0819 Y-22.9181 Z-4.0000 I-38.1330 J3.5683 F120.00
G0 X77.0819 Y-22.9181 Z5.0000
G0 X77.3648 Y-22.6352 Z5.0000
G0 X77.3648 Y-22.6352 Z-1.0000
G1 X77.3648 Y-22.6352 Z-4.0000 F120.00
G3 X11.4518 Y-53.4203 Z-4.0000 I-27.3648 J-27.3648 F120.00
G3 X53.4203 Y-88.5482 Z-4.0000 I38.5482 J3.4203 F120.00
G3 X88.5482 Y-46.5797 Z-4.0000 I-3.4203 J38.5482 F120.00
G3 X77.3648 Y-22.6352 Z-4.0000 I-38.5482 J-3.4203 F120.00
G0 X77.3648 Y-22.6352 Z5.0000
G0 X77.7184 Y-22.2816 Z5.0000
G0 X77.7184 Y-22.2816 Z-1.0000
G1 X77.7184 Y-22.2816 Z-4.0000 F120.00
G3 X10.9536 Y-53.4645 Z-4.0000 I-27.7184 J-27.7184 F120.00
G3 X53.4645 Y-89.0464 Z-4.0000 I39.0464 J3.4645 F120.00
G3 X89.0464 Y-46.5355 Z-4.0000 I-3.4645 J39.0464 F120.00
G3 X77.7184 Y-22.2816 Z-4.0000 I-39.0464 J-3.4645 F120.00
G1 X77.7184 Y-22.2816 Z-4.5000 F120.00
G3 X10.9536 Y-53.4645 Z-4.5000 I-27.7184 J-27.7184 F120.00
G3 X53.4645 Y-89.0464 Z-4.5000 I39.0464 J3.4645 F120.00
G3 X89.0464 Y-46.5355 Z-4.5000 I-3.4645 J39.0464 F120.00
G3 X77.7184 Y-22.2816 Z-4.5000 I-39.0464 J-3.4645 F120.00
G0 X77.7184 Y-22.2816 Z5.0000
G0 X77.3648 Y-22.6352 Z5.0000
G0 X77.3648 Y-22.6352 Z-1.5000
G1 X77.3648 Y-22.6352 Z-4.5000 F120.00
G3 X11.4518 Y-53.4203 Z-4.5000 I-27.3648 J-27.3648 F120.00
G3 X53.4203 Y-88.5482 Z-4.5000 I38.5482 J3.4203 F120.00
G3 X88.5482 Y-46.5797 Z-4.5000 I-3.4203 J38.5482 F120.00
G3 X77.3648 Y-22.6352 Z-4.5000 I-38.5482 J-3.4203 F120.00
G0 X77.3648 Y-22.6352 Z5.0000
G0 X77.0819 Y-22.9181 Z5.0000
G0 X77.0819 Y-22.9181 Z-1.5000
G1 X77.0819 Y-22.9181 Z-4.5000 F120.00
G3 X11.8670 Y-46.4317 Z-4.5000 I-27.0819 J-27.0819 F120.00
G3 X88.1330 Y-53.5683 Z-4.5000 I38.1330 J-3.5683 F120.00
G3 X77.0819 Y-22.9181 Z-4.5000 I-38.1330 J3.5683 F120.00
G0 X77.0819 Y-22.9181 Z5.0000
G0 X76.7285 Y-23.2715 Z5.0000
G0 X76.7285 Y-23.2715 Z-1.5000
G1 X76.7285 Y-23.2715 Z-4.5000 F120.00
G3 X12.3636 Y-46.4893 Z-4.5000 I-26.7285 J-26.7285 F120.00
G3 X87.6364 Y-53.5107 Z-4.5000 I37.6364 J-3.5107 F120.00
G3 X76.7285 Y-23.2715 Z-4.5000 I-37.6364 J3.5107 F120.00
G1 X76.7285 Y-23.2715 Z-5.0000 F120.00
G3 X12.3636 Y-46.4893 Z-5.0000 I-26.7285 J-26.7285 F120.00
G3 X87.6364 Y-53.5107 Z-5.0000 I37.6364 J-3.5107 F120.00
G3 X76.7285 Y-23.2715 Z-5.0000 I-37.6364 J3.5107 F120.00
G0 X76.7285 Y-23.2715 Z5.0000
G0 X77.0819 Y-22.9181 Z5.0000
G0 X77.0819 Y-22.9181 Z-2.0000
G1 X77.0819 Y-22.9181 Z-5.0000 F120.00
G3 X11.8670 Y-46.4317 Z-5.0000 I-27.0819 J-27.0819 F120.00
G3 X88.1330 Y-53.5683 Z-5.0000 I38.1330 J-3.5683 F120.00
G3 X77.0819 Y-22.9181 Z-5.0000 I-38.1330 J3.5683 F120.00
G0 X77.0819 Y-22.9181 Z5.0000
G0 X77.3648 Y-22.6352 Z5.0000
G0 X77.3648 Y-22.6352 Z-2.0000
G1 X77.3648 Y-22.6352 Z-5.0000 F120.00
G3 X11.4518 Y-53.4203 Z-5.0000 I-27.3648 J-27.3648 F120.00
G3 X53.4203 Y-88.5482 Z-5.0000 I38.5482 J3.4203 F120.00
G3 X88.5482 Y-46.5797 Z-5.0000 I-3.4203 J38.5482 F120.00
G3 X77.3648 Y-22.6352 Z-5.0000 I-38.5482 J-3.4203 F120.00
G0 X77.3648 Y-22.6352 Z5.0000
G0 X77.7184 Y-22.2816 Z5.0000
G0 X77.7184 Y-22.2816 Z-2.0000
G1 X77.7184 Y-22.2816 Z-5.0000 F120.00
G3 X10.9536 Y-53.4645 Z-5.0000 I-27.7184 J-27.7184 F120.00
G3 X53.4645 Y-89.0464 Z-5.0000 I39.0464 J3.4645 F120.00
G3 X89.0464 Y-46.5355 Z-5.0000 I-3.4645 J39.0464 F120.00
G3 X77.7184 Y-22.2816 Z-5.0000 I-39.0464 J-3.4645 F120.00
G0 Z5.0000
(finish operation: Pocket_Shape)
(begin operation: Pocket_Shape001)
(Path: Pocket_Shape001)
(Pocket_Shape001)
G0 Z5.0000
G0 X52.8270 Y-47.1730
G0 Z3.0000
G1 X52.8270 Y-47.1730 Z-0.5000 F120.00
G2 X50.2510 Y-53.9901 Z-0.5000 I-2.8270 J-2.8270 F120.00
G2 X49.7490 Y-46.0099 Z-0.5000 I-0.2510 J3.9901 F120.00
G2 X52.8270 Y-47.1730 Z-0.5000 I0.2510 J-3.9901 F120.00
G0 X52.8270 Y-47.1730 Z5.0000
G0 X51.0229 Y-46.1431 Z5.0000
G0 X51.0229 Y-46.1431 Z2.5000
G1 X51.0229 Y-46.1431 Z-0.5000 F120.00
G1 X46.1384 Y-51.0276 Z-0.5000 F120.00
G2 X51.0229 Y-46.1431 Z-0.5000 I3.8524 J1.0321 F120.00
G2 X52.8200 Y-47.1745 Z-0.5000 I-0.9107 J-3.6681 F120.00
G1 X47.1743 Y-52.8201 Z-0.5000 F120.00
G3 X48.9682 Y-53.8546 Z-0.5000 I2.7286 J2.6589 F120.00
G1 X53.8589 Y-48.9640 Z-0.5000 F120.00
G2 X52.9144 Y-52.7368 Z-0.5000 I-3.8468 J-1.0417 F120.00
G1 X52.9144 Y-52.7368 Z-1.0000 F120.00
G3 X53.8589 Y-48.9640 Z-1.0000 I-2.9023 J2.7311 F120.00
G1 X48.9682 Y-53.8546 Z-1.0000 F120.00
G2 X47.1743 Y-52.8201 Z-1.0000 I0.9346 J3.6934 F120.00
G1 X52.8200 Y-47.1745 Z-1.0000 F120.00
G3 X51.0229 Y-46.1431 Z-1.0000 I-2.7078 J-2.6368 F120.00
G3 X46.1384 Y-51.0276 Z-1.0000 I-1.0321 J-3.8524 F120.00
G1 X51.0229 Y-46.1431 Z-1.0000 F120.00
G0 X51.0229 Y-46.1431 Z5.0000
G0 X51.0249 Y-46.1356 Z5.0000
G0 X51.0249 Y-46.1356 Z2.0000
G1 X51.0249 Y-46.1356 Z-1.0000 F120.00
G2 X50.2510 Y-53.9901 Z-1.0000 I-1.0249 J-3.8644 F120.00
G2 X49.7490 Y-46.0099 Z-1.0000 I-0.2510 J3.9901 F120.00
G2 X51.0249 Y-46.1356 Z-1.0000 I0.2510 J-3.9901 F120.00
G1 X51.0249 Y-46.1356 Z-1.5000 F120.00
G2 X50.2510 Y-53.9901 Z-1.5000 I-1.0249 J-3.8644 F120.00
G2 X49.7490 Y-46.0099 Z-1.5000 I-0.2510 J3.9901 F120.00
G2 X51.0249 Y-46.1356 Z-1.5000 I0.2510 J-3.9901 F120.00
G0 X51.0249 Y-46.1356 Z5.0000
G0 X51.0229 Y-46.1431 Z5.0000
G0 X51.0229 Y-46.1431 Z1.5000
G1 X51.0229 Y-46.1431 Z-1.5000 F120.00
G1 X46.1384 Y-51.0276 Z-1.5000 F120.00
G2 X51.0229 Y-46.1431 Z-1.5000 I3.8524 J1.0321 F120.00
G2 X52.8200 Y-47.1745 Z-1.5000 I-0.9107 J-3.6681 F120.00
G1 X47.1743 Y-52.8201 Z-1.5000 F120.00
G3 X48.9682 Y-53.8546 Z-1.5000 I2.7286 J2.6589 F120.00
G1 X53.8589 Y-48.9640 Z-1.5000 F120.00
G2 X52.9144 Y-52.7368 Z-1.5000 I-3.8468 J-1.0417 F120.00
G1 X52.9144 Y-52.7368 Z-2.0000 F120.00
G3 X53.8589 Y-48.9640 Z-2.0000 I-2.9023 J2.7311 F120.00
G1 X48.9682 Y-53.8546 Z-2.0000 F120.00
G2 X47.1743 Y-52.8201 Z-2.0000 I0.9346 J3.6934 F120.00
G1 X52.8200 Y-47.1745 Z-2.0000 F120.00
G3 X51.0229 Y-46.1431 Z-2.0000 I-2.7078 J-2.6368 F120.00
G3 X46.1384 Y-51.0276 Z-2.0000 I-1.0321 J-3.8524 F120.00
G1 X51.0229 Y-46.1431 Z-2.0000 F120.00
G0 X51.0229 Y-46.1431 Z5.0000
G0 X51.0249 Y-46.1356 Z5.0000
G0 X51.0249 Y-46.1356 Z1.0000
G1 X51.0249 Y-46.1356 Z-2.0000 F120.00
G2 X50.2510 Y-53.9901 Z-2.0000 I-1.0249 J-3.8644 F120.00
G2 X49.7490 Y-46.0099 Z-2.0000 I-0.2510 J3.9901 F120.00
G2 X51.0249 Y-46.1356 Z-2.0000 I0.2510 J-3.9901 F120.00
G1 X51.0249 Y-46.1356 Z-2.5000 F120.00
G2 X50.2510 Y-53.9901 Z-2.5000 I-1.0249 J-3.8644 F120.00
G2 X49.7490 Y-46.0099 Z-2.5000 I-0.2510 J3.9901 F120.00
G2 X51.0249 Y-46.1356 Z-2.5000 I0.2510 J-3.9901 F120.00
G0 X51.0249 Y-46.1356 Z5.0000
G0 X51.0229 Y-46.1431 Z5.0000
G0 X51.0229 Y-46.1431 Z0.5000
G1 X51.0229 Y-46.1431 Z-2.5000 F120.00
G1 X46.1384 Y-51.0276 Z-2.5000 F120.00
G2 X51.0229 Y-46.1431 Z-2.5000 I3.8524 J1.0321 F120.00
G2 X52.8200 Y-47.1745 Z-2.5000 I-0.9107 J-3.6681 F120.00
G1 X47.1743 Y-52.8201 Z-2.5000 F120.00
G3 X48.9682 Y-53.8546 Z-2.5000 I2.7286 J2.6589 F120.00
G1 X53.8589 Y-48.9640 Z-2.5000 F120.00
G2 X52.9144 Y-52.7368 Z-2.5000 I-3.8468 J-1.0417 F120.00
G1 X52.9144 Y-52.7368 Z-3.0000 F120.00
G3 X53.8589 Y-48.9640 Z-3.0000 I-2.9023 J2.7311 F120.00
G1 X48.9682 Y-53.8546 Z-3.0000 F120.00
G2 X47.1743 Y-52.8201 Z-3.0000 I0.9346 J3.6934 F120.00
G1 X52.8200 Y-47.1745 Z-3.0000 F120.00
G3 X51.0229 Y-46.1431 Z-3.0000 I-2.7078 J-2.6368 F120.00
G3 X46.1384 Y-51.0276 Z-3.0000 I-1.0321 J-3.8524 F120.00
G1 X51.0229 Y-46.1431 Z-3.0000 F120.00
G0 X51.0229 Y-46.1431 Z5.0000
G0 X51.0249 Y-46.1356 Z5.0000
G0 X51.0249 Y-46.1356 Z0.0000
G1 X51.0249 Y-46.1356 Z-3.0000 F120.00
G2 X50.2510 Y-53.9901 Z-3.0000 I-1.0249 J-3.8644 F120.00
G2 X49.7490 Y-46.0099 Z-3.0000 I-0.2510 J3.9901 F120.00
G2 X51.0249 Y-46.1356 Z-3.0000 I0.2510 J-3.9901 F120.00
G1 X51.0249 Y-46.1356 Z-3.5000 F120.00
G2 X50.2510 Y-53.9901 Z-3.5000 I-1.0249 J-3.8644 F120.00
G2 X49.7490 Y-46.0099 Z-3.5000 I-0.2510 J3.9901 F120.00
G2 X51.0249 Y-46.1356 Z-3.5000 I0.2510 J-3.9901 F120.00
G0 X51.0249 Y-46.1356 Z5.0000
G0 X51.0229 Y-46.1431 Z5.0000
G0 X51.0229 Y-46.1431 Z-0.5000
G1 X51.0229 Y-46.1431 Z-3.5000 F120.00
G1 X46.1384 Y-51.0276 Z-3.5000 F120.00
G2 X51.0229 Y-46.1431 Z-3.5000 I3.8524 J1.0321 F120.00
G2 X52.8200 Y-47.1745 Z-3.5000 I-0.9107 J-3.6681 F120.00
G1 X47.1743 Y-52.8201 Z-3.5000 F120.00
G3 X48.9682 Y-53.8546 Z-3.5000 I2.7286 J2.6589 F120.00
G1 X53.8589 Y-48.9640 Z-3.5000 F120.00
G2 X52.9144 Y-52.7368 Z-3.5000 I-3.8468 J-1.0417 F120.00
G1 X52.9144 Y-52.7368 Z-4.0000 F120.00
G3 X53.8589 Y-48.9640 Z-4.0000 I-2.9023 J2.7311 F120.00
G1 X48.9682 Y-53.8546 Z-4.0000 F120.00
G2 X47.1743 Y-52.8201 Z-4.0000 I0.9346 J3.6934 F120.00
G1 X52.8200 Y-47.1745 Z-4.0000 F120.00
G3 X51.0229 Y-46.1431 Z-4.0000 I-2.7078 J-2.6368 F120.00
G3 X46.1384 Y-51.0276 Z-4.0000 I-1.0321 J-3.8524 F120.00
G1 X51.0229 Y-46.1431 Z-4.0000 F120.00
G0 X51.0229 Y-46.1431 Z5.0000
G0 X51.0249 Y-46.1356 Z5.0000
G0 X51.0249 Y-46.1356 Z-1.0000
G1 X51.0249 Y-46.1356 Z-4.0000 F120.00
G2 X50.2510 Y-53.9901 Z-4.0000 I-1.0249 J-3.8644 F120.00
G2 X49.7490 Y-46.0099 Z-4.0000 I-0.2510 J3.9901 F120.00
G2 X51.0249 Y-46.1356 Z-4.0000 I0.2510 J-3.9901 F120.00
G1 X51.0249 Y-46.1356 Z-4.5000 F120.00
G2 X50.2510 Y-53.9901 Z-4.5000 I-1.0249 J-3.8644 F120.00
G2 X49.7490 Y-46.0099 Z-4.5000 I-0.2510 J3.9901 F120.00
G2 X51.0249 Y-46.1356 Z-4.5000 I0.2510 J-3.9901 F120.00
G0 X51.0249 Y-46.1356 Z5.0000
G0 X51.0229 Y-46.1431 Z5.0000
G0 X51.0229 Y-46.1431 Z-1.5000
G1 X51.0229 Y-46.1431 Z-4.5000 F120.00
G1 X46.1384 Y-51.0276 Z-4.5000 F120.00
G2 X51.0229 Y-46.1431 Z-4.5000 I3.8524 J1.0321 F120.00
G2 X52.8200 Y-47.1745 Z-4.5000 I-0.9107 J-3.6681 F120.00
G1 X47.1743 Y-52.8201 Z-4.5000 F120.00
G3 X48.9682 Y-53.8546 Z-4.5000 I2.7286 J2.6589 F120.00
G1 X53.8589 Y-48.9640 Z-4.5000 F120.00
G2 X52.9144 Y-52.7368 Z-4.5000 I-3.8468 J-1.0417 F120.00
G1 X52.9144 Y-52.7368 Z-5.0000 F120.00
G3 X53.8589 Y-48.9640 Z-5.0000 I-2.9023 J2.7311 F120.00
G1 X48.9682 Y-53.8546 Z-5.0000 F120.00
G2 X47.1743 Y-52.8201 Z-5.0000 I0.9346 J3.6934 F120.00
G1 X52.8200 Y-47.1745 Z-5.0000 F120.00
G3 X51.0229 Y-46.1431 Z-5.0000 I-2.7078 J-2.6368 F120.00
G3 X46.1384 Y-51.0276 Z-5.0000 I-1.0321 J-3.8524 F120.00
G1 X51.0229 Y-46.1431 Z-5.0000 F120.00
G0 X51.0229 Y-46.1431 Z5.0000
G0 X51.0249 Y-46.1356 Z5.0000
G0 X51.0249 Y-46.1356 Z-2.0000
G1 X51.0249 Y-46.1356 Z-5.0000 F120.00
G2 X50.2510 Y-53.9901 Z-5.0000 I-1.0249 J-3.8644 F120.00
G2 X49.7490 Y-46.0099 Z-5.0000 I-0.2510 J3.9901 F120.00
G2 X51.0249 Y-46.1356 Z-5.0000 I0.2510 J-3.9901 F120.00
G1 X51.0249 Y-46.1356 Z-5.5000 F120.00
G2 X50.2510 Y-53.9901 Z-5.5000 I-1.0249 J-3.8644 F120.00
G2 X49.7490 Y-46.0099 Z-5.5000 I-0.2510 J3.9901 F120.00
G2 X51.0249 Y-46.1356 Z-5.5000 I0.2510 J-3.9901 F120.00
G0 X51.0249 Y-46.1356 Z5.0000
G0 X51.0229 Y-46.1431 Z5.0000
G0 X51.0229 Y-46.1431 Z-2.5000
G1 X51.0229 Y-46.1431 Z-5.5000 F120.00
G1 X46.1384 Y-51.0276 Z-5.5000 F120.00
G2 X51.0229 Y-46.1431 Z-5.5000 I3.8524 J1.0321 F120.00
G2 X52.8200 Y-47.1745 Z-5.5000 I-0.9107 J-3.6681 F120.00
G1 X47.1743 Y-52.8201 Z-5.5000 F120.00
G3 X48.9682 Y-53.8546 Z-5.5000 I2.7286 J2.6589 F120.00
G1 X53.8589 Y-48.9640 Z-5.5000 F120.00
G2 X52.9144 Y-52.7368 Z-5.5000 I-3.8468 J-1.0417 F120.00
G1 X52.9144 Y-52.7368 Z-6.0000 F120.00
G3 X53.8589 Y-48.9640 Z-6.0000 I-2.9023 J2.7311 F120.00
G1 X48.9682 Y-53.8546 Z-6.0000 F120.00
G2 X47.1743 Y-52.8201 Z-6.0000 I0.9346 J3.6934 F120.00
G1 X52.8200 Y-47.1745 Z-6.0000 F120.00
G3 X51.0229 Y-46.1431 Z-6.0000 I-2.7078 J-2.6368 F120.00
G3 X46.1384 Y-51.0276 Z-6.0000 I-1.0321 J-3.8524 F120.00
G1 X51.0229 Y-46.1431 Z-6.0000 F120.00
G0 X51.0229 Y-46.1431 Z5.0000
G0 X51.0249 Y-46.1356 Z5.0000
G0 X51.0249 Y-46.1356 Z-3.0000
G1 X51.0249 Y-46.1356 Z-6.0000 F120.00
G2 X50.2510 Y-53.9901 Z-6.0000 I-1.0249 J-3.8644 F120.00
G2 X49.7490 Y-46.0099 Z-6.0000 I-0.2510 J3.9901 F120.00
G2 X51.0249 Y-46.1356 Z-6.0000 I0.2510 J-3.9901 F120.00
G1 X51.0249 Y-46.1356 Z-6.5000 F120.00
G2 X50.2510 Y-53.9901 Z-6.5000 I-1.0249 J-3.8644 F120.00
G2 X49.7490 Y-46.0099 Z-6.5000 I-0.2510 J3.9901 F120.00
G2 X51.0249 Y-46.1356 Z-6.5000 I0.2510 J-3.9901 F120.00
G0 X51.0249 Y-46.1356 Z5.0000
G0 X51.0229 Y-46.1431 Z5.0000
G0 X51.0229 Y-46.1431 Z-3.5000
G1 X51.0229 Y-46.1431 Z-6.5000 F120.00
G1 X46.1384 Y-51.0276 Z-6.5000 F120.00
G2 X51.0229 Y-46.1431 Z-6.5000 I3.8524 J1.0321 F120.00
G2 X52.8200 Y-47.1745 Z-6.5000 I-0.9107 J-3.6681 F120.00
G1 X47.1743 Y-52.8201 Z-6.5000 F120.00
G3 X48.9682 Y-53.8546 Z-6.5000 I2.7286 J2.6589 F120.00
G1 X53.8589 Y-48.9640 Z-6.5000 F120.00
G2 X52.9144 Y-52.7368 Z-6.5000 I-3.8468 J-1.0417 F120.00
G1 X52.9144 Y-52.7368 Z-7.0000 F120.00
G3 X53.8589 Y-48.9640 Z-7.0000 I-2.9023 J2.7311 F120.00
G1 X48.9682 Y-53.8546 Z-7.0000 F120.00
G2 X47.1743 Y-52.8201 Z-7.0000 I0.9346 J3.6934 F120.00
G1 X52.8200 Y-47.1745 Z-7.0000 F120.00
G3 X51.0229 Y-46.1431 Z-7.0000 I-2.7078 J-2.6368 F120.00
G3 X46.1384 Y-51.0276 Z-7.0000 I-1.0321 J-3.8524 F120.00
G1 X51.0229 Y-46.1431 Z-7.0000 F120.00
G0 X51.0229 Y-46.1431 Z5.0000
G0 X51.0249 Y-46.1356 Z5.0000
G0 X51.0249 Y-46.1356 Z-4.0000
G1 X51.0249 Y-46.1356 Z-7.0000 F120.00
G2 X50.2510 Y-53.9901 Z-7.0000 I-1.0249 J-3.8644 F120.00
G2 X49.7490 Y-46.0099 Z-7.0000 I-0.2510 J3.9901 F120.00
G2 X51.0249 Y-46.1356 Z-7.0000 I0.2510 J-3.9901 F120.00
G1 X51.0249 Y-46.1356 Z-7.5000 F120.00
G2 X50.2510 Y-53.9901 Z-7.5000 I-1.0249 J-3.8644 F120.00
G2 X49.7490 Y-46.0099 Z-7.5000 I-0.2510 J3.9901 F120.00
G2 X51.0249 Y-46.1356 Z-7.5000 I0.2510 J-3.9901 F120.00
G0 X51.0249 Y-46.1356 Z5.0000
G0 X51.0229 Y-46.1431 Z5.0000
G0 X51.0229 Y-46.1431 Z-4.5000
G1 X51.0229 Y-46.1431 Z-7.5000 F120.00
G1 X46.1384 Y-51.0276 Z-7.5000 F120.00
G2 X51.0229 Y-46.1431 Z-7.5000 I3.8524 J1.0321 F120.00
G2 X52.8200 Y-47.1745 Z-7.5000 I-0.9107 J-3.6681 F120.00
G1 X47.1743 Y-52.8201 Z-7.5000 F120.00
G3 X48.9682 Y-53.8546 Z-7.5000 I2.7286 J2.6589 F120.00
G1 X53.8589 Y-48.9640 Z-7.5000 F120.00
G2 X52.9144 Y-52.7368 Z-7.5000 I-3.8468 J-1.0417 F120.00
G1 X52.9144 Y-52.7368 Z-8.0000 F120.00
G3 X53.8589 Y-48.9640 Z-8.0000 I-2.9023 J2.7311 F120.00
G1 X48.9682 Y-53.8546 Z-8.0000 F120.00
G2 X47.1743 Y-52.8201 Z-8.0000 I0.9346 J3.6934 F120.00
G1 X52.8200 Y-47.1745 Z-8.0000 F120.00
G3 X51.0229 Y-46.1431 Z-8.0000 I-2.7078 J-2.6368 F120.00
G3 X46.1384 Y-51.0276 Z-8.0000 I-1.0321 J-3.8524 F120.00
G1 X51.0229 Y-46.1431 Z-8.0000 F120.00
G0 X51.0229 Y-46.1431 Z5.0000
G0 X51.0249 Y-46.1356 Z5.0000
G0 X51.0249 Y-46.1356 Z-5.0000
G1 X51.0249 Y-46.1356 Z-8.0000 F120.00
G2 X50.2510 Y-53.9901 Z-8.0000 I-1.0249 J-3.8644 F120.00
G2 X49.7490 Y-46.0099 Z-8.0000 I-0.2510 J3.9901 F120.00
G2 X51.0249 Y-46.1356 Z-8.0000 I0.2510 J-3.9901 F120.00
G1 X51.0249 Y-46.1356 Z-8.5000 F120.00
G2 X50.2510 Y-53.9901 Z-8.5000 I-1.0249 J-3.8644 F120.00
G2 X49.7490 Y-46.0099 Z-8.5000 I-0.2510 J3.9901 F120.00
G2 X51.0249 Y-46.1356 Z-8.5000 I0.2510 J-3.9901 F120.00
G0 X51.0249 Y-46.1356 Z5.0000
G0 X51.0229 Y-46.1431 Z5.0000
G0 X51.0229 Y-46.1431 Z-5.5000
G1 X51.0229 Y-46.1431 Z-8.5000 F120.00
G1 X46.1384 Y-51.0276 Z-8.5000 F120.00
G2 X51.0229 Y-46.1431 Z-8.5000 I3.8524 J1.0321 F120.00
G2 X52.8200 Y-47.1745 Z-8.5000 I-0.9107 J-3.6681 F120.00
G1 X47.1743 Y-52.8201 Z-8.5000 F120.00
G3 X48.9682 Y-53.8546 Z-8.5000 I2.7286 J2.6589 F120.00
G1 X53.8589 Y-48.9640 Z-8.5000 F120.00
G2 X52.9144 Y-52.7368 Z-8.5000 I-3.8468 J-1.0417 F120.00
G1 X52.9144 Y-52.7368 Z-9.0000 F120.00
G3 X53.8589 Y-48.9640 Z-9.0000 I-2.9023 J2.7311 F120.00
G1 X48.9682 Y-53.8546 Z-9.0000 F120.00
G2 X47.1743 Y-52.8201 Z-9.0000 I0.9346 J3.6934 F120.00
G1 X52.8200 Y-47.1745 Z-9.0000 F120.00
G3 X51.0229 Y-46.1431 Z-9.0000 I-2.7078 J-2.6368 F120.00
G3 X46.1384 Y-51.0276 Z-9.0000 I-1.0321 J-3.8524 F120.00
G1 X51.0229 Y-46.1431 Z-9.0000 F120.00
G0 X51.0229 Y-46.1431 Z5.0000
G0 X51.0249 Y-46.1356 Z5.0000
G0 X51.0249 Y-46.1356 Z-6.0000
G1 X51.0249 Y-46.1356 Z-9.0000 F120.00
G2 X50.2510 Y-53.9901 Z-9.0000 I-1.0249 J-3.8644 F120.00
G2 X49.7490 Y-46.0099 Z-9.0000 I-0.2510 J3.9901 F120.00
G2 X51.0249 Y-46.1356 Z-9.0000 I0.2510 J-3.9901 F120.00
G1 X51.0249 Y-46.1356 Z-9.5000 F120.00
G2 X50.2510 Y-53.9901 Z-9.5000 I-1.0249 J-3.8644 F120.00
G2 X49.7490 Y-46.0099 Z-9.5000 I-0.2510 J3.9901 F120.00
G2 X51.0249 Y-46.1356 Z-9.5000 I0.2510 J-3.9901 F120.00
G0 X51.0249 Y-46.1356 Z5.0000
G0 X51.0229 Y-46.1431 Z5.0000
G0 X51.0229 Y-46.1431 Z-6.5000
G1 X51.0229 Y-46.1431 Z-9.5000 F120.00
G1 X46.1384 Y-51.0276 Z-9.5000 F120.00
G2 X51.0229 Y-46.1431 Z-9.5000 I3.8524 J1.0321 F120.00
G2 X52.8200 Y-47.1745 Z-9.5000 I-0.9107 J-3.6681 F120.00
G1 X47.1743 Y-52.8201 Z-9.5000 F120.00
G3 X48.9682 Y-53.8546 Z-9.5000 I2.7286 J2.6589 F120.00
G1 X53.8589 Y-48.9640 Z-9.5000 F120.00
G2 X52.9144 Y-52.7368 Z-9.5000 I-3.8468 J-1.0417 F120.00
G1 X52.9144 Y-52.7368 Z-10.0000 F120.00
G3 X53.8589 Y-48.9640 Z-10.0000 I-2.9023 J2.7311 F120.00
G1 X48.9682 Y-53.8546 Z-10.0000 F120.00
G2 X47.1743 Y-52.8201 Z-10.0000 I0.9346 J3.6934 F120.00
G1 X52.8200 Y-47.1745 Z-10.0000 F120.00
G3 X51.0229 Y-46.1431 Z-10.0000 I-2.7078 J-2.6368 F120.00
G3 X46.1384 Y-51.0276 Z-10.0000 I-1.0321 J-3.8524 F120.00
G1 X51.0229 Y-46.1431 Z-10.0000 F120.00
G0 X51.0229 Y-46.1431 Z5.0000
G0 X51.0249 Y-46.1356 Z5.0000
G0 X51.0249 Y-46.1356 Z-7.0000
G1 X51.0249 Y-46.1356 Z-10.0000 F120.00
G2 X50.2510 Y-53.9901 Z-10.0000 I-1.0249 J-3.8644 F120.00
G2 X49.7490 Y-46.0099 Z-10.0000 I-0.2510 J3.9901 F120.00
G2 X51.0249 Y-46.1356 Z-10.0000 I0.2510 J-3.9901 F120.00
G1 X51.0249 Y-46.1356 Z-10.5000 F120.00
G2 X50.2510 Y-53.9901 Z-10.5000 I-1.0249 J-3.8644 F120.00
G2 X49.7490 Y-46.0099 Z-10.5000 I-0.2510 J3.9901 F120.00
G2 X51.0249 Y-46.1356 Z-10.5000 I0.2510 J-3.9901 F120.00
G0 X51.0249 Y-46.1356 Z5.0000
G0 X51.0229 Y-46.1431 Z5.0000
G0 X51.0229 Y-46.1431 Z-7.5000
G1 X51.0229 Y-46.1431 Z-10.5000 F120.00
G1 X46.1384 Y-51.0276 Z-10.5000 F120.00
G2 X51.0229 Y-46.1431 Z-10.5000 I3.8524 J1.0321 F120.00
G2 X52.8200 Y-47.1745 Z-10.5000 I-0.9107 J-3.6681 F120.00
G1 X47.1743 Y-52.8201 Z-10.5000 F120.00
G3 X48.9682 Y-53.8546 Z-10.5000 I2.7286 J2.6589 F120.00
G1 X53.8589 Y-48.9640 Z-10.5000 F120.00
G2 X52.9144 Y-52.7368 Z-10.5000 I-3.8468 J-1.0417 F120.00
G1 X52.9144 Y-52.7368 Z-11.0000 F120.00
G3 X53.8589 Y-48.9640 Z-11.0000 I-2.9023 J2.7311 F120.00
G1 X48.9682 Y-53.8546 Z-11.0000 F120.00
G2 X47.1743 Y-52.8201 Z-11.0000 I0.9346 J3.6934 F120.00
G1 X52.8200 Y-47.1745 Z-11.0000 F120.00
G3 X51.0229 Y-46.1431 Z-11.0000 I-2.7078 J-2.6368 F120.00
G3 X46.1384 Y-51.0276 Z-11.0000 I-1.0321 J-3.8524 F120.00
G1 X51.0229 Y-46.1431 Z-11.0000 F120.00
G0 X51.0229 Y-46.1431 Z5.0000
G0 X51.0249 Y-46.1356 Z5.0000
G0 X51.0249 Y-46.1356 Z-8.0000
G1 X51.0249 Y-46.1356 Z-11.0000 F120.00
G2 X50.2510 Y-53.9901 Z-11.0000 I-1.0249 J-3.8644 F120.00
G2 X49.7490 Y-46.0099 Z-11.0000 I-0.2510 J3.9901 F120.00
G2 X51.0249 Y-46.1356 Z-11.0000 I0.2510 J-3.9901 F120.00
G1 X51.0249 Y-46.1356 Z-11.5000 F120.00
G2 X50.2510 Y-53.9901 Z-11.5000 I-1.0249 J-3.8644 F120.00
G2 X49.7490 Y-46.0099 Z-11.5000 I-0.2510 J3.9901 F120.00
G2 X51.0249 Y-46.1356 Z-11.5000 I0.2510 J-3.9901 F120.00
G0 X51.0249 Y-46.1356 Z5.0000
G0 X51.0229 Y-46.1431 Z5.0000
G0 X51.0229 Y-46.1431 Z-8.5000
G1 X51.0229 Y-46.1431 Z-11.5000 F120.00
G1 X46.1384 Y-51.0276 Z-11.5000 F120.00
G2 X51.0229 Y-46.1431 Z-11.5000 I3.8524 J1.0321 F120.00
G2 X52.8200 Y-47.1745 Z-11.5000 I-0.9107 J-3.6681 F120.00
G1 X47.1743 Y-52.8201 Z-11.5000 F120.00
G3 X48.9682 Y-53.8546 Z-11.5000 I2.7286 J2.6589 F120.00
G1 X53.8589 Y-48.9640 Z-11.5000 F120.00
G2 X52.9144 Y-52.7368 Z-11.5000 I-3.8468 J-1.0417 F120.00
G1 X52.9144 Y-52.7368 Z-12.0000 F120.00
G3 X53.8589 Y-48.9640 Z-12.0000 I-2.9023 J2.7311 F120.00
G1 X48.9682 Y-53.8546 Z-12.0000 F120.00
G2 X47.1743 Y-52.8201 Z-12.0000 I0.9346 J3.6934 F120.00
G1 X52.8200 Y-47.1745 Z-12.0000 F120.00
G3 X51.0229 Y-46.1431 Z-12.0000 I-2.7078 J-2.6368 F120.00
G3 X46.1384 Y-51.0276 Z-12.0000 I-1.0321 J-3.8524 F120.00
G1 X51.0229 Y-46.1431 Z-12.0000 F120.00
G0 X51.0229 Y-46.1431 Z5.0000
G0 X51.0249 Y-46.1356 Z5.0000
G0 X51.0249 Y-46.1356 Z-9.0000
G1 X51.0249 Y-46.1356 Z-12.0000 F120.00
G2 X50.2510 Y-53.9901 Z-12.0000 I-1.0249 J-3.8644 F120.00
G2 X49.7490 Y-46.0099 Z-12.0000 I-0.2510 J3.9901 F120.00
G2 X51.0249 Y-46.1356 Z-12.0000 I0.2510 J-3.9901 F120.00
G0 Z5.0000
(finish operation: Pocket_Shape001)
(begin operation: Pocket_Shape002)
(Path: Pocket_Shape002)
(Pocket_Shape002)
G0 Z5.0000
G0 X91.7658 Y-8.2342
G0 Z3.0000
G1 X91.7658 Y-8.2342 Z-0.5000 F120.00
G2 X90.1866 Y-12.4902 Z-0.5000 I-1.7658 J-1.7658 F120.00
G2 X87.5098 Y-10.1866 Z-0.5000 I-0.1866 J2.4902 F120.00
G2 X89.8134 Y-7.5098 Z-0.5000 I2.4902 J0.1866 F120.00
G2 X91.7658 Y-8.2342 Z-0.5000 I0.1866 J-2.4902 F120.00
G0 X91.7658 Y-8.2342 Z5.0000
G0 X91.8306 Y-11.6985 Z5.0000
G0 X91.8306 Y-11.6985 Z2.5000
G1 X91.8306 Y-11.6985 Z-0.5000 F120.00
G3 X92.0794 Y-8.6212 Z-0.5000 I-1.8248 J1.6963 F120.00
G1 X88.6245 Y-12.0761 Z-0.5000 F120.00
G2 X87.5286 Y-10.3437 Z-0.5000 I1.3348 J2.0573 F120.00
G2 X90.3394 Y-7.5328 Z-0.5000 I2.4617 J0.3491 F120.00
G1 X87.5286 Y-10.3437 Z-0.5000 F120.00
G1 X87.5286 Y-10.3437 Z-1.0000 F120.00
G1 X90.3394 Y-7.5328 Z-1.0000 F120.00
G3 X87.5286 Y-10.3437 Z-1.0000 I-0.3491 J-2.4617 F120.00
G3 X88.6245 Y-12.0761 Z-1.0000 I2.4308 J0.3248 F120.00
G1 X92.0794 Y-8.6212 Z-1.0000 F120.00
G2 X91.8306 Y-11.6985 Z-1.0000 I-2.0737 J-1.3810 F120.00
G0 X91.8306 Y-11.6985 Z5.0000
G0 X91.8306 Y-11.6985 Z5.0000
G0 X91.8306 Y-11.6985 Z2.0000
G1 X91.8306 Y-11.6985 Z-1.0000 F120.00
G2 X90.1866 Y-12.4902 Z-1.0000 I-1.8306 J1.6985 F120.00
G2 X87.5098 Y-10.1866 Z-1.0000 I-0.1866 J2.4902 F120.00
G2 X89.8134 Y-7.5098 Z-1.0000 I2.4902 J0.1866 F120.00
G2 X91.8306 Y-11.6985 Z-1.0000 I0.1866 J-2.4902 F120.00
G1 X91.8306 Y-11.6985 Z-1.5000 F120.00
G2 X90.1866 Y-12.4902 Z-1.5000 I-1.8306 J1.6985 F120.00
G2 X87.5098 Y-10.1866 Z-1.5000 I-0.1866 J2.4902 F120.00
G2 X89.8134 Y-7.5098 Z-1.5000 I2.4902 J0.1866 F120.00
G2 X91.8306 Y-11.6985 Z-1.5000 I0.1866 J-2.4902 F120.00
G0 X91.8306 Y-11.6985 Z5.0000
G0 X91.8306 Y-11.6985 Z5.0000
G0 X91.8306 Y-11.6985 Z1.5000
G1 X91.8306 Y-11.6985 Z-1.5000 F120.00
G3 X92.0794 Y-8.6212 Z-1.5000 I-1.8248 J1.6963 F120.00
G1 X88.6245 Y-12.0761 Z-1.5000 F120.00
G2 X87.5286 Y-10.3437 Z-1.5000 I1.3348 J2.0573 F120.00
G2 X90.3394 Y-7.5328 Z-1.5000 I2.4617 J0.3491 F120.00
G1 X87.5286 Y-10.3437 Z-1.5000 F120.00
G1 X87.5286 Y-10.3437 Z-2.0000 F120.00
G1 X90.3394 Y-7.5328 Z-2.0000 F120.00
G3 X87.5286 Y-10.3437 Z-2.0000 I-0.3491 J-2.4617 F120.00
G3 X88.6245 Y-12.0761 Z-2.0000 I2.4308 J0.3248 F120.00
G1 X92.0794 Y-8.6212 Z-2.0000 F120.00
G2 X91.8306 Y-11.6985 Z-2.0000 I-2.0737 J-1.3810 F120.00
G0 X91.8306 Y-11.6985 Z5.0000
G0 X91.8306 Y-11.6985 Z5.0000
G0 X91.8306 Y-11.6985 Z1.0000
G1 X91.8306 Y-11.6985 Z-2.0000 F120.00
G2 X90.1866 Y-12.4902 Z-2.0000 I-1.8306 J1.6985 F120.00
G2 X87.5098 Y-10.1866 Z-2.0000 I-0.1866 J2.4902 F120.00
G2 X89.8134 Y-7.5098 Z-2.0000 I2.4902 J0.1866 F120.00
G2 X91.8306 Y-11.6985 Z-2.0000 I0.1866 J-2.4902 F120.00
G1 X91.8306 Y-11.6985 Z-2.1000 F120.00
G2 X90.1866 Y-12.4902 Z-2.1000 I-1.8306 J1.6985 F120.00
G2 X87.5098 Y-10.1866 Z-2.1000 I-0.1866 J2.4902 F120.00
G2 X89.8134 Y-7.5098 Z-2.1000 I2.4902 J0.1866 F120.00
G2 X91.8306 Y-11.6985 Z-2.1000 I0.1866 J-2.4902 F120.00
G0 X91.8306 Y-11.6985 Z5.0000
G0 X91.8306 Y-11.6985 Z5.0000
G0 X91.8306 Y-11.6985 Z0.9000
G1 X91.8306 Y-11.6985 Z-2.1000 F120.00
G3 X92.0794 Y-8.6212 Z-2.1000 I-1.8248 J1.6963 F120.00
G1 X88.6245 Y-12.0761 Z-2.1000 F120.00
G2 X87.5286 Y-10.3437 Z-2.1000 I1.3348 J2.0573 F120.00
G2 X90.3394 Y-7.5328 Z-2.1000 I2.4617 J0.3491 F120.00
G1 X87.5286 Y-10.3437 Z-2.1000 F120.00
G0 Z5.0000
G0 X11.7658 Y-8.2342
G0 Z3.0000
G1 X11.7658 Y-8.2342 Z-0.5000 F120.00
G2 X10.1866 Y-12.4902 Z-0.5000 I-1.7658 J-1.7658 F120.00
G2 X7.5098 Y-10.1866 Z-0.5000 I-0.1866 J2.4902 F120.00
G2 X9.8134 Y-7.5098 Z-0.5000 I2.4902 J0.1866 F120.00
G2 X11.7658 Y-8.2342 Z-0.5000 I0.1866 J-2.4902 F120.00
G0 X11.7658 Y-8.2342 Z5.0000
G0 X11.8306 Y-11.6985 Z5.0000
G0 X11.8306 Y-11.6985 Z2.5000
G1 X11.8306 Y-11.6985 Z-0.5000 F120.00
G3 X12.0794 Y-8.6212 Z-0.5000 I-1.8248 J1.6963 F120.00
G1 X8.6245 Y-12.0761 Z-0.5000 F120.00
G2 X7.5286 Y-10.3437 Z-0.5000 I1.3348 J2.0573 F120.00
G2 X10.3394 Y-7.5328 Z-0.5000 I2.4617 J0.3491 F120.00
G1 X7.5286 Y-10.3437 Z-0.5000 F120.00
G1 X7.5286 Y-10.3437 Z-1.0000 F120.00
G1 X10.3394 Y-7.5328 Z-1.0000 F120.00
G3 X7.5286 Y-10.3437 Z-1.0000 I-0.3491 J-2.4617 F120.00
G3 X8.6245 Y-12.0761 Z-1.0000 I2.4308 J0.3248 F120.00
G1 X12.0794 Y-8.6212 Z-1.0000 F120.00
G2 X11.8306 Y-11.6985 Z-1.0000 I-2.0737 J-1.3810 F120.00
G0 X11.8306 Y-11.6985 Z5.0000
G0 X11.8306 Y-11.6985 Z5.0000
G0 X11.8306 Y-11.6985 Z2.0000
G1 X11.8306 Y-11.6985 Z-1.0000 F120.00
G2 X10.1866 Y-12.4902 Z-1.0000 I-1.8306 J1.6985 F120.00
G2 X7.5098 Y-10.1866 Z-1.0000 I-0.1866 J2.4902 F120.00
G2 X9.8134 Y-7.5098 Z-1.0000 I2.4902 J0.1866 F120.00
G2 X11.8306 Y-11.6985 Z-1.0000 I0.1866 J-2.4902 F120.00
G1 X11.8306 Y-11.6985 Z-1.5000 F120.00
G2 X10.1866 Y-12.4902 Z-1.5000 I-1.8306 J1.6985 F120.00
G2 X7.5098 Y-10.1866 Z-1.5000 I-0.1866 J2.4902 F120.00
G2 X9.8134 Y-7.5098 Z-1.5000 I2.4902 J0.1866 F120.00
G2 X11.8306 Y-11.6985 Z-1.5000 I0.1866 J-2.4902 F120.00
G0 X11.8306 Y-11.6985 Z5.0000
G0 X11.8306 Y-11.6985 Z5.0000
G0 X11.8306 Y-11.6985 Z1.5000
G1 X11.8306 Y-11.6985 Z-1.5000 F120.00
G3 X12.0794 Y-8.6212 Z-1.5000 I-1.8248 J1.6963 F120.00
G1 X8.6245 Y-12.0761 Z-1.5000 F120.00
G2 X7.5286 Y-10.3437 Z-1.5000 I1.3348 J2.0573 F120.00
G2 X10.3394 Y-7.5328 Z-1.5000 I2.4617 J0.3491 F120.00
G1 X7.5286 Y-10.3437 Z-1.5000 F120.00
G1 X7.5286 Y-10.3437 Z-2.0000 F120.00
G1 X10.3394 Y-7.5328 Z-2.0000 F120.00
G3 X7.5286 Y-10.3437 Z-2.0000 I-0.3491 J-2.4617 F120.00
G3 X8.6245 Y-12.0761 Z-2.0000 I2.4308 J0.3248 F120.00
G1 X12.0794 Y-8.6212 Z-2.0000 F120.00
G2 X11.8306 Y-11.6985 Z-2.0000 I-2.0737 J-1.3810 F120.00
G0 X11.8306 Y-11.6985 Z5.0000
G0 X11.8306 Y-11.6985 Z5.0000
G0 X11.8306 Y-11.6985 Z1.0000
G1 X11.8306 Y-11.6985 Z-2.0000 F120.00
G2 X10.1866 Y-12.4902 Z-2.0000 I-1.8306 J1.6985 F120.00
G2 X7.5098 Y-10.1866 Z-2.0000 I-0.1866 J2.4902 F120.00
G2 X9.8134 Y-7.5098 Z-2.0000 I2.4902 J0.1866 F120.00
G2 X11.8306 Y-11.6985 Z-2.0000 I0.1866 J-2.4902 F120.00
G1 X11.8306 Y-11.6985 Z-2.1000 F120.00
G2 X10.1866 Y-12.4902 Z-2.1000 I-1.8306 J1.6985 F120.00
G2 X7.5098 Y-10.1866 Z-2.1000 I-0.1866 J2.4902 F120.00
G2 X9.8134 Y-7.5098 Z-2.1000 I2.4902 J0.1866 F120.00
G2 X11.8306 Y-11.6985 Z-2.1000 I0.1866 J-2.4902 F120.00
G0 X11.8306 Y-11.6985 Z5.0000
G0 X11.8306 Y-11.6985 Z5.0000
G0 X11.8306 Y-11.6985 Z0.9000
G1 X11.8306 Y-11.6985 Z-2.1000 F120.00
G3 X12.0794 Y-8.6212 Z-2.1000 I-1.8248 J1.6963 F120.00
G1 X8.6245 Y-12.0761 Z-2.1000 F120.00
G2 X7.5286 Y-10.3437 Z-2.1000 I1.3348 J2.0573 F120.00
G2 X10.3394 Y-7.5328 Z-2.1000 I2.4617 J0.3491 F120.00
G1 X7.5286 Y-10.3437 Z-2.1000 F120.00
G0 Z5.0000
G0 X11.7658 Y-88.2342
G0 Z3.0000
G1 X11.7658 Y-88.2342 Z-0.5000 F120.00
G2 X10.1866 Y-92.4902 Z-0.5000 I-1.7658 J-1.7658 F120.00
G2 X7.5098 Y-90.1866 Z-0.5000 I-0.1866 J2.4902 F120.00
G2 X9.8134 Y-87.5098 Z-0.5000 I2.4902 J0.1866 F120.00
G2 X11.7658 Y-88.2342 Z-0.5000 I0.1866 J-2.4902 F120.00
G0 X11.7658 Y-88.2342 Z5.0000
G0 X11.8306 Y-91.6985 Z5.0000
G0 X11.8306 Y-91.6985 Z2.5000
G1 X11.8306 Y-91.6985 Z-0.5000 F120.00
G3 X12.0794 Y-88.6212 Z-0.5000 I-1.8248 J1.6963 F120.00
G1 X8.6245 Y-92.0761 Z-0.5000 F120.00
G2 X7.5286 Y-90.3437 Z-0.5000 I1.3348 J2.0573 F120.00
G2 X10.3394 Y-87.5328 Z-0.5000 I2.4617 J0.3491 F120.00
G1 X7.5286 Y-90.3437 Z-0.5000 F120.00
G1 X7.5286 Y-90.3437 Z-1.0000 F120.00
G1 X10.3394 Y-87.5328 Z-1.0000 F120.00
G3 X7.5286 Y-90.3437 Z-1.0000 I-0.3491 J-2.4617 F120.00
G3 X8.6245 Y-92.0761 Z-1.0000 I2.4308 J0.3248 F120.00
G1 X12.0794 Y-88.6212 Z-1.0000 F120.00
G2 X11.8306 Y-91.6985 Z-1.0000 I-2.0737 J-1.3810 F120.00
G0 X11.8306 Y-91.6985 Z5.0000
G0 X11.8306 Y-91.6985 Z5.0000
G0 X11.8306 Y-91.6985 Z2.0000
G1 X11.8306 Y-91.6985 Z-1.0000 F120.00
G2 X10.1866 Y-92.4902 Z-1.0000 I-1.8306 J1.6985 F120.00
G2 X7.5098 Y-90.1866 Z-1.0000 I-0.1866 J2.4902 F120.00
G2 X9.8134 Y-87.5098 Z-1.0000 I2.4902 J0.1866 F120.00
G2 X11.8306 Y-91.6985 Z-1.0000 I0.1866 J-2.4902 F120.00
G1 X11.8306 Y-91.6985 Z-1.5000 F120.00
G2 X10.1866 Y-92.4902 Z-1.5000 I-1.8306 J1.6985 F120.00
G2 X7.5098 Y-90.1866 Z-1.5000 I-0.1866 J2.4902 F120.00
G2 X9.8134 Y-87.5098 Z-1.5000 I2.4902 J0.1866 F120.00
G2 X11.8306 Y-91.6985 Z-1.5000 I0.1866 J-2.4902 F120.00
G0 X11.8306 Y-91.6985 Z5.0000
G0 X11.8306 Y-91.6985 Z5.0000
G0 X11.8306 Y-91.6985 Z1.5000
G1 X11.8306 Y-91.6985 Z-1.5000 F120.00
G3 X12.0794 Y-88.6212 Z-1.5000 I-1.8248 J1.6963 F120.00
G1 X8.6245 Y-92.0761 Z-1.5000 F120.00
G2 X7.5286 Y-90.3437 Z-1.5000 I1.3348 J2.0573 F120.00
G2 X10.3394 Y-87.5328 Z-1.5000 I2.4617 J0.3491 F120.00
G1 X7.5286 Y-90.3437 Z-1.5000 F120.00
G1 X7.5286 Y-90.3437 Z-2.0000 F120.00
G1 X10.3394 Y-87.5328 Z-2.0000 F120.00
G3 X7.5286 Y-90.3437 Z-2.0000 I-0.3491 J-2.4617 F120.00
G3 X8.6245 Y-92.0761 Z-2.0000 I2.4308 J0.3248 F120.00
G1 X12.0794 Y-88.6212 Z-2.0000 F120.00
G2 X11.8306 Y-91.6985 Z-2.0000 I-2.0737 J-1.3810 F120.00
G0 X11.8306 Y-91.6985 Z5.0000
G0 X11.8306 Y-91.6985 Z5.0000
G0 X11.8306 Y-91.6985 Z1.0000
G1 X11.8306 Y-91.6985 Z-2.0000 F120.00
G2 X10.1866 Y-92.4902 Z-2.0000 I-1.8306 J1.6985 F120.00
G2 X7.5098 Y-90.1866 Z-2.0000 I-0.1866 J2.4902 F120.00
G2 X9.8134 Y-87.5098 Z-2.0000 I2.4902 J0.1866 F120.00
G2 X11.8306 Y-91.6985 Z-2.0000 I0.1866 J-2.4902 F120.00
G1 X11.8306 Y-91.6985 Z-2.1000 F120.00
G2 X10.1866 Y-92.4902 Z-2.1000 I-1.8306 J1.6985 F120.00
G2 X7.5098 Y-90.1866 Z-2.1000 I-0.1866 J2.4902 F120.00
G2 X9.8134 Y-87.5098 Z-2.1000 I2.4902 J0.1866 F120.00
G2 X11.8306 Y-91.6985 Z-2.1000 I0.1866 J-2.4902 F120.00
G0 X11.8306 Y-91.6985 Z5.0000
G0 X11.8306 Y-91.6985 Z5.0000
G0 X11.8306 Y-91.6985 Z0.9000
G1 X11.8306 Y-91.6985 Z-2.1000 F120.00
G3 X12.0794 Y-88.6212 Z-2.1000 I-1.8248 J1.6963 F120.00
G1 X8.6245 Y-92.0761 Z-2.1000 F120.00
G2 X7.5286 Y-90.3437 Z-2.1000 I1.3348 J2.0573 F120.00
G2 X10.3394 Y-87.5328 Z-2.1000 I2.4617 J0.3491 F120.00
G1 X7.5286 Y-90.3437 Z-2.1000 F120.00
G0 Z5.0000
G0 X91.7658 Y-88.2342
G0 Z3.0000
G1 X91.7658 Y-88.2342 Z-0.5000 F120.00
G2 X90.1866 Y-92.4902 Z-0.5000 I-1.7658 J-1.7658 F120.00
G2 X87.5098 Y-90.1866 Z-0.5000 I-0.1866 J2.4902 F120.00
G2 X89.8134 Y-87.5098 Z-0.5000 I2.4902 J0.1866 F120.00
G2 X91.7658 Y-88.2342 Z-0.5000 I0.1866 J-2.4902 F120.00
G0 X91.7658 Y-88.2342 Z5.0000
G0 X91.8306 Y-91.6985 Z5.0000
G0 X91.8306 Y-91.6985 Z2.5000
G1 X91.8306 Y-91.6985 Z-0.5000 F120.00
G3 X92.0794 Y-88.6212 Z-0.5000 I-1.8248 J1.6963 F120.00
G1 X88.6245 Y-92.0761 Z-0.5000 F120.00
G2 X87.5286 Y-90.3437 Z-0.5000 I1.3348 J2.0573 F120.00
G2 X90.3394 Y-87.5328 Z-0.5000 I2.4617 J0.3491 F120.00
G1 X87.5286 Y-90.3437 Z-0.5000 F120.00
G1 X87.5286 Y-90.3437 Z-1.0000 F120.00
G1 X90.3394 Y-87.5328 Z-1.0000 F120.00
G3 X87.5286 Y-90.3437 Z-1.0000 I-0.3491 J-2.4617 F120.00
G3 X88.6245 Y-92.0761 Z-1.0000 I2.4308 J0.3248 F120.00
G1 X92.0794 Y-88.6212 Z-1.0000 F120.00
G2 X91.8306 Y-91.6985 Z-1.0000 I-2.0737 J-1.3810 F120.00
G0 X91.8306 Y-91.6985 Z5.0000
G0 X91.8306 Y-91.6985 Z5.0000
G0 X91.8306 Y-91.6985 Z2.0000
G1 X91.8306 Y-91.6985 Z-1.0000 F120.00
G2 X90.1866 Y-92.4902 Z-1.0000 I-1.8306 J1.6985 F120.00
G2 X87.5098 Y-90.1866 Z-1.0000 I-0.1866 J2.4902 F120.00
G2 X89.8134 Y-87.5098 Z-1.0000 I2.4902 J0.1866 F120.00
G2 X91.8306 Y-91.6985 Z-1.0000 I0.1866 J-2.4902 F120.00
G1 X91.8306 Y-91.6985 Z-1.5000 F120.00
G2 X90.1866 Y-92.4902 Z-1.5000 I-1.8306 J1.6985 F120.00
G2 X87.5098 Y-90.1866 Z-1.5000 I-0.1866 J2.4902 F120.00
G2 X89.8134 Y-87.5098 Z-1.5000 I2.4902 J0.1866 F120.00
G2 X91.8306 Y-91.6985 Z-1.5000 I0.1866 J-2.4902 F120.00
G0 X91.8306 Y-91.6985 Z5.0000
G0 X91.8306 Y-91.6985 Z5.0000
G0 X91.8306 Y-91.6985 Z1.5000
G1 X91.8306 Y-91.6985 Z-1.5000 F120.00
G3 X92.0794 Y-88.6212 Z-1.5000 I-1.8248 J1.6963 F120.00
G1 X88.6245 Y-92.0761 Z-1.5000 F120.00
G2 X87.5286 Y-90.3437 Z-1.5000 I1.3348 J2.0573 F120.00
G2 X90.3394 Y-87.5328 Z-1.5000 I2.4617 J0.3491 F120.00
G1 X87.5286 Y-90.3437 Z-1.5000 F120.00
G1 X87.5286 Y-90.3437 Z-2.0000 F120.00
G1 X90.3394 Y-87.5328 Z-2.0000 F120.00
G3 X87.5286 Y-90.3437 Z-2.0000 I-0.3491 J-2.4617 F120.00
G3 X88.6245 Y-92.0761 Z-2.0000 I2.4308 J0.3248 F120.00
G1 X92.0794 Y-88.6212 Z-2.0000 F120.00
G2 X91.8306 Y-91.6985 Z-2.0000 I-2.0737 J-1.3810 F120.00
G0 X91.8306 Y-91.6985 Z5.0000
G0 X91.8306 Y-91.6985 Z5.0000
G0 X91.8306 Y-91.6985 Z1.0000
G1 X91.8306 Y-91.6985 Z-2.0000 F120.00
G2 X90.1866 Y-92.4902 Z-2.0000 I-1.8306 J1.6985 F120.00
G2 X87.5098 Y-90.1866 Z-2.0000 I-0.1866 J2.4902 F120.00
G2 X89.8134 Y-87.5098 Z-2.0000 I2.4902 J0.1866 F120.00
G2 X91.8306 Y-91.6985 Z-2.0000 I0.1866 J-2.4902 F120.00
G1 X91.8306 Y-91.6985 Z-2.1000 F120.00
G2 X90.1866 Y-92.4902 Z-2.1000 I-1.8306 J1.6985 F120.00
G2 X87.5098 Y-90.1866 Z-2.1000 I-0.1866 J2.4902 F120.00
G2 X89.8134 Y-87.5098 Z-2.1000 I2.4902 J0.1866 F120.00
G2 X91.8306 Y-91.6985 Z-2.1000 I0.1866 J-2.4902 F120.00
G0 X91.8306 Y-91.6985 Z5.0000
G0 X91.8306 Y-91.6985 Z5.0000
G0 X91.8306 Y-91.6985 Z0.9000
G1 X91.8306 Y-91.6985 Z-2.1000 F120.00
G3 X92.0794 Y-88.6212 Z-2.1000 I-1.8248 J1.6963 F120.00
G1 X88.6245 Y-92.0761 Z-2.1000 F120.00
G2 X87.5286 Y-90.3437 Z-2.1000 I1.3348 J2.0573 F120.00
G2 X90.3394 Y-87.5328 Z-2.1000 I2.4617 J0.3491 F120.00
G1 X87.5286 Y-90.3437 Z-2.1000 F120.00
G0 Z5.0000
(finish operation: Pocket_Shape002)
(begin operation: Pocket_Shape003)
(Path: Pocket_Shape003)
(Pocket_Shape003)
G0 Z5.0000
G0 X10.6507 Y-9.3493
G0 Z3.0000
G1 X10.6507 Y-9.3493 Z-0.5000 F120.00
G3 X9.6479 Y-9.1499 Z-0.5000 I-0.6507 J-0.6507 F120.00
G3 X10.3521 Y-10.8501 Z-0.5000 I0.3521 J-0.8501 F120.00
G3 X10.6507 Y-9.3493 Z-0.5000 I-0.3521 J0.8501 F120.00
G0 X10.6507 Y-9.3493 Z5.0000
G0 X10.2954 Y-9.7046 Z5.0000
G0 X10.2954 Y-9.7046 Z2.5000
G1 X10.2954 Y-9.7046 Z-0.5000 F120.00
G3 X9.8401 Y-9.6141 Z-0.5000 I-0.2954 J-0.2954 F120.00
G3 X10.1599 Y-10.3859 Z-0.5000 I0.1599 J-0.3859 F120.00
G3 X10.2954 Y-9.7046 Z-0.5000 I-0.1599 J0.3859 F120.00
G1 X10.2954 Y-9.7046 Z-1.0000 F120.00
G3 X9.8401 Y-9.6141 Z-1.0000 I-0.2954 J-0.2954 F120.00
G3 X10.1599 Y-10.3859 Z-1.0000 I0.1599 J-0.3859 F120.00
G3 X10.2954 Y-9.7046 Z-1.0000 I-0.1599 J0.3859 F120.00
G0 X10.2954 Y-9.7046 Z5.0000
G0 X10.6507 Y-9.3493 Z5.0000
G0 X10.6507 Y-9.3493 Z2.0000
G1 X10.6507 Y-9.3493 Z-1.0000 F120.00
G3 X9.6479 Y-9.1499 Z-1.0000 I-0.6507 J-0.6507 F120.00
G3 X10.3521 Y-10.8501 Z-1.0000 I0.3521 J-0.8501 F120.00
G3 X10.6507 Y-9.3493 Z-1.0000 I-0.3521 J0.8501 F120.00
G1 X10.6507 Y-9.3493 Z-1.5000 F120.00
G3 X9.6479 Y-9.1499 Z-1.5000 I-0.6507 J-0.6507 F120.00
G3 X10.3521 Y-10.8501 Z-1.5000 I0.3521 J-0.8501 F120.00
G3 X10.6507 Y-9.3493 Z-1.5000 I-0.3521 J0.8501 F120.00
G0 X10.6507 Y-9.3493 Z5.0000
G0 X10.2954 Y-9.7046 Z5.0000
G0 X10.2954 Y-9.7046 Z1.5000
G1 X10.2954 Y-9.7046 Z-1.5000 F120.00
G3 X9.8401 Y-9.6141 Z-1.5000 I-0.2954 J-0.2954 F120.00
G3 X10.1599 Y-10.3859 Z-1.5000 I0.1599 J-0.3859 F120.00
G3 X10.2954 Y-9.7046 Z-1.5000 I-0.1599 J0.3859 F120.00
G1 X10.2954 Y-9.7046 Z-2.0000 F120.00
G3 X9.8401 Y-9.6141 Z-2.0000 I-0.2954 J-0.2954 F120.00
G3 X10.1599 Y-10.3859 Z-2.0000 I0.1599 J-0.3859 F120.00
G3 X10.2954 Y-9.7046 Z-2.0000 I-0.1599 J0.3859 F120.00
G0 X10.2954 Y-9.7046 Z5.0000
G0 X10.6507 Y-9.3493 Z5.0000
G0 X10.6507 Y-9.3493 Z1.0000
G1 X10.6507 Y-9.3493 Z-2.0000 F120.00
G3 X9.6479 Y-9.1499 Z-2.0000 I-0.6507 J-0.6507 F120.00
G3 X10.3521 Y-10.8501 Z-2.0000 I0.3521 J-0.8501 F120.00
G3 X10.6507 Y-9.3493 Z-2.0000 I-0.3521 J0.8501 F120.00
G1 X10.6507 Y-9.3493 Z-2.5000 F120.00
G3 X9.6479 Y-9.1499 Z-2.5000 I-0.6507 J-0.6507 F120.00
G3 X10.3521 Y-10.8501 Z-2.5000 I0.3521 J-0.8501 F120.00
G3 X10.6507 Y-9.3493 Z-2.5000 I-0.3521 J0.8501 F120.00
G0 X10.6507 Y-9.3493 Z5.0000
G0 X10.2954 Y-9.7046 Z5.0000
G0 X10.2954 Y-9.7046 Z0.5000
G1 X10.2954 Y-9.7046 Z-2.5000 F120.00
G3 X9.8401 Y-9.6141 Z-2.5000 I-0.2954 J-0.2954 F120.00
G3 X10.1599 Y-10.3859 Z-2.5000 I0.1599 J-0.3859 F120.00
G3 X10.2954 Y-9.7046 Z-2.5000 I-0.1599 J0.3859 F120.00
G1 X10.2954 Y-9.7046 Z-3.0000 F120.00
G3 X9.8401 Y-9.6141 Z-3.0000 I-0.2954 J-0.2954 F120.00
G3 X10.1599 Y-10.3859 Z-3.0000 I0.1599 J-0.3859 F120.00
G3 X10.2954 Y-9.7046 Z-3.0000 I-0.1599 J0.3859 F120.00
G0 X10.2954 Y-9.7046 Z5.0000
G0 X10.6507 Y-9.3493 Z5.0000
G0 X10.6507 Y-9.3493 Z0.0000
G1 X10.6507 Y-9.3493 Z-3.0000 F120.00
G3 X9.6479 Y-9.1499 Z-3.0000 I-0.6507 J-0.6507 F120.00
G3 X10.3521 Y-10.8501 Z-3.0000 I0.3521 J-0.8501 F120.00
G3 X10.6507 Y-9.3493 Z-3.0000 I-0.3521 J0.8501 F120.00
G1 X10.6507 Y-9.3493 Z-3.5000 F120.00
G3 X9.6479 Y-9.1499 Z-3.5000 I-0.6507 J-0.6507 F120.00
G3 X10.3521 Y-10.8501 Z-3.5000 I0.3521 J-0.8501 F120.00
G3 X10.6507 Y-9.3493 Z-3.5000 I-0.3521 J0.8501 F120.00
G0 X10.6507 Y-9.3493 Z5.0000
G0 X10.2954 Y-9.7046 Z5.0000
G0 X10.2954 Y-9.7046 Z-0.5000
G1 X10.2954 Y-9.7046 Z-3.5000 F120.00
G3 X9.8401 Y-9.6141 Z-3.5000 I-0.2954 J-0.2954 F120.00
G3 X10.1599 Y-10.3859 Z-3.5000 I0.1599 J-0.3859 F120.00
G3 X10.2954 Y-9.7046 Z-3.5000 I-0.1599 J0.3859 F120.00
G1 X10.2954 Y-9.7046 Z-4.0000 F120.00
G3 X9.8401 Y-9.6141 Z-4.0000 I-0.2954 J-0.2954 F120.00
G3 X10.1599 Y-10.3859 Z-4.0000 I0.1599 J-0.3859 F120.00
G3 X10.2954 Y-9.7046 Z-4.0000 I-0.1599 J0.3859 F120.00
G0 X10.2954 Y-9.7046 Z5.0000
G0 X10.6507 Y-9.3493 Z5.0000
G0 X10.6507 Y-9.3493 Z-1.0000
G1 X10.6507 Y-9.3493 Z-4.0000 F120.00
G3 X9.6479 Y-9.1499 Z-4.0000 I-0.6507 J-0.6507 F120.00
G3 X10.3521 Y-10.8501 Z-4.0000 I0.3521 J-0.8501 F120.00
G3 X10.6507 Y-9.3493 Z-4.0000 I-0.3521 J0.8501 F120.00
G1 X10.6507 Y-9.3493 Z-4.5000 F120.00
G3 X9.6479 Y-9.1499 Z-4.5000 I-0.6507 J-0.6507 F120.00
G3 X10.3521 Y-10.8501 Z-4.5000 I0.3521 J-0.8501 F120.00
G3 X10.6507 Y-9.3493 Z-4.5000 I-0.3521 J0.8501 F120.00
G0 X10.6507 Y-9.3493 Z5.0000
G0 X10.2954 Y-9.7046 Z5.0000
G0 X10.2954 Y-9.7046 Z-1.5000
G1 X10.2954 Y-9.7046 Z-4.5000 F120.00
G3 X9.8401 Y-9.6141 Z-4.5000 I-0.2954 J-0.2954 F120.00
G3 X10.1599 Y-10.3859 Z-4.5000 I0.1599 J-0.3859 F120.00
G3 X10.2954 Y-9.7046 Z-4.5000 I-0.1599 J0.3859 F120.00
G1 X10.2954 Y-9.7046 Z-5.0000 F120.00
G3 X9.8401 Y-9.6141 Z-5.0000 I-0.2954 J-0.2954 F120.00
G3 X10.1599 Y-10.3859 Z-5.0000 I0.1599 J-0.3859 F120.00
G3 X10.2954 Y-9.7046 Z-5.0000 I-0.1599 J0.3859 F120.00
G0 X10.2954 Y-9.7046 Z5.0000
G0 X10.6507 Y-9.3493 Z5.0000
G0 X10.6507 Y-9.3493 Z-2.0000
G1 X10.6507 Y-9.3493 Z-5.0000 F120.00
G3 X9.6479 Y-9.1499 Z-5.0000 I-0.6507 J-0.6507 F120.00
G3 X10.3521 Y-10.8501 Z-5.0000 I0.3521 J-0.8501 F120.00
G3 X10.6507 Y-9.3493 Z-5.0000 I-0.3521 J0.8501 F120.00
G1 X10.6507 Y-9.3493 Z-5.5000 F120.00
G3 X9.6479 Y-9.1499 Z-5.5000 I-0.6507 J-0.6507 F120.00
G3 X10.3521 Y-10.8501 Z-5.5000 I0.3521 J-0.8501 F120.00
G3 X10.6507 Y-9.3493 Z-5.5000 I-0.3521 J0.8501 F120.00
G0 X10.6507 Y-9.3493 Z5.0000
G0 X10.2954 Y-9.7046 Z5.0000
G0 X10.2954 Y-9.7046 Z-2.5000
G1 X10.2954 Y-9.7046 Z-5.5000 F120.00
G3 X9.8401 Y-9.6141 Z-5.5000 I-0.2954 J-0.2954 F120.00
G3 X10.1599 Y-10.3859 Z-5.5000 I0.1599 J-0.3859 F120.00
G3 X10.2954 Y-9.7046 Z-5.5000 I-0.1599 J0.3859 F120.00
G1 X10.2954 Y-9.7046 Z-6.0000 F120.00
G3 X9.8401 Y-9.6141 Z-6.0000 I-0.2954 J-0.2954 F120.00
G3 X10.1599 Y-10.3859 Z-6.0000 I0.1599 J-0.3859 F120.00
G3 X10.2954 Y-9.7046 Z-6.0000 I-0.1599 J0.3859 F120.00
G0 X10.2954 Y-9.7046 Z5.0000
G0 X10.6507 Y-9.3493 Z5.0000
G0 X10.6507 Y-9.3493 Z-3.0000
G1 X10.6507 Y-9.3493 Z-6.0000 F120.00
G3 X9.6479 Y-9.1499 Z-6.0000 I-0.6507 J-0.6507 F120.00
G3 X10.3521 Y-10.8501 Z-6.0000 I0.3521 J-0.8501 F120.00
G3 X10.6507 Y-9.3493 Z-6.0000 I-0.3521 J0.8501 F120.00
G1 X10.6507 Y-9.3493 Z-6.5000 F120.00
G3 X9.6479 Y-9.1499 Z-6.5000 I-0.6507 J-0.6507 F120.00
G3 X10.3521 Y-10.8501 Z-6.5000 I0.3521 J-0.8501 F120.00
G3 X10.6507 Y-9.3493 Z-6.5000 I-0.3521 J0.8501 F120.00
G0 X10.6507 Y-9.3493 Z5.0000
G0 X10.2954 Y-9.7046 Z5.0000
G0 X10.2954 Y-9.7046 Z-3.5000
G1 X10.2954 Y-9.7046 Z-6.5000 F120.00
G3 X9.8401 Y-9.6141 Z-6.5000 I-0.2954 J-0.2954 F120.00
G3 X10.1599 Y-10.3859 Z-6.5000 I0.1599 J-0.3859 F120.00
G3 X10.2954 Y-9.7046 Z-6.5000 I-0.1599 J0.3859 F120.00
G1 X10.2954 Y-9.7046 Z-7.0000 F120.00
G3 X9.8401 Y-9.6141 Z-7.0000 I-0.2954 J-0.2954 F120.00
G3 X10.1599 Y-10.3859 Z-7.0000 I0.1599 J-0.3859 F120.00
G3 X10.2954 Y-9.7046 Z-7.0000 I-0.1599 J0.3859 F120.00
G0 X10.2954 Y-9.7046 Z5.0000
G0 X10.6507 Y-9.3493 Z5.0000
G0 X10.6507 Y-9.3493 Z-4.0000
G1 X10.6507 Y-9.3493 Z-7.0000 F120.00
G3 X9.6479 Y-9.1499 Z-7.0000 I-0.6507 J-0.6507 F120.00
G3 X10.3521 Y-10.8501 Z-7.0000 I0.3521 J-0.8501 F120.00
G3 X10.6507 Y-9.3493 Z-7.0000 I-0.3521 J0.8501 F120.00
G1 X10.6507 Y-9.3493 Z-7.5000 F120.00
G3 X9.6479 Y-9.1499 Z-7.5000 I-0.6507 J-0.6507 F120.00
G3 X10.3521 Y-10.8501 Z-7.5000 I0.3521 J-0.8501 F120.00
G3 X10.6507 Y-9.3493 Z-7.5000 I-0.3521 J0.8501 F120.00
G0 X10.6507 Y-9.3493 Z5.0000
G0 X10.2954 Y-9.7046 Z5.0000
G0 X10.2954 Y-9.7046 Z-4.5000
G1 X10.2954 Y-9.7046 Z-7.5000 F120.00
G3 X9.8401 Y-9.6141 Z-7.5000 I-0.2954 J-0.2954 F120.00
G3 X10.1599 Y-10.3859 Z-7.5000 I0.1599 J-0.3859 F120.00
G3 X10.2954 Y-9.7046 Z-7.5000 I-0.1599 J0.3859 F120.00
G1 X10.2954 Y-9.7046 Z-8.0000 F120.00
G3 X9.8401 Y-9.6141 Z-8.0000 I-0.2954 J-0.2954 F120.00
G3 X10.1599 Y-10.3859 Z-8.0000 I0.1599 J-0.3859 F120.00
G3 X10.2954 Y-9.7046 Z-8.0000 I-0.1599 J0.3859 F120.00
G0 X10.2954 Y-9.7046 Z5.0000
G0 X10.6507 Y-9.3493 Z5.0000
G0 X10.6507 Y-9.3493 Z-5.0000
G1 X10.6507 Y-9.3493 Z-8.0000 F120.00
G3 X9.6479 Y-9.1499 Z-8.0000 I-0.6507 J-0.6507 F120.00
G3 X10.3521 Y-10.8501 Z-8.0000 I0.3521 J-0.8501 F120.00
G3 X10.6507 Y-9.3493 Z-8.0000 I-0.3521 J0.8501 F120.00
G1 X10.6507 Y-9.3493 Z-8.5000 F120.00
G3 X9.6479 Y-9.1499 Z-8.5000 I-0.6507 J-0.6507 F120.00
G3 X10.3521 Y-10.8501 Z-8.5000 I0.3521 J-0.8501 F120.00
G3 X10.6507 Y-9.3493 Z-8.5000 I-0.3521 J0.8501 F120.00
G0 X10.6507 Y-9.3493 Z5.0000
G0 X10.2954 Y-9.7046 Z5.0000
G0 X10.2954 Y-9.7046 Z-5.5000
G1 X10.2954 Y-9.7046 Z-8.5000 F120.00
G3 X9.8401 Y-9.6141 Z-8.5000 I-0.2954 J-0.2954 F120.00
G3 X10.1599 Y-10.3859 Z-8.5000 I0.1599 J-0.3859 F120.00
G3 X10.2954 Y-9.7046 Z-8.5000 I-0.1599 J0.3859 F120.00
G1 X10.2954 Y-9.7046 Z-9.0000 F120.00
G3 X9.8401 Y-9.6141 Z-9.0000 I-0.2954 J-0.2954 F120.00
G3 X10.1599 Y-10.3859 Z-9.0000 I0.1599 J-0.3859 F120.00
G3 X10.2954 Y-9.7046 Z-9.0000 I-0.1599 J0.3859 F120.00
G0 X10.2954 Y-9.7046 Z5.0000
G0 X10.6507 Y-9.3493 Z5.0000
G0 X10.6507 Y-9.3493 Z-6.0000
G1 X10.6507 Y-9.3493 Z-9.0000 F120.00
G3 X9.6479 Y-9.1499 Z-9.0000 I-0.6507 J-0.6507 F120.00
G3 X10.3521 Y-10.8501 Z-9.0000 I0.3521 J-0.8501 F120.00
G3 X10.6507 Y-9.3493 Z-9.0000 I-0.3521 J0.8501 F120.00
G1 X10.6507 Y-9.3493 Z-9.5000 F120.00
G3 X9.6479 Y-9.1499 Z-9.5000 I-0.6507 J-0.6507 F120.00
G3 X10.3521 Y-10.8501 Z-9.5000 I0.3521 J-0.8501 F120.00
G3 X10.6507 Y-9.3493 Z-9.5000 I-0.3521 J0.8501 F120.00
G0 X10.6507 Y-9.3493 Z5.0000
G0 X10.2954 Y-9.7046 Z5.0000
G0 X10.2954 Y-9.7046 Z-6.5000
G1 X10.2954 Y-9.7046 Z-9.5000 F120.00
G3 X9.8401 Y-9.6141 Z-9.5000 I-0.2954 J-0.2954 F120.00
G3 X10.1599 Y-10.3859 Z-9.5000 I0.1599 J-0.3859 F120.00
G3 X10.2954 Y-9.7046 Z-9.5000 I-0.1599 J0.3859 F120.00
G1 X10.2954 Y-9.7046 Z-10.0000 F120.00
G3 X9.8401 Y-9.6141 Z-10.0000 I-0.2954 J-0.2954 F120.00
G3 X10.1599 Y-10.3859 Z-10.0000 I0.1599 J-0.3859 F120.00
G3 X10.2954 Y-9.7046 Z-10.0000 I-0.1599 J0.3859 F120.00
G0 X10.2954 Y-9.7046 Z5.0000
G0 X10.6507 Y-9.3493 Z5.0000
G0 X10.6507 Y-9.3493 Z-7.0000
G1 X10.6507 Y-9.3493 Z-10.0000 F120.00
G3 X9.6479 Y-9.1499 Z-10.0000 I-0.6507 J-0.6507 F120.00
G3 X10.3521 Y-10.8501 Z-10.0000 I0.3521 J-0.8501 F120.00
G3 X10.6507 Y-9.3493 Z-10.0000 I-0.3521 J0.8501 F120.00
G1 X10.6507 Y-9.3493 Z-10.5000 F120.00
G3 X9.6479 Y-9.1499 Z-10.5000 I-0.6507 J-0.6507 F120.00
G3 X10.3521 Y-10.8501 Z-10.5000 I0.3521 J-0.8501 F120.00
G3 X10.6507 Y-9.3493 Z-10.5000 I-0.3521 J0.8501 F120.00
G0 X10.6507 Y-9.3493 Z5.0000
G0 X10.2954 Y-9.7046 Z5.0000
G0 X10.2954 Y-9.7046 Z-7.5000
G1 X10.2954 Y-9.7046 Z-10.5000 F120.00
G3 X9.8401 Y-9.6141 Z-10.5000 I-0.2954 J-0.2954 F120.00
G3 X10.1599 Y-10.3859 Z-10.5000 I0.1599 J-0.3859 F120.00
G3 X10.2954 Y-9.7046 Z-10.5000 I-0.1599 J0.3859 F120.00
G1 X10.2954 Y-9.7046 Z-11.0000 F120.00
G3 X9.8401 Y-9.6141 Z-11.0000 I-0.2954 J-0.2954 F120.00
G3 X10.1599 Y-10.3859 Z-11.0000 I0.1599 J-0.3859 F120.00
G3 X10.2954 Y-9.7046 Z-11.0000 I-0.1599 J0.3859 F120.00
G0 X10.2954 Y-9.7046 Z5.0000
G0 X10.6507 Y-9.3493 Z5.0000
G0 X10.6507 Y-9.3493 Z-8.0000
G1 X10.6507 Y-9.3493 Z-11.0000 F120.00
G3 X9.6479 Y-9.1499 Z-11.0000 I-0.6507 J-0.6507 F120.00
G3 X10.3521 Y-10.8501 Z-11.0000 I0.3521 J-0.8501 F120.00
G3 X10.6507 Y-9.3493 Z-11.0000 I-0.3521 J0.8501 F120.00
G1 X10.6507 Y-9.3493 Z-11.5000 F120.00
G3 X9.6479 Y-9.1499 Z-11.5000 I-0.6507 J-0.6507 F120.00
G3 X10.3521 Y-10.8501 Z-11.5000 I0.3521 J-0.8501 F120.00
G3 X10.6507 Y-9.3493 Z-11.5000 I-0.3521 J0.8501 F120.00
G0 X10.6507 Y-9.3493 Z5.0000
G0 X10.2954 Y-9.7046 Z5.0000
G0 X10.2954 Y-9.7046 Z-8.5000
G1 X10.2954 Y-9.7046 Z-11.5000 F120.00
G3 X9.8401 Y-9.6141 Z-11.5000 I-0.2954 J-0.2954 F120.00
G3 X10.1599 Y-10.3859 Z-11.5000 I0.1599 J-0.3859 F120.00
G3 X10.2954 Y-9.7046 Z-11.5000 I-0.1599 J0.3859 F120.00
G1 X10.2954 Y-9.7046 Z-12.0000 F120.00
G3 X9.8401 Y-9.6141 Z-12.0000 I-0.2954 J-0.2954 F120.00
G3 X10.1599 Y-10.3859 Z-12.0000 I0.1599 J-0.3859 F120.00
G3 X10.2954 Y-9.7046 Z-12.0000 I-0.1599 J0.3859 F120.00
G0 X10.2954 Y-9.7046 Z5.0000
G0 X10.6507 Y-9.3493 Z5.0000
G0 X10.6507 Y-9.3493 Z-9.0000
G1 X10.6507 Y-9.3493 Z-12.0000 F120.00
G3 X9.6479 Y-9.1499 Z-12.0000 I-0.6507 J-0.6507 F120.00
G3 X10.3521 Y-10.8501 Z-12.0000 I0.3521 J-0.8501 F120.00
G3 X10.6507 Y-9.3493 Z-12.0000 I-0.3521 J0.8501 F120.00
G0 Z5.0000
G0 X90.6507 Y-9.3493
G0 Z3.0000
G1 X90.6507 Y-9.3493 Z-0.5000 F120.00
G3 X89.6479 Y-9.1499 Z-0.5000 I-0.6507 J-0.6507 F120.00
G3 X90.3521 Y-10.8501 Z-0.5000 I0.3521 J-0.8501 F120.00
G3 X90.6507 Y-9.3493 Z-0.5000 I-0.3521 J0.8501 F120.00
G0 X90.6507 Y-9.3493 Z5.0000
G0 X90.2954 Y-9.7046 Z5.0000
G0 X90.2954 Y-9.7046 Z2.5000
G1 X90.2954 Y-9.7046 Z-0.5000 F120.00
G3 X89.8401 Y-9.6141 Z-0.5000 I-0.2954 J-0.2954 F120.00
G3 X90.1599 Y-10.3859 Z-0.5000 I0.1599 J-0.3859 F120.00
G3 X90.2954 Y-9.7046 Z-0.5000 I-0.1599 J0.3859 F120.00
G1 X90.2954 Y-9.7046 Z-1.0000 F120.00
G3 X89.8401 Y-9.6141 Z-1.0000 I-0.2954 J-0.2954 F120.00
G3 X90.1599 Y-10.3859 Z-1.0000 I0.1599 J-0.3859 F120.00
G3 X90.2954 Y-9.7046 Z-1.0000 I-0.1599 J0.3859 F120.00
G0 X90.2954 Y-9.7046 Z5.0000
G0 X90.6507 Y-9.3493 Z5.0000
G0 X90.6507 Y-9.3493 Z2.0000
G1 X90.6507 Y-9.3493 Z-1.0000 F120.00
G3 X89.6479 Y-9.1499 Z-1.0000 I-0.6507 J-0.6507 F120.00
G3 X90.3521 Y-10.8501 Z-1.0000 I0.3521 J-0.8501 F120.00
G3 X90.6507 Y-9.3493 Z-1.0000 I-0.3521 J0.8501 F120.00
G1 X90.6507 Y-9.3493 Z-1.5000 F120.00
G3 X89.6479 Y-9.1499 Z-1.5000 I-0.6507 J-0.6507 F120.00
G3 X90.3521 Y-10.8501 Z-1.5000 I0.3521 J-0.8501 F120.00
G3 X90.6507 Y-9.3493 Z-1.5000 I-0.3521 J0.8501 F120.00
G0 X90.6507 Y-9.3493 Z5.0000
G0 X90.2954 Y-9.7046 Z5.0000
G0 X90.2954 Y-9.7046 Z1.5000
G1 X90.2954 Y-9.7046 Z-1.5000 F120.00
G3 X89.8401 Y-9.6141 Z-1.5000 I-0.2954 J-0.2954 F120.00
G3 X90.1599 Y-10.3859 Z-1.5000 I0.1599 J-0.3859 F120.00
G3 X90.2954 Y-9.7046 Z-1.5000 I-0.1599 J0.3859 F120.00
G1 X90.2954 Y-9.7046 Z-2.0000 F120.00
G3 X89.8401 Y-9.6141 Z-2.0000 I-0.2954 J-0.2954 F120.00
G3 X90.1599 Y-10.3859 Z-2.0000 I0.1599 J-0.3859 F120.00
G3 X90.2954 Y-9.7046 Z-2.0000 I-0.1599 J0.3859 F120.00
G0 X90.2954 Y-9.7046 Z5.0000
G0 X90.6507 Y-9.3493 Z5.0000
G0 X90.6507 Y-9.3493 Z1.0000
G1 X90.6507 Y-9.3493 Z-2.0000 F120.00
G3 X89.6479 Y-9.1499 Z-2.0000 I-0.6507 J-0.6507 F120.00
G3 X90.3521 Y-10.8501 Z-2.0000 I0.3521 J-0.8501 F120.00
G3 X90.6507 Y-9.3493 Z-2.0000 I-0.3521 J0.8501 F120.00
G1 X90.6507 Y-9.3493 Z-2.5000 F120.00
G3 X89.6479 Y-9.1499 Z-2.5000 I-0.6507 J-0.6507 F120.00
G3 X90.3521 Y-10.8501 Z-2.5000 I0.3521 J-0.8501 F120.00
G3 X90.6507 Y-9.3493 Z-2.5000 I-0.3521 J0.8501 F120.00
G0 X90.6507 Y-9.3493 Z5.0000
G0 X90.2954 Y-9.7046 Z5.0000
G0 X90.2954 Y-9.7046 Z0.5000
G1 X90.2954 Y-9.7046 Z-2.5000 F120.00
G3 X89.8401 Y-9.6141 Z-2.5000 I-0.2954 J-0.2954 F120.00
G3 X90.1599 Y-10.3859 Z-2.5000 I0.1599 J-0.3859 F120.00
G3 X90.2954 Y-9.7046 Z-2.5000 I-0.1599 J0.3859 F120.00
G1 X90.2954 Y-9.7046 Z-3.0000 F120.00
G3 X89.8401 Y-9.6141 Z-3.0000 I-0.2954 J-0.2954 F120.00
G3 X90.1599 Y-10.3859 Z-3.0000 I0.1599 J-0.3859 F120.00
G3 X90.2954 Y-9.7046 Z-3.0000 I-0.1599 J0.3859 F120.00
G0 X90.2954 Y-9.7046 Z5.0000
G0 X90.6507 Y-9.3493 Z5.0000
G0 X90.6507 Y-9.3493 Z0.0000
G1 X90.6507 Y-9.3493 Z-3.0000 F120.00
G3 X89.6479 Y-9.1499 Z-3.0000 I-0.6507 J-0.6507 F120.00
G3 X90.3521 Y-10.8501 Z-3.0000 I0.3521 J-0.8501 F120.00
G3 X90.6507 Y-9.3493 Z-3.0000 I-0.3521 J0.8501 F120.00
G1 X90.6507 Y-9.3493 Z-3.5000 F120.00
G3 X89.6479 Y-9.1499 Z-3.5000 I-0.6507 J-0.6507 F120.00
G3 X90.3521 Y-10.8501 Z-3.5000 I0.3521 J-0.8501 F120.00
G3 X90.6507 Y-9.3493 Z-3.5000 I-0.3521 J0.8501 F120.00
G0 X90.6507 Y-9.3493 Z5.0000
G0 X90.2954 Y-9.7046 Z5.0000
G0 X90.2954 Y-9.7046 Z-0.5000
G1 X90.2954 Y-9.7046 Z-3.5000 F120.00
G3 X89.8401 Y-9.6141 Z-3.5000 I-0.2954 J-0.2954 F120.00
G3 X90.1599 Y-10.3859 Z-3.5000 I0.1599 J-0.3859 F120.00
G3 X90.2954 Y-9.7046 Z-3.5000 I-0.1599 J0.3859 F120.00
G1 X90.2954 Y-9.7046 Z-4.0000 F120.00
G3 X89.8401 Y-9.6141 Z-4.0000 I-0.2954 J-0.2954 F120.00
G3 X90.1599 Y-10.3859 Z-4.0000 I0.1599 J-0.3859 F120.00
G3 X90.2954 Y-9.7046 Z-4.0000 I-0.1599 J0.3859 F120.00
G0 X90.2954 Y-9.7046 Z5.0000
G0 X90.6507 Y-9.3493 Z5.0000
G0 X90.6507 Y-9.3493 Z-1.0000
G1 X90.6507 Y-9.3493 Z-4.0000 F120.00
G3 X89.6479 Y-9.1499 Z-4.0000 I-0.6507 J-0.6507 F120.00
G3 X90.3521 Y-10.8501 Z-4.0000 I0.3521 J-0.8501 F120.00
G3 X90.6507 Y-9.3493 Z-4.0000 I-0.3521 J0.8501 F120.00
G1 X90.6507 Y-9.3493 Z-4.5000 F120.00
G3 X89.6479 Y-9.1499 Z-4.5000 I-0.6507 J-0.6507 F120.00
G3 X90.3521 Y-10.8501 Z-4.5000 I0.3521 J-0.8501 F120.00
G3 X90.6507 Y-9.3493 Z-4.5000 I-0.3521 J0.8501 F120.00
G0 X90.6507 Y-9.3493 Z5.0000
G0 X90.2954 Y-9.7046 Z5.0000
G0 X90.2954 Y-9.7046 Z-1.5000
G1 X90.2954 Y-9.7046 Z-4.5000 F120.00
G3 X89.8401 Y-9.6141 Z-4.5000 I-0.2954 J-0.2954 F120.00
G3 X90.1599 Y-10.3859 Z-4.5000 I0.1599 J-0.3859 F120.00
G3 X90.2954 Y-9.7046 Z-4.5000 I-0.1599 J0.3859 F120.00
G1 X90.2954 Y-9.7046 Z-5.0000 F120.00
G3 X89.8401 Y-9.6141 Z-5.0000 I-0.2954 J-0.2954 F120.00
G3 X90.1599 Y-10.3859 Z-5.0000 I0.1599 J-0.3859 F120.00
G3 X90.2954 Y-9.7046 Z-5.0000 I-0.1599 J0.3859 F120.00
G0 X90.2954 Y-9.7046 Z5.0000
G0 X90.6507 Y-9.3493 Z5.0000
G0 X90.6507 Y-9.3493 Z-2.0000
G1 X90.6507 Y-9.3493 Z-5.0000 F120.00
G3 X89.6479 Y-9.1499 Z-5.0000 I-0.6507 J-0.6507 F120.00
G3 X90.3521 Y-10.8501 Z-5.0000 I0.3521 J-0.8501 F120.00
G3 X90.6507 Y-9.3493 Z-5.0000 I-0.3521 J0.8501 F120.00
G1 X90.6507 Y-9.3493 Z-5.5000 F120.00
G3 X89.6479 Y-9.1499 Z-5.5000 I-0.6507 J-0.6507 F120.00
G3 X90.3521 Y-10.8501 Z-5.5000 I0.3521 J-0.8501 F120.00
G3 X90.6507 Y-9.3493 Z-5.5000 I-0.3521 J0.8501 F120.00
G0 X90.6507 Y-9.3493 Z5.0000
G0 X90.2954 Y-9.7046 Z5.0000
G0 X90.2954 Y-9.7046 Z-2.5000
G1 X90.2954 Y-9.7046 Z-5.5000 F120.00
G3 X89.8401 Y-9.6141 Z-5.5000 I-0.2954 J-0.2954 F120.00
G3 X90.1599 Y-10.3859 Z-5.5000 I0.1599 J-0.3859 F120.00
G3 X90.2954 Y-9.7046 Z-5.5000 I-0.1599 J0.3859 F120.00
G1 X90.2954 Y-9.7046 Z-6.0000 F120.00
G3 X89.8401 Y-9.6141 Z-6.0000 I-0.2954 J-0.2954 F120.00
G3 X90.1599 Y-10.3859 Z-6.0000 I0.1599 J-0.3859 F120.00
G3 X90.2954 Y-9.7046 Z-6.0000 I-0.1599 J0.3859 F120.00
G0 X90.2954 Y-9.7046 Z5.0000
G0 X90.6507 Y-9.3493 Z5.0000
G0 X90.6507 Y-9.3493 Z-3.0000
G1 X90.6507 Y-9.3493 Z-6.0000 F120.00
G3 X89.6479 Y-9.1499 Z-6.0000 I-0.6507 J-0.6507 F120.00
G3 X90.3521 Y-10.8501 Z-6.0000 I0.3521 J-0.8501 F120.00
G3 X90.6507 Y-9.3493 Z-6.0000 I-0.3521 J0.8501 F120.00
G1 X90.6507 Y-9.3493 Z-6.5000 F120.00
G3 X89.6479 Y-9.1499 Z-6.5000 I-0.6507 J-0.6507 F120.00
G3 X90.3521 Y-10.8501 Z-6.5000 I0.3521 J-0.8501 F120.00
G3 X90.6507 Y-9.3493 Z-6.5000 I-0.3521 J0.8501 F120.00
G0 X90.6507 Y-9.3493 Z5.0000
G0 X90.2954 Y-9.7046 Z5.0000
G0 X90.2954 Y-9.7046 Z-3.5000
G1 X90.2954 Y-9.7046 Z-6.5000 F120.00
G3 X89.8401 Y-9.6141 Z-6.5000 I-0.2954 J-0.2954 F120.00
G3 X90.1599 Y-10.3859 Z-6.5000 I0.1599 J-0.3859 F120.00
G3 X90.2954 Y-9.7046 Z-6.5000 I-0.1599 J0.3859 F120.00
G1 X90.2954 Y-9.7046 Z-7.0000 F120.00
G3 X89.8401 Y-9.6141 Z-7.0000 I-0.2954 J-0.2954 F120.00
G3 X90.1599 Y-10.3859 Z-7.0000 I0.1599 J-0.3859 F120.00
G3 X90.2954 Y-9.7046 Z-7.0000 I-0.1599 J0.3859 F120.00
G0 X90.2954 Y-9.7046 Z5.0000
G0 X90.6507 Y-9.3493 Z5.0000
G0 X90.6507 Y-9.3493 Z-4.0000
G1 X90.6507 Y-9.3493 Z-7.0000 F120.00
G3 X89.6479 Y-9.1499 Z-7.0000 I-0.6507 J-0.6507 F120.00
G3 X90.3521 Y-10.8501 Z-7.0000 I0.3521 J-0.8501 F120.00
G3 X90.6507 Y-9.3493 Z-7.0000 I-0.3521 J0.8501 F120.00
G1 X90.6507 Y-9.3493 Z-7.5000 F120.00
G3 X89.6479 Y-9.1499 Z-7.5000 I-0.6507 J-0.6507 F120.00
G3 X90.3521 Y-10.8501 Z-7.5000 I0.3521 J-0.8501 F120.00
G3 X90.6507 Y-9.3493 Z-7.5000 I-0.3521 J0.8501 F120.00
G0 X90.6507 Y-9.3493 Z5.0000
G0 X90.2954 Y-9.7046 Z5.0000
G0 X90.2954 Y-9.7046 Z-4.5000
G1 X90.2954 Y-9.7046 Z-7.5000 F120.00
G3 X89.8401 Y-9.6141 Z-7.5000 I-0.2954 J-0.2954 F120.00
G3 X90.1599 Y-10.3859 Z-7.5000 I0.1599 J-0.3859 F120.00
G3 X90.2954 Y-9.7046 Z-7.5000 I-0.1599 J0.3859 F120.00
G1 X90.2954 Y-9.7046 Z-8.0000 F120.00
G3 X89.8401 Y-9.6141 Z-8.0000 I-0.2954 J-0.2954 F120.00
G3 X90.1599 Y-10.3859 Z-8.0000 I0.1599 J-0.3859 F120.00
G3 X90.2954 Y-9.7046 Z-8.0000 I-0.1599 J0.3859 F120.00
G0 X90.2954 Y-9.7046 Z5.0000
G0 X90.6507 Y-9.3493 Z5.0000
G0 X90.6507 Y-9.3493 Z-5.0000
G1 X90.6507 Y-9.3493 Z-8.0000 F120.00
G3 X89.6479 Y-9.1499 Z-8.0000 I-0.6507 J-0.6507 F120.00
G3 X90.3521 Y-10.8501 Z-8.0000 I0.3521 J-0.8501 F120.00
G3 X90.6507 Y-9.3493 Z-8.0000 I-0.3521 J0.8501 F120.00
G1 X90.6507 Y-9.3493 Z-8.5000 F120.00
G3 X89.6479 Y-9.1499 Z-8.5000 I-0.6507 J-0.6507 F120.00
G3 X90.3521 Y-10.8501 Z-8.5000 I0.3521 J-0.8501 F120.00
G3 X90.6507 Y-9.3493 Z-8.5000 I-0.3521 J0.8501 F120.00
G0 X90.6507 Y-9.3493 Z5.0000
G0 X90.2954 Y-9.7046 Z5.0000
G0 X90.2954 Y-9.7046 Z-5.5000
G1 X90.2954 Y-9.7046 Z-8.5000 F120.00
G3 X89.8401 Y-9.6141 Z-8.5000 I-0.2954 J-0.2954 F120.00
G3 X90.1599 Y-10.3859 Z-8.5000 I0.1599 J-0.3859 F120.00
G3 X90.2954 Y-9.7046 Z-8.5000 I-0.1599 J0.3859 F120.00
G1 X90.2954 Y-9.7046 Z-9.0000 F120.00
G3 X89.8401 Y-9.6141 Z-9.0000 I-0.2954 J-0.2954 F120.00
G3 X90.1599 Y-10.3859 Z-9.0000 I0.1599 J-0.3859 F120.00
G3 X90.2954 Y-9.7046 Z-9.0000 I-0.1599 J0.3859 F120.00
G0 X90.2954 Y-9.7046 Z5.0000
G0 X90.6507 Y-9.3493 Z5.0000
G0 X90.6507 Y-9.3493 Z-6.0000
G1 X90.6507 Y-9.3493 Z-9.0000 F120.00
G3 X89.6479 Y-9.1499 Z-9.0000 I-0.6507 J-0.6507 F120.00
G3 X90.3521 Y-10.8501 Z-9.0000 I0.3521 J-0.8501 F120.00
G3 X90.6507 Y-9.3493 Z-9.0000 I-0.3521 J0.8501 F120.00
G1 X90.6507 Y-9.3493 Z-9.5000 F120.00
G3 X89.6479 Y-9.1499 Z-9.5000 I-0.6507 J-0.6507 F120.00
G3 X90.3521 Y-10.8501 Z-9.5000 I0.3521 J-0.8501 F120.00
G3 X90.6507 Y-9.3493 Z-9.5000 I-0.3521 J0.8501 F120.00
G0 X90.6507 Y-9.3493 Z5.0000
G0 X90.2954 Y-9.7046 Z5.0000
G0 X90.2954 Y-9.7046 Z-6.5000
G1 X90.2954 Y-9.7046 Z-9.5000 F120.00
G3 X89.8401 Y-9.6141 Z-9.5000 I-0.2954 J-0.2954 F120.00
G3 X90.1599 Y-10.3859 Z-9.5000 I0.1599 J-0.3859 F120.00
G3 X90.2954 Y-9.7046 Z-9.5000 I-0.1599 J0.3859 F120.00
G1 X90.2954 Y-9.7046 Z-10.0000 F120.00
G3 X89.8401 Y-9.6141 Z-10.0000 I-0.2954 J-0.2954 F120.00
G3 X90.1599 Y-10.3859 Z-10.0000 I0.1599 J-0.3859 F120.00
G3 X90.2954 Y-9.7046 Z-10.0000 I-0.1599 J0.3859 F120.00
G0 X90.2954 Y-9.7046 Z5.0000
G0 X90.6507 Y-9.3493 Z5.0000
G0 X90.6507 Y-9.3493 Z-7.0000
G1 X90.6507 Y-9.3493 Z-10.0000 F120.00
G3 X89.6479 Y-9.1499 Z-10.0000 I-0.6507 J-0.6507 F120.00
G3 X90.3521 Y-10.8501 Z-10.0000 I0.3521 J-0.8501 F120.00
G3 X90.6507 Y-9.3493 Z-10.0000 I-0.3521 J0.8501 F120.00
G1 X90.6507 Y-9.3493 Z-10.5000 F120.00
G3 X89.6479 Y-9.1499 Z-10.5000 I-0.6507 J-0.6507 F120.00
G3 X90.3521 Y-10.8501 Z-10.5000 I0.3521 J-0.8501 F120.00
G3 X90.6507 Y-9.3493 Z-10.5000 I-0.3521 J0.8501 F120.00
G0 X90.6507 Y-9.3493 Z5.0000
G0 X90.2954 Y-9.7046 Z5.0000
G0 X90.2954 Y-9.7046 Z-7.5000
G1 X90.2954 Y-9.7046 Z-10.5000 F120.00
G3 X89.8401 Y-9.6141 Z-10.5000 I-0.2954 J-0.2954 F120.00
G3 X90.1599 Y-10.3859 Z-10.5000 I0.1599 J-0.3859 F120.00
G3 X90.2954 Y-9.7046 Z-10.5000 I-0.1599 J0.3859 F120.00
G1 X90.2954 Y-9.7046 Z-11.0000 F120.00
G3 X89.8401 Y-9.6141 Z-11.0000 I-0.2954 J-0.2954 F120.00
G3 X90.1599 Y-10.3859 Z-11.0000 I0.1599 J-0.3859 F120.00
G3 X90.2954 Y-9.7046 Z-11.0000 I-0.1599 J0.3859 F120.00
G0 X90.2954 Y-9.7046 Z5.0000
G0 X90.6507 Y-9.3493 Z5.0000
G0 X90.6507 Y-9.3493 Z-8.0000
G1 X90.6507 Y-9.3493 Z-11.0000 F120.00
G3 X89.6479 Y-9.1499 Z-11.0000 I-0.6507 J-0.6507 F120.00
G3 X90.3521 Y-10.8501 Z-11.0000 I0.3521 J-0.8501 F120.00
G3 X90.6507 Y-9.3493 Z-11.0000 I-0.3521 J0.8501 F120.00
G1 X90.6507 Y-9.3493 Z-11.5000 F120.00
G3 X89.6479 Y-9.1499 Z-11.5000 I-0.6507 J-0.6507 F120.00
G3 X90.3521 Y-10.8501 Z-11.5000 I0.3521 J-0.8501 F120.00
G3 X90.6507 Y-9.3493 Z-11.5000 I-0.3521 J0.8501 F120.00
G0 X90.6507 Y-9.3493 Z5.0000
G0 X90.2954 Y-9.7046 Z5.0000
G0 X90.2954 Y-9.7046 Z-8.5000
G1 X90.2954 Y-9.7046 Z-11.5000 F120.00
G3 X89.8401 Y-9.6141 Z-11.5000 I-0.2954 J-0.2954 F120.00
G3 X90.1599 Y-10.3859 Z-11.5000 I0.1599 J-0.3859 F120.00
G3 X90.2954 Y-9.7046 Z-11.5000 I-0.1599 J0.3859 F120.00
G1 X90.2954 Y-9.7046 Z-12.0000 F120.00
G3 X89.8401 Y-9.6141 Z-12.0000 I-0.2954 J-0.2954 F120.00
G3 X90.1599 Y-10.3859 Z-12.0000 I0.1599 J-0.3859 F120.00
G3 X90.2954 Y-9.7046 Z-12.0000 I-0.1599 J0.3859 F120.00
G0 X90.2954 Y-9.7046 Z5.0000
G0 X90.6507 Y-9.3493 Z5.0000
G0 X90.6507 Y-9.3493 Z-9.0000
G1 X90.6507 Y-9.3493 Z-12.0000 F120.00
G3 X89.6479 Y-9.1499 Z-12.0000 I-0.6507 J-0.6507 F120.00
G3 X90.3521 Y-10.8501 Z-12.0000 I0.3521 J-0.8501 F120.00
G3 X90.6507 Y-9.3493 Z-12.0000 I-0.3521 J0.8501 F120.00
G0 Z5.0000
G0 X10.6507 Y-89.3493
G0 Z3.0000
G1 X10.6507 Y-89.3493 Z-0.5000 F120.00
G3 X9.6479 Y-89.1499 Z-0.5000 I-0.6507 J-0.6507 F120.00
G3 X10.3521 Y-90.8501 Z-0.5000 I0.3521 J-0.8501 F120.00
G3 X10.6507 Y-89.3493 Z-0.5000 I-0.3521 J0.8501 F120.00
G0 X10.6507 Y-89.3493 Z5.0000
G0 X10.2954 Y-89.7046 Z5.0000
G0 X10.2954 Y-89.7046 Z2.5000
G1 X10.2954 Y-89.7046 Z-0.5000 F120.00
G3 X9.8401 Y-89.6141 Z-0.5000 I-0.2954 J-0.2954 F120.00
G3 X10.1599 Y-90.3859 Z-0.5000 I0.1599 J-0.3859 F120.00
G3 X10.2954 Y-89.7046 Z-0.5000 I-0.1599 J0.3859 F120.00
G1 X10.2954 Y-89.7046 Z-1.0000 F120.00
G3 X9.8401 Y-89.6141 Z-1.0000 I-0.2954 J-0.2954 F120.00
G3 X10.1599 Y-90.3859 Z-1.0000 I0.1599 J-0.3859 F120.00
G3 X10.2954 Y-89.7046 Z-1.0000 I-0.1599 J0.3859 F120.00
G0 X10.2954 Y-89.7046 Z5.0000
G0 X10.6507 Y-89.3493 Z5.0000
G0 X10.6507 Y-89.3493 Z2.0000
G1 X10.6507 Y-89.3493 Z-1.0000 F120.00
G3 X9.6479 Y-89.1499 Z-1.0000 I-0.6507 J-0.6507 F120.00
G3 X10.3521 Y-90.8501 Z-1.0000 I0.3521 J-0.8501 F120.00
G3 X10.6507 Y-89.3493 Z-1.0000 I-0.3521 J0.8501 F120.00
G1 X10.6507 Y-89.3493 Z-1.5000 F120.00
G3 X9.6479 Y-89.1499 Z-1.5000 I-0.6507 J-0.6507 F120.00
G3 X10.3521 Y-90.8501 Z-1.5000 I0.3521 J-0.8501 F120.00
G3 X10.6507 Y-89.3493 Z-1.5000 I-0.3521 J0.8501 F120.00
G0 X10.6507 Y-89.3493 Z5.0000
G0 X10.2954 Y-89.7046 Z5.0000
G0 X10.2954 Y-89.7046 Z1.5000
G1 X10.2954 Y-89.7046 Z-1.5000 F120.00
G3 X9.8401 Y-89.6141 Z-1.5000 I-0.2954 J-0.2954 F120.00
G3 X10.1599 Y-90.3859 Z-1.5000 I0.1599 J-0.3859 F120.00
G3 X10.2954 Y-89.7046 Z-1.5000 I-0.1599 J0.3859 F120.00
G1 X10.2954 Y-89.7046 Z-2.0000 F120.00
G3 X9.8401 Y-89.6141 Z-2.0000 I-0.2954 J-0.2954 F120.00
G3 X10.1599 Y-90.3859 Z-2.0000 I0.1599 J-0.3859 F120.00
G3 X10.2954 Y-89.7046 Z-2.0000 I-0.1599 J0.3859 F120.00
G0 X10.2954 Y-89.7046 Z5.0000
G0 X10.6507 Y-89.3493 Z5.0000
G0 X10.6507 Y-89.3493 Z1.0000
G1 X10.6507 Y-89.3493 Z-2.0000 F120.00
G3 X9.6479 Y-89.1499 Z-2.0000 I-0.6507 J-0.6507 F120.00
G3 X10.3521 Y-90.8501 Z-2.0000 I0.3521 J-0.8501 F120.00
G3 X10.6507 Y-89.3493 Z-2.0000 I-0.3521 J0.8501 F120.00
G1 X10.6507 Y-89.3493 Z-2.5000 F120.00
G3 X9.6479 Y-89.1499 Z-2.5000 I-0.6507 J-0.6507 F120.00
G3 X10.3521 Y-90.8501 Z-2.5000 I0.3521 J-0.8501 F120.00
G3 X10.6507 Y-89.3493 Z-2.5000 I-0.3521 J0.8501 F120.00
G0 X10.6507 Y-89.3493 Z5.0000
G0 X10.2954 Y-89.7046 Z5.0000
G0 X10.2954 Y-89.7046 Z0.5000
G1 X10.2954 Y-89.7046 Z-2.5000 F120.00
G3 X9.8401 Y-89.6141 Z-2.5000 I-0.2954 J-0.2954 F120.00
G3 X10.1599 Y-90.3859 Z-2.5000 I0.1599 J-0.3859 F120.00
G3 X10.2954 Y-89.7046 Z-2.5000 I-0.1599 J0.3859 F120.00
G1 X10.2954 Y-89.7046 Z-3.0000 F120.00
G3 X9.8401 Y-89.6141 Z-3.0000 I-0.2954 J-0.2954 F120.00
G3 X10.1599 Y-90.3859 Z-3.0000 I0.1599 J-0.3859 F120.00
G3 X10.2954 Y-89.7046 Z-3.0000 I-0.1599 J0.3859 F120.00
G0 X10.2954 Y-89.7046 Z5.0000
G0 X10.6507 Y-89.3493 Z5.0000
G0 X10.6507 Y-89.3493 Z0.0000
G1 X10.6507 Y-89.3493 Z-3.0000 F120.00
G3 X9.6479 Y-89.1499 Z-3.0000 I-0.6507 J-0.6507 F120.00
G3 X10.3521 Y-90.8501 Z-3.0000 I0.3521 J-0.8501 F120.00
G3 X10.6507 Y-89.3493 Z-3.0000 I-0.3521 J0.8501 F120.00
G1 X10.6507 Y-89.3493 Z-3.5000 F120.00
G3 X9.6479 Y-89.1499 Z-3.5000 I-0.6507 J-0.6507 F120.00
G3 X10.3521 Y-90.8501 Z-3.5000 I0.3521 J-0.8501 F120.00
G3 X10.6507 Y-89.3493 Z-3.5000 I-0.3521 J0.8501 F120.00
G0 X10.6507 Y-89.3493 Z5.0000
G0 X10.2954 Y-89.7046 Z5.0000
G0 X10.2954 Y-89.7046 Z-0.5000
G1 X10.2954 Y-89.7046 Z-3.5000 F120.00
G3 X9.8401 Y-89.6141 Z-3.5000 I-0.2954 J-0.2954 F120.00
G3 X10.1599 Y-90.3859 Z-3.5000 I0.1599 J-0.3859 F120.00
G3 X10.2954 Y-89.7046 Z-3.5000 I-0.1599 J0.3859 F120.00
G1 X10.2954 Y-89.7046 Z-4.0000 F120.00
G3 X9.8401 Y-89.6141 Z-4.0000 I-0.2954 J-0.2954 F120.00
G3 X10.1599 Y-90.3859 Z-4.0000 I0.1599 J-0.3859 F120.00
G3 X10.2954 Y-89.7046 Z-4.0000 I-0.1599 J0.3859 F120.00
G0 X10.2954 Y-89.7046 Z5.0000
G0 X10.6507 Y-89.3493 Z5.0000
G0 X10.6507 Y-89.3493 Z-1.0000
G1 X10.6507 Y-89.3493 Z-4.0000 F120.00
G3 X9.6479 Y-89.1499 Z-4.0000 I-0.6507 J-0.6507 F120.00
G3 X10.3521 Y-90.8501 Z-4.0000 I0.3521 J-0.8501 F120.00
G3 X10.6507 Y-89.3493 Z-4.0000 I-0.3521 J0.8501 F120.00
G1 X10.6507 Y-89.3493 Z-4.5000 F120.00
G3 X9.6479 Y-89.1499 Z-4.5000 I-0.6507 J-0.6507 F120.00
G3 X10.3521 Y-90.8501 Z-4.5000 I0.3521 J-0.8501 F120.00
G3 X10.6507 Y-89.3493 Z-4.5000 I-0.3521 J0.8501 F120.00
G0 X10.6507 Y-89.3493 Z5.0000
G0 X10.2954 Y-89.7046 Z5.0000
G0 X10.2954 Y-89.7046 Z-1.5000
G1 X10.2954 Y-89.7046 Z-4.5000 F120.00
G3 X9.8401 Y-89.6141 Z-4.5000 I-0.2954 J-0.2954 F120.00
G3 X10.1599 Y-90.3859 Z-4.5000 I0.1599 J-0.3859 F120.00
G3 X10.2954 Y-89.7046 Z-4.5000 I-0.1599 J0.3859 F120.00
G1 X10.2954 Y-89.7046 Z-5.0000 F120.00
G3 X9.8401 Y-89.6141 Z-5.0000 I-0.2954 J-0.2954 F120.00
G3 X10.1599 Y-90.3859 Z-5.0000 I0.1599 J-0.3859 F120.00
G3 X10.2954 Y-89.7046 Z-5.0000 I-0.1599 J0.3859 F120.00
G0 X10.2954 Y-89.7046 Z5.0000
G0 X10.6507 Y-89.3493 Z5.0000
G0 X10.6507 Y-89.3493 Z-2.0000
G1 X10.6507 Y-89.3493 Z-5.0000 F120.00
G3 X9.6479 Y-89.1499 Z-5.0000 I-0.6507 J-0.6507 F120.00
G3 X10.3521 Y-90.8501 Z-5.0000 I0.3521 J-0.8501 F120.00
G3 X10.6507 Y-89.3493 Z-5.0000 I-0.3521 J0.8501 F120.00
G1 X10.6507 Y-89.3493 Z-5.5000 F120.00
G3 X9.6479 Y-89.1499 Z-5.5000 I-0.6507 J-0.6507 F120.00
G3 X10.3521 Y-90.8501 Z-5.5000 I0.3521 J-0.8501 F120.00
G3 X10.6507 Y-89.3493 Z-5.5000 I-0.3521 J0.8501 F120.00
G0 X10.6507 Y-89.3493 Z5.0000
G0 X10.2954 Y-89.7046 Z5.0000
G0 X10.2954 Y-89.7046 Z-2.5000
G1 X10.2954 Y-89.7046 Z-5.5000 F120.00
G3 X9.8401 Y-89.6141 Z-5.5000 I-0.2954 J-0.2954 F120.00
G3 X10.1599 Y-90.3859 Z-5.5000 I0.1599 J-0.3859 F120.00
G3 X10.2954 Y-89.7046 Z-5.5000 I-0.1599 J0.3859 F120.00
G1 X10.2954 Y-89.7046 Z-6.0000 F120.00
G3 X9.8401 Y-89.6141 Z-6.0000 I-0.2954 J-0.2954 F120.00
G3 X10.1599 Y-90.3859 Z-6.0000 I0.1599 J-0.3859 F120.00
G3 X10.2954 Y-89.7046 Z-6.0000 I-0.1599 J0.3859 F120.00
G0 X10.2954 Y-89.7046 Z5.0000
G0 X10.6507 Y-89.3493 Z5.0000
G0 X10.6507 Y-89.3493 Z-3.0000
G1 X10.6507 Y-89.3493 Z-6.0000 F120.00
G3 X9.6479 Y-89.1499 Z-6.0000 I-0.6507 J-0.6507 F120.00
G3 X10.3521 Y-90.8501 Z-6.0000 I0.3521 J-0.8501 F120.00
G3 X10.6507 Y-89.3493 Z-6.0000 I-0.3521 J0.8501 F120.00
G1 X10.6507 Y-89.3493 Z-6.5000 F120.00
G3 X9.6479 Y-89.1499 Z-6.5000 I-0.6507 J-0.6507 F120.00
G3 X10.3521 Y-90.8501 Z-6.5000 I0.3521 J-0.8501 F120.00
G3 X10.6507 Y-89.3493 Z-6.5000 I-0.3521 J0.8501 F120.00
G0 X10.6507 Y-89.3493 Z5.0000
G0 X10.2954 Y-89.7046 Z5.0000
G0 X10.2954 Y-89.7046 Z-3.5000
G1 X10.2954 Y-89.7046 Z-6.5000 F120.00
G3 X9.8401 Y-89.6141 Z-6.5000 I-0.2954 J-0.2954 F120.00
G3 X10.1599 Y-90.3859 Z-6.5000 I0.1599 J-0.3859 F120.00
G3 X10.2954 Y-89.7046 Z-6.5000 I-0.1599 J0.3859 F120.00
G1 X10.2954 Y-89.7046 Z-7.0000 F120.00
G3 X9.8401 Y-89.6141 Z-7.0000 I-0.2954 J-0.2954 F120.00
G3 X10.1599 Y-90.3859 Z-7.0000 I0.1599 J-0.3859 F120.00
G3 X10.2954 Y-89.7046 Z-7.0000 I-0.1599 J0.3859 F120.00
G0 X10.2954 Y-89.7046 Z5.0000
G0 X10.6507 Y-89.3493 Z5.0000
G0 X10.6507 Y-89.3493 Z-4.0000
G1 X10.6507 Y-89.3493 Z-7.0000 F120.00
G3 X9.6479 Y-89.1499 Z-7.0000 I-0.6507 J-0.6507 F120.00
G3 X10.3521 Y-90.8501 Z-7.0000 I0.3521 J-0.8501 F120.00
G3 X10.6507 Y-89.3493 Z-7.0000 I-0.3521 J0.8501 F120.00
G1 X10.6507 Y-89.3493 Z-7.5000 F120.00
G3 X9.6479 Y-89.1499 Z-7.5000 I-0.6507 J-0.6507 F120.00
G3 X10.3521 Y-90.8501 Z-7.5000 I0.3521 J-0.8501 F120.00
G3 X10.6507 Y-89.3493 Z-7.5000 I-0.3521 J0.8501 F120.00
G0 X10.6507 Y-89.3493 Z5.0000
G0 X10.2954 Y-89.7046 Z5.0000
G0 X10.2954 Y-89.7046 Z-4.5000
G1 X10.2954 Y-89.7046 Z-7.5000 F120.00
G3 X9.8401 Y-89.6141 Z-7.5000 I-0.2954 J-0.2954 F120.00
G3 X10.1599 Y-90.3859 Z-7.5000 I0.1599 J-0.3859 F120.00
G3 X10.2954 Y-89.7046 Z-7.5000 I-0.1599 J0.3859 F120.00
G1 X10.2954 Y-89.7046 Z-8.0000 F120.00
G3 X9.8401 Y-89.6141 Z-8.0000 I-0.2954 J-0.2954 F120.00
G3 X10.1599 Y-90.3859 Z-8.0000 I0.1599 J-0.3859 F120.00
G3 X10.2954 Y-89.7046 Z-8.0000 I-0.1599 J0.3859 F120.00
G0 X10.2954 Y-89.7046 Z5.0000
G0 X10.6507 Y-89.3493 Z5.0000
G0 X10.6507 Y-89.3493 Z-5.0000
G1 X10.6507 Y-89.3493 Z-8.0000 F120.00
G3 X9.6479 Y-89.1499 Z-8.0000 I-0.6507 J-0.6507 F120.00
G3 X10.3521 Y-90.8501 Z-8.0000 I0.3521 J-0.8501 F120.00
G3 X10.6507 Y-89.3493 Z-8.0000 I-0.3521 J0.8501 F120.00
G1 X10.6507 Y-89.3493 Z-8.5000 F120.00
G3 X9.6479 Y-89.1499 Z-8.5000 I-0.6507 J-0.6507 F120.00
G3 X10.3521 Y-90.8501 Z-8.5000 I0.3521 J-0.8501 F120.00
G3 X10.6507 Y-89.3493 Z-8.5000 I-0.3521 J0.8501 F120.00
G0 X10.6507 Y-89.3493 Z5.0000
G0 X10.2954 Y-89.7046 Z5.0000
G0 X10.2954 Y-89.7046 Z-5.5000
G1 X10.2954 Y-89.7046 Z-8.5000 F120.00
G3 X9.8401 Y-89.6141 Z-8.5000 I-0.2954 J-0.2954 F120.00
G3 X10.1599 Y-90.3859 Z-8.5000 I0.1599 J-0.3859 F120.00
G3 X10.2954 Y-89.7046 Z-8.5000 I-0.1599 J0.3859 F120.00
G1 X10.2954 Y-89.7046 Z-9.0000 F120.00
G3 X9.8401 Y-89.6141 Z-9.0000 I-0.2954 J-0.2954 F120.00
G3 X10.1599 Y-90.3859 Z-9.0000 I0.1599 J-0.3859 F120.00
G3 X10.2954 Y-89.7046 Z-9.0000 I-0.1599 J0.3859 F120.00
G0 X10.2954 Y-89.7046 Z5.0000
G0 X10.6507 Y-89.3493 Z5.0000
G0 X10.6507 Y-89.3493 Z-6.0000
G1 X10.6507 Y-89.3493 Z-9.0000 F120.00
G3 X9.6479 Y-89.1499 Z-9.0000 I-0.6507 J-0.6507 F120.00
G3 X10.3521 Y-90.8501 Z-9.0000 I0.3521 J-0.8501 F120.00
G3 X10.6507 Y-89.3493 Z-9.0000 I-0.3521 J0.8501 F120.00
G1 X10.6507 Y-89.3493 Z-9.5000 F120.00
G3 X9.6479 Y-89.1499 Z-9.5000 I-0.6507 J-0.6507 F120.00
G3 X10.3521 Y-90.8501 Z-9.5000 I0.3521 J-0.8501 F120.00
G3 X10.6507 Y-89.3493 Z-9.5000 I-0.3521 J0.8501 F120.00
G0 X10.6507 Y-89.3493 Z5.0000
G0 X10.2954 Y-89.7046 Z5.0000
G0 X10.2954 Y-89.7046 Z-6.5000
G1 X10.2954 Y-89.7046 Z-9.5000 F120.00
G3 X9.8401 Y-89.6141 Z-9.5000 I-0.2954 J-0.2954 F120.00
G3 X10.1599 Y-90.3859 Z-9.5000 I0.1599 J-0.3859 F120.00
G3 X10.2954 Y-89.7046 Z-9.5000 I-0.1599 J0.3859 F120.00
G1 X10.2954 Y-89.7046 Z-10.0000 F120.00
G3 X9.8401 Y-89.6141 Z-10.0000 I-0.2954 J-0.2954 F120.00
G3 X10.1599 Y-90.3859 Z-10.0000 I0.1599 J-0.3859 F120.00
G3 X10.2954 Y-89.7046 Z-10.0000 I-0.1599 J0.3859 F120.00
G0 X10.2954 Y-89.7046 Z5.0000
G0 X10.6507 Y-89.3493 Z5.0000
G0 X10.6507 Y-89.3493 Z-7.0000
G1 X10.6507 Y-89.3493 Z-10.0000 F120.00
G3 X9.6479 Y-89.1499 Z-10.0000 I-0.6507 J-0.6507 F120.00
G3 X10.3521 Y-90.8501 Z-10.0000 I0.3521 J-0.8501 F120.00
G3 X10.6507 Y-89.3493 Z-10.0000 I-0.3521 J0.8501 F120.00
G1 X10.6507 Y-89.3493 Z-10.5000 F120.00
G3 X9.6479 Y-89.1499 Z-10.5000 I-0.6507 J-0.6507 F120.00
G3 X10.3521 Y-90.8501 Z-10.5000 I0.3521 J-0.8501 F120.00
G3 X10.6507 Y-89.3493 Z-10.5000 I-0.3521 J0.8501 F120.00
G0 X10.6507 Y-89.3493 Z5.0000
G0 X10.2954 Y-89.7046 Z5.0000
G0 X10.2954 Y-89.7046 Z-7.5000
G1 X10.2954 Y-89.7046 Z-10.5000 F120.00
G3 X9.8401 Y-89.6141 Z-10.5000 I-0.2954 J-0.2954 F120.00
G3 X10.1599 Y-90.3859 Z-10.5000 I0.1599 J-0.3859 F120.00
G3 X10.2954 Y-89.7046 Z-10.5000 I-0.1599 J0.3859 F120.00
G1 X10.2954 Y-89.7046 Z-11.0000 F120.00
G3 X9.8401 Y-89.6141 Z-11.0000 I-0.2954 J-0.2954 F120.00
G3 X10.1599 Y-90.3859 Z-11.0000 I0.1599 J-0.3859 F120.00
G3 X10.2954 Y-89.7046 Z-11.0000 I-0.1599 J0.3859 F120.00
G0 X10.2954 Y-89.7046 Z5.0000
G0 X10.6507 Y-89.3493 Z5.0000
G0 X10.6507 Y-89.3493 Z-8.0000
G1 X10.6507 Y-89.3493 Z-11.0000 F120.00
G3 X9.6479 Y-89.1499 Z-11.0000 I-0.6507 J-0.6507 F120.00
G3 X10.3521 Y-90.8501 Z-11.0000 I0.3521 J-0.8501 F120.00
G3 X10.6507 Y-89.3493 Z-11.0000 I-0.3521 J0.8501 F120.00
G1 X10.6507 Y-89.3493 Z-11.5000 F120.00
G3 X9.6479 Y-89.1499 Z-11.5000 I-0.6507 J-0.6507 F120.00
G3 X10.3521 Y-90.8501 Z-11.5000 I0.3521 J-0.8501 F120.00
G3 X10.6507 Y-89.3493 Z-11.5000 I-0.3521 J0.8501 F120.00
G0 X10.6507 Y-89.3493 Z5.0000
G0 X10.2954 Y-89.7046 Z5.0000
G0 X10.2954 Y-89.7046 Z-8.5000
G1 X10.2954 Y-89.7046 Z-11.5000 F120.00
G3 X9.8401 Y-89.6141 Z-11.5000 I-0.2954 J-0.2954 F120.00
G3 X10.1599 Y-90.3859 Z-11.5000 I0.1599 J-0.3859 F120.00
G3 X10.2954 Y-89.7046 Z-11.5000 I-0.1599 J0.3859 F120.00
G1 X10.2954 Y-89.7046 Z-12.0000 F120.00
G3 X9.8401 Y-89.6141 Z-12.0000 I-0.2954 J-0.2954 F120.00
G3 X10.1599 Y-90.3859 Z-12.0000 I0.1599 J-0.3859 F120.00
G3 X10.2954 Y-89.7046 Z-12.0000 I-0.1599 J0.3859 F120.00
G0 X10.2954 Y-89.7046 Z5.0000
G0 X10.6507 Y-89.3493 Z5.0000
G0 X10.6507 Y-89.3493 Z-9.0000
G1 X10.6507 Y-89.3493 Z-12.0000 F120.00
G3 X9.6479 Y-89.1499 Z-12.0000 I-0.6507 J-0.6507 F120.00
G3 X10.3521 Y-90.8501 Z-12.0000 I0.3521 J-0.8501 F120.00
G3 X10.6507 Y-89.3493 Z-12.0000 I-0.3521 J0.8501 F120.00
G0 Z5.0000
G0 X90.6507 Y-89.3493
G0 Z3.0000
G1 X90.6507 Y-89.3493 Z-0.5000 F120.00
G3 X89.6479 Y-89.1499 Z-0.5000 I-0.6507 J-0.6507 F120.00
G3 X90.3521 Y-90.8501 Z-0.5000 I0.3521 J-0.8501 F120.00
G3 X90.6507 Y-89.3493 Z-0.5000 I-0.3521 J0.8501 F120.00
G0 X90.6507 Y-89.3493 Z5.0000
G0 X90.2954 Y-89.7046 Z5.0000
G0 X90.2954 Y-89.7046 Z2.5000
G1 X90.2954 Y-89.7046 Z-0.5000 F120.00
G3 X89.8401 Y-89.6141 Z-0.5000 I-0.2954 J-0.2954 F120.00
G3 X90.1599 Y-90.3859 Z-0.5000 I0.1599 J-0.3859 F120.00
G3 X90.2954 Y-89.7046 Z-0.5000 I-0.1599 J0.3859 F120.00
G1 X90.2954 Y-89.7046 Z-1.0000 F120.00
G3 X89.8401 Y-89.6141 Z-1.0000 I-0.2954 J-0.2954 F120.00
G3 X90.1599 Y-90.3859 Z-1.0000 I0.1599 J-0.3859 F120.00
G3 X90.2954 Y-89.7046 Z-1.0000 I-0.1599 J0.3859 F120.00
G0 X90.2954 Y-89.7046 Z5.0000
G0 X90.6507 Y-89.3493 Z5.0000
G0 X90.6507 Y-89.3493 Z2.0000
G1 X90.6507 Y-89.3493 Z-1.0000 F120.00
G3 X89.6479 Y-89.1499 Z-1.0000 I-0.6507 J-0.6507 F120.00
G3 X90.3521 Y-90.8501 Z-1.0000 I0.3521 J-0.8501 F120.00
G3 X90.6507 Y-89.3493 Z-1.0000 I-0.3521 J0.8501 F120.00
G1 X90.6507 Y-89.3493 Z-1.5000 F120.00
G3 X89.6479 Y-89.1499 Z-1.5000 I-0.6507 J-0.6507 F120.00
G3 X90.3521 Y-90.8501 Z-1.5000 I0.3521 J-0.8501 F120.00
G3 X90.6507 Y-89.3493 Z-1.5000 I-0.3521 J0.8501 F120.00
G0 X90.6507 Y-89.3493 Z5.0000
G0 X90.2954 Y-89.7046 Z5.0000
G0 X90.2954 Y-89.7046 Z1.5000
G1 X90.2954 Y-89.7046 Z-1.5000 F120.00
G3 X89.8401 Y-89.6141 Z-1.5000 I-0.2954 J-0.2954 F120.00
G3 X90.1599 Y-90.3859 Z-1.5000 I0.1599 J-0.3859 F120.00
G3 X90.2954 Y-89.7046 Z-1.5000 I-0.1599 J0.3859 F120.00
G1 X90.2954 Y-89.7046 Z-2.0000 F120.00
G3 X89.8401 Y-89.6141 Z-2.0000 I-0.2954 J-0.2954 F120.00
G3 X90.1599 Y-90.3859 Z-2.0000 I0.1599 J-0.3859 F120.00
G3 X90.2954 Y-89.7046 Z-2.0000 I-0.1599 J0.3859 F120.00
G0 X90.2954 Y-89.7046 Z5.0000
G0 X90.6507 Y-89.3493 Z5.0000
G0 X90.6507 Y-89.3493 Z1.0000
G1 X90.6507 Y-89.3493 Z-2.0000 F120.00
G3 X89.6479 Y-89.1499 Z-2.0000 I-0.6507 J-0.6507 F120.00
G3 X90.3521 Y-90.8501 Z-2.0000 I0.3521 J-0.8501 F120.00
G3 X90.6507 Y-89.3493 Z-2.0000 I-0.3521 J0.8501 F120.00
G1 X90.6507 Y-89.3493 Z-2.5000 F120.00
G3 X89.6479 Y-89.1499 Z-2.5000 I-0.6507 J-0.6507 F120.00
G3 X90.3521 Y-90.8501 Z-2.5000 I0.3521 J-0.8501 F120.00
G3 X90.6507 Y-89.3493 Z-2.5000 I-0.3521 J0.8501 F120.00
G0 X90.6507 Y-89.3493 Z5.0000
G0 X90.2954 Y-89.7046 Z5.0000
G0 X90.2954 Y-89.7046 Z0.5000
G1 X90.2954 Y-89.7046 Z-2.5000 F120.00
G3 X89.8401 Y-89.6141 Z-2.5000 I-0.2954 J-0.2954 F120.00
G3 X90.1599 Y-90.3859 Z-2.5000 I0.1599 J-0.3859 F120.00
G3 X90.2954 Y-89.7046 Z-2.5000 I-0.1599 J0.3859 F120.00
G1 X90.2954 Y-89.7046 Z-3.0000 F120.00
G3 X89.8401 Y-89.6141 Z-3.0000 I-0.2954 J-0.2954 F120.00
G3 X90.1599 Y-90.3859 Z-3.0000 I0.1599 J-0.3859 F120.00
G3 X90.2954 Y-89.7046 Z-3.0000 I-0.1599 J0.3859 F120.00
G0 X90.2954 Y-89.7046 Z5.0000
G0 X90.6507 Y-89.3493 Z5.0000
G0 X90.6507 Y-89.3493 Z0.0000
G1 X90.6507 Y-89.3493 Z-3.0000 F120.00
G3 X89.6479 Y-89.1499 Z-3.0000 I-0.6507 J-0.6507 F120.00
G3 X90.3521 Y-90.8501 Z-3.0000 I0.3521 J-0.8501 F120.00
G3 X90.6507 Y-89.3493 Z-3.0000 I-0.3521 J0.8501 F120.00
G1 X90.6507 Y-89.3493 Z-3.5000 F120.00
G3 X89.6479 Y-89.1499 Z-3.5000 I-0.6507 J-0.6507 F120.00
G3 X90.3521 Y-90.8501 Z-3.5000 I0.3521 J-0.8501 F120.00
G3 X90.6507 Y-89.3493 Z-3.5000 I-0.3521 J0.8501 F120.00
G0 X90.6507 Y-89.3493 Z5.0000
G0 X90.2954 Y-89.7046 Z5.0000
G0 X90.2954 Y-89.7046 Z-0.5000
G1 X90.2954 Y-89.7046 Z-3.5000 F120.00
G3 X89.8401 Y-89.6141 Z-3.5000 I-0.2954 J-0.2954 F120.00
G3 X90.1599 Y-90.3859 Z-3.5000 I0.1599 J-0.3859 F120.00
G3 X90.2954 Y-89.7046 Z-3.5000 I-0.1599 J0.3859 F120.00
G1 X90.2954 Y-89.7046 Z-4.0000 F120.00
G3 X89.8401 Y-89.6141 Z-4.0000 I-0.2954 J-0.2954 F120.00
G3 X90.1599 Y-90.3859 Z-4.0000 I0.1599 J-0.3859 F120.00
