(Exported by FreeCAD)
(Post Processor: grbl_post)
(Output Time:2020-01-24 20:56:18.058591)
(begin preamble)
G17 G90
G21
(begin operation: Default Tool)
(Path: Default Tool)
(Default Tool)
(begin toolchange)
; M6 T1
M3 S800.0000
(finish operation: Default Tool)
(begin operation: TagDressup)
(Path: TagDressup)
G0 Z5.0000
G0 X0.1185 Y98.1195 Z5.0000
G0 X0.1185 Y98.1195 Z3.0000
G1 X0.1185 Y98.1195 Z-0.5000 F120.00
G2 X0.9952 Y96.0980 Z-0.5000 I-2.1243 J-2.1221 F120.00
G1 X1.0000 Y0.0000 Z-0.5000 F120.00
G2 X-1.9020 Y-2.9952 Z-0.5000 I-3.0026 J0.0057 F120.00
G1 X-102.0000 Y-3.0000 Z-0.5000 F120.00
G2 X-104.9952 Y-0.0980 Z-0.5000 I0.0057 J3.0026 F120.00
G1 X-105.0000 Y96.0000 Z-0.5000 F120.00
G2 X-102.0980 Y98.9952 Z-0.5000 I3.0026 J-0.0057 F120.00
G1 X-2.0000 Y99.0000 Z-0.5000 F120.00
G2 X0.1185 Y98.1195 Z-0.5000 I-0.0057 J-3.0026 F120.00
G1 X0.1185 Y98.1195 Z-1.0000 F120.00
G2 X0.9952 Y96.0980 Z-1.0000 I-2.1243 J-2.1221 F120.00
G1 X1.0000 Y0.0000 Z-1.0000 F120.00
G2 X-1.9020 Y-2.9952 Z-1.0000 I-3.0026 J0.0057 F120.00
G1 X-102.0000 Y-3.0000 Z-1.0000 F120.00
G2 X-104.9952 Y-0.0980 Z-1.0000 I0.0057 J3.0026 F120.00
G1 X-105.0000 Y96.0000 Z-1.0000 F120.00
G2 X-102.0980 Y98.9952 Z-1.0000 I3.0026 J-0.0057 F120.00
G1 X-2.0000 Y99.0000 Z-1.0000 F120.00
G2 X0.1185 Y98.1195 Z-1.0000 I-0.0057 J-3.0026 F120.00
G1 X0.1185 Y98.1195 Z-1.5000 F120.00
G2 X0.9952 Y96.0980 Z-1.5000 I-2.1243 J-2.1221 F120.00
G1 X1.0000 Y0.0000 Z-1.5000 F120.00
G2 X-1.9020 Y-2.9952 Z-1.5000 I-3.0026 J0.0057 F120.00
G1 X-102.0000 Y-3.0000 Z-1.5000 F120.00
G2 X-104.9952 Y-0.0980 Z-1.5000 I0.0057 J3.0026 F120.00
G1 X-105.0000 Y96.0000 Z-1.5000 F120.00
G2 X-102.0980 Y98.9952 Z-1.5000 I3.0026 J-0.0057 F120.00
G1 X-2.0000 Y99.0000 Z-1.5000 F120.00
G2 X0.1185 Y98.1195 Z-1.5000 I-0.0057 J-3.0026 F120.00
G1 X0.1185 Y98.1195 Z-2.0000 F120.00
G2 X0.9952 Y96.0980 Z-2.0000 I-2.1243 J-2.1221 F120.00
G1 X1.0000 Y0.0000 Z-2.0000 F120.00
G2 X-1.9020 Y-2.9952 Z-2.0000 I-3.0026 J0.0057 F120.00
G1 X-102.0000 Y-3.0000 Z-2.0000 F120.00
G2 X-104.9952 Y-0.0980 Z-2.0000 I0.0057 J3.0026 F120.00
G1 X-105.0000 Y96.0000 Z-2.0000 F120.00
G2 X-102.0980 Y98.9952 Z-2.0000 I3.0026 J-0.0057 F120.00
G1 X-2.0000 Y99.0000 Z-2.0000 F120.00
G2 X0.1185 Y98.1195 Z-2.0000 I-0.0057 J-3.0026 F120.00
G1 X0.1185 Y98.1195 Z-2.5000 F120.00
G2 X0.9952 Y96.0980 Z-2.5000 I-2.1243 J-2.1221 F120.00
G1 X1.0000 Y0.0000 Z-2.5000 F120.00
G2 X-1.9020 Y-2.9952 Z-2.5000 I-3.0026 J0.0057 F120.00
G1 X-102.0000 Y-3.0000 Z-2.5000 F120.00
G2 X-104.9952 Y-0.0980 Z-2.5000 I0.0057 J3.0026 F120.00
G1 X-105.0000 Y96.0000 Z-2.5000 F120.00
G2 X-102.0980 Y98.9952 Z-2.5000 I3.0026 J-0.0057 F120.00
G1 X-2.0000 Y99.0000 Z-2.5000 F120.00
G2 X0.1185 Y98.1195 Z-2.5000 I-0.0057 J-3.0026 F120.00
G1 X0.1185 Y98.1195 Z-3.0000 F120.00
G2 X0.9952 Y96.0980 Z-3.0000 I-2.1243 J-2.1221 F120.00
G1 X1.0000 Y0.0000 Z-3.0000 F120.00
G2 X-1.9020 Y-2.9952 Z-3.0000 I-3.0026 J0.0057 F120.00
G1 X-102.0000 Y-3.0000 Z-3.0000 F120.00
G2 X-104.9952 Y-0.0980 Z-3.0000 I0.0057 J3.0026 F120.00
G1 X-105.0000 Y96.0000 Z-3.0000 F120.00
G2 X-102.0980 Y98.9952 Z-3.0000 I3.0026 J-0.0057 F120.00
G1 X-2.0000 Y99.0000 Z-3.0000 F120.00
G2 X0.1185 Y98.1195 Z-3.0000 I-0.0057 J-3.0026 F120.00
G1 X0.1185 Y98.1195 Z-3.5000 F120.00
G2 X0.9952 Y96.0980 Z-3.5000 I-2.1243 J-2.1221 F120.00
G1 X1.0000 Y0.0000 Z-3.5000 F120.00
G2 X-1.9020 Y-2.9952 Z-3.5000 I-3.0026 J0.0057 F120.00
G1 X-102.0000 Y-3.0000 Z-3.5000 F120.00
G2 X-104.9952 Y-0.0980 Z-3.5000 I0.0057 J3.0026 F120.00
G1 X-105.0000 Y96.0000 Z-3.5000 F120.00
G2 X-102.0980 Y98.9952 Z-3.5000 I3.0026 J-0.0057 F120.00
G1 X-2.0000 Y99.0000 Z-3.5000 F120.00
G2 X0.1185 Y98.1195 Z-3.5000 I-0.0057 J-3.0026 F120.00
G1 X0.1185 Y98.1195 Z-4.0000 F120.00
G2 X0.9952 Y96.0980 Z-4.0000 I-2.1243 J-2.1221 F120.00
G1 X1.0000 Y0.0000 Z-4.0000 F120.00
G2 X-1.9020 Y-2.9952 Z-4.0000 I-3.0026 J0.0057 F120.00
G1 X-102.0000 Y-3.0000 Z-4.0000 F120.00
G2 X-104.9952 Y-0.0980 Z-4.0000 I0.0057 J3.0026 F120.00
G1 X-105.0000 Y96.0000 Z-4.0000 F120.00
G2 X-102.0980 Y98.9952 Z-4.0000 I3.0026 J-0.0057 F120.00
G1 X-2.0000 Y99.0000 Z-4.0000 F120.00
G2 X0.1185 Y98.1195 Z-4.0000 I-0.0057 J-3.0026 F120.00
G1 X0.1185 Y98.1195 Z-4.5000 F120.00
G2 X0.9952 Y96.0980 Z-4.5000 I-2.1243 J-2.1221 F120.00
G1 X1.0000 Y0.0000 Z-4.5000 F120.00
G2 X-1.9020 Y-2.9952 Z-4.5000 I-3.0026 J0.0057 F120.00
G1 X-102.0000 Y-3.0000 Z-4.5000 F120.00
G2 X-104.9952 Y-0.0980 Z-4.5000 I0.0057 J3.0026 F120.00
G1 X-105.0000 Y96.0000 Z-4.5000 F120.00
G2 X-102.0980 Y98.9952 Z-4.5000 I3.0026 J-0.0057 F120.00
G1 X-2.0000 Y99.0000 Z-4.5000 F120.00
G2 X0.1185 Y98.1195 Z-4.5000 I-0.0057 J-3.0026 F120.00
G1 X0.1185 Y98.1195 Z-5.0000 F120.00
G2 X0.9952 Y96.0980 Z-5.0000 I-2.1243 J-2.1221 F120.00
G1 X1.0000 Y0.0000 Z-5.0000 F120.00
G2 X-1.9020 Y-2.9952 Z-5.0000 I-3.0026 J0.0057 F120.00
G1 X-102.0000 Y-3.0000 Z-5.0000 F120.00
G2 X-104.9952 Y-0.0980 Z-5.0000 I0.0057 J3.0026 F120.00
G1 X-105.0000 Y96.0000 Z-5.0000 F120.00
G2 X-102.0980 Y98.9952 Z-5.0000 I3.0026 J-0.0057 F120.00
G1 X-2.0000 Y99.0000 Z-5.0000 F120.00
G2 X0.1185 Y98.1195 Z-5.0000 I-0.0057 J-3.0026 F120.00
G1 X0.1185 Y98.1195 Z-5.5000 F120.00
G2 X0.9952 Y96.0980 Z-5.5000 I-2.1243 J-2.1221 F120.00
G1 X1.0000 Y0.0000 Z-5.5000 F120.00
G2 X-1.9020 Y-2.9952 Z-5.5000 I-3.0026 J0.0057 F120.00
G1 X-102.0000 Y-3.0000 Z-5.5000 F120.00
G2 X-104.9952 Y-0.0980 Z-5.5000 I0.0057 J3.0026 F120.00
G1 X-105.0000 Y96.0000 Z-5.5000 F120.00
G2 X-102.0980 Y98.9952 Z-5.5000 I3.0026 J-0.0057 F120.00
G1 X-2.0000 Y99.0000 Z-5.5000 F120.00
G2 X0.1185 Y98.1195 Z-5.5000 I-0.0057 J-3.0026 F120.00
G1 X0.1185 Y98.1195 Z-6.0000 F120.00
G2 X0.9952 Y96.0980 Z-6.0000 I-2.1243 J-2.1221 F120.00
G1 X0.9976 Y48.0534 Z-6.0000 F120.00
G1 X0.9976 Y48.0490 Z-5.9956 F120.00
G1 X0.9976 Y48.0447 Z-6.0000 F120.00
G1 X1.0000 Y0.0000 Z-6.0000 F120.00
G2 X-1.9020 Y-2.9952 Z-6.0000 I-3.0026 J0.0057 F120.00
G1 X-51.9466 Y-2.9976 Z-6.0000 F120.00
G1 X-51.9510 Y-2.9976 Z-5.9956 F120.00
G1 X-51.9553 Y-2.9976 Z-6.0000 F120.00
G1 X-102.0000 Y-3.0000 Z-6.0000 F120.00
G2 X-104.9952 Y-0.0980 Z-6.0000 I0.0057 J3.0026 F120.00
G1 X-104.9976 Y47.9466 Z-6.0000 F120.00
G1 X-104.9976 Y47.9510 Z-5.9956 F120.00
G1 X-104.9976 Y47.9553 Z-6.0000 F120.00
G1 X-105.0000 Y96.0000 Z-6.0000 F120.00
G2 X-102.0980 Y98.9952 Z-6.0000 I3.0026 J-0.0057 F120.00
G1 X-52.0534 Y98.9976 Z-6.0000 F120.00
G1 X-52.0490 Y98.9976 Z-5.9956 F120.00
G1 X-52.0447 Y98.9976 Z-6.0000 F120.00
G1 X-2.0000 Y99.0000 Z-6.0000 F120.00
G2 X0.1185 Y98.1195 Z-6.0000 I-0.0057 J-3.0026 F120.00
G1 X0.1185 Y98.1195 Z-6.5000 F120.00
G2 X0.9952 Y96.0980 Z-6.5000 I-2.1243 J-2.1221 F120.00
G1 X0.9976 Y48.5484 Z-6.5000 F120.00
G1 X0.9976 Y48.0490 Z-5.9956 F120.00
G1 X0.9976 Y47.5496 Z-6.5000 F120.00
G1 X1.0000 Y0.0000 Z-6.5000 F120.00
G2 X-1.9020 Y-2.9952 Z-6.5000 I-3.0026 J0.0057 F120.00
G1 X-51.4516 Y-2.9976 Z-6.5000 F120.00
G1 X-51.9510 Y-2.9976 Z-5.9956 F120.00
G1 X-52.4504 Y-2.9976 Z-6.5000 F120.00
G1 X-102.0000 Y-3.0000 Z-6.5000 F120.00
G2 X-104.9952 Y-0.0980 Z-6.5000 I0.0057 J3.0026 F120.00
G1 X-104.9976 Y47.4516 Z-6.5000 F120.00
G1 X-104.9976 Y47.9510 Z-5.9956 F120.00
G1 X-104.9976 Y48.4504 Z-6.5000 F120.00
G1 X-105.0000 Y96.0000 Z-6.5000 F120.00
G2 X-102.0980 Y98.9952 Z-6.5000 I3.0026 J-0.0057 F120.00
G1 X-52.5484 Y98.9976 Z-6.5000 F120.00
G1 X-52.0490 Y98.9976 Z-5.9956 F120.00
G1 X-51.5496 Y98.9976 Z-6.5000 F120.00
G1 X-2.0000 Y99.0000 Z-6.5000 F120.00
G2 X0.1185 Y98.1195 Z-6.5000 I-0.0057 J-3.0026 F120.00
G1 X0.1185 Y98.1195 Z-7.0000 F120.00
G2 X0.9952 Y96.0980 Z-7.0000 I-2.1243 J-2.1221 F120.00
G1 X0.9975 Y49.0435 Z-7.0000 F120.00
G1 X0.9976 Y48.0490 Z-5.9956 F120.00
G1 X0.9976 Y47.0546 Z-7.0000 F120.00
G1 X1.0000 Y0.0000 Z-7.0000 F120.00
G2 X-1.9020 Y-2.9952 Z-7.0000 I-3.0026 J0.0057 F120.00
G1 X-50.9565 Y-2.9975 Z-7.0000 F120.00
G1 X-51.9510 Y-2.9976 Z-5.9956 F120.00
G1 X-52.9454 Y-2.9976 Z-7.0000 F120.00
G1 X-102.0000 Y-3.0000 Z-7.0000 F120.00
G2 X-104.9952 Y-0.0980 Z-7.0000 I0.0057 J3.0026 F120.00
G1 X-104.9975 Y46.9565 Z-7.0000 F120.00
G1 X-104.9976 Y47.9510 Z-5.9956 F120.00
G1 X-104.9976 Y48.9454 Z-7.0000 F120.00
G1 X-105.0000 Y96.0000 Z-7.0000 F120.00
G2 X-102.0980 Y98.9952 Z-7.0000 I3.0026 J-0.0057 F120.00
G1 X-53.0435 Y98.9975 Z-7.0000 F120.00
G1 X-52.0490 Y98.9976 Z-5.9956 F120.00
G1 X-51.0546 Y98.9976 Z-7.0000 F120.00
G1 X-2.0000 Y99.0000 Z-7.0000 F120.00
G2 X0.1185 Y98.1195 Z-7.0000 I-0.0057 J-3.0026 F120.00
G1 X0.1185 Y98.1195 Z-7.5000 F120.00
G2 X0.9952 Y96.0980 Z-7.5000 I-2.1243 J-2.1221 F120.00
G1 X0.9975 Y49.5385 Z-7.5000 F120.00
G1 X0.9976 Y48.0490 Z-5.9956 F120.00
G1 X0.9977 Y46.5595 Z-7.5000 F120.00
G1 X1.0000 Y0.0000 Z-7.5000 F120.00
G2 X-1.9020 Y-2.9952 Z-7.5000 I-3.0026 J0.0057 F120.00
G1 X-50.4615 Y-2.9975 Z-7.5000 F120.00
G1 X-51.9510 Y-2.9976 Z-5.9956 F120.00
G1 X-53.4405 Y-2.9977 Z-7.5000 F120.00
G1 X-102.0000 Y-3.0000 Z-7.5000 F120.00
G2 X-104.9952 Y-0.0980 Z-7.5000 I0.0057 J3.0026 F120.00
G1 X-104.9975 Y46.4615 Z-7.5000 F120.00
G1 X-104.9976 Y47.9510 Z-5.9956 F120.00
G1 X-104.9977 Y49.4405 Z-7.5000 F120.00
G1 X-105.0000 Y96.0000 Z-7.5000 F120.00
G2 X-102.0980 Y98.9952 Z-7.5000 I3.0026 J-0.0057 F120.00
G1 X-53.5385 Y98.9975 Z-7.5000 F120.00
G1 X-52.0490 Y98.9976 Z-5.9956 F120.00
G1 X-50.5595 Y98.9977 Z-7.5000 F120.00
G1 X-2.0000 Y99.0000 Z-7.5000 F120.00
G2 X0.1185 Y98.1195 Z-7.5000 I-0.0057 J-3.0026 F120.00
G1 X0.1185 Y98.1195 Z-8.0000 F120.00
G2 X0.9952 Y96.0980 Z-8.0000 I-2.1243 J-2.1221 F120.00
G1 X0.9975 Y50.0336 Z-8.0000 F120.00
G1 X0.9976 Y48.0490 Z-5.9956 F120.00
G1 X0.9977 Y46.0645 Z-8.0000 F120.00
G1 X1.0000 Y0.0000 Z-8.0000 F120.00
G2 X-1.9020 Y-2.9952 Z-8.0000 I-3.0026 J0.0057 F120.00
G1 X-49.9664 Y-2.9975 Z-8.0000 F120.00
G1 X-51.9510 Y-2.9976 Z-5.9956 F120.00
G1 X-53.9355 Y-2.9977 Z-8.0000 F120.00
G1 X-102.0000 Y-3.0000 Z-8.0000 F120.00
G2 X-104.9952 Y-0.0980 Z-8.0000 I0.0057 J3.0026 F120.00
G1 X-104.9975 Y45.9664 Z-8.0000 F120.00
G1 X-104.9976 Y47.9510 Z-5.9956 F120.00
G1 X-104.9977 Y49.9355 Z-8.0000 F120.00
G1 X-105.0000 Y96.0000 Z-8.0000 F120.00
G2 X-102.0980 Y98.9952 Z-8.0000 I3.0026 J-0.0057 F120.00
G1 X-54.0336 Y98.9975 Z-8.0000 F120.00
G1 X-52.0490 Y98.9976 Z-5.9956 F120.00
G1 X-50.0645 Y98.9977 Z-8.0000 F120.00
G1 X-2.0000 Y99.0000 Z-8.0000 F120.00
G2 X0.1185 Y98.1195 Z-8.0000 I-0.0057 J-3.0026 F120.00
G1 X0.1185 Y98.1195 Z-8.5000 F120.00
G2 X0.9952 Y96.0980 Z-8.5000 I-2.1243 J-2.1221 F120.00
G1 X0.9975 Y50.5286 Z-8.5000 F120.00
G1 X0.9976 Y48.0490 Z-5.9956 F120.00
G1 X0.9977 Y45.5694 Z-8.5000 F120.00
G1 X1.0000 Y0.0000 Z-8.5000 F120.00
G2 X-1.9020 Y-2.9952 Z-8.5000 I-3.0026 J0.0057 F120.00
G1 X-49.4714 Y-2.9975 Z-8.5000 F120.00
G1 X-51.9510 Y-2.9976 Z-5.9956 F120.00
G1 X-54.4306 Y-2.9977 Z-8.5000 F120.00
G1 X-102.0000 Y-3.0000 Z-8.5000 F120.00
G2 X-104.9952 Y-0.0980 Z-8.5000 I0.0057 J3.0026 F120.00
G1 X-104.9975 Y45.4714 Z-8.5000 F120.00
G1 X-104.9976 Y47.9510 Z-5.9956 F120.00
G1 X-104.9977 Y50.4306 Z-8.5000 F120.00
G1 X-105.0000 Y96.0000 Z-8.5000 F120.00
G2 X-102.0980 Y98.9952 Z-8.5000 I3.0026 J-0.0057 F120.00
G1 X-54.5286 Y98.9975 Z-8.5000 F120.00
G1 X-52.0490 Y98.9976 Z-5.9956 F120.00
G1 X-49.5694 Y98.9977 Z-8.5000 F120.00
G1 X-2.0000 Y99.0000 Z-8.5000 F120.00
G2 X0.1185 Y98.1195 Z-8.5000 I-0.0057 J-3.0026 F120.00
G1 X0.1185 Y98.1195 Z-9.0000 F120.00
G2 X0.9952 Y96.0980 Z-9.0000 I-2.1243 J-2.1221 F120.00
G1 X0.9974 Y51.0237 Z-9.0000 F120.00
G1 X0.9976 Y48.0490 Z-5.9956 F120.00
G1 X0.9977 Y45.0744 Z-9.0000 F120.00
G1 X1.0000 Y0.0000 Z-9.0000 F120.00
G2 X-1.9020 Y-2.9952 Z-9.0000 I-3.0026 J0.0057 F120.00
G1 X-48.9763 Y-2.9974 Z-9.0000 F120.00
G1 X-51.9510 Y-2.9976 Z-5.9956 F120.00
G1 X-54.9256 Y-2.9977 Z-9.0000 F120.00
G1 X-102.0000 Y-3.0000 Z-9.0000 F120.00
G2 X-104.9952 Y-0.0980 Z-9.0000 I0.0057 J3.0026 F120.00
G1 X-104.9974 Y44.9763 Z-9.0000 F120.00
G1 X-104.9976 Y47.9510 Z-5.9956 F120.00
G1 X-104.9977 Y50.9256 Z-9.0000 F120.00
G1 X-105.0000 Y96.0000 Z-9.0000 F120.00
G2 X-102.0980 Y98.9952 Z-9.0000 I3.0026 J-0.0057 F120.00
G1 X-55.0237 Y98.9974 Z-9.0000 F120.00
G1 X-52.0490 Y98.9976 Z-5.9956 F120.00
G1 X-49.0744 Y98.9977 Z-9.0000 F120.00
G1 X-2.0000 Y99.0000 Z-9.0000 F120.00
G2 X0.1185 Y98.1195 Z-9.0000 I-0.0057 J-3.0026 F120.00
G1 X0.1185 Y98.1195 Z-9.5000 F120.00
G2 X0.9952 Y96.0980 Z-9.5000 I-2.1243 J-2.1221 F120.00
G1 X0.9974 Y51.5187 Z-9.5000 F120.00
G1 X0.9976 Y48.0490 Z-5.9956 F120.00
G1 X0.9978 Y44.5793 Z-9.5000 F120.00
G1 X1.0000 Y0.0000 Z-9.5000 F120.00
G2 X-1.9020 Y-2.9952 Z-9.5000 I-3.0026 J0.0057 F120.00
G1 X-48.4813 Y-2.9974 Z-9.5000 F120.00
G1 X-51.9510 Y-2.9976 Z-5.9956 F120.00
G1 X-55.4207 Y-2.9978 Z-9.5000 F120.00
G1 X-102.0000 Y-3.0000 Z-9.5000 F120.00
G2 X-104.9952 Y-0.0980 Z-9.5000 I0.0057 J3.0026 F120.00
G1 X-104.9974 Y44.4813 Z-9.5000 F120.00
G1 X-104.9976 Y47.9510 Z-5.9956 F120.00
G1 X-104.9978 Y51.4207 Z-9.5000 F120.00
G1 X-105.0000 Y96.0000 Z-9.5000 F120.00
G2 X-102.0980 Y98.9952 Z-9.5000 I3.0026 J-0.0057 F120.00
G1 X-55.5187 Y98.9974 Z-9.5000 F120.00
G1 X-52.0490 Y98.9976 Z-5.9956 F120.00
G1 X-48.5793 Y98.9978 Z-9.5000 F120.00
G1 X-2.0000 Y99.0000 Z-9.5000 F120.00
G2 X0.1185 Y98.1195 Z-9.5000 I-0.0057 J-3.0026 F120.00
G1 X0.1185 Y98.1195 Z-10.0000 F120.00
G2 X0.9952 Y96.0980 Z-10.0000 I-2.1243 J-2.1221 F120.00
G1 X0.9974 Y52.0138 Z-10.0000 F120.00
G1 X0.9976 Y48.0490 Z-5.9956 F120.00
G1 X0.9978 Y44.0843 Z-10.0000 F120.00
G1 X1.0000 Y0.0000 Z-10.0000 F120.00
G2 X-1.9020 Y-2.9952 Z-10.0000 I-3.0026 J0.0057 F120.00
G1 X-47.9862 Y-2.9974 Z-10.0000 F120.00
G1 X-51.9510 Y-2.9976 Z-5.9956 F120.00
G1 X-55.9157 Y-2.9978 Z-10.0000 F120.00
G1 X-102.0000 Y-3.0000 Z-10.0000 F120.00
G2 X-104.9952 Y-0.0980 Z-10.0000 I0.0057 J3.0026 F120.00
G1 X-104.9974 Y43.9862 Z-10.0000 F120.00
G1 X-104.9976 Y47.9510 Z-5.9956 F120.00
G1 X-104.9978 Y51.9157 Z-10.0000 F120.00
G1 X-105.0000 Y96.0000 Z-10.0000 F120.00
G2 X-102.0980 Y98.9952 Z-10.0000 I3.0026 J-0.0057 F120.00
G1 X-56.0138 Y98.9974 Z-10.0000 F120.00
G1 X-52.0490 Y98.9976 Z-5.9956 F120.00
G1 X-48.0843 Y98.9978 Z-10.0000 F120.00
G1 X-2.0000 Y99.0000 Z-10.0000 F120.00
G2 X0.1185 Y98.1195 Z-10.0000 I-0.0057 J-3.0026 F120.00
G1 X0.1185 Y98.1195 Z-10.5000 F120.00
G2 X0.9952 Y96.0980 Z-10.5000 I-2.1243 J-2.1221 F120.00
G1 X0.9974 Y52.5088 Z-10.5000 F120.00
G1 X0.9976 Y48.0490 Z-5.9956 F120.00
G1 X0.9978 Y43.5892 Z-10.5000 F120.00
G1 X1.0000 Y0.0000 Z-10.5000 F120.00
G2 X-1.9020 Y-2.9952 Z-10.5000 I-3.0026 J0.0057 F120.00
G1 X-47.4912 Y-2.9974 Z-10.5000 F120.00
G1 X-51.9510 Y-2.9976 Z-5.9956 F120.00
G1 X-56.4108 Y-2.9978 Z-10.5000 F120.00
G1 X-102.0000 Y-3.0000 Z-10.5000 F120.00
G2 X-104.9952 Y-0.0980 Z-10.5000 I0.0057 J3.0026 F120.00
G1 X-104.9974 Y43.4912 Z-10.5000 F120.00
G1 X-104.9976 Y47.9510 Z-5.9956 F120.00
G1 X-104.9978 Y52.4108 Z-10.5000 F120.00
G1 X-105.0000 Y96.0000 Z-10.5000 F120.00
G2 X-102.0980 Y98.9952 Z-10.5000 I3.0026 J-0.0057 F120.00
G1 X-56.5088 Y98.9974 Z-10.5000 F120.00
G1 X-52.0490 Y98.9976 Z-5.9956 F120.00
G1 X-47.5892 Y98.9978 Z-10.5000 F120.00
G1 X-2.0000 Y99.0000 Z-10.5000 F120.00
G2 X0.1185 Y98.1195 Z-10.5000 I-0.0057 J-3.0026 F120.00
G1 X0.1185 Y98.1195 Z-11.0000 F120.00
G2 X0.9952 Y96.0980 Z-11.0000 I-2.1243 J-2.1221 F120.00
G1 X0.9973 Y53.0039 Z-11.0000 F120.00
G1 X0.9976 Y48.0490 Z-5.9956 F120.00
G1 X0.9978 Y43.0942 Z-11.0000 F120.00
G1 X1.0000 Y0.0000 Z-11.0000 F120.00
G2 X-1.9020 Y-2.9952 Z-11.0000 I-3.0026 J0.0057 F120.00
G1 X-46.9961 Y-2.9974 Z-11.0000 F120.00
G1 X-51.9510 Y-2.9976 Z-5.9956 F120.00
G1 X-56.9058 Y-2.9978 Z-11.0000 F120.00
G1 X-102.0000 Y-3.0000 Z-11.0000 F120.00
G2 X-104.9952 Y-0.0980 Z-11.0000 I0.0057 J3.0026 F120.00
G1 X-104.9973 Y42.9961 Z-11.0000 F120.00
G1 X-104.9976 Y47.9510 Z-5.9956 F120.00
G1 X-104.9978 Y52.9058 Z-11.0000 F120.00
G1 X-105.0000 Y96.0000 Z-11.0000 F120.00
G2 X-102.0980 Y98.9952 Z-11.0000 I3.0026 J-0.0057 F120.00
G1 X-57.0039 Y98.9974 Z-11.0000 F120.00
G1 X-52.0490 Y98.9976 Z-5.9956 F120.00
G1 X-47.0942 Y98.9978 Z-11.0000 F120.00
G1 X-2.0000 Y99.0000 Z-11.0000 F120.00
G2 X0.1185 Y98.1195 Z-11.0000 I-0.0057 J-3.0026 F120.00
G1 X0.1185 Y98.1195 Z-11.5000 F120.00
G2 X0.9952 Y96.0980 Z-11.5000 I-2.1243 J-2.1221 F120.00
G1 X0.9973 Y53.4989 Z-11.5000 F120.00
G1 X0.9976 Y48.0490 Z-5.9956 F120.00
G1 X0.9979 Y42.5991 Z-11.5000 F120.00
G1 X1.0000 Y0.0000 Z-11.5000 F120.00
G2 X-1.9020 Y-2.9952 Z-11.5000 I-3.0026 J0.0057 F120.00
G1 X-46.5011 Y-2.9973 Z-11.5000 F120.00
G1 X-51.9510 Y-2.9976 Z-5.9956 F120.00
G1 X-57.4009 Y-2.9979 Z-11.5000 F120.00
G1 X-102.0000 Y-3.0000 Z-11.5000 F120.00
G2 X-104.9952 Y-0.0980 Z-11.5000 I0.0057 J3.0026 F120.00
G1 X-104.9973 Y42.5011 Z-11.5000 F120.00
G1 X-104.9976 Y47.9510 Z-5.9956 F120.00
G1 X-104.9979 Y53.4009 Z-11.5000 F120.00
G1 X-105.0000 Y96.0000 Z-11.5000 F120.00
G2 X-102.0980 Y98.9952 Z-11.5000 I3.0026 J-0.0057 F120.00
G1 X-57.4989 Y98.9973 Z-11.5000 F120.00
G1 X-52.0490 Y98.9976 Z-5.9956 F120.00
G1 X-46.5991 Y98.9979 Z-11.5000 F120.00
G1 X-2.0000 Y99.0000 Z-11.5000 F120.00
G2 X0.1185 Y98.1195 Z-11.5000 I-0.0057 J-3.0026 F120.00
G1 X0.1185 Y98.1195 Z-12.0000 F120.00
G2 X0.9952 Y96.0980 Z-12.0000 I-2.1243 J-2.1221 F120.00
G1 X0.9973 Y53.9940 Z-12.0000 F120.00
G1 X0.9976 Y48.0490 Z-5.9956 F120.00
G1 X0.9979 Y42.1041 Z-12.0000 F120.00
G1 X1.0000 Y0.0000 Z-12.0000 F120.00
G2 X-1.9020 Y-2.9952 Z-12.0000 I-3.0026 J0.0057 F120.00
G1 X-46.0060 Y-2.9973 Z-12.0000 F120.00
G1 X-51.9510 Y-2.9976 Z-5.9956 F120.00
G1 X-57.8959 Y-2.9979 Z-12.0000 F120.00
G1 X-102.0000 Y-3.0000 Z-12.0000 F120.00
G2 X-104.9952 Y-0.0980 Z-12.0000 I0.0057 J3.0026 F120.00
G1 X-104.9973 Y42.0060 Z-12.0000 F120.00
G1 X-104.9976 Y47.9510 Z-5.9956 F120.00
G1 X-104.9979 Y53.8959 Z-12.0000 F120.00
G1 X-105.0000 Y96.0000 Z-12.0000 F120.00
G2 X-102.0980 Y98.9952 Z-12.0000 I3.0026 J-0.0057 F120.00
G1 X-57.9940 Y98.9973 Z-12.0000 F120.00
G1 X-52.0490 Y98.9976 Z-5.9956 F120.00
G1 X-46.1041 Y98.9979 Z-12.0000 F120.00
G1 X-2.0000 Y99.0000 Z-12.0000 F120.00
G2 X0.1185 Y98.1195 Z-12.0000 I-0.0057 J-3.0026 F120.00
G0 X0.1185 Y98.1195 Z5.0000
(finish operation: TagDressup)
(begin operation: Pocket_Shape)
(Path: Pocket_Shape)
(Pocket_Shape)
G0 Z5.0000
G0 X-24.2816 Y75.7184
G0 Z3.0000
G1 X-24.2816 Y75.7184 Z-0.5000 F120.00
G3 X-56.3274 Y86.9602 Z-0.5000 I-27.7184 J-27.7184 F120.00
G3 X-90.9602 Y43.6726 Z-0.5000 I4.3274 J-38.9602 F120.00
G3 X-47.6726 Y9.0398 Z-0.5000 I38.9602 J4.3274 F120.00
G3 X-24.2816 Y75.7184 Z-0.5000 I-4.3274 J38.9602 F120.00
G0 X-24.2816 Y75.7184 Z5.0000
G0 X-24.6352 Y75.3648 Z5.0000
G0 X-24.6352 Y75.3648 Z2.5000
G1 X-24.6352 Y75.3648 Z-0.5000 F120.00
G3 X-56.2722 Y86.4631 Z-0.5000 I-27.3648 J-27.3648 F120.00
G3 X-90.4631 Y43.7278 Z-0.5000 I4.2722 J-38.4631 F120.00
G3 X-47.7278 Y9.5369 Z-0.5000 I38.4631 J4.2722 F120.00
G3 X-24.6352 Y75.3648 Z-0.5000 I-4.2722 J38.4631 F120.00
G0 X-24.6352 Y75.3648 Z5.0000
G0 X-24.9181 Y75.0819 Z5.0000
G0 X-24.9181 Y75.0819 Z2.5000
G1 X-24.9181 Y75.0819 Z-0.5000 F120.00
G3 X-48.4317 Y86.1330 Z-0.5000 I-27.0819 J-27.0819 F120.00
G3 X-55.5683 Y9.8670 Z-0.5000 I-3.5683 J-38.1330 F120.00
G3 X-24.9181 Y75.0819 Z-0.5000 I3.5683 J38.1330 F120.00
G0 X-24.9181 Y75.0819 Z5.0000
G0 X-25.2715 Y74.7285 Z5.0000
G0 X-25.2715 Y74.7285 Z2.5000
G1 X-25.2715 Y74.7285 Z-0.5000 F120.00
G3 X-48.4893 Y85.6364 Z-0.5000 I-26.7285 J-26.7285 F120.00
G3 X-55.5107 Y10.3636 Z-0.5000 I-3.5107 J-37.6364 F120.00
G3 X-25.2715 Y74.7285 Z-0.5000 I3.5107 J37.6364 F120.00
G1 X-25.2715 Y74.7285 Z-1.0000 F120.00
G3 X-48.4893 Y85.6364 Z-1.0000 I-26.7285 J-26.7285 F120.00
G3 X-55.5107 Y10.3636 Z-1.0000 I-3.5107 J-37.6364 F120.00
G3 X-25.2715 Y74.7285 Z-1.0000 I3.5107 J37.6364 F120.00
G0 X-25.2715 Y74.7285 Z5.0000
G0 X-24.9181 Y75.0819 Z5.0000
G0 X-24.9181 Y75.0819 Z2.0000
G1 X-24.9181 Y75.0819 Z-1.0000 F120.00
G3 X-48.4317 Y86.1330 Z-1.0000 I-27.0819 J-27.0819 F120.00
G3 X-55.5683 Y9.8670 Z-1.0000 I-3.5683 J-38.1330 F120.00
G3 X-24.9181 Y75.0819 Z-1.0000 I3.5683 J38.1330 F120.00
G0 X-24.9181 Y75.0819 Z5.0000
G0 X-24.6352 Y75.3648 Z5.0000
G0 X-24.6352 Y75.3648 Z2.0000
G1 X-24.6352 Y75.3648 Z-1.0000 F120.00
G3 X-56.2722 Y86.4631 Z-1.0000 I-27.3648 J-27.3648 F120.00
G3 X-90.4631 Y43.7278 Z-1.0000 I4.2722 J-38.4631 F120.00
G3 X-47.7278 Y9.5369 Z-1.0000 I38.4631 J4.2722 F120.00
G3 X-24.6352 Y75.3648 Z-1.0000 I-4.2722 J38.4631 F120.00
G0 X-24.6352 Y75.3648 Z5.0000
G0 X-24.2816 Y75.7184 Z5.0000
G0 X-24.2816 Y75.7184 Z2.0000
G1 X-24.2816 Y75.7184 Z-1.0000 F120.00
G3 X-56.3274 Y86.9602 Z-1.0000 I-27.7184 J-27.7184 F120.00
G3 X-90.9602 Y43.6726 Z-1.0000 I4.3274 J-38.9602 F120.00
G3 X-47.6726 Y9.0398 Z-1.0000 I38.9602 J4.3274 F120.00
G3 X-24.2816 Y75.7184 Z-1.0000 I-4.3274 J38.9602 F120.00
G1 X-24.2816 Y75.7184 Z-1.5000 F120.00
G3 X-56.3274 Y86.9602 Z-1.5000 I-27.7184 J-27.7184 F120.00
G3 X-90.9602 Y43.6726 Z-1.5000 I4.3274 J-38.9602 F120.00
G3 X-47.6726 Y9.0398 Z-1.5000 I38.9602 J4.3274 F120.00
G3 X-24.2816 Y75.7184 Z-1.5000 I-4.3274 J38.9602 F120.00
G0 X-24.2816 Y75.7184 Z5.0000
G0 X-24.6352 Y75.3648 Z5.0000
G0 X-24.6352 Y75.3648 Z1.5000
G1 X-24.6352 Y75.3648 Z-1.5000 F120.00
G3 X-56.2722 Y86.4631 Z-1.5000 I-27.3648 J-27.3648 F120.00
G3 X-90.4631 Y43.7278 Z-1.5000 I4.2722 J-38.4631 F120.00
G3 X-47.7278 Y9.5369 Z-1.5000 I38.4631 J4.2722 F120.00
G3 X-24.6352 Y75.3648 Z-1.5000 I-4.2722 J38.4631 F120.00
G0 X-24.6352 Y75.3648 Z5.0000
G0 X-24.9181 Y75.0819 Z5.0000
G0 X-24.9181 Y75.0819 Z1.5000
G1 X-24.9181 Y75.0819 Z-1.5000 F120.00
G3 X-48.4317 Y86.1330 Z-1.5000 I-27.0819 J-27.0819 F120.00
G3 X-55.5683 Y9.8670 Z-1.5000 I-3.5683 J-38.1330 F120.00
G3 X-24.9181 Y75.0819 Z-1.5000 I3.5683 J38.1330 F120.00
G0 X-24.9181 Y75.0819 Z5.0000
G0 X-25.2715 Y74.7285 Z5.0000
G0 X-25.2715 Y74.7285 Z1.5000
G1 X-25.2715 Y74.7285 Z-1.5000 F120.00
G3 X-48.4893 Y85.6364 Z-1.5000 I-26.7285 J-26.7285 F120.00
G3 X-55.5107 Y10.3636 Z-1.5000 I-3.5107 J-37.6364 F120.00
G3 X-25.2715 Y74.7285 Z-1.5000 I3.5107 J37.6364 F120.00
G1 X-25.2715 Y74.7285 Z-2.0000 F120.00
G3 X-48.4893 Y85.6364 Z-2.0000 I-26.7285 J-26.7285 F120.00
G3 X-55.5107 Y10.3636 Z-2.0000 I-3.5107 J-37.6364 F120.00
G3 X-25.2715 Y74.7285 Z-2.0000 I3.5107 J37.6364 F120.00
G0 X-25.2715 Y74.7285 Z5.0000
G0 X-24.9181 Y75.0819 Z5.0000
G0 X-24.9181 Y75.0819 Z1.0000
G1 X-24.9181 Y75.0819 Z-2.0000 F120.00
G3 X-48.4317 Y86.1330 Z-2.0000 I-27.0819 J-27.0819 F120.00
G3 X-55.5683 Y9.8670 Z-2.0000 I-3.5683 J-38.1330 F120.00
G3 X-24.9181 Y75.0819 Z-2.0000 I3.5683 J38.1330 F120.00
G0 X-24.9181 Y75.0819 Z5.0000
G0 X-24.6352 Y75.3648 Z5.0000
G0 X-24.6352 Y75.3648 Z1.0000
G1 X-24.6352 Y75.3648 Z-2.0000 F120.00
G3 X-56.2722 Y86.4631 Z-2.0000 I-27.3648 J-27.3648 F120.00
G3 X-90.4631 Y43.7278 Z-2.0000 I4.2722 J-38.4631 F120.00
G3 X-47.7278 Y9.5369 Z-2.0000 I38.4631 J4.2722 F120.00
G3 X-24.6352 Y75.3648 Z-2.0000 I-4.2722 J38.4631 F120.00
G0 X-24.6352 Y75.3648 Z5.0000
G0 X-24.2816 Y75.7184 Z5.0000
G0 X-24.2816 Y75.7184 Z1.0000
G1 X-24.2816 Y75.7184 Z-2.0000 F120.00
G3 X-56.3274 Y86.9602 Z-2.0000 I-27.7184 J-27.7184 F120.00
G3 X-90.9602 Y43.6726 Z-2.0000 I4.3274 J-38.9602 F120.00
G3 X-47.6726 Y9.0398 Z-2.0000 I38.9602 J4.3274 F120.00
G3 X-24.2816 Y75.7184 Z-2.0000 I-4.3274 J38.9602 F120.00
G1 X-24.2816 Y75.7184 Z-2.5000 F120.00
G3 X-56.3274 Y86.9602 Z-2.5000 I-27.7184 J-27.7184 F120.00
G3 X-90.9602 Y43.6726 Z-2.5000 I4.3274 J-38.9602 F120.00
G3 X-47.6726 Y9.0398 Z-2.5000 I38.9602 J4.3274 F120.00
G3 X-24.2816 Y75.7184 Z-2.5000 I-4.3274 J38.9602 F120.00
G0 X-24.2816 Y75.7184 Z5.0000
G0 X-24.6352 Y75.3648 Z5.0000
G0 X-24.6352 Y75.3648 Z0.5000
G1 X-24.6352 Y75.3648 Z-2.5000 F120.00
G3 X-56.2722 Y86.4631 Z-2.5000 I-27.3648 J-27.3648 F120.00
G3 X-90.4631 Y43.7278 Z-2.5000 I4.2722 J-38.4631 F120.00
G3 X-47.7278 Y9.5369 Z-2.5000 I38.4631 J4.2722 F120.00
G3 X-24.6352 Y75.3648 Z-2.5000 I-4.2722 J38.4631 F120.00
G0 X-24.6352 Y75.3648 Z5.0000
G0 X-24.9181 Y75.0819 Z5.0000
G0 X-24.9181 Y75.0819 Z0.5000
G1 X-24.9181 Y75.0819 Z-2.5000 F120.00
G3 X-48.4317 Y86.1330 Z-2.5000 I-27.0819 J-27.0819 F120.00
G3 X-55.5683 Y9.8670 Z-2.5000 I-3.5683 J-38.1330 F120.00
G3 X-24.9181 Y75.0819 Z-2.5000 I3.5683 J38.1330 F120.00
G0 X-24.9181 Y75.0819 Z5.0000
G0 X-25.2715 Y74.7285 Z5.0000
G0 X-25.2715 Y74.7285 Z0.5000
G1 X-25.2715 Y74.7285 Z-2.5000 F120.00
G3 X-48.4893 Y85.6364 Z-2.5000 I-26.7285 J-26.7285 F120.00
G3 X-55.5107 Y10.3636 Z-2.5000 I-3.5107 J-37.6364 F120.00
G3 X-25.2715 Y74.7285 Z-2.5000 I3.5107 J37.6364 F120.00
G1 X-25.2715 Y74.7285 Z-3.0000 F120.00
G3 X-48.4893 Y85.6364 Z-3.0000 I-26.7285 J-26.7285 F120.00
G3 X-55.5107 Y10.3636 Z-3.0000 I-3.5107 J-37.6364 F120.00
G3 X-25.2715 Y74.7285 Z-3.0000 I3.5107 J37.6364 F120.00
G0 X-25.2715 Y74.7285 Z5.0000
G0 X-24.9181 Y75.0819 Z5.0000
G0 X-24.9181 Y75.0819 Z0.0000
G1 X-24.9181 Y75.0819 Z-3.0000 F120.00
G3 X-48.4317 Y86.1330 Z-3.0000 I-27.0819 J-27.0819 F120.00
G3 X-55.5683 Y9.8670 Z-3.0000 I-3.5683 J-38.1330 F120.00
G3 X-24.9181 Y75.0819 Z-3.0000 I3.5683 J38.1330 F120.00
G0 X-24.9181 Y75.0819 Z5.0000
G0 X-24.6352 Y75.3648 Z5.0000
G0 X-24.6352 Y75.3648 Z0.0000
G1 X-24.6352 Y75.3648 Z-3.0000 F120.00
G3 X-56.2722 Y86.4631 Z-3.0000 I-27.3648 J-27.3648 F120.00
G3 X-90.4631 Y43.7278 Z-3.0000 I4.2722 J-38.4631 F120.00
G3 X-47.7278 Y9.5369 Z-3.0000 I38.4631 J4.2722 F120.00
G3 X-24.6352 Y75.3648 Z-3.0000 I-4.2722 J38.4631 F120.00
G0 X-24.6352 Y75.3648 Z5.0000
G0 X-24.2816 Y75.7184 Z5.0000
G0 X-24.2816 Y75.7184 Z0.0000
G1 X-24.2816 Y75.7184 Z-3.0000 F120.00
G3 X-56.3274 Y86.9602 Z-3.0000 I-27.7184 J-27.7184 F120.00
G3 X-90.9602 Y43.6726 Z-3.0000 I4.3274 J-38.9602 F120.00
G3 X-47.6726 Y9.0398 Z-3.0000 I38.9602 J4.3274 F120.00
G3 X-24.2816 Y75.7184 Z-3.0000 I-4.3274 J38.9602 F120.00
G1 X-24.2816 Y75.7184 Z-3.5000 F120.00
G3 X-56.3274 Y86.9602 Z-3.5000 I-27.7184 J-27.7184 F120.00
G3 X-90.9602 Y43.6726 Z-3.5000 I4.3274 J-38.9602 F120.00
G3 X-47.6726 Y9.0398 Z-3.5000 I38.9602 J4.3274 F120.00
G3 X-24.2816 Y75.7184 Z-3.5000 I-4.3274 J38.9602 F120.00
G0 X-24.2816 Y75.7184 Z5.0000
G0 X-24.6352 Y75.3648 Z5.0000
G0 X-24.6352 Y75.3648 Z-0.5000
G1 X-24.6352 Y75.3648 Z-3.5000 F120.00
G3 X-56.2722 Y86.4631 Z-3.5000 I-27.3648 J-27.3648 F120.00
G3 X-90.4631 Y43.7278 Z-3.5000 I4.2722 J-38.4631 F120.00
G3 X-47.7278 Y9.5369 Z-3.5000 I38.4631 J4.2722 F120.00
G3 X-24.6352 Y75.3648 Z-3.5000 I-4.2722 J38.4631 F120.00
G0 X-24.6352 Y75.3648 Z5.0000
G0 X-24.9181 Y75.0819 Z5.0000
G0 X-24.9181 Y75.0819 Z-0.5000
G1 X-24.9181 Y75.0819 Z-3.5000 F120.00
G3 X-48.4317 Y86.1330 Z-3.5000 I-27.0819 J-27.0819 F120.00
G3 X-55.5683 Y9.8670 Z-3.5000 I-3.5683 J-38.1330 F120.00
G3 X-24.9181 Y75.0819 Z-3.5000 I3.5683 J38.1330 F120.00
G0 X-24.9181 Y75.0819 Z5.0000
G0 X-25.2715 Y74.7285 Z5.0000
G0 X-25.2715 Y74.7285 Z-0.5000
G1 X-25.2715 Y74.7285 Z-3.5000 F120.00
G3 X-48.4893 Y85.6364 Z-3.5000 I-26.7285 J-26.7285 F120.00
G3 X-55.5107 Y10.3636 Z-3.5000 I-3.5107 J-37.6364 F120.00
G3 X-25.2715 Y74.7285 Z-3.5000 I3.5107 J37.6364 F120.00
G1 X-25.2715 Y74.7285 Z-4.0000 F120.00
G3 X-48.4893 Y85.6364 Z-4.0000 I-26.7285 J-26.7285 F120.00
G3 X-55.5107 Y10.3636 Z-4.0000 I-3.5107 J-37.6364 F120.00
G3 X-25.2715 Y74.7285 Z-4.0000 I3.5107 J37.6364 F120.00
G0 X-25.2715 Y74.7285 Z5.0000
G0 X-24.9181 Y75.0819 Z5.0000
G0 X-24.9181 Y75.0819 Z-1.0000
G1 X-24.9181 Y75.0819 Z-4.0000 F120.00
G3 X-48.4317 Y86.1330 Z-4.0000 I-27.0819 J-27.0819 F120.00
G3 X-55.5683 Y9.8670 Z-4.0000 I-3.5683 J-38.1330 F120.00
G3 X-24.9181 Y75.0819 Z-4.0000 I3.5683 J38.1330 F120.00
G0 X-24.9181 Y75.0819 Z5.0000
G0 X-24.6352 Y75.3648 Z5.0000
G0 X-24.6352 Y75.3648 Z-1.0000
G1 X-24.6352 Y75.3648 Z-4.0000 F120.00
G3 X-56.2722 Y86.4631 Z-4.0000 I-27.3648 J-27.3648 F120.00
G3 X-90.4631 Y43.7278 Z-4.0000 I4.2722 J-38.4631 F120.00
G3 X-47.7278 Y9.5369 Z-4.0000 I38.4631 J4.2722 F120.00
G3 X-24.6352 Y75.3648 Z-4.0000 I-4.2722 J38.4631 F120.00
G0 X-24.6352 Y75.3648 Z5.0000
G0 X-24.2816 Y75.7184 Z5.0000
G0 X-24.2816 Y75.7184 Z-1.0000
G1 X-24.2816 Y75.7184 Z-4.0000 F120.00
G3 X-56.3274 Y86.9602 Z-4.0000 I-27.7184 J-27.7184 F120.00
G3 X-90.9602 Y43.6726 Z-4.0000 I4.3274 J-38.9602 F120.00
G3 X-47.6726 Y9.0398 Z-4.0000 I38.9602 J4.3274 F120.00
G3 X-24.2816 Y75.7184 Z-4.0000 I-4.3274 J38.9602 F120.00
G1 X-24.2816 Y75.7184 Z-4.5000 F120.00
G3 X-56.3274 Y86.9602 Z-4.5000 I-27.7184 J-27.7184 F120.00
G3 X-90.9602 Y43.6726 Z-4.5000 I4.3274 J-38.9602 F120.00
G3 X-47.6726 Y9.0398 Z-4.5000 I38.9602 J4.3274 F120.00
G3 X-24.2816 Y75.7184 Z-4.5000 I-4.3274 J38.9602 F120.00
G0 X-24.2816 Y75.7184 Z5.0000
G0 X-24.6352 Y75.3648 Z5.0000
G0 X-24.6352 Y75.3648 Z-1.5000
G1 X-24.6352 Y75.3648 Z-4.5000 F120.00
G3 X-56.2722 Y86.4631 Z-4.5000 I-27.3648 J-27.3648 F120.00
G3 X-90.4631 Y43.7278 Z-4.5000 I4.2722 J-38.4631 F120.00
G3 X-47.7278 Y9.5369 Z-4.5000 I38.4631 J4.2722 F120.00
G3 X-24.6352 Y75.3648 Z-4.5000 I-4.2722 J38.4631 F120.00
G0 X-24.6352 Y75.3648 Z5.0000
G0 X-24.9181 Y75.0819 Z5.0000
G0 X-24.9181 Y75.0819 Z-1.5000
G1 X-24.9181 Y75.0819 Z-4.5000 F120.00
G3 X-48.4317 Y86.1330 Z-4.5000 I-27.0819 J-27.0819 F120.00
G3 X-55.5683 Y9.8670 Z-4.5000 I-3.5683 J-38.1330 F120.00
G3 X-24.9181 Y75.0819 Z-4.5000 I3.5683 J38.1330 F120.00
G0 X-24.9181 Y75.0819 Z5.0000
G0 X-25.2715 Y74.7285 Z5.0000
G0 X-25.2715 Y74.7285 Z-1.5000
G1 X-25.2715 Y74.7285 Z-4.5000 F120.00
G3 X-48.4893 Y85.6364 Z-4.5000 I-26.7285 J-26.7285 F120.00
G3 X-55.5107 Y10.3636 Z-4.5000 I-3.5107 J-37.6364 F120.00
G3 X-25.2715 Y74.7285 Z-4.5000 I3.5107 J37.6364 F120.00
G1 X-25.2715 Y74.7285 Z-5.0000 F120.00
G3 X-48.4893 Y85.6364 Z-5.0000 I-26.7285 J-26.7285 F120.00
G3 X-55.5107 Y10.3636 Z-5.0000 I-3.5107 J-37.6364 F120.00
G3 X-25.2715 Y74.7285 Z-5.0000 I3.5107 J37.6364 F120.00
G0 X-25.2715 Y74.7285 Z5.0000
G0 X-24.9181 Y75.0819 Z5.0000
G0 X-24.9181 Y75.0819 Z-2.0000
G1 X-24.9181 Y75.0819 Z-5.0000 F120.00
G3 X-48.4317 Y86.1330 Z-5.0000 I-27.0819 J-27.0819 F120.00
G3 X-55.5683 Y9.8670 Z-5.0000 I-3.5683 J-38.1330 F120.00
G3 X-24.9181 Y75.0819 Z-5.0000 I3.5683 J38.1330 F120.00
G0 X-24.9181 Y75.0819 Z5.0000
G0 X-24.6352 Y75.3648 Z5.0000
G0 X-24.6352 Y75.3648 Z-2.0000
G1 X-24.6352 Y75.3648 Z-5.0000 F120.00
G3 X-56.2722 Y86.4631 Z-5.0000 I-27.3648 J-27.3648 F120.00
G3 X-90.4631 Y43.7278 Z-5.0000 I4.2722 J-38.4631 F120.00
G3 X-47.7278 Y9.5369 Z-5.0000 I38.4631 J4.2722 F120.00
G3 X-24.6352 Y75.3648 Z-5.0000 I-4.2722 J38.4631 F120.00
G0 X-24.6352 Y75.3648 Z5.0000
G0 X-24.2816 Y75.7184 Z5.0000
G0 X-24.2816 Y75.7184 Z-2.0000
G1 X-24.2816 Y75.7184 Z-5.0000 F120.00
G3 X-56.3274 Y86.9602 Z-5.0000 I-27.7184 J-27.7184 F120.00
G3 X-90.9602 Y43.6726 Z-5.0000 I4.3274 J-38.9602 F120.00
G3 X-47.6726 Y9.0398 Z-5.0000 I38.9602 J4.3274 F120.00
G3 X-24.2816 Y75.7184 Z-5.0000 I-4.3274 J38.9602 F120.00
G0 Z5.0000
(finish operation: Pocket_Shape)
(begin postamble)
M5
G17 G90
; M2
