(Exported by FreeCAD)
(Post Processor: grbl_post)
(Output Time:2020-02-17 21:58:48.339603)
(begin preamble)
G17 G90
G21
(begin operation: Default Tool)
(Path: Default Tool)
(Default Tool)
(begin toolchange)
; M6 T1
M3 S800.0000
(finish operation: Default Tool)
(begin operation: TagDressup)
(Path: TagDressup)
G0 Z5.0000
G0 X43.6753 Y-0.3228 Z5.0000
G0 X43.6753 Y-0.3228 Z3.0000
G1 X43.6753 Y-0.3228 Z-1.0000 F240.00
G2 X40.0785 Y-9.1974 Z-1.0000 I-3.6763 J-3.6763 F240.00
G1 X0.0000 Y-9.2000 Z-1.0000 F240.00
G2 X-0.0819 Y1.1972 Z-1.0000 I0.0011 J5.1989 F240.00
G1 X40.0000 Y1.2000 Z-1.0000 F240.00
G2 X43.6753 Y-0.3228 Z-1.0000 I-0.0010 J-5.1990 F240.00
G1 X43.6753 Y-0.3228 Z-2.0000 F240.00
G2 X40.0785 Y-9.1974 Z-2.0000 I-3.6763 J-3.6763 F240.00
G1 X0.0000 Y-9.2000 Z-2.0000 F240.00
G2 X-0.0819 Y1.1972 Z-2.0000 I0.0011 J5.1989 F240.00
G1 X40.0000 Y1.2000 Z-2.0000 F240.00
G2 X43.6753 Y-0.3228 Z-2.0000 I-0.0010 J-5.1990 F240.00
G1 X43.6753 Y-0.3228 Z-3.0000 F240.00
G2 X40.0785 Y-9.1974 Z-3.0000 I-3.6763 J-3.6763 F240.00
G1 X0.0000 Y-9.2000 Z-3.0000 F240.00
G2 X-0.0819 Y1.1972 Z-3.0000 I0.0011 J5.1989 F240.00
G1 X40.0000 Y1.2000 Z-3.0000 F240.00
G2 X43.6753 Y-0.3228 Z-3.0000 I-0.0010 J-5.1990 F240.00
G1 X43.6753 Y-0.3228 Z-4.0000 F240.00
G2 X40.0785 Y-9.1974 Z-4.0000 I-3.6763 J-3.6763 F240.00
G1 X0.0000 Y-9.2000 Z-4.0000 F240.00
G2 X-0.0819 Y1.1972 Z-4.0000 I0.0011 J5.1989 F240.00
G1 X40.0000 Y1.2000 Z-4.0000 F240.00
G2 X43.6753 Y-0.3228 Z-4.0000 I-0.0010 J-5.1990 F240.00
G1 X43.6753 Y-0.3228 Z-5.0000 F240.00
G2 X40.0785 Y-9.1974 Z-5.0000 I-3.6763 J-3.6763 F240.00
G1 X0.0000 Y-9.2000 Z-5.0000 F240.00
G2 X-0.0819 Y1.1972 Z-5.0000 I0.0011 J5.1989 F240.00
G1 X40.0000 Y1.2000 Z-5.0000 F240.00
G2 X43.6753 Y-0.3228 Z-5.0000 I-0.0010 J-5.1990 F240.00
G1 X43.6753 Y-0.3228 Z-6.0000 F240.00
G2 X40.0785 Y-9.1974 Z-6.0000 I-3.6763 J-3.6763 F240.00
G1 X0.0000 Y-9.2000 Z-6.0000 F240.00
G2 X-0.0819 Y1.1972 Z-6.0000 I0.0011 J5.1989 F240.00
G1 X40.0000 Y1.2000 Z-6.0000 F240.00
G2 X43.6753 Y-0.3228 Z-6.0000 I-0.0010 J-5.1990 F240.00
G1 X43.6753 Y-0.3228 Z-7.0000 F240.00
G2 X40.0785 Y-9.1974 Z-7.0000 I-3.6763 J-3.6763 F240.00
G1 X0.0000 Y-9.2000 Z-7.0000 F240.00
G2 X-0.0819 Y1.1972 Z-7.0000 I0.0011 J5.1989 F240.00
G1 X40.0000 Y1.2000 Z-7.0000 F240.00
G2 X43.6753 Y-0.3228 Z-7.0000 I-0.0010 J-5.1990 F240.00
G1 X43.6753 Y-0.3228 Z-8.0000 F240.00
G2 X40.0785 Y-9.1974 Z-8.0000 I-3.6763 J-3.6763 F240.00
G1 X20.2419 Y-9.1987 Z-8.0000 F240.00
G1 X20.0392 Y-9.1987 Z-7.7953 F240.00
G1 X19.8366 Y-9.1987 Z-8.0000 F240.00
G1 X0.0000 Y-9.2000 Z-8.0000 F240.00
G2 X-0.0819 Y1.1972 Z-8.0000 I0.0011 J5.1989 F240.00
G1 X19.7564 Y1.1986 Z-8.0000 F240.00
G1 X19.9591 Y1.1986 Z-7.7953 F240.00
G1 X20.1617 Y1.1986 Z-8.0000 F240.00
G1 X40.0000 Y1.2000 Z-8.0000 F240.00
G2 X43.6753 Y-0.3228 Z-8.0000 I-0.0010 J-5.1990 F240.00
G1 X43.6753 Y-0.3228 Z-9.0000 F240.00
G2 X40.0785 Y-9.1974 Z-9.0000 I-3.6763 J-3.6763 F240.00
G1 X21.2320 Y-9.1986 Z-9.0000 F240.00
G1 X20.0392 Y-9.1987 Z-7.7953 F240.00
G1 X18.8465 Y-9.1988 Z-9.0000 F240.00
G1 X0.0000 Y-9.2000 Z-9.0000 F240.00
G2 X-0.0819 Y1.1972 Z-9.0000 I0.0011 J5.1989 F240.00
G1 X18.7663 Y1.1985 Z-9.0000 F240.00
G1 X19.9591 Y1.1986 Z-7.7953 F240.00
G1 X21.1518 Y1.1987 Z-9.0000 F240.00
G1 X40.0000 Y1.2000 Z-9.0000 F240.00
G2 X43.6753 Y-0.3228 Z-9.0000 I-0.0010 J-5.1990 F240.00
G1 X43.6753 Y-0.3228 Z-10.0000 F240.00
G2 X40.0785 Y-9.1974 Z-10.0000 I-3.6763 J-3.6763 F240.00
G1 X22.2221 Y-9.1986 Z-10.0000 F240.00
G1 X20.0392 Y-9.1987 Z-7.7953 F240.00
G1 X17.8564 Y-9.1989 Z-10.0000 F240.00
G1 X0.0000 Y-9.2000 Z-10.0000 F240.00
G2 X-0.0819 Y1.1972 Z-10.0000 I0.0011 J5.1989 F240.00
G1 X17.7762 Y1.1984 Z-10.0000 F240.00
G1 X19.9591 Y1.1986 Z-7.7953 F240.00
G1 X22.1419 Y1.1988 Z-10.0000 F240.00
G1 X40.0000 Y1.2000 Z-10.0000 F240.00
G2 X43.6753 Y-0.3228 Z-10.0000 I-0.0010 J-5.1990 F240.00
G1 X43.6753 Y-0.3228 Z-11.0000 F240.00
G2 X40.0785 Y-9.1974 Z-11.0000 I-3.6763 J-3.6763 F240.00
G1 X23.2122 Y-9.1985 Z-11.0000 F240.00
G1 X20.0392 Y-9.1987 Z-7.7953 F240.00
G1 X16.8663 Y-9.1989 Z-11.0000 F240.00
G1 X0.0000 Y-9.2000 Z-11.0000 F240.00
G2 X-0.0819 Y1.1972 Z-11.0000 I0.0011 J5.1989 F240.00
G1 X16.7861 Y1.1984 Z-11.0000 F240.00
G1 X19.9591 Y1.1986 Z-7.7953 F240.00
G1 X23.1320 Y1.1988 Z-11.0000 F240.00
G1 X40.0000 Y1.2000 Z-11.0000 F240.00
G2 X43.6753 Y-0.3228 Z-11.0000 I-0.0010 J-5.1990 F240.00
G0 X43.6753 Y-0.3228 Z5.0000
(finish operation: TagDressup)
(begin postamble)
M5
G17 G90
; M2
