(Exported by FreeCAD)
(Post Processor: grbl_post)
(Output Time:2020-02-06 19:23:27.208311)
(begin preamble)
G17 G90
G21
(begin operation: Default Tool)
(Path: Default Tool)
(Default Tool)
(begin toolchange)
; M6 T1
M3 S800.0000
(finish operation: Default Tool)
(begin operation: TagDressup)
(Path: TagDressup)
G0 Z5.0000
G0 X-18.0288 Y-8.0459 Z5.0000
G0 X-18.0288 Y-8.0459 Z3.0000
G1 X-18.0288 Y-8.0459 Z-0.5000 F120.00
G2 X-22.5112 Y-18.8000 Z-0.5000 I-4.4538 J-4.4548 F120.00
G1 X-174.4514 Y-18.8000 Z-0.5000 F120.00
G1 X-175.1190 Y-18.7661 Z-0.5000 F120.00
G2 X-174.4514 Y-6.2000 Z-0.5000 I0.6381 J6.2669 F120.00
G1 X-22.5112 Y-6.2000 Z-0.5000 F120.00
G1 X-21.8644 Y-6.2318 Z-0.5000 F120.00
G2 X-18.0288 Y-8.0459 Z-0.5000 I-0.6182 J-6.2689 F120.00
G1 X-18.0288 Y-8.0459 Z-1.0000 F120.00
G2 X-22.5112 Y-18.8000 Z-1.0000 I-4.4538 J-4.4548 F120.00
G1 X-174.4514 Y-18.8000 Z-1.0000 F120.00
G1 X-175.1190 Y-18.7661 Z-1.0000 F120.00
G2 X-174.4514 Y-6.2000 Z-1.0000 I0.6381 J6.2669 F120.00
G1 X-22.5112 Y-6.2000 Z-1.0000 F120.00
G1 X-21.8644 Y-6.2318 Z-1.0000 F120.00
G2 X-18.0288 Y-8.0459 Z-1.0000 I-0.6182 J-6.2689 F120.00
G1 X-18.0288 Y-8.0459 Z-1.5000 F120.00
G2 X-22.5112 Y-18.8000 Z-1.5000 I-4.4538 J-4.4548 F120.00
G1 X-174.4514 Y-18.8000 Z-1.5000 F120.00
G1 X-175.1190 Y-18.7661 Z-1.5000 F120.00
G2 X-174.4514 Y-6.2000 Z-1.5000 I0.6381 J6.2669 F120.00
G1 X-22.5112 Y-6.2000 Z-1.5000 F120.00
G1 X-21.8644 Y-6.2318 Z-1.5000 F120.00
G2 X-18.0288 Y-8.0459 Z-1.5000 I-0.6182 J-6.2689 F120.00
G1 X-18.0288 Y-8.0459 Z-2.0000 F120.00
G2 X-22.5112 Y-18.8000 Z-2.0000 I-4.4538 J-4.4548 F120.00
G1 X-174.4514 Y-18.8000 Z-2.0000 F120.00
G1 X-175.1190 Y-18.7661 Z-2.0000 F120.00
G2 X-174.4514 Y-6.2000 Z-2.0000 I0.6381 J6.2669 F120.00
G1 X-22.5112 Y-6.2000 Z-2.0000 F120.00
G1 X-21.8644 Y-6.2318 Z-2.0000 F120.00
G2 X-18.0288 Y-8.0459 Z-2.0000 I-0.6182 J-6.2689 F120.00
G1 X-18.0288 Y-8.0459 Z-2.5000 F120.00
G2 X-22.5112 Y-18.8000 Z-2.5000 I-4.4538 J-4.4548 F120.00
G1 X-174.4514 Y-18.8000 Z-2.5000 F120.00
G1 X-175.1190 Y-18.7661 Z-2.5000 F120.00
G2 X-174.4514 Y-6.2000 Z-2.5000 I0.6381 J6.2669 F120.00
G1 X-22.5112 Y-6.2000 Z-2.5000 F120.00
G1 X-21.8644 Y-6.2318 Z-2.5000 F120.00
G2 X-18.0288 Y-8.0459 Z-2.5000 I-0.6182 J-6.2689 F120.00
G1 X-18.0288 Y-8.0459 Z-3.0000 F120.00
G2 X-22.5112 Y-18.8000 Z-3.0000 I-4.4538 J-4.4548 F120.00
G1 X-174.4514 Y-18.8000 Z-3.0000 F120.00
G1 X-175.1190 Y-18.7661 Z-3.0000 F120.00
G2 X-174.4514 Y-6.2000 Z-3.0000 I0.6381 J6.2669 F120.00
G1 X-22.5112 Y-6.2000 Z-3.0000 F120.00
G1 X-21.8644 Y-6.2318 Z-3.0000 F120.00
G2 X-18.0288 Y-8.0459 Z-3.0000 I-0.6182 J-6.2689 F120.00
G1 X-18.0288 Y-8.0459 Z-3.5000 F120.00
G2 X-22.5112 Y-18.8000 Z-3.5000 I-4.4538 J-4.4548 F120.00
G1 X-174.4514 Y-18.8000 Z-3.5000 F120.00
G1 X-175.1190 Y-18.7661 Z-3.5000 F120.00
G2 X-174.4514 Y-6.2000 Z-3.5000 I0.6381 J6.2669 F120.00
G1 X-22.5112 Y-6.2000 Z-3.5000 F120.00
G1 X-21.8644 Y-6.2318 Z-3.5000 F120.00
G2 X-18.0288 Y-8.0459 Z-3.5000 I-0.6182 J-6.2689 F120.00
G1 X-18.0288 Y-8.0459 Z-4.0000 F120.00
G2 X-22.5112 Y-18.8000 Z-4.0000 I-4.4538 J-4.4548 F120.00
G1 X-174.4514 Y-18.8000 Z-4.0000 F120.00
G1 X-175.1190 Y-18.7661 Z-4.0000 F120.00
G2 X-174.4514 Y-6.2000 Z-4.0000 I0.6381 J6.2669 F120.00
G1 X-22.5112 Y-6.2000 Z-4.0000 F120.00
G1 X-21.8644 Y-6.2318 Z-4.0000 F120.00
G2 X-18.0288 Y-8.0459 Z-4.0000 I-0.6182 J-6.2689 F120.00
G1 X-18.0288 Y-8.0459 Z-4.5000 F120.00
G2 X-22.5112 Y-18.8000 Z-4.5000 I-4.4538 J-4.4548 F120.00
G1 X-174.4514 Y-18.8000 Z-4.5000 F120.00
G1 X-175.1190 Y-18.7661 Z-4.5000 F120.00
G2 X-174.4514 Y-6.2000 Z-4.5000 I0.6381 J6.2669 F120.00
G1 X-22.5112 Y-6.2000 Z-4.5000 F120.00
G1 X-21.8644 Y-6.2318 Z-4.5000 F120.00
G2 X-18.0288 Y-8.0459 Z-4.5000 I-0.6182 J-6.2689 F120.00
G1 X-18.0288 Y-8.0459 Z-5.0000 F120.00
G2 X-22.5112 Y-18.8000 Z-5.0000 I-4.4538 J-4.4548 F120.00
G1 X-174.4514 Y-18.8000 Z-5.0000 F120.00
G1 X-175.1190 Y-18.7661 Z-5.0000 F120.00
G2 X-174.4514 Y-6.2000 Z-5.0000 I0.6381 J6.2669 F120.00
G1 X-22.5112 Y-6.2000 Z-5.0000 F120.00
G1 X-21.8644 Y-6.2318 Z-5.0000 F120.00
G2 X-18.0288 Y-8.0459 Z-5.0000 I-0.6182 J-6.2689 F120.00
G1 X-18.0288 Y-8.0459 Z-5.5000 F120.00
G2 X-22.5112 Y-18.8000 Z-5.5000 I-4.4538 J-4.4548 F120.00
G1 X-174.4514 Y-18.8000 Z-5.5000 F120.00
G1 X-175.1190 Y-18.7661 Z-5.5000 F120.00
G2 X-174.4514 Y-6.2000 Z-5.5000 I0.6381 J6.2669 F120.00
G1 X-22.5112 Y-6.2000 Z-5.5000 F120.00
G1 X-21.8644 Y-6.2318 Z-5.5000 F120.00
G2 X-18.0288 Y-8.0459 Z-5.5000 I-0.6182 J-6.2689 F120.00
G1 X-18.0288 Y-8.0459 Z-6.0000 F120.00
G2 X-22.5112 Y-18.8000 Z-6.0000 I-4.4538 J-4.4548 F120.00
G1 X-56.7563 Y-18.8000 Z-6.0000 F120.00
G1 X-57.2563 Y-18.8000 Z-5.5000 F120.00
G1 X-63.7363 Y-18.8000 Z-5.5000 F120.00
G1 X-64.2363 Y-18.8000 Z-6.0000 F120.00
G1 X-132.7263 Y-18.8000 Z-6.0000 F120.00
G1 X-133.2263 Y-18.8000 Z-5.5000 F120.00
G1 X-139.7063 Y-18.8000 Z-5.5000 F120.00
G1 X-140.2063 Y-18.8000 Z-6.0000 F120.00
G1 X-174.4514 Y-18.8000 Z-6.0000 F120.00
G1 X-175.1190 Y-18.7661 Z-6.0000 F120.00
G2 X-174.4514 Y-6.2000 Z-6.0000 I0.6381 J6.2669 F120.00
G1 X-64.2363 Y-6.2000 Z-6.0000 F120.00
G1 X-63.7363 Y-6.2000 Z-5.5000 F120.00
G1 X-57.2563 Y-6.2000 Z-5.5000 F120.00
G1 X-56.7563 Y-6.2000 Z-6.0000 F120.00
G1 X-22.5112 Y-6.2000 Z-6.0000 F120.00
G1 X-21.8644 Y-6.2318 Z-6.0000 F120.00
G2 X-18.0288 Y-8.0459 Z-6.0000 I-0.6182 J-6.2689 F120.00
G1 X-18.0288 Y-8.0459 Z-6.5000 F120.00
G2 X-22.5112 Y-18.8000 Z-6.5000 I-4.4538 J-4.4548 F120.00
G1 X-56.2563 Y-18.8000 Z-6.5000 F120.00
G1 X-57.2563 Y-18.8000 Z-5.5000 F120.00
G1 X-63.7363 Y-18.8000 Z-5.5000 F120.00
G1 X-64.7363 Y-18.8000 Z-6.5000 F120.00
G1 X-132.2263 Y-18.8000 Z-6.5000 F120.00
G1 X-133.2263 Y-18.8000 Z-5.5000 F120.00
G1 X-139.7063 Y-18.8000 Z-5.5000 F120.00
G1 X-140.7063 Y-18.8000 Z-6.5000 F120.00
G1 X-174.4514 Y-18.8000 Z-6.5000 F120.00
G1 X-175.1190 Y-18.7661 Z-6.5000 F120.00
G2 X-174.4514 Y-6.2000 Z-6.5000 I0.6381 J6.2669 F120.00
G1 X-64.7363 Y-6.2000 Z-6.5000 F120.00
G1 X-63.7363 Y-6.2000 Z-5.5000 F120.00
G1 X-57.2563 Y-6.2000 Z-5.5000 F120.00
G1 X-56.2563 Y-6.2000 Z-6.5000 F120.00
G1 X-22.5112 Y-6.2000 Z-6.5000 F120.00
G1 X-21.8644 Y-6.2318 Z-6.5000 F120.00
G2 X-18.0288 Y-8.0459 Z-6.5000 I-0.6182 J-6.2689 F120.00
G1 X-18.0288 Y-8.0459 Z-7.0000 F120.00
G2 X-22.5112 Y-18.8000 Z-7.0000 I-4.4538 J-4.4548 F120.00
G1 X-55.7563 Y-18.8000 Z-7.0000 F120.00
G1 X-57.2563 Y-18.8000 Z-5.5000 F120.00
G1 X-63.7363 Y-18.8000 Z-5.5000 F120.00
G1 X-65.2363 Y-18.8000 Z-7.0000 F120.00
G1 X-131.7263 Y-18.8000 Z-7.0000 F120.00
G1 X-133.2263 Y-18.8000 Z-5.5000 F120.00
G1 X-139.7063 Y-18.8000 Z-5.5000 F120.00
G1 X-141.2063 Y-18.8000 Z-7.0000 F120.00
G1 X-174.4514 Y-18.8000 Z-7.0000 F120.00
G1 X-175.1190 Y-18.7661 Z-7.0000 F120.00
G2 X-174.4514 Y-6.2000 Z-7.0000 I0.6381 J6.2669 F120.00
G1 X-65.2363 Y-6.2000 Z-7.0000 F120.00
G1 X-63.7363 Y-6.2000 Z-5.5000 F120.00
G1 X-57.2563 Y-6.2000 Z-5.5000 F120.00
G1 X-55.7563 Y-6.2000 Z-7.0000 F120.00
G1 X-22.5112 Y-6.2000 Z-7.0000 F120.00
G1 X-21.8644 Y-6.2318 Z-7.0000 F120.00
G2 X-18.0288 Y-8.0459 Z-7.0000 I-0.6182 J-6.2689 F120.00
G1 X-18.0288 Y-8.0459 Z-7.5000 F120.00
G2 X-22.5112 Y-18.8000 Z-7.5000 I-4.4538 J-4.4548 F120.00
G1 X-55.2563 Y-18.8000 Z-7.5000 F120.00
G1 X-57.2563 Y-18.8000 Z-5.5000 F120.00
G1 X-63.7363 Y-18.8000 Z-5.5000 F120.00
G1 X-65.7363 Y-18.8000 Z-7.5000 F120.00
G1 X-131.2263 Y-18.8000 Z-7.5000 F120.00
G1 X-133.2263 Y-18.8000 Z-5.5000 F120.00
G1 X-139.7063 Y-18.8000 Z-5.5000 F120.00
G1 X-141.7063 Y-18.8000 Z-7.5000 F120.00
G1 X-174.4514 Y-18.8000 Z-7.5000 F120.00
G1 X-175.1190 Y-18.7661 Z-7.5000 F120.00
G2 X-174.4514 Y-6.2000 Z-7.5000 I0.6381 J6.2669 F120.00
G1 X-65.7363 Y-6.2000 Z-7.5000 F120.00
G1 X-63.7363 Y-6.2000 Z-5.5000 F120.00
G1 X-57.2563 Y-6.2000 Z-5.5000 F120.00
G1 X-55.2563 Y-6.2000 Z-7.5000 F120.00
G1 X-22.5112 Y-6.2000 Z-7.5000 F120.00
G1 X-21.8644 Y-6.2318 Z-7.5000 F120.00
G2 X-18.0288 Y-8.0459 Z-7.5000 I-0.6182 J-6.2689 F120.00
G1 X-18.0288 Y-8.0459 Z-8.0000 F120.00
G2 X-22.5112 Y-18.8000 Z-8.0000 I-4.4538 J-4.4548 F120.00
G1 X-54.7563 Y-18.8000 Z-8.0000 F120.00
G1 X-57.2563 Y-18.8000 Z-5.5000 F120.00
G1 X-63.7363 Y-18.8000 Z-5.5000 F120.00
G1 X-66.2363 Y-18.8000 Z-8.0000 F120.00
G1 X-130.7263 Y-18.8000 Z-8.0000 F120.00
G1 X-133.2263 Y-18.8000 Z-5.5000 F120.00
G1 X-139.7063 Y-18.8000 Z-5.5000 F120.00
G1 X-142.2063 Y-18.8000 Z-8.0000 F120.00
G1 X-174.4514 Y-18.8000 Z-8.0000 F120.00
G1 X-175.1190 Y-18.7661 Z-8.0000 F120.00
G2 X-174.4514 Y-6.2000 Z-8.0000 I0.6381 J6.2669 F120.00
G1 X-66.2363 Y-6.2000 Z-8.0000 F120.00
G1 X-63.7363 Y-6.2000 Z-5.5000 F120.00
G1 X-57.2563 Y-6.2000 Z-5.5000 F120.00
G1 X-54.7563 Y-6.2000 Z-8.0000 F120.00
G1 X-22.5112 Y-6.2000 Z-8.0000 F120.00
G1 X-21.8644 Y-6.2318 Z-8.0000 F120.00
G2 X-18.0288 Y-8.0459 Z-8.0000 I-0.6182 J-6.2689 F120.00
G1 X-18.0288 Y-8.0459 Z-8.5000 F120.00
G2 X-22.5112 Y-18.8000 Z-8.5000 I-4.4538 J-4.4548 F120.00
G1 X-54.2563 Y-18.8000 Z-8.5000 F120.00
G1 X-57.2563 Y-18.8000 Z-5.5000 F120.00
G1 X-63.7363 Y-18.8000 Z-5.5000 F120.00
G1 X-66.7363 Y-18.8000 Z-8.5000 F120.00
G1 X-130.2263 Y-18.8000 Z-8.5000 F120.00
G1 X-133.2263 Y-18.8000 Z-5.5000 F120.00
G1 X-139.7063 Y-18.8000 Z-5.5000 F120.00
G1 X-142.7063 Y-18.8000 Z-8.5000 F120.00
G1 X-174.4514 Y-18.8000 Z-8.5000 F120.00
G1 X-175.1190 Y-18.7661 Z-8.5000 F120.00
G2 X-174.4514 Y-6.2000 Z-8.5000 I0.6381 J6.2669 F120.00
G1 X-66.7363 Y-6.2000 Z-8.5000 F120.00
G1 X-63.7363 Y-6.2000 Z-5.5000 F120.00
G1 X-57.2563 Y-6.2000 Z-5.5000 F120.00
G1 X-54.2563 Y-6.2000 Z-8.5000 F120.00
G1 X-22.5112 Y-6.2000 Z-8.5000 F120.00
G1 X-21.8644 Y-6.2318 Z-8.5000 F120.00
G2 X-18.0288 Y-8.0459 Z-8.5000 I-0.6182 J-6.2689 F120.00
G1 X-18.0288 Y-8.0459 Z-9.0000 F120.00
G2 X-22.5112 Y-18.8000 Z-9.0000 I-4.4538 J-4.4548 F120.00
G1 X-53.7563 Y-18.8000 Z-9.0000 F120.00
G1 X-57.2563 Y-18.8000 Z-5.5000 F120.00
G1 X-63.7363 Y-18.8000 Z-5.5000 F120.00
G1 X-67.2363 Y-18.8000 Z-9.0000 F120.00
G1 X-129.7263 Y-18.8000 Z-9.0000 F120.00
G1 X-133.2263 Y-18.8000 Z-5.5000 F120.00
G1 X-139.7063 Y-18.8000 Z-5.5000 F120.00
G1 X-143.2063 Y-18.8000 Z-9.0000 F120.00
G1 X-174.4514 Y-18.8000 Z-9.0000 F120.00
G1 X-175.1190 Y-18.7661 Z-9.0000 F120.00
G2 X-174.4514 Y-6.2000 Z-9.0000 I0.6381 J6.2669 F120.00
G1 X-67.2363 Y-6.2000 Z-9.0000 F120.00
G1 X-63.7363 Y-6.2000 Z-5.5000 F120.00
G1 X-57.2563 Y-6.2000 Z-5.5000 F120.00
G1 X-53.7563 Y-6.2000 Z-9.0000 F120.00
G1 X-22.5112 Y-6.2000 Z-9.0000 F120.00
G1 X-21.8644 Y-6.2318 Z-9.0000 F120.00
G2 X-18.0288 Y-8.0459 Z-9.0000 I-0.6182 J-6.2689 F120.00
G1 X-18.0288 Y-8.0459 Z-9.5000 F120.00
G2 X-22.5112 Y-18.8000 Z-9.5000 I-4.4538 J-4.4548 F120.00
G1 X-53.2563 Y-18.8000 Z-9.5000 F120.00
G1 X-57.2563 Y-18.8000 Z-5.5000 F120.00
G1 X-63.7363 Y-18.8000 Z-5.5000 F120.00
G1 X-67.7363 Y-18.8000 Z-9.5000 F120.00
G1 X-129.2263 Y-18.8000 Z-9.5000 F120.00
G1 X-133.2263 Y-18.8000 Z-5.5000 F120.00
G1 X-139.7063 Y-18.8000 Z-5.5000 F120.00
G1 X-143.7063 Y-18.8000 Z-9.5000 F120.00
G1 X-174.4514 Y-18.8000 Z-9.5000 F120.00
G1 X-175.1190 Y-18.7661 Z-9.5000 F120.00
G2 X-174.4514 Y-6.2000 Z-9.5000 I0.6381 J6.2669 F120.00
G1 X-67.7363 Y-6.2000 Z-9.5000 F120.00
G1 X-63.7363 Y-6.2000 Z-5.5000 F120.00
G1 X-57.2563 Y-6.2000 Z-5.5000 F120.00
G1 X-53.2563 Y-6.2000 Z-9.5000 F120.00
G1 X-22.5112 Y-6.2000 Z-9.5000 F120.00
G1 X-21.8644 Y-6.2318 Z-9.5000 F120.00
G2 X-18.0288 Y-8.0459 Z-9.5000 I-0.6182 J-6.2689 F120.00
G1 X-18.0288 Y-8.0459 Z-10.0000 F120.00
G2 X-22.5112 Y-18.8000 Z-10.0000 I-4.4538 J-4.4548 F120.00
G1 X-52.7563 Y-18.8000 Z-10.0000 F120.00
G1 X-57.2563 Y-18.8000 Z-5.5000 F120.00
G1 X-63.7363 Y-18.8000 Z-5.5000 F120.00
G1 X-68.2363 Y-18.8000 Z-10.0000 F120.00
G1 X-128.7263 Y-18.8000 Z-10.0000 F120.00
G1 X-133.2263 Y-18.8000 Z-5.5000 F120.00
G1 X-139.7063 Y-18.8000 Z-5.5000 F120.00
G1 X-144.2063 Y-18.8000 Z-10.0000 F120.00
G1 X-174.4514 Y-18.8000 Z-10.0000 F120.00
G1 X-175.1190 Y-18.7661 Z-10.0000 F120.00
G2 X-174.4514 Y-6.2000 Z-10.0000 I0.6381 J6.2669 F120.00
G1 X-68.2363 Y-6.2000 Z-10.0000 F120.00
G1 X-63.7363 Y-6.2000 Z-5.5000 F120.00
G1 X-57.2563 Y-6.2000 Z-5.5000 F120.00
G1 X-52.7563 Y-6.2000 Z-10.0000 F120.00
G1 X-22.5112 Y-6.2000 Z-10.0000 F120.00
G1 X-21.8644 Y-6.2318 Z-10.0000 F120.00
G2 X-18.0288 Y-8.0459 Z-10.0000 I-0.6182 J-6.2689 F120.00
G1 X-18.0288 Y-8.0459 Z-10.5000 F120.00
G2 X-22.5112 Y-18.8000 Z-10.5000 I-4.4538 J-4.4548 F120.00
G1 X-52.2563 Y-18.8000 Z-10.5000 F120.00
G1 X-57.2563 Y-18.8000 Z-5.5000 F120.00
G1 X-63.7363 Y-18.8000 Z-5.5000 F120.00
G1 X-68.7363 Y-18.8000 Z-10.5000 F120.00
G1 X-128.2263 Y-18.8000 Z-10.5000 F120.00
G1 X-133.2263 Y-18.8000 Z-5.5000 F120.00
G1 X-139.7063 Y-18.8000 Z-5.5000 F120.00
G1 X-144.7063 Y-18.8000 Z-10.5000 F120.00
G1 X-174.4514 Y-18.8000 Z-10.5000 F120.00
G1 X-175.1190 Y-18.7661 Z-10.5000 F120.00
G2 X-174.4514 Y-6.2000 Z-10.5000 I0.6381 J6.2669 F120.00
G1 X-68.7363 Y-6.2000 Z-10.5000 F120.00
G1 X-63.7363 Y-6.2000 Z-5.5000 F120.00
G1 X-57.2563 Y-6.2000 Z-5.5000 F120.00
G1 X-52.2563 Y-6.2000 Z-10.5000 F120.00
G1 X-22.5112 Y-6.2000 Z-10.5000 F120.00
G1 X-21.8644 Y-6.2318 Z-10.5000 F120.00
G2 X-18.0288 Y-8.0459 Z-10.5000 I-0.6182 J-6.2689 F120.00
G1 X-18.0288 Y-8.0459 Z-11.0000 F120.00
G2 X-22.5112 Y-18.8000 Z-11.0000 I-4.4538 J-4.4548 F120.00
G1 X-51.7563 Y-18.8000 Z-11.0000 F120.00
G1 X-57.2563 Y-18.8000 Z-5.5000 F120.00
G1 X-63.7363 Y-18.8000 Z-5.5000 F120.00
G1 X-69.2363 Y-18.8000 Z-11.0000 F120.00
G1 X-127.7263 Y-18.8000 Z-11.0000 F120.00
G1 X-133.2263 Y-18.8000 Z-5.5000 F120.00
G1 X-139.7063 Y-18.8000 Z-5.5000 F120.00
G1 X-145.2063 Y-18.8000 Z-11.0000 F120.00
G1 X-174.4514 Y-18.8000 Z-11.0000 F120.00
G1 X-175.1190 Y-18.7661 Z-11.0000 F120.00
G2 X-174.4514 Y-6.2000 Z-11.0000 I0.6381 J6.2669 F120.00
G1 X-69.2363 Y-6.2000 Z-11.0000 F120.00
G1 X-63.7363 Y-6.2000 Z-5.5000 F120.00
G1 X-57.2563 Y-6.2000 Z-5.5000 F120.00
G1 X-51.7563 Y-6.2000 Z-11.0000 F120.00
G1 X-22.5112 Y-6.2000 Z-11.0000 F120.00
G1 X-21.8644 Y-6.2318 Z-11.0000 F120.00
G2 X-18.0288 Y-8.0459 Z-11.0000 I-0.6182 J-6.2689 F120.00
G0 X-18.0288 Y-8.0459 Z5.0000
(finish operation: TagDressup)
(begin postamble)
M5
G17 G90
; M2
