(Exported by FreeCAD)
(Post Processor: grbl_post)
(Output Time:2020-01-29 19:27:06.876114)
(begin preamble)
G17 G90
G21
(begin operation: Default Tool)
(Path: Default Tool)
(Default Tool)
(begin toolchange)
; M6 T1
M3 S800.0000
(finish operation: Default Tool)
(begin operation: TagDressup001)
(Path: TagDressup001)
G0 Z6.0000
G0 X72.1688 Y-28.1548 Z6.0000
G0 X72.1688 Y-28.1548 Z4.0000
G1 X72.1688 Y-28.1548 Z-1.0000 F120.00
G2 X66.6291 Y-43.7182 Z-1.0000 I-7.1892 J-6.2087 F120.00
G2 X63.3302 Y-25.0087 Z-1.0000 I-1.6495 J9.3547 F120.00
G2 X72.1688 Y-28.1548 Z-1.0000 I1.6495 J-9.3547 F120.00
G0 X72.1688 Y-28.1548 Z6.0000
G0 X66.5752 Y-66.3084 Z6.0000
G0 X66.5752 Y-66.3084 Z3.0000
G1 X66.5752 Y-66.3084 Z-1.0000 F120.00
G2 X66.7003 Y-88.0551 Z-1.0000 I-1.5955 J-10.8829 F120.00
G2 X63.2590 Y-66.3275 Z-1.0000 I-1.7207 J10.8638 F120.00
G2 X66.5752 Y-66.3084 Z-1.0000 I1.7207 J-10.8638 F120.00
G1 X66.5752 Y-66.3084 Z-2.0000 F120.00
G2 X66.7003 Y-88.0551 Z-2.0000 I-1.5955 J-10.8829 F120.00
G2 X63.2590 Y-66.3275 Z-2.0000 I-1.7207 J10.8638 F120.00
G2 X66.5752 Y-66.3084 Z-2.0000 I1.7207 J-10.8638 F120.00
G0 X66.5752 Y-66.3084 Z6.0000
G0 X65.4535 Y-43.8507 Z6.0000
G0 X65.4535 Y-43.8507 Z2.0000
G1 X65.4535 Y-43.8507 Z-2.0000 F120.00
G2 X63.3302 Y-25.0087 Z-2.0000 I-0.4739 J9.4872 F120.00
G2 X66.6291 Y-43.7182 Z-2.0000 I1.6495 J-9.3547 F120.00
G2 X65.4535 Y-43.8507 Z-2.0000 I-1.6495 J9.3547 F120.00
G1 X65.4535 Y-43.8507 Z-3.0000 F120.00
G2 X63.3302 Y-25.0087 Z-3.0000 I-0.4739 J9.4872 F120.00
G2 X66.6291 Y-43.7182 Z-3.0000 I1.6495 J-9.3547 F120.00
G2 X65.4535 Y-43.8507 Z-3.0000 I-1.6495 J9.3547 F120.00
G0 X65.4535 Y-43.8507 Z6.0000
G0 X65.1360 Y-66.1932 Z6.0000
G0 X65.1360 Y-66.1932 Z1.0000
G1 X65.1360 Y-66.1932 Z-3.0000 F120.00
G2 X66.7003 Y-88.0551 Z-3.0000 I-0.1563 J-10.9981 F120.00
G2 X63.2590 Y-66.3275 Z-3.0000 I-1.7207 J10.8638 F120.00
G2 X65.1360 Y-66.1932 Z-3.0000 I1.7207 J-10.8638 F120.00
G1 X65.1360 Y-66.1932 Z-4.0000 F120.00
G2 X66.7003 Y-88.0551 Z-4.0000 I-0.1563 J-10.9981 F120.00
G2 X63.2590 Y-66.3275 Z-4.0000 I-1.7207 J10.8638 F120.00
G2 X65.1360 Y-66.1932 Z-4.0000 I1.7207 J-10.8638 F120.00
G0 X65.1360 Y-66.1932 Z6.0000
G0 X65.0263 Y-43.8624 Z6.0000
G0 X65.0263 Y-43.8624 Z0.0000
G1 X65.0263 Y-43.8624 Z-4.0000 F120.00
G2 X63.3302 Y-25.0087 Z-4.0000 I-0.0466 J9.4989 F120.00
G2 X66.6291 Y-43.7182 Z-4.0000 I1.6495 J-9.3547 F120.00
G2 X65.0263 Y-43.8624 Z-4.0000 I-1.6495 J9.3547 F120.00
G1 X65.0263 Y-43.8624 Z-5.0000 F120.00
G2 X63.3302 Y-25.0087 Z-5.0000 I-0.0466 J9.4989 F120.00
G2 X66.6291 Y-43.7182 Z-5.0000 I1.6495 J-9.3547 F120.00
G2 X65.0263 Y-43.8624 Z-5.0000 I-1.6495 J9.3547 F120.00
G0 X65.0263 Y-43.8624 Z6.0000
G0 X64.9951 Y-66.1921 Z6.0000
G0 X64.9951 Y-66.1921 Z-1.0000
G1 X64.9951 Y-66.1921 Z-5.0000 F120.00
G2 X66.7003 Y-88.0551 Z-5.0000 I-0.0154 J-10.9992 F120.00
G2 X63.2590 Y-66.3275 Z-5.0000 I-1.7207 J10.8638 F120.00
G2 X64.9951 Y-66.1921 Z-5.0000 I1.7207 J-10.8638 F120.00
G1 X64.9951 Y-66.1921 Z-6.0000 F120.00
G2 X66.7003 Y-88.0551 Z-6.0000 I-0.0154 J-10.9992 F120.00
G2 X63.2590 Y-66.3275 Z-6.0000 I-1.7207 J10.8638 F120.00
G2 X64.9951 Y-66.1921 Z-6.0000 I1.7207 J-10.8638 F120.00
G0 X64.9951 Y-66.1921 Z6.0000
G0 X64.9843 Y-43.8625 Z6.0000
G0 X64.9843 Y-43.8625 Z-2.0000
G1 X64.9843 Y-43.8625 Z-6.0000 F120.00
G2 X63.3302 Y-25.0087 Z-6.0000 I-0.0046 J9.4990 F120.00
G2 X66.6291 Y-43.7182 Z-6.0000 I1.6495 J-9.3547 F120.00
G2 X64.9843 Y-43.8625 Z-6.0000 I-1.6495 J9.3547 F120.00
G1 X64.9843 Y-43.8625 Z-7.0000 F120.00
G2 X63.3302 Y-25.0087 Z-7.0000 I-0.0046 J9.4990 F120.00
G2 X66.6291 Y-43.7182 Z-7.0000 I1.6495 J-9.3547 F120.00
G2 X64.9843 Y-43.8625 Z-7.0000 I-1.6495 J9.3547 F120.00
G0 X64.9843 Y-43.8625 Z6.0000
G0 X64.9812 Y-66.1920 Z6.0000
G0 X64.9812 Y-66.1920 Z-3.0000
G1 X64.9812 Y-66.1920 Z-7.0000 F120.00
G2 X66.7003 Y-88.0551 Z-7.0000 I-0.0015 J-10.9992 F120.00
G2 X63.2590 Y-66.3275 Z-7.0000 I-1.7207 J10.8638 F120.00
G2 X64.9812 Y-66.1920 Z-7.0000 I1.7207 J-10.8638 F120.00
G1 X64.9812 Y-66.1920 Z-8.0000 F120.00
G2 X66.7003 Y-88.0551 Z-8.0000 I-0.0015 J-10.9992 F120.00
G2 X63.2590 Y-66.3275 Z-8.0000 I-1.7207 J10.8638 F120.00
G2 X64.9812 Y-66.1920 Z-8.0000 I1.7207 J-10.8638 F120.00
G0 X64.9812 Y-66.1920 Z6.0000
G0 X64.9801 Y-43.8625 Z6.0000
G0 X64.9801 Y-43.8625 Z-4.0000
G1 X64.9801 Y-43.8625 Z-8.0000 F120.00
G2 X63.3302 Y-25.0087 Z-8.0000 I-0.0005 J9.4990 F120.00
G2 X66.6291 Y-43.7182 Z-8.0000 I1.6495 J-9.3547 F120.00
G2 X64.9801 Y-43.8625 Z-8.0000 I-1.6495 J9.3547 F120.00
G1 X64.9801 Y-43.8625 Z-9.0000 F120.00
G2 X55.7560 Y-36.6341 Z-9.0000 I-0.0005 J9.4990 F120.00
G1 X55.7560 Y-36.6341 Z-8.0000 F120.00
G2 X55.7296 Y-32.2029 Z-8.0000 I9.2237 J2.2706 F120.00
G1 X55.7296 Y-32.2029 Z-9.0000 F120.00
G2 X63.3302 Y-25.0087 Z-9.0000 I9.2501 J-2.1605 F120.00
G2 X74.2651 Y-32.3604 Z-9.0000 I1.6495 J-9.3547 F120.00
G1 X74.2651 Y-32.3604 Z-8.0000 F120.00
G2 X74.1642 Y-36.7875 Z-8.0000 I-9.2855 J-2.0031 F120.00
G1 X74.1642 Y-36.7875 Z-9.0000 F120.00
G2 X66.6291 Y-43.7182 Z-9.0000 I-9.1845 J2.4241 F120.00
G2 X64.9801 Y-43.8625 Z-9.0000 I-1.6495 J9.3547 F120.00
G0 X64.9801 Y-43.8625 Z6.0000
G0 X64.9798 Y-66.1920 Z6.0000
G0 X64.9798 Y-66.1920 Z-5.0000
G1 X64.9798 Y-66.1920 Z-9.0000 F120.00
G2 X75.7779 Y-75.0983 Z-9.0000 I-0.0001 J-10.9992 F120.00
G1 X75.7779 Y-75.0983 Z-8.0000 F120.00
G2 X75.7259 Y-79.5366 Z-8.0000 I-10.7983 J-2.0930 F120.00
G1 X75.7259 Y-79.5366 Z-9.0000 F120.00
G2 X66.7003 Y-88.0551 Z-9.0000 I-10.7463 J2.3453 F120.00
G2 X54.4239 Y-80.2831 Z-9.0000 I-1.7207 J10.8638 F120.00
G1 X54.4239 Y-80.2831 Z-8.0000 F120.00
G2 X54.0612 Y-75.8604 Z-8.0000 I10.5557 J3.0918 F120.00
G1 X54.0612 Y-75.8604 Z-9.0000 F120.00
G2 X63.2590 Y-66.3275 Z-9.0000 I10.9184 J-1.3309 F120.00
G2 X64.9798 Y-66.1920 Z-9.0000 I1.7207 J-10.8638 F120.00
G1 X64.9798 Y-66.1920 Z-10.0000 F120.00
G2 X75.7779 Y-75.0983 Z-10.0000 I-0.0001 J-10.9992 F120.00
G1 X75.7779 Y-75.0983 Z-8.0000 F120.00
G2 X75.7259 Y-79.5366 Z-8.0000 I-10.7983 J-2.0930 F120.00
G1 X75.7259 Y-79.5366 Z-10.0000 F120.00
G2 X66.7003 Y-88.0551 Z-10.0000 I-10.7463 J2.3453 F120.00
G2 X54.4239 Y-80.2831 Z-10.0000 I-1.7207 J10.8638 F120.00
G1 X54.4239 Y-80.2831 Z-8.0000 F120.00
G2 X54.0612 Y-75.8604 Z-8.0000 I10.5557 J3.0918 F120.00
G1 X54.0612 Y-75.8604 Z-10.0000 F120.00
G2 X63.2590 Y-66.3275 Z-10.0000 I10.9184 J-1.3309 F120.00
G2 X64.9798 Y-66.1920 Z-10.0000 I1.7207 J-10.8638 F120.00
G0 X64.9798 Y-66.1920 Z6.0000
G0 X64.9797 Y-43.8625 Z6.0000
G0 X64.9797 Y-43.8625 Z-6.0000
G1 X64.9797 Y-43.8625 Z-10.0000 F120.00
G2 X55.7560 Y-36.6341 Z-10.0000 I-0.0000 J9.4990 F120.00
G1 X55.7560 Y-36.6341 Z-8.0000 F120.00
G2 X55.7296 Y-32.2029 Z-8.0000 I9.2237 J2.2706 F120.00
G1 X55.7296 Y-32.2029 Z-10.0000 F120.00
G2 X63.3302 Y-25.0087 Z-10.0000 I9.2501 J-2.1605 F120.00
G2 X74.2651 Y-32.3604 Z-10.0000 I1.6495 J-9.3547 F120.00
G1 X74.2651 Y-32.3604 Z-8.0000 F120.00
G2 X74.1642 Y-36.7875 Z-8.0000 I-9.2855 J-2.0031 F120.00
G1 X74.1642 Y-36.7875 Z-10.0000 F120.00
G2 X66.6291 Y-43.7182 Z-10.0000 I-9.1845 J2.4241 F120.00
G2 X64.9797 Y-43.8625 Z-10.0000 I-1.6495 J9.3547 F120.00
G1 X64.9797 Y-43.8625 Z-11.0000 F120.00
G2 X55.7560 Y-36.6341 Z-11.0000 I-0.0000 J9.4990 F120.00
G1 X55.7560 Y-36.6341 Z-8.0000 F120.00
G2 X55.7296 Y-32.2029 Z-8.0000 I9.2237 J2.2706 F120.00
G1 X55.7296 Y-32.2029 Z-11.0000 F120.00
G2 X63.3302 Y-25.0087 Z-11.0000 I9.2501 J-2.1605 F120.00
G2 X74.2651 Y-32.3604 Z-11.0000 I1.6495 J-9.3547 F120.00
G1 X74.2651 Y-32.3604 Z-8.0000 F120.00
G2 X74.1642 Y-36.7875 Z-8.0000 I-9.2855 J-2.0031 F120.00
G1 X74.1642 Y-36.7875 Z-11.0000 F120.00
G2 X66.6291 Y-43.7182 Z-11.0000 I-9.1845 J2.4241 F120.00
G2 X64.9797 Y-43.8625 Z-11.0000 I-1.6495 J9.3547 F120.00
G0 X64.9797 Y-43.8625 Z6.0000
G0 X64.9797 Y-66.1920 Z6.0000
G0 X64.9797 Y-66.1920 Z-7.0000
G1 X64.9797 Y-66.1920 Z-11.0000 F120.00
G2 X75.7779 Y-75.0983 Z-11.0000 I-0.0000 J-10.9992 F120.00
G1 X75.7779 Y-75.0983 Z-8.0000 F120.00
G2 X75.7259 Y-79.5366 Z-8.0000 I-10.7983 J-2.0930 F120.00
G1 X75.7259 Y-79.5366 Z-11.0000 F120.00
G2 X66.7003 Y-88.0551 Z-11.0000 I-10.7463 J2.3453 F120.00
G2 X54.4239 Y-80.2831 Z-11.0000 I-1.7207 J10.8638 F120.00
G1 X54.4239 Y-80.2831 Z-8.0000 F120.00
G2 X54.0612 Y-75.8604 Z-8.0000 I10.5557 J3.0918 F120.00
G1 X54.0612 Y-75.8604 Z-11.0000 F120.00
G2 X63.2590 Y-66.3275 Z-11.0000 I10.9184 J-1.3309 F120.00
G2 X64.9797 Y-66.1920 Z-11.0000 I1.7207 J-10.8638 F120.00
G1 X64.9797 Y-66.1920 Z-12.0000 F120.00
G2 X75.7779 Y-75.0983 Z-12.0000 I-0.0000 J-10.9992 F120.00
G1 X75.7779 Y-75.0983 Z-8.0000 F120.00
G2 X75.7259 Y-79.5366 Z-8.0000 I-10.7983 J-2.0930 F120.00
G1 X75.7259 Y-79.5366 Z-12.0000 F120.00
G2 X66.7003 Y-88.0551 Z-12.0000 I-10.7463 J2.3453 F120.00
G2 X54.4239 Y-80.2831 Z-12.0000 I-1.7207 J10.8638 F120.00
G1 X54.4239 Y-80.2831 Z-8.0000 F120.00
G2 X54.0612 Y-75.8604 Z-8.0000 I10.5557 J3.0918 F120.00
G1 X54.0612 Y-75.8604 Z-12.0000 F120.00
G2 X63.2590 Y-66.3275 Z-12.0000 I10.9184 J-1.3309 F120.00
G2 X64.9797 Y-66.1920 Z-12.0000 I1.7207 J-10.8638 F120.00
G0 X64.9797 Y-66.1920 Z6.0000
G0 X64.9797 Y-43.8625 Z6.0000
G0 X64.9797 Y-43.8625 Z-8.0000
G1 X64.9797 Y-43.8625 Z-12.0000 F120.00
G2 X55.7560 Y-36.6341 Z-12.0000 I-0.0000 J9.4990 F120.00
G1 X55.7560 Y-36.6341 Z-8.0000 F120.00
G2 X55.7296 Y-32.2029 Z-8.0000 I9.2237 J2.2706 F120.00
G1 X55.7296 Y-32.2029 Z-12.0000 F120.00
G2 X63.3302 Y-25.0087 Z-12.0000 I9.2501 J-2.1605 F120.00
G2 X74.2651 Y-32.3604 Z-12.0000 I1.6495 J-9.3547 F120.00
G1 X74.2651 Y-32.3604 Z-8.0000 F120.00
G2 X74.1642 Y-36.7875 Z-8.0000 I-9.2855 J-2.0031 F120.00
G1 X74.1642 Y-36.7875 Z-12.0000 F120.00
G2 X66.6291 Y-43.7182 Z-12.0000 I-9.1845 J2.4241 F120.00
G2 X64.9797 Y-43.8625 Z-12.0000 I-1.6495 J9.3547 F120.00
G0 X64.9797 Y-43.8625 Z6.0000
(finish operation: TagDressup001)
(begin operation: Pocket_Shape001)
(Path: Pocket_Shape001)
(Pocket_Shape001)
G0 Z6.0000
G0 X74.8802 Y-67.2911
G0 Z4.0000
G1 X74.8802 Y-67.2911 Z-1.0000 F60.00
G2 X64.4208 Y-91.1707 Z-1.0000 I-9.8958 J-9.8960 F120.00
G1 X64.4562 Y-90.1807 Z-1.0000 F120.00
G1 X64.4208 Y-91.1707 Z-1.0000 F120.00
G1 X63.9810 Y-91.1550 Z-1.0000 F120.00
G2 X65.9784 Y-63.2276 Z-1.0000 I0.9987 J13.9637 F120.00
G2 X74.8802 Y-67.2911 Z-1.0000 I-0.9939 J-13.9596 F120.00
G0 X74.8802 Y-67.2911 Z6.0000
G0 X74.1719 Y-67.9995 Z6.0000
G0 X74.1719 Y-67.9995 Z3.0000
G1 X74.1719 Y-67.9995 Z-1.0000 F60.00
G3 X65.5433 Y-64.2042 Z-1.0000 I-9.1921 J-9.1922 F120.00
G3 X51.9912 Y-76.6481 Z-1.0000 I-0.5639 J-12.9874 F120.00
G3 X64.4562 Y-90.1807 Z-1.0000 I12.9883 J-0.5436 F120.00
G3 X74.1719 Y-67.9995 Z-1.0000 I0.5236 J12.9891 F120.00
G1 X74.1719 Y-67.9995 Z-2.0000 F60.00
G3 X65.5433 Y-64.2042 Z-2.0000 I-9.1921 J-9.1922 F120.00
G3 X51.9912 Y-76.6481 Z-2.0000 I-0.5639 J-12.9874 F120.00
G3 X64.4562 Y-90.1807 Z-2.0000 I12.9883 J-0.5436 F120.00
G3 X74.1719 Y-67.9995 Z-2.0000 I0.5236 J12.9891 F120.00
G0 X74.1719 Y-67.9995 Z6.0000
G0 X74.8802 Y-67.2911 Z6.0000
G0 X74.8802 Y-67.2911 Z2.0000
G1 X74.8802 Y-67.2911 Z-2.0000 F60.00
G2 X64.4208 Y-91.1707 Z-2.0000 I-9.8958 J-9.8960 F120.00
G1 X64.4562 Y-90.1807 Z-2.0000 F120.00
G1 X64.4208 Y-91.1707 Z-2.0000 F120.00
G1 X63.9810 Y-91.1550 Z-2.0000 F120.00
G2 X65.9784 Y-63.2276 Z-2.0000 I0.9987 J13.9637 F120.00
G2 X74.8802 Y-67.2911 Z-2.0000 I-0.9939 J-13.9596 F120.00
G1 X74.8802 Y-67.2911 Z-3.0000 F60.00
G2 X64.4208 Y-91.1707 Z-3.0000 I-9.8958 J-9.8960 F120.00
G1 X64.4562 Y-90.1807 Z-3.0000 F120.00
G1 X64.4208 Y-91.1707 Z-3.0000 F120.00
G1 X63.9810 Y-91.1550 Z-3.0000 F120.00
G2 X65.9784 Y-63.2276 Z-3.0000 I0.9987 J13.9637 F120.00
G2 X74.8802 Y-67.2911 Z-3.0000 I-0.9939 J-13.9596 F120.00
G0 X74.8802 Y-67.2911 Z6.0000
G0 X74.1719 Y-67.9995 Z6.0000
G0 X74.1719 Y-67.9995 Z1.0000
G1 X74.1719 Y-67.9995 Z-3.0000 F60.00
G3 X65.5433 Y-64.2042 Z-3.0000 I-9.1921 J-9.1922 F120.00
G3 X51.9912 Y-76.6481 Z-3.0000 I-0.5639 J-12.9874 F120.00
G3 X64.4562 Y-90.1807 Z-3.0000 I12.9883 J-0.5436 F120.00
G3 X74.1719 Y-67.9995 Z-3.0000 I0.5236 J12.9891 F120.00
G1 X74.1719 Y-67.9995 Z-4.0000 F60.00
G3 X65.5433 Y-64.2042 Z-4.0000 I-9.1921 J-9.1922 F120.00
G3 X51.9912 Y-76.6481 Z-4.0000 I-0.5639 J-12.9874 F120.00
G3 X64.4562 Y-90.1807 Z-4.0000 I12.9883 J-0.5436 F120.00
G3 X74.1719 Y-67.9995 Z-4.0000 I0.5236 J12.9891 F120.00
G0 X74.1719 Y-67.9995 Z6.0000
G0 X74.8802 Y-67.2911 Z6.0000
G0 X74.8802 Y-67.2911 Z0.0000
G1 X74.8802 Y-67.2911 Z-4.0000 F60.00
G2 X64.4208 Y-91.1707 Z-4.0000 I-9.8958 J-9.8960 F120.00
G1 X64.4562 Y-90.1807 Z-4.0000 F120.00
G1 X64.4208 Y-91.1707 Z-4.0000 F120.00
G1 X63.9810 Y-91.1550 Z-4.0000 F120.00
G2 X65.9784 Y-63.2276 Z-4.0000 I0.9987 J13.9637 F120.00
G2 X74.8802 Y-67.2911 Z-4.0000 I-0.9939 J-13.9596 F120.00
G1 X74.8802 Y-67.2911 Z-5.0000 F60.00
G2 X64.4208 Y-91.1707 Z-5.0000 I-9.8958 J-9.8960 F120.00
G1 X64.4562 Y-90.1807 Z-5.0000 F120.00
G1 X64.4208 Y-91.1707 Z-5.0000 F120.00
G1 X63.9810 Y-91.1550 Z-5.0000 F120.00
G2 X65.9784 Y-63.2276 Z-5.0000 I0.9987 J13.9637 F120.00
G2 X74.8802 Y-67.2911 Z-5.0000 I-0.9939 J-13.9596 F120.00
G0 X74.8802 Y-67.2911 Z6.0000
G0 X74.1719 Y-67.9995 Z6.0000
G0 X74.1719 Y-67.9995 Z-1.0000
G1 X74.1719 Y-67.9995 Z-5.0000 F60.00
G3 X65.5433 Y-64.2042 Z-5.0000 I-9.1921 J-9.1922 F120.00
G3 X51.9912 Y-76.6481 Z-5.0000 I-0.5639 J-12.9874 F120.00
G3 X64.4562 Y-90.1807 Z-5.0000 I12.9883 J-0.5436 F120.00
G3 X74.1719 Y-67.9995 Z-5.0000 I0.5236 J12.9891 F120.00
G0 Z6.0000
(finish operation: Pocket_Shape001)
(begin operation: Pocket_Shape002)
(Path: Pocket_Shape002)
(Pocket_Shape002)
G0 Z6.0000
G0 X73.4657 Y-25.8775
G0 Z4.0000
G1 X73.4657 Y-25.8775 Z-1.0000 F60.00
G2 X64.9797 Y-46.3539 Z-1.0000 I-8.4815 J-8.4816 F120.00
G1 X64.9797 Y-45.8634 Z-1.0000 F120.00
G1 X64.9797 Y-46.3539 Z-1.0000 F120.00
G1 X64.5201 Y-46.3539 Z-1.0000 F120.00
G2 X65.4393 Y-22.3730 Z-1.0000 I0.4596 J11.9905 F120.00
G2 X73.4657 Y-25.8775 Z-1.0000 I-0.4551 J-11.9861 F120.00
G0 X73.4657 Y-25.8775 Z6.0000
G0 X73.1110 Y-26.2322 Z6.0000
G0 X73.1110 Y-26.2322 Z3.0000
G1 X73.1110 Y-26.2322 Z-1.0000 F60.00
G3 X65.0233 Y-22.8644 Z-1.0000 I-8.1311 J-8.1317 F120.00
G3 X53.4799 Y-34.3421 Z-1.0000 I-0.0438 J-11.4995 F120.00
G3 X64.9797 Y-45.8634 Z-1.0000 I11.4995 J-0.0218 F120.00
G3 X73.1110 Y-26.2322 Z-1.0000 I0.0002 J11.4996 F120.00
G1 X73.1110 Y-26.2322 Z-2.0000 F60.00
G3 X65.0233 Y-22.8644 Z-2.0000 I-8.1311 J-8.1317 F120.00
G3 X53.4799 Y-34.3421 Z-2.0000 I-0.0438 J-11.4995 F120.00
G3 X64.9797 Y-45.8634 Z-2.0000 I11.4995 J-0.0218 F120.00
G3 X73.1110 Y-26.2322 Z-2.0000 I0.0002 J11.4996 F120.00
G0 X73.1110 Y-26.2322 Z6.0000
G0 X73.4657 Y-25.8775 Z6.0000
G0 X73.4657 Y-25.8775 Z2.0000
G1 X73.4657 Y-25.8775 Z-2.0000 F60.00
G2 X64.9797 Y-46.3539 Z-2.0000 I-8.4815 J-8.4816 F120.00
G1 X64.9797 Y-45.8634 Z-2.0000 F120.00
G1 X64.9797 Y-46.3539 Z-2.0000 F120.00
G1 X64.5201 Y-46.3539 Z-2.0000 F120.00
G2 X65.4393 Y-22.3730 Z-2.0000 I0.4596 J11.9905 F120.00
G2 X73.4657 Y-25.8775 Z-2.0000 I-0.4551 J-11.9861 F120.00
G1 X73.4657 Y-25.8775 Z-3.0000 F60.00
G2 X64.9797 Y-46.3539 Z-3.0000 I-8.4815 J-8.4816 F120.00
G1 X64.9797 Y-45.8634 Z-3.0000 F120.00
G1 X64.9797 Y-46.3539 Z-3.0000 F120.00
G1 X64.5201 Y-46.3539 Z-3.0000 F120.00
G2 X65.4393 Y-22.3730 Z-3.0000 I0.4596 J11.9905 F120.00
G2 X73.4657 Y-25.8775 Z-3.0000 I-0.4551 J-11.9861 F120.00
G0 X73.4657 Y-25.8775 Z6.0000
G0 X73.1110 Y-26.2322 Z6.0000
G0 X73.1110 Y-26.2322 Z1.0000
G1 X73.1110 Y-26.2322 Z-3.0000 F60.00
G3 X65.0233 Y-22.8644 Z-3.0000 I-8.1311 J-8.1317 F120.00
G3 X53.4799 Y-34.3421 Z-3.0000 I-0.0438 J-11.4995 F120.00
G3 X64.9797 Y-45.8634 Z-3.0000 I11.4995 J-0.0218 F120.00
G3 X73.1110 Y-26.2322 Z-3.0000 I0.0002 J11.4996 F120.00
G1 X73.1110 Y-26.2322 Z-4.0000 F60.00
G3 X65.0233 Y-22.8644 Z-4.0000 I-8.1311 J-8.1317 F120.00
G3 X53.4799 Y-34.3421 Z-4.0000 I-0.0438 J-11.4995 F120.00
G3 X64.9797 Y-45.8634 Z-4.0000 I11.4995 J-0.0218 F120.00
G3 X73.1110 Y-26.2322 Z-4.0000 I0.0002 J11.4996 F120.00
G0 X73.1110 Y-26.2322 Z6.0000
G0 X73.4657 Y-25.8775 Z6.0000
G0 X73.4657 Y-25.8775 Z0.0000
G1 X73.4657 Y-25.8775 Z-4.0000 F60.00
G2 X64.9797 Y-46.3539 Z-4.0000 I-8.4816 J-8.4816 F120.00
G1 X64.9797 Y-45.8634 Z-4.0000 F120.00
G1 X64.9797 Y-46.3539 Z-4.0000 F120.00
G1 X64.5201 Y-46.3539 Z-4.0000 F120.00
G2 X65.4393 Y-22.3730 Z-4.0000 I0.4596 J11.9905 F120.00
G2 X73.4657 Y-25.8775 Z-4.0000 I-0.4551 J-11.9861 F120.00
G1 X73.4657 Y-25.8775 Z-5.0000 F60.00
G2 X64.9797 Y-46.3539 Z-5.0000 I-8.4816 J-8.4816 F120.00
G1 X64.9797 Y-45.8634 Z-5.0000 F120.00
G1 X64.9797 Y-46.3539 Z-5.0000 F120.00
G1 X64.5201 Y-46.3539 Z-5.0000 F120.00
G2 X65.4393 Y-22.3730 Z-5.0000 I0.4596 J11.9905 F120.00
G2 X73.4657 Y-25.8775 Z-5.0000 I-0.4551 J-11.9861 F120.00
G0 X73.4657 Y-25.8775 Z6.0000
G0 X73.1110 Y-26.2322 Z6.0000
G0 X73.1110 Y-26.2322 Z-1.0000
G1 X73.1110 Y-26.2322 Z-5.0000 F60.00
G3 X65.0233 Y-22.8644 Z-5.0000 I-8.1312 J-8.1317 F120.00
G3 X53.4799 Y-34.3421 Z-5.0000 I-0.0438 J-11.4995 F120.00
G3 X64.9797 Y-45.8634 Z-5.0000 I11.4995 J-0.0218 F120.00
G3 X73.1110 Y-26.2322 Z-5.0000 I0.0002 J11.4996 F120.00
G1 X73.1110 Y-26.2322 Z-6.0000 F60.00
G3 X65.0233 Y-22.8644 Z-6.0000 I-8.1312 J-8.1317 F120.00
G3 X53.4799 Y-34.3421 Z-6.0000 I-0.0438 J-11.4995 F120.00
G3 X64.9797 Y-45.8634 Z-6.0000 I11.4995 J-0.0218 F120.00
G3 X73.1110 Y-26.2322 Z-6.0000 I0.0002 J11.4996 F120.00
G0 X73.1110 Y-26.2322 Z6.0000
G0 X73.4657 Y-25.8775 Z6.0000
G0 X73.4657 Y-25.8775 Z-2.0000
G1 X73.4657 Y-25.8775 Z-6.0000 F60.00
G2 X64.9797 Y-46.3539 Z-6.0000 I-8.4816 J-8.4816 F120.00
G1 X64.9797 Y-45.8634 Z-6.0000 F120.00
G1 X64.9797 Y-46.3539 Z-6.0000 F120.00
G1 X64.5201 Y-46.3539 Z-6.0000 F120.00
G2 X65.4393 Y-22.3730 Z-6.0000 I0.4596 J11.9905 F120.00
G2 X73.4657 Y-25.8775 Z-6.0000 I-0.4551 J-11.9861 F120.00
G1 X73.4657 Y-25.8775 Z-7.0000 F60.00
G2 X64.9797 Y-46.3539 Z-7.0000 I-8.4816 J-8.4816 F120.00
G1 X64.9797 Y-45.8634 Z-7.0000 F120.00
G1 X64.9797 Y-46.3539 Z-7.0000 F120.00
G1 X64.5201 Y-46.3539 Z-7.0000 F120.00
G2 X65.4393 Y-22.3730 Z-7.0000 I0.4596 J11.9905 F120.00
G2 X73.4657 Y-25.8775 Z-7.0000 I-0.4551 J-11.9861 F120.00
G0 X73.4657 Y-25.8775 Z6.0000
G0 X73.1110 Y-26.2322 Z6.0000
G0 X73.1110 Y-26.2322 Z-3.0000
G1 X73.1110 Y-26.2322 Z-7.0000 F60.00
G3 X65.0233 Y-22.8644 Z-7.0000 I-8.1312 J-8.1317 F120.00
G3 X53.4799 Y-34.3421 Z-7.0000 I-0.0438 J-11.4995 F120.00
G3 X64.9797 Y-45.8634 Z-7.0000 I11.4995 J-0.0218 F120.00
G3 X73.1110 Y-26.2322 Z-7.0000 I0.0002 J11.4996 F120.00
G0 Z6.0000
(finish operation: Pocket_Shape002)
(begin postamble)
M5
G17 G90
; M2
