(Exported by FreeCAD)
(Post Processor: grbl_post)
(Output Time:2019-10-08 22:18:47.425577)
(begin preamble)
G17 G90
G21
(begin operation: Default Tool)
(Path: Default Tool)
(Default Tool)
(begin toolchange)
; M6 T1
M3 S800.0000
(finish operation: Default Tool)
(begin operation: TagDressup)
(Path: TagDressup)
G0 Z13.0000
G0 X84.9673 Y0.8803 Z13.0000
G0 X84.9673 Y0.8803 Z11.0000
G1 X84.9673 Y0.8803 Z-1.0000 F120.00
G2 X87.9969 Y-2.9215 Z-1.0000 I-0.9714 J-3.8821 F120.00
G1 X88.0000 Y-125.0000 Z-1.0000 F120.00
G2 X84.0785 Y-128.9969 Z-1.0000 I-4.0018 J0.0041 F120.00
G1 X0.0000 Y-129.0000 Z-1.0000 F120.00
G2 X-3.9969 Y-125.0785 Z-1.0000 I0.0041 J4.0018 F120.00
G1 X-4.0000 Y-3.0000 Z-1.0000 F120.00
G2 X-0.0785 Y0.9969 Z-1.0000 I4.0018 J-0.0041 F120.00
G1 X33.0000 Y0.9999 Z-1.0000 F120.00
G1 X33.0000 Y9.0000 Z-1.0000 F120.00
G2 X36.9215 Y12.9969 Z-1.0000 I4.0018 J-0.0041 F120.00
G1 X47.0000 Y13.0000 Z-1.0000 F120.00
G2 X50.9969 Y9.0785 Z-1.0000 I-0.0041 J-4.0018 F120.00
G1 X50.9997 Y1.0000 Z-1.0000 F120.00
G1 X84.0000 Y1.0000 Z-1.0000 F120.00
G2 X84.9673 Y0.8803 Z-1.0000 I-0.0041 J-4.0018 F120.00
G1 X84.9673 Y0.8803 Z-2.0000 F120.00
G2 X87.9969 Y-2.9215 Z-2.0000 I-0.9714 J-3.8821 F120.00
G1 X88.0000 Y-125.0000 Z-2.0000 F120.00
G2 X84.0785 Y-128.9969 Z-2.0000 I-4.0018 J0.0041 F120.00
G1 X0.0000 Y-129.0000 Z-2.0000 F120.00
G2 X-3.9969 Y-125.0785 Z-2.0000 I0.0041 J4.0018 F120.00
G1 X-4.0000 Y-3.0000 Z-2.0000 F120.00
G2 X-0.0785 Y0.9969 Z-2.0000 I4.0018 J-0.0041 F120.00
G1 X33.0000 Y0.9999 Z-2.0000 F120.00
G1 X33.0000 Y9.0000 Z-2.0000 F120.00
G2 X36.9215 Y12.9969 Z-2.0000 I4.0018 J-0.0041 F120.00
G1 X47.0000 Y13.0000 Z-2.0000 F120.00
G2 X50.9969 Y9.0785 Z-2.0000 I-0.0041 J-4.0018 F120.00
G1 X50.9997 Y1.0000 Z-2.0000 F120.00
G1 X84.0000 Y1.0000 Z-2.0000 F120.00
G2 X84.9673 Y0.8803 Z-2.0000 I-0.0041 J-4.0018 F120.00
G1 X84.9673 Y0.8803 Z-3.0000 F120.00
G2 X87.9969 Y-2.9215 Z-3.0000 I-0.9714 J-3.8821 F120.00
G1 X88.0000 Y-125.0000 Z-3.0000 F120.00
G2 X84.0785 Y-128.9969 Z-3.0000 I-4.0018 J0.0041 F120.00
G1 X0.0000 Y-129.0000 Z-3.0000 F120.00
G2 X-3.9969 Y-125.0785 Z-3.0000 I0.0041 J4.0018 F120.00
G1 X-4.0000 Y-3.0000 Z-3.0000 F120.00
G2 X-0.0785 Y0.9969 Z-3.0000 I4.0018 J-0.0041 F120.00
G1 X33.0000 Y0.9999 Z-3.0000 F120.00
G1 X33.0000 Y9.0000 Z-3.0000 F120.00
G2 X36.9215 Y12.9969 Z-3.0000 I4.0018 J-0.0041 F120.00
G1 X47.0000 Y13.0000 Z-3.0000 F120.00
G2 X50.9969 Y9.0785 Z-3.0000 I-0.0041 J-4.0018 F120.00
G1 X50.9997 Y1.0000 Z-3.0000 F120.00
G1 X84.0000 Y1.0000 Z-3.0000 F120.00
G2 X84.9673 Y0.8803 Z-3.0000 I-0.0041 J-4.0018 F120.00
G1 X84.9673 Y0.8803 Z-4.0000 F120.00
G2 X87.9969 Y-2.9215 Z-4.0000 I-0.9714 J-3.8821 F120.00
G1 X88.0000 Y-125.0000 Z-4.0000 F120.00
G2 X84.0785 Y-128.9969 Z-4.0000 I-4.0018 J0.0041 F120.00
G1 X0.0000 Y-129.0000 Z-4.0000 F120.00
G2 X-3.9969 Y-125.0785 Z-4.0000 I0.0041 J4.0018 F120.00
G1 X-4.0000 Y-3.0000 Z-4.0000 F120.00
G2 X-0.0785 Y0.9969 Z-4.0000 I4.0018 J-0.0041 F120.00
G1 X33.0000 Y0.9999 Z-4.0000 F120.00
G1 X33.0000 Y9.0000 Z-4.0000 F120.00
G2 X36.9215 Y12.9969 Z-4.0000 I4.0018 J-0.0041 F120.00
G1 X47.0000 Y13.0000 Z-4.0000 F120.00
G2 X50.9969 Y9.0785 Z-4.0000 I-0.0041 J-4.0018 F120.00
G1 X50.9997 Y1.0000 Z-4.0000 F120.00
G1 X84.0000 Y1.0000 Z-4.0000 F120.00
G2 X84.9673 Y0.8803 Z-4.0000 I-0.0041 J-4.0018 F120.00
G1 X84.9673 Y0.8803 Z-5.0000 F120.00
G2 X87.9969 Y-2.9215 Z-5.0000 I-0.9714 J-3.8821 F120.00
G1 X88.0000 Y-125.0000 Z-5.0000 F120.00
G2 X84.0785 Y-128.9969 Z-5.0000 I-4.0018 J0.0041 F120.00
G1 X0.0000 Y-129.0000 Z-5.0000 F120.00
G2 X-3.9969 Y-125.0785 Z-5.0000 I0.0041 J4.0018 F120.00
G1 X-4.0000 Y-3.0000 Z-5.0000 F120.00
G2 X-0.0785 Y0.9969 Z-5.0000 I4.0018 J-0.0041 F120.00
G1 X33.0000 Y0.9999 Z-5.0000 F120.00
G1 X33.0000 Y9.0000 Z-5.0000 F120.00
G2 X36.9215 Y12.9969 Z-5.0000 I4.0018 J-0.0041 F120.00
G1 X47.0000 Y13.0000 Z-5.0000 F120.00
G2 X50.9969 Y9.0785 Z-5.0000 I-0.0041 J-4.0018 F120.00
G1 X50.9997 Y1.0000 Z-5.0000 F120.00
G1 X84.0000 Y1.0000 Z-5.0000 F120.00
G2 X84.9673 Y0.8803 Z-5.0000 I-0.0041 J-4.0018 F120.00
G1 X84.9673 Y0.8803 Z-6.0000 F120.00
G2 X87.9969 Y-2.9215 Z-6.0000 I-0.9714 J-3.8821 F120.00
G1 X88.0000 Y-125.0000 Z-6.0000 F120.00
G2 X84.0785 Y-128.9969 Z-6.0000 I-4.0018 J0.0041 F120.00
G1 X0.0000 Y-129.0000 Z-6.0000 F120.00
G2 X-3.9969 Y-125.0785 Z-6.0000 I0.0041 J4.0018 F120.00
G1 X-4.0000 Y-3.0000 Z-6.0000 F120.00
G2 X-0.0785 Y0.9969 Z-6.0000 I4.0018 J-0.0041 F120.00
G1 X33.0000 Y0.9999 Z-6.0000 F120.00
G1 X33.0000 Y9.0000 Z-6.0000 F120.00
G2 X36.9215 Y12.9969 Z-6.0000 I4.0018 J-0.0041 F120.00
G1 X47.0000 Y13.0000 Z-6.0000 F120.00
G2 X50.9969 Y9.0785 Z-6.0000 I-0.0041 J-4.0018 F120.00
G1 X50.9997 Y1.0000 Z-6.0000 F120.00
G1 X84.0000 Y1.0000 Z-6.0000 F120.00
G2 X84.9673 Y0.8803 Z-6.0000 I-0.0041 J-4.0018 F120.00
G1 X84.9673 Y0.8803 Z-7.0000 F120.00
G2 X87.9969 Y-2.9215 Z-7.0000 I-0.9714 J-3.8821 F120.00
G1 X88.0000 Y-125.0000 Z-7.0000 F120.00
G2 X84.0785 Y-128.9969 Z-7.0000 I-4.0018 J0.0041 F120.00
G1 X0.0000 Y-129.0000 Z-7.0000 F120.00
G2 X-3.9969 Y-125.0785 Z-7.0000 I0.0041 J4.0018 F120.00
G1 X-4.0000 Y-3.0000 Z-7.0000 F120.00
G2 X-0.0785 Y0.9969 Z-7.0000 I4.0018 J-0.0041 F120.00
G1 X33.0000 Y0.9999 Z-7.0000 F120.00
G1 X33.0000 Y9.0000 Z-7.0000 F120.00
G2 X36.9215 Y12.9969 Z-7.0000 I4.0018 J-0.0041 F120.00
G1 X47.0000 Y13.0000 Z-7.0000 F120.00
G2 X50.9969 Y9.0785 Z-7.0000 I-0.0041 J-4.0018 F120.00
G1 X50.9997 Y1.0000 Z-7.0000 F120.00
G1 X84.0000 Y1.0000 Z-7.0000 F120.00
G2 X84.9673 Y0.8803 Z-7.0000 I-0.0041 J-4.0018 F120.00
G1 X84.9673 Y0.8803 Z-8.0000 F120.00
G2 X87.9969 Y-2.9215 Z-8.0000 I-0.9714 J-3.8821 F120.00
G1 X87.9977 Y-33.3376 Z-8.0000 F120.00
G1 X87.9977 Y-33.4412 Z-7.8954 F120.00
G1 X87.9977 Y-33.5447 Z-8.0000 F120.00
G1 X87.9992 Y-94.3768 Z-8.0000 F120.00
G1 X87.9992 Y-94.4804 Z-7.8954 F120.00
G1 X87.9992 Y-94.5839 Z-8.0000 F120.00
G1 X88.0000 Y-125.0000 Z-8.0000 F120.00
G2 X84.0785 Y-128.9969 Z-8.0000 I-4.0018 J0.0041 F120.00
G1 X0.0000 Y-129.0000 Z-8.0000 F120.00
G2 X-3.9969 Y-125.0785 Z-8.0000 I0.0041 J4.0018 F120.00
G1 X-3.9977 Y-94.6624 Z-8.0000 F120.00
G1 X-3.9977 Y-94.5588 Z-7.8954 F120.00
G1 X-3.9977 Y-94.4553 Z-8.0000 F120.00
G1 X-3.9992 Y-33.6232 Z-8.0000 F120.00
G1 X-3.9992 Y-33.5196 Z-7.8954 F120.00
G1 X-3.9992 Y-33.4161 Z-8.0000 F120.00
G1 X-4.0000 Y-3.0000 Z-8.0000 F120.00
G2 X-0.0785 Y0.9969 Z-8.0000 I4.0018 J-0.0041 F120.00
G1 X33.0000 Y0.9999 Z-8.0000 F120.00
G1 X33.0000 Y9.0000 Z-8.0000 F120.00
G2 X36.9215 Y12.9969 Z-8.0000 I4.0018 J-0.0041 F120.00
G1 X47.0000 Y13.0000 Z-8.0000 F120.00
G2 X50.9969 Y9.0785 Z-8.0000 I-0.0041 J-4.0018 F120.00
G1 X50.9997 Y1.0000 Z-8.0000 F120.00
G1 X84.0000 Y1.0000 Z-8.0000 F120.00
G2 X84.9673 Y0.8803 Z-8.0000 I-0.0041 J-4.0018 F120.00
G1 X84.9673 Y0.8803 Z-9.0000 F120.00
G2 X87.9969 Y-2.9215 Z-9.0000 I-0.9714 J-3.8821 F120.00
G1 X87.9977 Y-32.3475 Z-9.0000 F120.00
G1 X87.9977 Y-33.4412 Z-7.8954 F120.00
G1 X87.9977 Y-34.5348 Z-9.0000 F120.00
G1 X87.9992 Y-93.3867 Z-9.0000 F120.00
G1 X87.9992 Y-94.4804 Z-7.8954 F120.00
G1 X87.9993 Y-95.5740 Z-9.0000 F120.00
G1 X88.0000 Y-125.0000 Z-9.0000 F120.00
G2 X84.0785 Y-128.9969 Z-9.0000 I-4.0018 J0.0041 F120.00
G1 X0.0000 Y-129.0000 Z-9.0000 F120.00
G2 X-3.9969 Y-125.0785 Z-9.0000 I0.0041 J4.0018 F120.00
G1 X-3.9977 Y-95.6525 Z-9.0000 F120.00
G1 X-3.9977 Y-94.5588 Z-7.8954 F120.00
G1 X-3.9977 Y-93.4652 Z-9.0000 F120.00
G1 X-3.9992 Y-34.6133 Z-9.0000 F120.00
G1 X-3.9992 Y-33.5196 Z-7.8954 F120.00
G1 X-3.9993 Y-32.4260 Z-9.0000 F120.00
G1 X-4.0000 Y-3.0000 Z-9.0000 F120.00
G2 X-0.0785 Y0.9969 Z-9.0000 I4.0018 J-0.0041 F120.00
G1 X33.0000 Y0.9999 Z-9.0000 F120.00
G1 X33.0000 Y9.0000 Z-9.0000 F120.00
G2 X36.9215 Y12.9969 Z-9.0000 I4.0018 J-0.0041 F120.00
G1 X47.0000 Y13.0000 Z-9.0000 F120.00
G2 X50.9969 Y9.0785 Z-9.0000 I-0.0041 J-4.0018 F120.00
G1 X50.9997 Y1.0000 Z-9.0000 F120.00
G1 X84.0000 Y1.0000 Z-9.0000 F120.00
G2 X84.9673 Y0.8803 Z-9.0000 I-0.0041 J-4.0018 F120.00
G1 X84.9673 Y0.8803 Z-10.0000 F120.00
G2 X87.9969 Y-2.9215 Z-10.0000 I-0.9714 J-3.8821 F120.00
G1 X87.9976 Y-31.3574 Z-10.0000 F120.00
G1 X87.9977 Y-33.4412 Z-7.8954 F120.00
G1 X87.9977 Y-35.5249 Z-10.0000 F120.00
G1 X87.9992 Y-92.3966 Z-10.0000 F120.00
G1 X87.9992 Y-94.4804 Z-7.8954 F120.00
G1 X87.9993 Y-96.5641 Z-10.0000 F120.00
G1 X88.0000 Y-125.0000 Z-10.0000 F120.00
G2 X84.0785 Y-128.9969 Z-10.0000 I-4.0018 J0.0041 F120.00
G1 X0.0000 Y-129.0000 Z-10.0000 F120.00
G2 X-3.9969 Y-125.0785 Z-10.0000 I0.0041 J4.0018 F120.00
G1 X-3.9976 Y-96.6426 Z-10.0000 F120.00
G1 X-3.9977 Y-94.5588 Z-7.8954 F120.00
G1 X-3.9977 Y-92.4751 Z-10.0000 F120.00
G1 X-3.9992 Y-35.6034 Z-10.0000 F120.00
G1 X-3.9992 Y-33.5196 Z-7.8954 F120.00
G1 X-3.9993 Y-31.4359 Z-10.0000 F120.00
G1 X-4.0000 Y-3.0000 Z-10.0000 F120.00
G2 X-0.0785 Y0.9969 Z-10.0000 I4.0018 J-0.0041 F120.00
G1 X33.0000 Y0.9999 Z-10.0000 F120.00
G1 X33.0000 Y9.0000 Z-10.0000 F120.00
G2 X36.9215 Y12.9969 Z-10.0000 I4.0018 J-0.0041 F120.00
G1 X47.0000 Y13.0000 Z-10.0000 F120.00
G2 X50.9969 Y9.0785 Z-10.0000 I-0.0041 J-4.0018 F120.00
G1 X50.9997 Y1.0000 Z-10.0000 F120.00
G1 X84.0000 Y1.0000 Z-10.0000 F120.00
G2 X84.9673 Y0.8803 Z-10.0000 I-0.0041 J-4.0018 F120.00
G1 X84.9673 Y0.8803 Z-11.0000 F120.00
G2 X87.9969 Y-2.9215 Z-11.0000 I-0.9714 J-3.8821 F120.00
G1 X87.9976 Y-30.3673 Z-11.0000 F120.00
G1 X87.9977 Y-33.4412 Z-7.8954 F120.00
G1 X87.9978 Y-36.5150 Z-11.0000 F120.00
G1 X87.9992 Y-91.4065 Z-11.0000 F120.00
G1 X87.9992 Y-94.4804 Z-7.8954 F120.00
G1 X87.9993 Y-97.5542 Z-11.0000 F120.00
G1 X88.0000 Y-125.0000 Z-11.0000 F120.00
G2 X84.0785 Y-128.9969 Z-11.0000 I-4.0018 J0.0041 F120.00
G1 X0.0000 Y-129.0000 Z-11.0000 F120.00
G2 X-3.9969 Y-125.0785 Z-11.0000 I0.0041 J4.0018 F120.00
G1 X-3.9976 Y-97.6327 Z-11.0000 F120.00
G1 X-3.9977 Y-94.5588 Z-7.8954 F120.00
G1 X-3.9978 Y-91.4850 Z-11.0000 F120.00
G1 X-3.9992 Y-36.5935 Z-11.0000 F120.00
G1 X-3.9992 Y-33.5196 Z-7.8954 F120.00
G1 X-3.9993 Y-30.4458 Z-11.0000 F120.00
G1 X-4.0000 Y-3.0000 Z-11.0000 F120.00
G2 X-0.0785 Y0.9969 Z-11.0000 I4.0018 J-0.0041 F120.00
G1 X33.0000 Y0.9999 Z-11.0000 F120.00
G1 X33.0000 Y9.0000 Z-11.0000 F120.00
G2 X36.9215 Y12.9969 Z-11.0000 I4.0018 J-0.0041 F120.00
G1 X47.0000 Y13.0000 Z-11.0000 F120.00
G2 X50.9969 Y9.0785 Z-11.0000 I-0.0041 J-4.0018 F120.00
G1 X50.9997 Y1.0000 Z-11.0000 F120.00
G1 X84.0000 Y1.0000 Z-11.0000 F120.00
G2 X84.9673 Y0.8803 Z-11.0000 I-0.0041 J-4.0018 F120.00
G1 X84.9673 Y0.8803 Z-12.0000 F120.00
G2 X87.9969 Y-2.9215 Z-12.0000 I-0.9714 J-3.8821 F120.00
G1 X87.9976 Y-29.3772 Z-12.0000 F120.00
G1 X87.9977 Y-33.4412 Z-7.8954 F120.00
G1 X87.9978 Y-37.5051 Z-12.0000 F120.00
G1 X87.9991 Y-90.4164 Z-12.0000 F120.00
G1 X87.9992 Y-94.4804 Z-7.8954 F120.00
G1 X87.9993 Y-98.5443 Z-12.0000 F120.00
G1 X88.0000 Y-125.0000 Z-12.0000 F120.00
G2 X84.0785 Y-128.9969 Z-12.0000 I-4.0018 J0.0041 F120.00
G1 X0.0000 Y-129.0000 Z-12.0000 F120.00
G2 X-3.9969 Y-125.0785 Z-12.0000 I0.0041 J4.0018 F120.00
G1 X-3.9976 Y-98.6228 Z-12.0000 F120.00
G1 X-3.9977 Y-94.5588 Z-7.8954 F120.00
G1 X-3.9978 Y-90.4949 Z-12.0000 F120.00
G1 X-3.9991 Y-37.5836 Z-12.0000 F120.00
G1 X-3.9992 Y-33.5196 Z-7.8954 F120.00
G1 X-3.9993 Y-29.4557 Z-12.0000 F120.00
G1 X-4.0000 Y-3.0000 Z-12.0000 F120.00
G2 X-0.0785 Y0.9969 Z-12.0000 I4.0018 J-0.0041 F120.00
G1 X33.0000 Y0.9999 Z-12.0000 F120.00
G1 X33.0000 Y9.0000 Z-12.0000 F120.00
G2 X36.9215 Y12.9969 Z-12.0000 I4.0018 J-0.0041 F120.00
G1 X47.0000 Y13.0000 Z-12.0000 F120.00
G2 X50.9969 Y9.0785 Z-12.0000 I-0.0041 J-4.0018 F120.00
G1 X50.9997 Y1.0000 Z-12.0000 F120.00
G1 X84.0000 Y1.0000 Z-12.0000 F120.00
G2 X84.9673 Y0.8803 Z-12.0000 I-0.0041 J-4.0018 F120.00
G0 X84.9673 Y0.8803 Z13.0000
(finish operation: TagDressup)
(begin operation: Pocket_Shape)
(Path: Pocket_Shape)
(Pocket_Shape)
G0 Z6.0000
G0 X43.7667 Y6.7666
G0 Z4.0000
G1 X43.7667 Y6.7666 Z-1.0000 F60.00
G3 X42.1866 Y7.4902 Z-1.0000 I-1.7633 J-1.7634 F120.00
G3 X39.5098 Y5.1866 Z-1.0000 I-0.1866 J-2.4902 F120.00
G3 X41.8134 Y2.5098 Z-1.0000 I2.4902 J-0.1866 F120.00
G1 X41.9633 Y2.5098 Z-1.0000 F120.00
G1 X41.9633 Y4.5098 Z-1.0000 F120.00
G1 X41.9633 Y2.5098 Z-1.0000 F120.00
G3 X43.7667 Y6.7666 Z-1.0000 I0.0402 J2.4934 F120.00
G0 X43.7667 Y6.7666 Z6.0000
G0 X42.3476 Y5.3476 Z6.0000
G0 X42.3476 Y5.3476 Z3.0000
G1 X42.3476 Y5.3476 Z-1.0000 F60.00
G2 X41.9633 Y4.5098 Z-1.0000 I-0.3476 J-0.3476 F120.00
G2 X41.5098 Y5.0367 Z-1.0000 I0.0367 J0.4902 F120.00
G2 X42.0367 Y5.4902 Z-1.0000 I0.4902 J-0.0367 F120.00
G2 X42.4902 Y4.9633 Z-1.0000 I-0.0367 J-0.4902 F120.00
G2 X41.9633 Y4.5098 Z-1.0000 I-0.4902 J0.0367 F120.00
G2 X41.5098 Y5.0367 Z-1.0000 I0.0367 J0.4902 F120.00
G2 X42.0367 Y5.4902 Z-1.0000 I0.4902 J-0.0367 F120.00
G2 X42.3476 Y5.3476 Z-1.0000 I-0.0367 J-0.4902 F120.00
G1 X42.3476 Y5.3476 Z-2.0000 F60.00
G2 X41.9633 Y4.5098 Z-2.0000 I-0.3476 J-0.3476 F120.00
G2 X41.5098 Y5.0367 Z-2.0000 I0.0367 J0.4902 F120.00
G2 X42.0367 Y5.4902 Z-2.0000 I0.4902 J-0.0367 F120.00
G2 X42.4902 Y4.9633 Z-2.0000 I-0.0367 J-0.4902 F120.00
G2 X41.9633 Y4.5098 Z-2.0000 I-0.4902 J0.0367 F120.00
G2 X41.5098 Y5.0367 Z-2.0000 I0.0367 J0.4902 F120.00
G2 X42.0367 Y5.4902 Z-2.0000 I0.4902 J-0.0367 F120.00
G2 X42.3476 Y5.3476 Z-2.0000 I-0.0367 J-0.4902 F120.00
G0 X42.3476 Y5.3476 Z6.0000
G0 X41.9633 Y4.5098 Z6.0000
G0 X41.9633 Y4.5098 Z2.0000
G1 X41.9633 Y4.5098 Z-2.0000 F60.00
G1 X41.9633 Y2.5098 Z-2.0000 F120.00
G3 X42.1866 Y7.4902 Z-2.0000 I0.0402 J2.4934 F120.00
G3 X39.5098 Y5.1866 Z-2.0000 I-0.1866 J-2.4902 F120.00
G3 X41.8134 Y2.5098 Z-2.0000 I2.4902 J-0.1866 F120.00
G1 X41.9633 Y2.5098 Z-2.0000 F120.00
G1 X41.9633 Y4.5098 Z-2.0000 F120.00
G1 X41.9633 Y4.5098 Z-3.0000 F60.00
G2 X41.5098 Y5.0367 Z-3.0000 I0.0367 J0.4902 F120.00
G2 X42.0367 Y5.4902 Z-3.0000 I0.4902 J-0.0367 F120.00
G2 X42.4902 Y4.9633 Z-3.0000 I-0.0367 J-0.4902 F120.00
G2 X41.9633 Y4.5098 Z-3.0000 I-0.4902 J0.0367 F120.00
G2 X41.5098 Y5.0367 Z-3.0000 I0.0367 J0.4902 F120.00
G2 X42.0367 Y5.4902 Z-3.0000 I0.4902 J-0.0367 F120.00
G2 X42.4902 Y4.9633 Z-3.0000 I-0.0367 J-0.4902 F120.00
G2 X41.9633 Y4.5098 Z-3.0000 I-0.4902 J0.0367 F120.00
G1 X41.9633 Y4.5098 Z-3.0000 F60.00
G1 X41.9633 Y2.5098 Z-3.0000 F120.00
G3 X42.1866 Y7.4902 Z-3.0000 I0.0402 J2.4934 F120.00
G3 X39.5098 Y5.1866 Z-3.0000 I-0.1866 J-2.4902 F120.00
G3 X41.8134 Y2.5098 Z-3.0000 I2.4902 J-0.1866 F120.00
G1 X41.9633 Y2.5098 Z-3.0000 F120.00
G1 X41.9633 Y4.5098 Z-3.0000 F120.00
G1 X41.9633 Y4.5098 Z-4.0000 F60.00
G2 X41.5098 Y5.0367 Z-4.0000 I0.0367 J0.4902 F120.00
G2 X42.0367 Y5.4902 Z-4.0000 I0.4902 J-0.0367 F120.00
G2 X42.4902 Y4.9633 Z-4.0000 I-0.0367 J-0.4902 F120.00
G2 X41.9633 Y4.5098 Z-4.0000 I-0.4902 J0.0367 F120.00
G2 X41.5098 Y5.0367 Z-4.0000 I0.0367 J0.4902 F120.00
G2 X42.0367 Y5.4902 Z-4.0000 I0.4902 J-0.0367 F120.00
G2 X42.4902 Y4.9633 Z-4.0000 I-0.0367 J-0.4902 F120.00
G2 X41.9633 Y4.5098 Z-4.0000 I-0.4902 J0.0367 F120.00
G1 X41.9633 Y4.5098 Z-4.0000 F60.00
G1 X41.9633 Y2.5098 Z-4.0000 F120.00
G3 X42.1866 Y7.4902 Z-4.0000 I0.0402 J2.4934 F120.00
G3 X39.5098 Y5.1866 Z-4.0000 I-0.1866 J-2.4902 F120.00
G3 X41.8134 Y2.5098 Z-4.0000 I2.4902 J-0.1866 F120.00
G1 X41.9633 Y2.5098 Z-4.0000 F120.00
G1 X41.9633 Y4.5098 Z-4.0000 F120.00
G1 X41.9633 Y4.5098 Z-5.0000 F60.00
G1 X41.9633 Y2.5098 Z-5.0000 F120.00
G3 X42.1866 Y7.4902 Z-5.0000 I0.0402 J2.4934 F120.00
G3 X39.5098 Y5.1866 Z-5.0000 I-0.1866 J-2.4902 F120.00
G3 X41.8134 Y2.5098 Z-5.0000 I2.4902 J-0.1866 F120.00
G1 X41.9633 Y2.5098 Z-5.0000 F120.00
G1 X41.9633 Y4.5098 Z-5.0000 F120.00
G1 X41.9633 Y4.5098 Z-5.0000 F60.00
G2 X41.5098 Y5.0367 Z-5.0000 I0.0367 J0.4902 F120.00
G2 X42.0367 Y5.4902 Z-5.0000 I0.4902 J-0.0367 F120.00
G2 X42.4902 Y4.9633 Z-5.0000 I-0.0367 J-0.4902 F120.00
G2 X41.9633 Y4.5098 Z-5.0000 I-0.4902 J0.0367 F120.00
G2 X41.5098 Y5.0367 Z-5.0000 I0.0367 J0.4902 F120.00
G2 X42.0367 Y5.4902 Z-5.0000 I0.4902 J-0.0367 F120.00
G2 X42.4902 Y4.9633 Z-5.0000 I-0.0367 J-0.4902 F120.00
G2 X41.9633 Y4.5098 Z-5.0000 I-0.4902 J0.0367 F120.00
G1 X41.9633 Y4.5098 Z-6.0000 F60.00
G1 X41.9633 Y2.5098 Z-6.0000 F120.00
G3 X42.1866 Y7.4902 Z-6.0000 I0.0402 J2.4934 F120.00
G3 X39.5098 Y5.1866 Z-6.0000 I-0.1866 J-2.4902 F120.00
G3 X41.8134 Y2.5098 Z-6.0000 I2.4902 J-0.1866 F120.00
G1 X41.9633 Y2.5098 Z-6.0000 F120.00
G1 X41.9633 Y4.5098 Z-6.0000 F120.00
G1 X41.9633 Y4.5098 Z-6.0000 F60.00
G2 X41.5098 Y5.0367 Z-6.0000 I0.0367 J0.4902 F120.00
G2 X42.0367 Y5.4902 Z-6.0000 I0.4902 J-0.0367 F120.00
G2 X42.4902 Y4.9633 Z-6.0000 I-0.0367 J-0.4902 F120.00
G2 X41.9633 Y4.5098 Z-6.0000 I-0.4902 J0.0367 F120.00
G2 X41.5098 Y5.0367 Z-6.0000 I0.0367 J0.4902 F120.00
G2 X42.0367 Y5.4902 Z-6.0000 I0.4902 J-0.0367 F120.00
G2 X42.4902 Y4.9633 Z-6.0000 I-0.0367 J-0.4902 F120.00
G2 X41.9633 Y4.5098 Z-6.0000 I-0.4902 J0.0367 F120.00
G1 X41.9633 Y4.5098 Z-7.0000 F60.00
G2 X41.5098 Y5.0367 Z-7.0000 I0.0367 J0.4902 F120.00
G2 X42.0367 Y5.4902 Z-7.0000 I0.4902 J-0.0367 F120.00
G2 X42.4902 Y4.9633 Z-7.0000 I-0.0367 J-0.4902 F120.00
G2 X41.9633 Y4.5098 Z-7.0000 I-0.4902 J0.0367 F120.00
G2 X41.5098 Y5.0367 Z-7.0000 I0.0367 J0.4902 F120.00
G2 X42.0367 Y5.4902 Z-7.0000 I0.4902 J-0.0367 F120.00
G2 X42.4902 Y4.9633 Z-7.0000 I-0.0367 J-0.4902 F120.00
G2 X41.9633 Y4.5098 Z-7.0000 I-0.4902 J0.0367 F120.00
G1 X41.9633 Y4.5098 Z-7.0000 F60.00
G1 X41.9633 Y2.5098 Z-7.0000 F120.00
G3 X42.1866 Y7.4902 Z-7.0000 I0.0402 J2.4934 F120.00
G3 X39.5098 Y5.1866 Z-7.0000 I-0.1866 J-2.4902 F120.00
G3 X41.8134 Y2.5098 Z-7.0000 I2.4902 J-0.1866 F120.00
G1 X41.9633 Y2.5098 Z-7.0000 F120.00
G1 X41.9633 Y4.5098 Z-7.0000 F120.00
G1 X41.9633 Y4.5098 Z-8.0000 F60.00
G1 X41.9633 Y2.5098 Z-8.0000 F120.00
G3 X42.1866 Y7.4902 Z-8.0000 I0.0402 J2.4934 F120.00
G3 X39.5098 Y5.1866 Z-8.0000 I-0.1866 J-2.4902 F120.00
G3 X41.8134 Y2.5098 Z-8.0000 I2.4902 J-0.1866 F120.00
G1 X41.9633 Y2.5098 Z-8.0000 F120.00
G1 X41.9633 Y4.5098 Z-8.0000 F120.00
G1 X41.9633 Y4.5098 Z-8.0000 F60.00
G2 X41.5098 Y5.0367 Z-8.0000 I0.0367 J0.4902 F120.00
G2 X42.0367 Y5.4902 Z-8.0000 I0.4902 J-0.0367 F120.00
G2 X42.4902 Y4.9633 Z-8.0000 I-0.0367 J-0.4902 F120.00
G2 X41.9633 Y4.5098 Z-8.0000 I-0.4902 J0.0367 F120.00
G2 X41.5098 Y5.0367 Z-8.0000 I0.0367 J0.4902 F120.00
G2 X42.0367 Y5.4902 Z-8.0000 I0.4902 J-0.0367 F120.00
G2 X42.4902 Y4.9633 Z-8.0000 I-0.0367 J-0.4902 F120.00
G2 X41.9633 Y4.5098 Z-8.0000 I-0.4902 J0.0367 F120.00
G1 X41.9633 Y4.5098 Z-9.0000 F60.00
G2 X41.5098 Y5.0367 Z-9.0000 I0.0367 J0.4902 F120.00
G2 X42.0367 Y5.4902 Z-9.0000 I0.4902 J-0.0367 F120.00
G2 X42.4902 Y4.9633 Z-9.0000 I-0.0367 J-0.4902 F120.00
G2 X41.9633 Y4.5098 Z-9.0000 I-0.4902 J0.0367 F120.00
G2 X41.5098 Y5.0367 Z-9.0000 I0.0367 J0.4902 F120.00
G2 X42.0367 Y5.4902 Z-9.0000 I0.4902 J-0.0367 F120.00
G2 X42.4902 Y4.9633 Z-9.0000 I-0.0367 J-0.4902 F120.00
G2 X41.9633 Y4.5098 Z-9.0000 I-0.4902 J0.0367 F120.00
G1 X41.9633 Y4.5098 Z-9.0000 F60.00
G1 X41.9633 Y2.5098 Z-9.0000 F120.00
G3 X42.1866 Y7.4902 Z-9.0000 I0.0402 J2.4934 F120.00
G3 X39.5098 Y5.1866 Z-9.0000 I-0.1866 J-2.4902 F120.00
G3 X41.8134 Y2.5098 Z-9.0000 I2.4902 J-0.1866 F120.00
G1 X41.9633 Y2.5098 Z-9.0000 F120.00
G1 X41.9633 Y4.5098 Z-9.0000 F120.00
G1 X41.9633 Y4.5098 Z-10.0000 F60.00
G2 X41.5098 Y5.0367 Z-10.0000 I0.0367 J0.4902 F120.00
G2 X42.0367 Y5.4902 Z-10.0000 I0.4902 J-0.0367 F120.00
G2 X42.4902 Y4.9633 Z-10.0000 I-0.0367 J-0.4902 F120.00
G2 X41.9633 Y4.5098 Z-10.0000 I-0.4902 J0.0367 F120.00
G2 X41.5098 Y5.0367 Z-10.0000 I0.0367 J0.4902 F120.00
G2 X42.0367 Y5.4902 Z-10.0000 I0.4902 J-0.0367 F120.00
G2 X42.4902 Y4.9633 Z-10.0000 I-0.0367 J-0.4902 F120.00
G2 X41.9633 Y4.5098 Z-10.0000 I-0.4902 J0.0367 F120.00
G1 X41.9633 Y4.5098 Z-10.0000 F60.00
G1 X41.9633 Y2.5098 Z-10.0000 F120.00
G3 X42.1866 Y7.4902 Z-10.0000 I0.0402 J2.4934 F120.00
G3 X39.5098 Y5.1866 Z-10.0000 I-0.1866 J-2.4902 F120.00
G3 X41.8134 Y2.5098 Z-10.0000 I2.4902 J-0.1866 F120.00
G1 X41.9633 Y2.5098 Z-10.0000 F120.00
G1 X41.9633 Y4.5098 Z-10.0000 F120.00
G1 X41.9633 Y4.5098 Z-11.0000 F60.00
G1 X41.9633 Y2.5098 Z-11.0000 F120.00
G3 X42.1866 Y7.4902 Z-11.0000 I0.0402 J2.4934 F120.00
G3 X39.5098 Y5.1866 Z-11.0000 I-0.1866 J-2.4902 F120.00
G3 X41.8134 Y2.5098 Z-11.0000 I2.4902 J-0.1866 F120.00
G1 X41.9633 Y2.5098 Z-11.0000 F120.00
G1 X41.9633 Y4.5098 Z-11.0000 F120.00
G1 X41.9633 Y4.5098 Z-11.0000 F60.00
G2 X41.5098 Y5.0367 Z-11.0000 I0.0367 J0.4902 F120.00
G2 X42.0367 Y5.4902 Z-11.0000 I0.4902 J-0.0367 F120.00
G2 X42.4902 Y4.9633 Z-11.0000 I-0.0367 J-0.4902 F120.00
G2 X41.9633 Y4.5098 Z-11.0000 I-0.4902 J0.0367 F120.00
G2 X41.5098 Y5.0367 Z-11.0000 I0.0367 J0.4902 F120.00
G2 X42.0367 Y5.4902 Z-11.0000 I0.4902 J-0.0367 F120.00
G2 X42.4902 Y4.9633 Z-11.0000 I-0.0367 J-0.4902 F120.00
G2 X41.9633 Y4.5098 Z-11.0000 I-0.4902 J0.0367 F120.00
G1 X41.9633 Y4.5098 Z-12.0000 F60.00
G2 X41.5098 Y5.0367 Z-12.0000 I0.0367 J0.4902 F120.00
G2 X42.0367 Y5.4902 Z-12.0000 I0.4902 J-0.0367 F120.00
G2 X42.4902 Y4.9633 Z-12.0000 I-0.0367 J-0.4902 F120.00
G2 X41.9633 Y4.5098 Z-12.0000 I-0.4902 J0.0367 F120.00
G2 X41.5098 Y5.0367 Z-12.0000 I0.0367 J0.4902 F120.00
G2 X42.0367 Y5.4902 Z-12.0000 I0.4902 J-0.0367 F120.00
G2 X42.4902 Y4.9633 Z-12.0000 I-0.0367 J-0.4902 F120.00
G2 X41.9633 Y4.5098 Z-12.0000 I-0.4902 J0.0367 F120.00
G1 X41.9633 Y4.5098 Z-12.0000 F60.00
G1 X41.9633 Y2.5098 Z-12.0000 F120.00
G3 X42.1866 Y7.4902 Z-12.0000 I0.0402 J2.4934 F120.00
G3 X39.5098 Y5.1866 Z-12.0000 I-0.1866 J-2.4902 F120.00
G3 X41.8134 Y2.5098 Z-12.0000 I2.4902 J-0.1866 F120.00
G1 X41.9633 Y2.5098 Z-12.0000 F120.00
G1 X41.9633 Y4.5098 Z-12.0000 F120.00
G0 Z6.0000
G0 X73.4673 Y-53.6228
G0 Z4.0000
G1 X73.4673 Y-53.6228 Z-1.0000 F60.00
G2 X72.4800 Y-56.0062 Z-1.0000 I-0.9872 J-0.9872 F120.00
G2 X71.0838 Y-54.6100 Z-1.0000 I-0.0000 J1.3962 F120.00
G2 X72.4800 Y-53.2138 Z-1.0000 I1.3962 J0.0000 F120.00
G2 X73.4673 Y-53.6228 Z-1.0000 I0.0000 J-1.3962 F120.00
G1 X73.4673 Y-53.6228 Z-2.0000 F60.00
G2 X72.4800 Y-56.0062 Z-2.0000 I-0.9872 J-0.9872 F120.00
G2 X71.0838 Y-54.6100 Z-2.0000 I-0.0000 J1.3962 F120.00
G2 X72.4800 Y-53.2138 Z-2.0000 I1.3962 J0.0000 F120.00
G2 X73.4673 Y-53.6228 Z-2.0000 I0.0000 J-1.3962 F120.00
G1 X73.4673 Y-53.6228 Z-3.0000 F60.00
G2 X72.4800 Y-56.0062 Z-3.0000 I-0.9872 J-0.9872 F120.00
G2 X71.0838 Y-54.6100 Z-3.0000 I-0.0000 J1.3962 F120.00
G2 X72.4800 Y-53.2138 Z-3.0000 I1.3962 J0.0000 F120.00
G2 X73.4673 Y-53.6228 Z-3.0000 I0.0000 J-1.3962 F120.00
G1 X73.4673 Y-53.6228 Z-4.0000 F60.00
G2 X72.4800 Y-56.0062 Z-4.0000 I-0.9872 J-0.9872 F120.00
G2 X71.0838 Y-54.6100 Z-4.0000 I-0.0000 J1.3962 F120.00
G2 X72.4800 Y-53.2138 Z-4.0000 I1.3962 J0.0000 F120.00
G2 X73.4673 Y-53.6228 Z-4.0000 I0.0000 J-1.3962 F120.00
G1 X73.4673 Y-53.6228 Z-5.0000 F60.00
G2 X72.4800 Y-56.0062 Z-5.0000 I-0.9872 J-0.9872 F120.00
G2 X71.0838 Y-54.6100 Z-5.0000 I-0.0000 J1.3962 F120.00
G2 X72.4800 Y-53.2138 Z-5.0000 I1.3962 J0.0000 F120.00
G2 X73.4673 Y-53.6228 Z-5.0000 I0.0000 J-1.3962 F120.00
G1 X73.4673 Y-53.6228 Z-6.0000 F60.00
G2 X72.4800 Y-56.0062 Z-6.0000 I-0.9872 J-0.9872 F120.00
G2 X71.0838 Y-54.6100 Z-6.0000 I-0.0000 J1.3962 F120.00
G2 X72.4800 Y-53.2138 Z-6.0000 I1.3962 J0.0000 F120.00
G2 X73.4673 Y-53.6228 Z-6.0000 I0.0000 J-1.3962 F120.00
G1 X73.4673 Y-53.6228 Z-7.0000 F60.00
G2 X72.4800 Y-56.0062 Z-7.0000 I-0.9872 J-0.9872 F120.00
G2 X71.0838 Y-54.6100 Z-7.0000 I-0.0000 J1.3962 F120.00
G2 X72.4800 Y-53.2138 Z-7.0000 I1.3962 J0.0000 F120.00
G2 X73.4673 Y-53.6228 Z-7.0000 I0.0000 J-1.3962 F120.00
G1 X73.4673 Y-53.6228 Z-8.0000 F60.00
G2 X72.4800 Y-56.0062 Z-8.0000 I-0.9872 J-0.9872 F120.00
G2 X71.0838 Y-54.6100 Z-8.0000 I-0.0000 J1.3962 F120.00
G2 X72.4800 Y-53.2138 Z-8.0000 I1.3962 J0.0000 F120.00
G2 X73.4673 Y-53.6228 Z-8.0000 I0.0000 J-1.3962 F120.00
G1 X73.4673 Y-53.6228 Z-9.0000 F60.00
G2 X72.4800 Y-56.0062 Z-9.0000 I-0.9872 J-0.9872 F120.00
G2 X71.0838 Y-54.6100 Z-9.0000 I-0.0000 J1.3962 F120.00
G2 X72.4800 Y-53.2138 Z-9.0000 I1.3962 J0.0000 F120.00
G2 X73.4673 Y-53.6228 Z-9.0000 I0.0000 J-1.3962 F120.00
G1 X73.4673 Y-53.6228 Z-10.0000 F60.00
G2 X72.4800 Y-56.0062 Z-10.0000 I-0.9872 J-0.9872 F120.00
G2 X71.0838 Y-54.6100 Z-10.0000 I-0.0000 J1.3962 F120.00
G2 X72.4800 Y-53.2138 Z-10.0000 I1.3962 J0.0000 F120.00
G2 X73.4673 Y-53.6228 Z-10.0000 I0.0000 J-1.3962 F120.00
G1 X73.4673 Y-53.6228 Z-11.0000 F60.00
G2 X72.4800 Y-56.0062 Z-11.0000 I-0.9872 J-0.9872 F120.00
G2 X71.0838 Y-54.6100 Z-11.0000 I-0.0000 J1.3962 F120.00
G2 X72.4800 Y-53.2138 Z-11.0000 I1.3962 J0.0000 F120.00
G2 X73.4673 Y-53.6228 Z-11.0000 I0.0000 J-1.3962 F120.00
G1 X73.4673 Y-53.6228 Z-12.0000 F60.00
G2 X72.4800 Y-56.0062 Z-12.0000 I-0.9872 J-0.9872 F120.00
G2 X71.0838 Y-54.6100 Z-12.0000 I-0.0000 J1.3962 F120.00
G2 X72.4800 Y-53.2138 Z-12.0000 I1.3962 J0.0000 F120.00
G2 X73.4673 Y-53.6228 Z-12.0000 I0.0000 J-1.3962 F120.00
G0 Z6.0000
G0 X73.4673 Y-4.0928
G0 Z4.0000
G1 X73.4673 Y-4.0928 Z-1.0000 F60.00
G2 X72.4800 Y-6.4762 Z-1.0000 I-0.9872 J-0.9872 F120.00
G2 X71.0838 Y-5.0800 Z-1.0000 I-0.0000 J1.3962 F120.00
G2 X72.4800 Y-3.6838 Z-1.0000 I1.3962 J0.0000 F120.00
G2 X73.4673 Y-4.0928 Z-1.0000 I0.0000 J-1.3962 F120.00
G1 X73.4673 Y-4.0928 Z-2.0000 F60.00
G2 X72.4800 Y-6.4762 Z-2.0000 I-0.9872 J-0.9872 F120.00
G2 X71.0838 Y-5.0800 Z-2.0000 I-0.0000 J1.3962 F120.00
G2 X72.4800 Y-3.6838 Z-2.0000 I1.3962 J0.0000 F120.00
G2 X73.4673 Y-4.0928 Z-2.0000 I0.0000 J-1.3962 F120.00
G1 X73.4673 Y-4.0928 Z-3.0000 F60.00
G2 X72.4800 Y-6.4762 Z-3.0000 I-0.9872 J-0.9872 F120.00
G2 X71.0838 Y-5.0800 Z-3.0000 I-0.0000 J1.3962 F120.00
G2 X72.4800 Y-3.6838 Z-3.0000 I1.3962 J0.0000 F120.00
G2 X73.4673 Y-4.0928 Z-3.0000 I0.0000 J-1.3962 F120.00
G1 X73.4673 Y-4.0928 Z-4.0000 F60.00
G2 X72.4800 Y-6.4762 Z-4.0000 I-0.9872 J-0.9872 F120.00
G2 X71.0838 Y-5.0800 Z-4.0000 I-0.0000 J1.3962 F120.00
G2 X72.4800 Y-3.6838 Z-4.0000 I1.3962 J0.0000 F120.00
G2 X73.4673 Y-4.0928 Z-4.0000 I0.0000 J-1.3962 F120.00
G1 X73.4673 Y-4.0928 Z-5.0000 F60.00
G2 X72.4800 Y-6.4762 Z-5.0000 I-0.9872 J-0.9872 F120.00
G2 X71.0838 Y-5.0800 Z-5.0000 I-0.0000 J1.3962 F120.00
G2 X72.4800 Y-3.6838 Z-5.0000 I1.3962 J0.0000 F120.00
G2 X73.4673 Y-4.0928 Z-5.0000 I0.0000 J-1.3962 F120.00
G1 X73.4673 Y-4.0928 Z-6.0000 F60.00
G2 X72.4800 Y-6.4762 Z-6.0000 I-0.9872 J-0.9872 F120.00
G2 X71.0838 Y-5.0800 Z-6.0000 I-0.0000 J1.3962 F120.00
G2 X72.4800 Y-3.6838 Z-6.0000 I1.3962 J0.0000 F120.00
G2 X73.4673 Y-4.0928 Z-6.0000 I0.0000 J-1.3962 F120.00
G1 X73.4673 Y-4.0928 Z-7.0000 F60.00
G2 X72.4800 Y-6.4762 Z-7.0000 I-0.9872 J-0.9872 F120.00
G2 X71.0838 Y-5.0800 Z-7.0000 I-0.0000 J1.3962 F120.00
G2 X72.4800 Y-3.6838 Z-7.0000 I1.3962 J0.0000 F120.00
G2 X73.4673 Y-4.0928 Z-7.0000 I0.0000 J-1.3962 F120.00
G1 X73.4673 Y-4.0928 Z-8.0000 F60.00
G2 X72.4800 Y-6.4762 Z-8.0000 I-0.9872 J-0.9872 F120.00
G2 X71.0838 Y-5.0800 Z-8.0000 I-0.0000 J1.3962 F120.00
G2 X72.4800 Y-3.6838 Z-8.0000 I1.3962 J0.0000 F120.00
G2 X73.4673 Y-4.0928 Z-8.0000 I0.0000 J-1.3962 F120.00
G1 X73.4673 Y-4.0928 Z-9.0000 F60.00
G2 X72.4800 Y-6.4762 Z-9.0000 I-0.9872 J-0.9872 F120.00
G2 X71.0838 Y-5.0800 Z-9.0000 I-0.0000 J1.3962 F120.00
G2 X72.4800 Y-3.6838 Z-9.0000 I1.3962 J0.0000 F120.00
G2 X73.4673 Y-4.0928 Z-9.0000 I0.0000 J-1.3962 F120.00
G1 X73.4673 Y-4.0928 Z-10.0000 F60.00
G2 X72.4800 Y-6.4762 Z-10.0000 I-0.9872 J-0.9872 F120.00
G2 X71.0838 Y-5.0800 Z-10.0000 I-0.0000 J1.3962 F120.00
G2 X72.4800 Y-3.6838 Z-10.0000 I1.3962 J0.0000 F120.00
G2 X73.4673 Y-4.0928 Z-10.0000 I0.0000 J-1.3962 F120.00
G1 X73.4673 Y-4.0928 Z-11.0000 F60.00
G2 X72.4800 Y-6.4762 Z-11.0000 I-0.9872 J-0.9872 F120.00
G2 X71.0838 Y-5.0800 Z-11.0000 I-0.0000 J1.3962 F120.00
G2 X72.4800 Y-3.6838 Z-11.0000 I1.3962 J0.0000 F120.00
G2 X73.4673 Y-4.0928 Z-11.0000 I0.0000 J-1.3962 F120.00
G1 X73.4673 Y-4.0928 Z-12.0000 F60.00
G2 X72.4800 Y-6.4762 Z-12.0000 I-0.9872 J-0.9872 F120.00
G2 X71.0838 Y-5.0800 Z-12.0000 I-0.0000 J1.3962 F120.00
G2 X72.4800 Y-3.6838 Z-12.0000 I1.3962 J0.0000 F120.00
G2 X73.4673 Y-4.0928 Z-12.0000 I0.0000 J-1.3962 F120.00
G0 Z6.0000
G0 X12.5073 Y-4.0928
G0 Z4.0000
G1 X12.5073 Y-4.0928 Z-1.0000 F60.00
G2 X11.5200 Y-6.4762 Z-1.0000 I-0.9872 J-0.9872 F120.00
G2 X11.5200 Y-3.6838 Z-1.0000 I0.0000 J1.3962 F120.00
G2 X12.5073 Y-4.0928 Z-1.0000 I0.0000 J-1.3962 F120.00
G1 X12.5073 Y-4.0928 Z-2.0000 F60.00
G2 X11.5200 Y-6.4762 Z-2.0000 I-0.9872 J-0.9872 F120.00
G2 X11.5200 Y-3.6838 Z-2.0000 I0.0000 J1.3962 F120.00
G2 X12.5073 Y-4.0928 Z-2.0000 I0.0000 J-1.3962 F120.00
G1 X12.5073 Y-4.0928 Z-3.0000 F60.00
G2 X11.5200 Y-6.4762 Z-3.0000 I-0.9872 J-0.9872 F120.00
G2 X11.5200 Y-3.6838 Z-3.0000 I0.0000 J1.3962 F120.00
G2 X12.5073 Y-4.0928 Z-3.0000 I0.0000 J-1.3962 F120.00
G1 X12.5073 Y-4.0928 Z-4.0000 F60.00
G2 X11.5200 Y-6.4762 Z-4.0000 I-0.9872 J-0.9872 F120.00
G2 X11.5200 Y-3.6838 Z-4.0000 I0.0000 J1.3962 F120.00
G2 X12.5073 Y-4.0928 Z-4.0000 I0.0000 J-1.3962 F120.00
G1 X12.5073 Y-4.0928 Z-5.0000 F60.00
G2 X11.5200 Y-6.4762 Z-5.0000 I-0.9872 J-0.9872 F120.00
G2 X11.5200 Y-3.6838 Z-5.0000 I0.0000 J1.3962 F120.00
G2 X12.5073 Y-4.0928 Z-5.0000 I0.0000 J-1.3962 F120.00
G1 X12.5073 Y-4.0928 Z-6.0000 F60.00
G2 X11.5200 Y-6.4762 Z-6.0000 I-0.9872 J-0.9872 F120.00
G2 X11.5200 Y-3.6838 Z-6.0000 I0.0000 J1.3962 F120.00
G2 X12.5073 Y-4.0928 Z-6.0000 I0.0000 J-1.3962 F120.00
G1 X12.5073 Y-4.0928 Z-7.0000 F60.00
G2 X11.5200 Y-6.4762 Z-7.0000 I-0.9872 J-0.9872 F120.00
G2 X11.5200 Y-3.6838 Z-7.0000 I0.0000 J1.3962 F120.00
G2 X12.5073 Y-4.0928 Z-7.0000 I0.0000 J-1.3962 F120.00
G1 X12.5073 Y-4.0928 Z-8.0000 F60.00
G2 X11.5200 Y-6.4762 Z-8.0000 I-0.9872 J-0.9872 F120.00
G2 X11.5200 Y-3.6838 Z-8.0000 I0.0000 J1.3962 F120.00
G2 X12.5073 Y-4.0928 Z-8.0000 I0.0000 J-1.3962 F120.00
G1 X12.5073 Y-4.0928 Z-9.0000 F60.00
G2 X11.5200 Y-6.4762 Z-9.0000 I-0.9872 J-0.9872 F120.00
G2 X11.5200 Y-3.6838 Z-9.0000 I0.0000 J1.3962 F120.00
G2 X12.5073 Y-4.0928 Z-9.0000 I0.0000 J-1.3962 F120.00
G1 X12.5073 Y-4.0928 Z-10.0000 F60.00
G2 X11.5200 Y-6.4762 Z-10.0000 I-0.9872 J-0.9872 F120.00
G2 X11.5200 Y-3.6838 Z-10.0000 I0.0000 J1.3962 F120.00
G2 X12.5073 Y-4.0928 Z-10.0000 I0.0000 J-1.3962 F120.00
G1 X12.5073 Y-4.0928 Z-11.0000 F60.00
G2 X11.5200 Y-6.4762 Z-11.0000 I-0.9872 J-0.9872 F120.00
G2 X11.5200 Y-3.6838 Z-11.0000 I0.0000 J1.3962 F120.00
G2 X12.5073 Y-4.0928 Z-11.0000 I0.0000 J-1.3962 F120.00
G1 X12.5073 Y-4.0928 Z-12.0000 F60.00
G2 X11.5200 Y-6.4762 Z-12.0000 I-0.9872 J-0.9872 F120.00
G2 X11.5200 Y-3.6838 Z-12.0000 I0.0000 J1.3962 F120.00
G2 X12.5073 Y-4.0928 Z-12.0000 I0.0000 J-1.3962 F120.00
G0 Z6.0000
G0 X12.5073 Y-53.6228
G0 Z4.0000
G1 X12.5073 Y-53.6228 Z-1.0000 F60.00
G2 X11.5200 Y-56.0062 Z-1.0000 I-0.9872 J-0.9872 F120.00
G2 X11.5200 Y-53.2138 Z-1.0000 I0.0000 J1.3962 F120.00
G2 X12.5073 Y-53.6228 Z-1.0000 I0.0000 J-1.3962 F120.00
G1 X12.5073 Y-53.6228 Z-2.0000 F60.00
G2 X11.5200 Y-56.0062 Z-2.0000 I-0.9872 J-0.9872 F120.00
G2 X11.5200 Y-53.2138 Z-2.0000 I0.0000 J1.3962 F120.00
G2 X12.5073 Y-53.6228 Z-2.0000 I0.0000 J-1.3962 F120.00
G1 X12.5073 Y-53.6228 Z-3.0000 F60.00
G2 X11.5200 Y-56.0062 Z-3.0000 I-0.9872 J-0.9872 F120.00
G2 X11.5200 Y-53.2138 Z-3.0000 I0.0000 J1.3962 F120.00
G2 X12.5073 Y-53.6228 Z-3.0000 I0.0000 J-1.3962 F120.00
G1 X12.5073 Y-53.6228 Z-4.0000 F60.00
G2 X11.5200 Y-56.0062 Z-4.0000 I-0.9872 J-0.9872 F120.00
G2 X11.5200 Y-53.2138 Z-4.0000 I0.0000 J1.3962 F120.00
G2 X12.5073 Y-53.6228 Z-4.0000 I0.0000 J-1.3962 F120.00
G1 X12.5073 Y-53.6228 Z-5.0000 F60.00
G2 X11.5200 Y-56.0062 Z-5.0000 I-0.9872 J-0.9872 F120.00
G2 X11.5200 Y-53.2138 Z-5.0000 I0.0000 J1.3962 F120.00
G2 X12.5073 Y-53.6228 Z-5.0000 I0.0000 J-1.3962 F120.00
G1 X12.5073 Y-53.6228 Z-6.0000 F60.00
G2 X11.5200 Y-56.0062 Z-6.0000 I-0.9872 J-0.9872 F120.00
G2 X11.5200 Y-53.2138 Z-6.0000 I0.0000 J1.3962 F120.00
G2 X12.5073 Y-53.6228 Z-6.0000 I0.0000 J-1.3962 F120.00
G1 X12.5073 Y-53.6228 Z-7.0000 F60.00
G2 X11.5200 Y-56.0062 Z-7.0000 I-0.9872 J-0.9872 F120.00
G2 X11.5200 Y-53.2138 Z-7.0000 I0.0000 J1.3962 F120.00
G2 X12.5073 Y-53.6228 Z-7.0000 I0.0000 J-1.3962 F120.00
G1 X12.5073 Y-53.6228 Z-8.0000 F60.00
G2 X11.5200 Y-56.0062 Z-8.0000 I-0.9872 J-0.9872 F120.00
G2 X11.5200 Y-53.2138 Z-8.0000 I0.0000 J1.3962 F120.00
G2 X12.5073 Y-53.6228 Z-8.0000 I0.0000 J-1.3962 F120.00
G1 X12.5073 Y-53.6228 Z-9.0000 F60.00
G2 X11.5200 Y-56.0062 Z-9.0000 I-0.9872 J-0.9872 F120.00
G2 X11.5200 Y-53.2138 Z-9.0000 I0.0000 J1.3962 F120.00
G2 X12.5073 Y-53.6228 Z-9.0000 I0.0000 J-1.3962 F120.00
G1 X12.5073 Y-53.6228 Z-10.0000 F60.00
G2 X11.5200 Y-56.0062 Z-10.0000 I-0.9872 J-0.9872 F120.00
G2 X11.5200 Y-53.2138 Z-10.0000 I0.0000 J1.3962 F120.00
G2 X12.5073 Y-53.6228 Z-10.0000 I0.0000 J-1.3962 F120.00
G1 X12.5073 Y-53.6228 Z-11.0000 F60.00
G2 X11.5200 Y-56.0062 Z-11.0000 I-0.9872 J-0.9872 F120.00
G2 X11.5200 Y-53.2138 Z-11.0000 I0.0000 J1.3962 F120.00
G2 X12.5073 Y-53.6228 Z-11.0000 I0.0000 J-1.3962 F120.00
G1 X12.5073 Y-53.6228 Z-12.0000 F60.00
G2 X11.5200 Y-56.0062 Z-12.0000 I-0.9872 J-0.9872 F120.00
G2 X11.5200 Y-53.2138 Z-12.0000 I0.0000 J1.3962 F120.00
G2 X12.5073 Y-53.6228 Z-12.0000 I0.0000 J-1.3962 F120.00
G0 Z6.0000
G0 X63.0037 Y-64.4863
G0 Z4.0000
G1 X63.0037 Y-64.4863 Z-1.0000 F60.00
G2 X62.3000 Y-66.1852 Z-1.0000 I-0.7037 J-0.7037 F120.00
G2 X62.3000 Y-64.1948 Z-1.0000 I0.0000 J0.9952 F120.00
G2 X63.0037 Y-64.4863 Z-1.0000 I0.0000 J-0.9952 F120.00
G1 X63.0037 Y-64.4863 Z-2.0000 F60.00
G2 X62.3000 Y-66.1852 Z-2.0000 I-0.7037 J-0.7037 F120.00
G2 X62.3000 Y-64.1948 Z-2.0000 I0.0000 J0.9952 F120.00
G2 X63.0037 Y-64.4863 Z-2.0000 I0.0000 J-0.9952 F120.00
G1 X63.0037 Y-64.4863 Z-3.0000 F60.00
G2 X62.3000 Y-66.1852 Z-3.0000 I-0.7037 J-0.7037 F120.00
G2 X62.3000 Y-64.1948 Z-3.0000 I0.0000 J0.9952 F120.00
G2 X63.0037 Y-64.4863 Z-3.0000 I0.0000 J-0.9952 F120.00
G1 X63.0037 Y-64.4863 Z-4.0000 F60.00
G2 X62.3000 Y-66.1852 Z-4.0000 I-0.7037 J-0.7037 F120.00
G2 X62.3000 Y-64.1948 Z-4.0000 I0.0000 J0.9952 F120.00
G2 X63.0037 Y-64.4863 Z-4.0000 I0.0000 J-0.9952 F120.00
G1 X63.0037 Y-64.4863 Z-5.0000 F60.00
G2 X62.3000 Y-66.1852 Z-5.0000 I-0.7037 J-0.7037 F120.00
G2 X62.3000 Y-64.1948 Z-5.0000 I0.0000 J0.9952 F120.00
G2 X63.0037 Y-64.4863 Z-5.0000 I0.0000 J-0.9952 F120.00
G1 X63.0037 Y-64.4863 Z-6.0000 F60.00
G2 X62.3000 Y-66.1852 Z-6.0000 I-0.7037 J-0.7037 F120.00
G2 X62.3000 Y-64.1948 Z-6.0000 I0.0000 J0.9952 F120.00
G2 X63.0037 Y-64.4863 Z-6.0000 I0.0000 J-0.9952 F120.00
G1 X63.0037 Y-64.4863 Z-7.0000 F60.00
G2 X62.3000 Y-66.1852 Z-7.0000 I-0.7037 J-0.7037 F120.00
G2 X62.3000 Y-64.1948 Z-7.0000 I0.0000 J0.9952 F120.00
G2 X63.0037 Y-64.4863 Z-7.0000 I0.0000 J-0.9952 F120.00
G1 X63.0037 Y-64.4863 Z-8.0000 F60.00
G2 X62.3000 Y-66.1852 Z-8.0000 I-0.7037 J-0.7037 F120.00
G2 X62.3000 Y-64.1948 Z-8.0000 I0.0000 J0.9952 F120.00
G2 X63.0037 Y-64.4863 Z-8.0000 I0.0000 J-0.9952 F120.00
G1 X63.0037 Y-64.4863 Z-9.0000 F60.00
G2 X62.3000 Y-66.1852 Z-9.0000 I-0.7037 J-0.7037 F120.00
G2 X62.3000 Y-64.1948 Z-9.0000 I0.0000 J0.9952 F120.00
G2 X63.0037 Y-64.4863 Z-9.0000 I0.0000 J-0.9952 F120.00
G1 X63.0037 Y-64.4863 Z-10.0000 F60.00
G2 X62.3000 Y-66.1852 Z-10.0000 I-0.7037 J-0.7037 F120.00
G2 X62.3000 Y-64.1948 Z-10.0000 I0.0000 J0.9952 F120.00
G2 X63.0037 Y-64.4863 Z-10.0000 I0.0000 J-0.9952 F120.00
G1 X63.0037 Y-64.4863 Z-11.0000 F60.00
G2 X62.3000 Y-66.1852 Z-11.0000 I-0.7037 J-0.7037 F120.00
G2 X62.3000 Y-64.1948 Z-11.0000 I0.0000 J0.9952 F120.00
G2 X63.0037 Y-64.4863 Z-11.0000 I0.0000 J-0.9952 F120.00
G1 X63.0037 Y-64.4863 Z-12.0000 F60.00
G2 X62.3000 Y-66.1852 Z-12.0000 I-0.7037 J-0.7037 F120.00
G2 X62.3000 Y-64.1948 Z-12.0000 I0.0000 J0.9952 F120.00
G2 X63.0037 Y-64.4863 Z-12.0000 I0.0000 J-0.9952 F120.00
G0 Z6.0000
G0 X10.9037 Y-69.5863
G0 Z4.0000
G1 X10.9037 Y-69.5863 Z-1.0000 F60.00
G2 X10.2000 Y-71.2852 Z-1.0000 I-0.7037 J-0.7037 F120.00
G2 X10.2000 Y-69.2948 Z-1.0000 I0.0000 J0.9952 F120.00
G2 X10.9037 Y-69.5863 Z-1.0000 I0.0000 J-0.9952 F120.00
G1 X10.9037 Y-69.5863 Z-2.0000 F60.00
G2 X10.2000 Y-71.2852 Z-2.0000 I-0.7037 J-0.7037 F120.00
G2 X10.2000 Y-69.2948 Z-2.0000 I0.0000 J0.9952 F120.00
G2 X10.9037 Y-69.5863 Z-2.0000 I0.0000 J-0.9952 F120.00
G1 X10.9037 Y-69.5863 Z-3.0000 F60.00
G2 X10.2000 Y-71.2852 Z-3.0000 I-0.7037 J-0.7037 F120.00
G2 X10.2000 Y-69.2948 Z-3.0000 I0.0000 J0.9952 F120.00
G2 X10.9037 Y-69.5863 Z-3.0000 I0.0000 J-0.9952 F120.00
G1 X10.9037 Y-69.5863 Z-4.0000 F60.00
G2 X10.2000 Y-71.2852 Z-4.0000 I-0.7037 J-0.7037 F120.00
G2 X10.2000 Y-69.2948 Z-4.0000 I0.0000 J0.9952 F120.00
G2 X10.9037 Y-69.5863 Z-4.0000 I0.0000 J-0.9952 F120.00
G1 X10.9037 Y-69.5863 Z-5.0000 F60.00
G2 X10.2000 Y-71.2852 Z-5.0000 I-0.7037 J-0.7037 F120.00
G2 X10.2000 Y-69.2948 Z-5.0000 I0.0000 J0.9952 F120.00
G2 X10.9037 Y-69.5863 Z-5.0000 I0.0000 J-0.9952 F120.00
G1 X10.9037 Y-69.5863 Z-6.0000 F60.00
G2 X10.2000 Y-71.2852 Z-6.0000 I-0.7037 J-0.7037 F120.00
G2 X10.2000 Y-69.2948 Z-6.0000 I0.0000 J0.9952 F120.00
G2 X10.9037 Y-69.5863 Z-6.0000 I0.0000 J-0.9952 F120.00
G1 X10.9037 Y-69.5863 Z-7.0000 F60.00
G2 X10.2000 Y-71.2852 Z-7.0000 I-0.7037 J-0.7037 F120.00
G2 X10.2000 Y-69.2948 Z-7.0000 I0.0000 J0.9952 F120.00
G2 X10.9037 Y-69.5863 Z-7.0000 I0.0000 J-0.9952 F120.00
G1 X10.9037 Y-69.5863 Z-8.0000 F60.00
G2 X10.2000 Y-71.2852 Z-8.0000 I-0.7037 J-0.7037 F120.00
G2 X10.2000 Y-69.2948 Z-8.0000 I0.0000 J0.9952 F120.00
G2 X10.9037 Y-69.5863 Z-8.0000 I0.0000 J-0.9952 F120.00
G1 X10.9037 Y-69.5863 Z-9.0000 F60.00
G2 X10.2000 Y-71.2852 Z-9.0000 I-0.7037 J-0.7037 F120.00
G2 X10.2000 Y-69.2948 Z-9.0000 I0.0000 J0.9952 F120.00
G2 X10.9037 Y-69.5863 Z-9.0000 I0.0000 J-0.9952 F120.00
G1 X10.9037 Y-69.5863 Z-10.0000 F60.00
G2 X10.2000 Y-71.2852 Z-10.0000 I-0.7037 J-0.7037 F120.00
G2 X10.2000 Y-69.2948 Z-10.0000 I0.0000 J0.9952 F120.00
G2 X10.9037 Y-69.5863 Z-10.0000 I0.0000 J-0.9952 F120.00
G1 X10.9037 Y-69.5863 Z-11.0000 F60.00
G2 X10.2000 Y-71.2852 Z-11.0000 I-0.7037 J-0.7037 F120.00
G2 X10.2000 Y-69.2948 Z-11.0000 I0.0000 J0.9952 F120.00
G2 X10.9037 Y-69.5863 Z-11.0000 I0.0000 J-0.9952 F120.00
G1 X10.9037 Y-69.5863 Z-12.0000 F60.00
G2 X10.2000 Y-71.2852 Z-12.0000 I-0.7037 J-0.7037 F120.00
G2 X10.2000 Y-69.2948 Z-12.0000 I0.0000 J0.9952 F120.00
G2 X10.9037 Y-69.5863 Z-12.0000 I0.0000 J-0.9952 F120.00
G0 Z6.0000
G0 X10.9037 Y-97.4863
G0 Z4.0000
G1 X10.9037 Y-97.4863 Z-1.0000 F60.00
G2 X10.2000 Y-99.1852 Z-1.0000 I-0.7037 J-0.7037 F120.00
G2 X10.2000 Y-97.1948 Z-1.0000 I0.0000 J0.9952 F120.00
G2 X10.9037 Y-97.4863 Z-1.0000 I0.0000 J-0.9952 F120.00
G1 X10.9037 Y-97.4863 Z-2.0000 F60.00
G2 X10.2000 Y-99.1852 Z-2.0000 I-0.7037 J-0.7037 F120.00
G2 X10.2000 Y-97.1948 Z-2.0000 I0.0000 J0.9952 F120.00
G2 X10.9037 Y-97.4863 Z-2.0000 I0.0000 J-0.9952 F120.00
G1 X10.9037 Y-97.4863 Z-3.0000 F60.00
G2 X10.2000 Y-99.1852 Z-3.0000 I-0.7037 J-0.7037 F120.00
G2 X10.2000 Y-97.1948 Z-3.0000 I0.0000 J0.9952 F120.00
G2 X10.9037 Y-97.4863 Z-3.0000 I0.0000 J-0.9952 F120.00
G1 X10.9037 Y-97.4863 Z-4.0000 F60.00
G2 X10.2000 Y-99.1852 Z-4.0000 I-0.7037 J-0.7037 F120.00
G2 X10.2000 Y-97.1948 Z-4.0000 I0.0000 J0.9952 F120.00
G2 X10.9037 Y-97.4863 Z-4.0000 I0.0000 J-0.9952 F120.00
G1 X10.9037 Y-97.4863 Z-5.0000 F60.00
G2 X10.2000 Y-99.1852 Z-5.0000 I-0.7037 J-0.7037 F120.00
G2 X10.2000 Y-97.1948 Z-5.0000 I0.0000 J0.9952 F120.00
G2 X10.9037 Y-97.4863 Z-5.0000 I0.0000 J-0.9952 F120.00
G1 X10.9037 Y-97.4863 Z-6.0000 F60.00
G2 X10.2000 Y-99.1852 Z-6.0000 I-0.7037 J-0.7037 F120.00
G2 X10.2000 Y-97.1948 Z-6.0000 I0.0000 J0.9952 F120.00
G2 X10.9037 Y-97.4863 Z-6.0000 I0.0000 J-0.9952 F120.00
G1 X10.9037 Y-97.4863 Z-7.0000 F60.00
G2 X10.2000 Y-99.1852 Z-7.0000 I-0.7037 J-0.7037 F120.00
G2 X10.2000 Y-97.1948 Z-7.0000 I0.0000 J0.9952 F120.00
G2 X10.9037 Y-97.4863 Z-7.0000 I0.0000 J-0.9952 F120.00
G1 X10.9037 Y-97.4863 Z-8.0000 F60.00
G2 X10.2000 Y-99.1852 Z-8.0000 I-0.7037 J-0.7037 F120.00
G2 X10.2000 Y-97.1948 Z-8.0000 I0.0000 J0.9952 F120.00
G2 X10.9037 Y-97.4863 Z-8.0000 I0.0000 J-0.9952 F120.00
G1 X10.9037 Y-97.4863 Z-9.0000 F60.00
G2 X10.2000 Y-99.1852 Z-9.0000 I-0.7037 J-0.7037 F120.00
G2 X10.2000 Y-97.1948 Z-9.0000 I0.0000 J0.9952 F120.00
G2 X10.9037 Y-97.4863 Z-9.0000 I0.0000 J-0.9952 F120.00
G1 X10.9037 Y-97.4863 Z-10.0000 F60.00
G2 X10.2000 Y-99.1852 Z-10.0000 I-0.7037 J-0.7037 F120.00
G2 X10.2000 Y-97.1948 Z-10.0000 I0.0000 J0.9952 F120.00
G2 X10.9037 Y-97.4863 Z-10.0000 I0.0000 J-0.9952 F120.00
G1 X10.9037 Y-97.4863 Z-11.0000 F60.00
G2 X10.2000 Y-99.1852 Z-11.0000 I-0.7037 J-0.7037 F120.00
G2 X10.2000 Y-97.1948 Z-11.0000 I0.0000 J0.9952 F120.00
G2 X10.9037 Y-97.4863 Z-11.0000 I0.0000 J-0.9952 F120.00
G1 X10.9037 Y-97.4863 Z-12.0000 F60.00
G2 X10.2000 Y-99.1852 Z-12.0000 I-0.7037 J-0.7037 F120.00
G2 X10.2000 Y-97.1948 Z-12.0000 I0.0000 J0.9952 F120.00
G2 X10.9037 Y-97.4863 Z-12.0000 I0.0000 J-0.9952 F120.00
G0 Z6.0000
G0 X5.5580 Y-118.9420
G0 Z4.0000
G1 X5.5580 Y-118.9420 Z-1.0000 F60.00
G2 X4.5000 Y-121.4962 Z-1.0000 I-1.0580 J-1.0580 F120.00
G2 X4.5000 Y-118.5038 Z-1.0000 I0.0000 J1.4962 F120.00
G2 X5.5580 Y-118.9420 Z-1.0000 I0.0000 J-1.4962 F120.00
G1 X5.5580 Y-118.9420 Z-2.0000 F60.00
G2 X4.5000 Y-121.4962 Z-2.0000 I-1.0580 J-1.0580 F120.00
G2 X4.5000 Y-118.5038 Z-2.0000 I0.0000 J1.4962 F120.00
G2 X5.5580 Y-118.9420 Z-2.0000 I0.0000 J-1.4962 F120.00
G1 X5.5580 Y-118.9420 Z-3.0000 F60.00
G2 X4.5000 Y-121.4962 Z-3.0000 I-1.0580 J-1.0580 F120.00
G2 X4.5000 Y-118.5038 Z-3.0000 I0.0000 J1.4962 F120.00
G2 X5.5580 Y-118.9420 Z-3.0000 I0.0000 J-1.4962 F120.00
G1 X5.5580 Y-118.9420 Z-4.0000 F60.00
G2 X4.5000 Y-121.4962 Z-4.0000 I-1.0580 J-1.0580 F120.00
G2 X4.5000 Y-118.5038 Z-4.0000 I0.0000 J1.4962 F120.00
G2 X5.5580 Y-118.9420 Z-4.0000 I0.0000 J-1.4962 F120.00
G1 X5.5580 Y-118.9420 Z-5.0000 F60.00
G2 X4.5000 Y-121.4962 Z-5.0000 I-1.0580 J-1.0580 F120.00
G2 X4.5000 Y-118.5038 Z-5.0000 I0.0000 J1.4962 F120.00
G2 X5.5580 Y-118.9420 Z-5.0000 I0.0000 J-1.4962 F120.00
G1 X5.5580 Y-118.9420 Z-6.0000 F60.00
G2 X4.5000 Y-121.4962 Z-6.0000 I-1.0580 J-1.0580 F120.00
G2 X4.5000 Y-118.5038 Z-6.0000 I0.0000 J1.4962 F120.00
G2 X5.5580 Y-118.9420 Z-6.0000 I0.0000 J-1.4962 F120.00
G1 X5.5580 Y-118.9420 Z-7.0000 F60.00
G2 X4.5000 Y-121.4962 Z-7.0000 I-1.0580 J-1.0580 F120.00
G2 X4.5000 Y-118.5038 Z-7.0000 I0.0000 J1.4962 F120.00
G2 X5.5580 Y-118.9420 Z-7.0000 I0.0000 J-1.4962 F120.00
G1 X5.5580 Y-118.9420 Z-8.0000 F60.00
G2 X4.5000 Y-121.4962 Z-8.0000 I-1.0580 J-1.0580 F120.00
G2 X4.5000 Y-118.5038 Z-8.0000 I0.0000 J1.4962 F120.00
G2 X5.5580 Y-118.9420 Z-8.0000 I0.0000 J-1.4962 F120.00
G1 X5.5580 Y-118.9420 Z-9.0000 F60.00
G2 X4.5000 Y-121.4962 Z-9.0000 I-1.0580 J-1.0580 F120.00
G2 X4.5000 Y-118.5038 Z-9.0000 I0.0000 J1.4962 F120.00
G2 X5.5580 Y-118.9420 Z-9.0000 I0.0000 J-1.4962 F120.00
G1 X5.5580 Y-118.9420 Z-10.0000 F60.00
G2 X4.5000 Y-121.4962 Z-10.0000 I-1.0580 J-1.0580 F120.00
G2 X4.5000 Y-118.5038 Z-10.0000 I0.0000 J1.4962 F120.00
G2 X5.5580 Y-118.9420 Z-10.0000 I0.0000 J-1.4962 F120.00
G1 X5.5580 Y-118.9420 Z-11.0000 F60.00
G2 X4.5000 Y-121.4962 Z-11.0000 I-1.0580 J-1.0580 F120.00
G2 X4.5000 Y-118.5038 Z-11.0000 I0.0000 J1.4962 F120.00
G2 X5.5580 Y-118.9420 Z-11.0000 I0.0000 J-1.4962 F120.00
G1 X5.5580 Y-118.9420 Z-12.0000 F60.00
G2 X4.5000 Y-121.4962 Z-12.0000 I-1.0580 J-1.0580 F120.00
G2 X4.5000 Y-118.5038 Z-12.0000 I0.0000 J1.4962 F120.00
G2 X5.5580 Y-118.9420 Z-12.0000 I0.0000 J-1.4962 F120.00
G0 Z6.0000
G0 X80.5580 Y-118.9420
G0 Z4.0000
G1 X80.5580 Y-118.9420 Z-1.0000 F60.00
G2 X79.5000 Y-121.4962 Z-1.0000 I-1.0580 J-1.0580 F120.00
G2 X79.5000 Y-118.5038 Z-1.0000 I0.0000 J1.4962 F120.00
G2 X80.5580 Y-118.9420 Z-1.0000 I0.0000 J-1.4962 F120.00
G1 X80.5580 Y-118.9420 Z-2.0000 F60.00
G2 X79.5000 Y-121.4962 Z-2.0000 I-1.0580 J-1.0580 F120.00
G2 X79.5000 Y-118.5038 Z-2.0000 I0.0000 J1.4962 F120.00
G2 X80.5580 Y-118.9420 Z-2.0000 I0.0000 J-1.4962 F120.00
G1 X80.5580 Y-118.9420 Z-3.0000 F60.00
G2 X79.5000 Y-121.4962 Z-3.0000 I-1.0580 J-1.0580 F120.00
G2 X79.5000 Y-118.5038 Z-3.0000 I0.0000 J1.4962 F120.00
G2 X80.5580 Y-118.9420 Z-3.0000 I0.0000 J-1.4962 F120.00
G1 X80.5580 Y-118.9420 Z-4.0000 F60.00
G2 X79.5000 Y-121.4962 Z-4.0000 I-1.0580 J-1.0580 F120.00
G2 X79.5000 Y-118.5038 Z-4.0000 I0.0000 J1.4962 F120.00
G2 X80.5580 Y-118.9420 Z-4.0000 I0.0000 J-1.4962 F120.00
G1 X80.5580 Y-118.9420 Z-5.0000 F60.00
G2 X79.5000 Y-121.4962 Z-5.0000 I-1.0580 J-1.0580 F120.00
G2 X79.5000 Y-118.5038 Z-5.0000 I0.0000 J1.4962 F120.00
G2 X80.5580 Y-118.9420 Z-5.0000 I0.0000 J-1.4962 F120.00
G1 X80.5580 Y-118.9420 Z-6.0000 F60.00
G2 X79.5000 Y-121.4962 Z-6.0000 I-1.0580 J-1.0580 F120.00
G2 X79.5000 Y-118.5038 Z-6.0000 I0.0000 J1.4962 F120.00
G2 X80.5580 Y-118.9420 Z-6.0000 I0.0000 J-1.4962 F120.00
G1 X80.5580 Y-118.9420 Z-7.0000 F60.00
G2 X79.5000 Y-121.4962 Z-7.0000 I-1.0580 J-1.0580 F120.00
G2 X79.5000 Y-118.5038 Z-7.0000 I0.0000 J1.4962 F120.00
G2 X80.5580 Y-118.9420 Z-7.0000 I0.0000 J-1.4962 F120.00
G1 X80.5580 Y-118.9420 Z-8.0000 F60.00
G2 X79.5000 Y-121.4962 Z-8.0000 I-1.0580 J-1.0580 F120.00
G2 X79.5000 Y-118.5038 Z-8.0000 I0.0000 J1.4962 F120.00
G2 X80.5580 Y-118.9420 Z-8.0000 I0.0000 J-1.4962 F120.00
G1 X80.5580 Y-118.9420 Z-9.0000 F60.00
G2 X79.5000 Y-121.4962 Z-9.0000 I-1.0580 J-1.0580 F120.00
G2 X79.5000 Y-118.5038 Z-9.0000 I0.0000 J1.4962 F120.00
G2 X80.5580 Y-118.9420 Z-9.0000 I0.0000 J-1.4962 F120.00
G1 X80.5580 Y-118.9420 Z-10.0000 F60.00
G2 X79.5000 Y-121.4962 Z-10.0000 I-1.0580 J-1.0580 F120.00
G2 X79.5000 Y-118.5038 Z-10.0000 I0.0000 J1.4962 F120.00
G2 X80.5580 Y-118.9420 Z-10.0000 I0.0000 J-1.4962 F120.00
G1 X80.5580 Y-118.9420 Z-11.0000 F60.00
G2 X79.5000 Y-121.4962 Z-11.0000 I-1.0580 J-1.0580 F120.00
G2 X79.5000 Y-118.5038 Z-11.0000 I0.0000 J1.4962 F120.00
G2 X80.5580 Y-118.9420 Z-11.0000 I0.0000 J-1.4962 F120.00
G1 X80.5580 Y-118.9420 Z-12.0000 F60.00
G2 X79.5000 Y-121.4962 Z-12.0000 I-1.0580 J-1.0580 F120.00
G2 X79.5000 Y-118.5038 Z-12.0000 I0.0000 J1.4962 F120.00
G2 X80.5580 Y-118.9420 Z-12.0000 I0.0000 J-1.4962 F120.00
G0 Z6.0000
(finish operation: Pocket_Shape)
(begin postamble)
M5
G17 G90
; M2
