(G-CODE GENERATED BY FLATCAM v8.96 - www.flatcam.org - Version Date: 2019/08/23)

(Name: cutout-2400.Cu)
(Type: G-code from Geometry)
(Units: MM)

(Created on mercredi, 12 février 2020 at 20:24)

(TOOL DIAMETER: 2.4 mm)
(Feedrate: 79.9998 mm/min)
(Feedrate_Z: 79.9998 mm/min)
(Feedrate rapids 79.9998 mm/min)

(Z_Cut: -3.0 mm)
(DepthPerCut: 0.8001 mm <=>4 passes)
(Z_Move: 1.999 mm)
(Z Toolchange: 12.7 mm)
(X,Y Toolchange: 0.0000, 0.0000 mm)
(Z Start: None mm)
(Z End: 12.7 mm)
(Steps per circle: 128)
(Postprocessor Geometry: default)

(X range:   -3.8393 ...   64.7993  mm)
(Y range:   -3.8393 ...   52.0993  mm)

(Spindle Speed: None RPM)

G21
G90
G94

G01 F80.00
G00 Z1.9990

M03
G00 X-3.8393 Y21.0287
G01 F80.00
G01 Z-0.8001
G01 F80.00
G01 X-3.8393 Y-2.5401
G01 X-3.8331 Y-2.6674
G01 X-3.8143 Y-2.7935
G01 X-3.7834 Y-2.9172
G01 X-3.7404 Y-3.0373
G01 X-3.6859 Y-3.1525
G01 X-3.6204 Y-3.2619
G01 X-3.5444 Y-3.3643
G01 X-3.4588 Y-3.4588
G01 X-3.3643 Y-3.5444
G01 X-3.2619 Y-3.6204
G01 X-3.1525 Y-3.6859
G01 X-3.0373 Y-3.7404
G01 X-2.9172 Y-3.7834
G01 X-2.7935 Y-3.8143
G01 X-2.6674 Y-3.8331
G01 X-2.5401 Y-3.8393
G01 X27.3787 Y-3.8393
G00 X27.3787 Y-3.8393
G01 F80.00
G01 Z-1.6002
G01 F80.00
G01 X-2.5401 Y-3.8393
G01 X-2.6674 Y-3.8331
G01 X-2.7935 Y-3.8143
G01 X-2.9172 Y-3.7834
G01 X-3.0373 Y-3.7404
G01 X-3.1525 Y-3.6859
G01 X-3.2619 Y-3.6204
G01 X-3.3643 Y-3.5444
G01 X-3.4588 Y-3.4588
G01 X-3.5444 Y-3.3643
G01 X-3.6204 Y-3.2619
G01 X-3.6859 Y-3.1525
G01 X-3.7404 Y-3.0373
G01 X-3.7834 Y-2.9172
G01 X-3.8143 Y-2.7935
G01 X-3.8331 Y-2.6674
G01 X-3.8393 Y-2.5401
G01 X-3.8393 Y21.0287
G00 X-3.8393 Y21.0287
G01 F80.00
G01 Z-2.4003
G01 F80.00
G01 X-3.8393 Y-2.5401
G01 X-3.8331 Y-2.6674
G01 X-3.8143 Y-2.7935
G01 X-3.7834 Y-2.9172
G01 X-3.7404 Y-3.0373
G01 X-3.6859 Y-3.1525
G01 X-3.6204 Y-3.2619
G01 X-3.5444 Y-3.3643
G01 X-3.4588 Y-3.4588
G01 X-3.3643 Y-3.5444
G01 X-3.2619 Y-3.6204
G01 X-3.1525 Y-3.6859
G01 X-3.0373 Y-3.7404
G01 X-2.9172 Y-3.7834
G01 X-2.7935 Y-3.8143
G01 X-2.6674 Y-3.8331
G01 X-2.5401 Y-3.8393
G01 X27.3787 Y-3.8393
G00 X27.3787 Y-3.8393
G01 F80.00
G01 Z-3.0000
G01 F80.00
G01 X-2.5401 Y-3.8393
G01 X-2.6674 Y-3.8331
G01 X-2.7935 Y-3.8143
G01 X-2.9172 Y-3.7834
G01 X-3.0373 Y-3.7404
G01 X-3.1525 Y-3.6859
G01 X-3.2619 Y-3.6204
G01 X-3.3643 Y-3.5444
G01 X-3.4588 Y-3.4588
G01 X-3.5444 Y-3.3643
G01 X-3.6204 Y-3.2619
G01 X-3.6859 Y-3.1525
G01 X-3.7404 Y-3.0373
G01 X-3.7834 Y-2.9172
G01 X-3.8143 Y-2.7935
G01 X-3.8331 Y-2.6674
G01 X-3.8393 Y-2.5401
G01 X-3.8393 Y21.0287
G00 Z1.9990
G00 X-3.8393 Y27.4295
G01 F80.00
G01 Z-0.8001
G01 F80.00
G01 X-3.8393 Y50.8001
G01 X-3.8331 Y50.9274
G01 X-3.8143 Y51.0535
G01 X-3.7834 Y51.1772
G01 X-3.7404 Y51.2973
G01 X-3.6859 Y51.4125
G01 X-3.6204 Y51.5219
G01 X-3.5444 Y51.6243
G01 X-3.4588 Y51.7188
G01 X-3.3643 Y51.8044
G01 X-3.2619 Y51.8804
G01 X-3.1525 Y51.9459
G01 X-3.0373 Y52.0004
G01 X-2.9172 Y52.0434
G01 X-2.7935 Y52.0743
G01 X-2.6674 Y52.0931
G01 X-2.5401 Y52.0993
G01 X27.3787 Y52.0993
G00 X27.3787 Y52.0993
G01 F80.00
G01 Z-1.6002
G01 F80.00
G01 X-2.5401 Y52.0993
G01 X-2.6674 Y52.0931
G01 X-2.7935 Y52.0743
G01 X-2.9172 Y52.0434
G01 X-3.0373 Y52.0004
G01 X-3.1525 Y51.9459
G01 X-3.2619 Y51.8804
G01 X-3.3643 Y51.8044
G01 X-3.4588 Y51.7188
G01 X-3.5444 Y51.6243
G01 X-3.6204 Y51.5219
G01 X-3.6859 Y51.4125
G01 X-3.7404 Y51.2973
G01 X-3.7834 Y51.1772
G01 X-3.8143 Y51.0535
G01 X-3.8331 Y50.9274
G01 X-3.8393 Y50.8001
G01 X-3.8393 Y27.4295
G00 X-3.8393 Y27.4295
G01 F80.00
G01 Z-2.4003
G01 F80.00
G01 X-3.8393 Y50.8001
G01 X-3.8331 Y50.9274
G01 X-3.8143 Y51.0535
G01 X-3.7834 Y51.1772
G01 X-3.7404 Y51.2973
G01 X-3.6859 Y51.4125
G01 X-3.6204 Y51.5219
G01 X-3.5444 Y51.6243
G01 X-3.4588 Y51.7188
G01 X-3.3643 Y51.8044
G01 X-3.2619 Y51.8804
G01 X-3.1525 Y51.9459
G01 X-3.0373 Y52.0004
G01 X-2.9172 Y52.0434
G01 X-2.7935 Y52.0743
G01 X-2.6674 Y52.0931
G01 X-2.5401 Y52.0993
G01 X27.3787 Y52.0993
G00 X27.3787 Y52.0993
G01 F80.00
G01 Z-3.0000
G01 F80.00
G01 X-2.5401 Y52.0993
G01 X-2.6674 Y52.0931
G01 X-2.7935 Y52.0743
G01 X-2.9172 Y52.0434
G01 X-3.0373 Y52.0004
G01 X-3.1525 Y51.9459
G01 X-3.2619 Y51.8804
G01 X-3.3643 Y51.8044
G01 X-3.4588 Y51.7188
G01 X-3.5444 Y51.6243
G01 X-3.6204 Y51.5219
G01 X-3.6859 Y51.4125
G01 X-3.7404 Y51.2973
G01 X-3.7834 Y51.1772
G01 X-3.8143 Y51.0535
G01 X-3.8331 Y50.9274
G01 X-3.8393 Y50.8001
G01 X-3.8393 Y27.4295
G00 Z1.9990
G00 X33.7795 Y52.0993
G01 F80.00
G01 Z-0.8001
G01 F80.00
G01 X63.5001 Y52.0993
G01 X63.6274 Y52.0931
G01 X63.7535 Y52.0743
G01 X63.8772 Y52.0434
G01 X63.9973 Y52.0004
G01 X64.1125 Y51.9459
G01 X64.2219 Y51.8804
G01 X64.3243 Y51.8044
G01 X64.4188 Y51.7188
G01 X64.5044 Y51.6243
G01 X64.5804 Y51.5219
G01 X64.6459 Y51.4125
G01 X64.7004 Y51.2973
G01 X64.7434 Y51.1772
G01 X64.7743 Y51.0535
G01 X64.7931 Y50.9274
G01 X64.7993 Y50.8001
G01 X64.7993 Y27.4295
G00 X64.7993 Y27.4295
G01 F80.00
G01 Z-1.6002
G01 F80.00
G01 X64.7993 Y50.8001
G01 X64.7931 Y50.9274
G01 X64.7743 Y51.0535
G01 X64.7434 Y51.1772
G01 X64.7004 Y51.2973
G01 X64.6459 Y51.4125
G01 X64.5804 Y51.5219
G01 X64.5044 Y51.6243
G01 X64.4188 Y51.7188
G01 X64.3243 Y51.8044
G01 X64.2219 Y51.8804
G01 X64.1125 Y51.9459
G01 X63.9973 Y52.0004
G01 X63.8772 Y52.0434
G01 X63.7535 Y52.0743
G01 X63.6274 Y52.0931
G01 X63.5001 Y52.0993
G01 X33.7795 Y52.0993
G00 X33.7795 Y52.0993
G01 F80.00
G01 Z-2.4003
G01 F80.00
G01 X63.5001 Y52.0993
G01 X63.6274 Y52.0931
G01 X63.7535 Y52.0743
G01 X63.8772 Y52.0434
G01 X63.9973 Y52.0004
G01 X64.1125 Y51.9459
G01 X64.2219 Y51.8804
G01 X64.3243 Y51.8044
G01 X64.4188 Y51.7188
G01 X64.5044 Y51.6243
G01 X64.5804 Y51.5219
G01 X64.6459 Y51.4125
G01 X64.7004 Y51.2973
G01 X64.7434 Y51.1772
G01 X64.7743 Y51.0535
G01 X64.7931 Y50.9274
G01 X64.7993 Y50.8001
G01 X64.7993 Y27.4295
G00 X64.7993 Y27.4295
G01 F80.00
G01 Z-3.0000
G01 F80.00
G01 X64.7993 Y50.8001
G01 X64.7931 Y50.9274
G01 X64.7743 Y51.0535
G01 X64.7434 Y51.1772
G01 X64.7004 Y51.2973
G01 X64.6459 Y51.4125
G01 X64.5804 Y51.5219
G01 X64.5044 Y51.6243
G01 X64.4188 Y51.7188
G01 X64.3243 Y51.8044
G01 X64.2219 Y51.8804
G01 X64.1125 Y51.9459
G01 X63.9973 Y52.0004
G01 X63.8772 Y52.0434
G01 X63.7535 Y52.0743
G01 X63.6274 Y52.0931
G01 X63.5001 Y52.0993
G01 X33.7795 Y52.0993
G00 Z1.9990
G00 X64.7993 Y21.0287
G01 F80.00
G01 Z-0.8001
G01 F80.00
G01 X64.7993 Y-2.5401
G01 X64.7931 Y-2.6674
G01 X64.7743 Y-2.7935
G01 X64.7434 Y-2.9172
G01 X64.7004 Y-3.0373
G01 X64.6459 Y-3.1525
G01 X64.5804 Y-3.2619
G01 X64.5044 Y-3.3643
G01 X64.4188 Y-3.4588
G01 X64.3243 Y-3.5444
G01 X64.2219 Y-3.6204
G01 X64.1125 Y-3.6859
G01 X63.9973 Y-3.7404
G01 X63.8772 Y-3.7834
G01 X63.7535 Y-3.8143
G01 X63.6274 Y-3.8331
G01 X63.5001 Y-3.8393
G00 X63.5001 Y-3.8393
G01 F80.00
G01 Z-1.6002
G01 F80.00
G01 X63.6274 Y-3.8331
G01 X63.7535 Y-3.8143
G01 X63.8772 Y-3.7834
G01 X63.9973 Y-3.7404
G01 X64.1125 Y-3.6859
G01 X64.2219 Y-3.6204
G01 X64.3243 Y-3.5444
G01 X64.4188 Y-3.4588
G01 X64.5044 Y-3.3643
G01 X64.5804 Y-3.2619
G01 X64.6459 Y-3.1525
G01 X64.7004 Y-3.0373
G01 X64.7434 Y-2.9172
G01 X64.7743 Y-2.7935
G01 X64.7931 Y-2.6674
G01 X64.7993 Y-2.5401
G01 X64.7993 Y21.0287
G00 X64.7993 Y21.0287
G01 F80.00
G01 Z-2.4003
G01 F80.00
G01 X64.7993 Y-2.5401
G01 X64.7931 Y-2.6674
G01 X64.7743 Y-2.7935
G01 X64.7434 Y-2.9172
G01 X64.7004 Y-3.0373
G01 X64.6459 Y-3.1525
G01 X64.5804 Y-3.2619
G01 X64.5044 Y-3.3643
G01 X64.4188 Y-3.4588
G01 X64.3243 Y-3.5444
G01 X64.2219 Y-3.6204
G01 X64.1125 Y-3.6859
G01 X63.9973 Y-3.7404
G01 X63.8772 Y-3.7834
G01 X63.7535 Y-3.8143
G01 X63.6274 Y-3.8331
G01 X63.5001 Y-3.8393
G00 X63.5001 Y-3.8393
G01 F80.00
G01 Z-3.0000
G01 F80.00
G01 X63.6274 Y-3.8331
G01 X63.7535 Y-3.8143
G01 X63.8772 Y-3.7834
G01 X63.9973 Y-3.7404
G01 X64.1125 Y-3.6859
G01 X64.2219 Y-3.6204
G01 X64.3243 Y-3.5444
G01 X64.4188 Y-3.4588
G01 X64.5044 Y-3.3643
G01 X64.5804 Y-3.2619
G01 X64.6459 Y-3.1525
G01 X64.7004 Y-3.0373
G01 X64.7434 Y-2.9172
G01 X64.7743 Y-2.7935
G01 X64.7931 Y-2.6674
G01 X64.7993 Y-2.5401
G01 X64.7993 Y21.0287
G00 Z1.9990
G00 X63.5001 Y-3.8393
G01 F80.00
G01 Z-0.8001
G01 F80.00
G01 X33.7795 Y-3.8393
G00 X33.7795 Y-3.8393
G01 F80.00
G01 Z-1.6002
G01 F80.00
G01 X63.5001 Y-3.8393
G00 X63.5001 Y-3.8393
G01 F80.00
G01 Z-2.4003
G01 F80.00
G01 X33.7795 Y-3.8393
G00 X33.7795 Y-3.8393
G01 F80.00
G01 Z-3.0000
G01 F80.00
G01 X63.5001 Y-3.8393
G00 Z1.9990
M05
G00 Z1.9990
G00 Z12.70
G00 X0.0 Y0.0

M02