(G-CODE GENERATED BY FLATCAM v8.96 - www.flatcam.org - Version Date: 2019/08/23)

(Name: edge-2400)
(Type: G-code from Geometry)
(Units: MM)

(Created on jeudi, 20 février 2020 at 15:29)

(TOOL DIAMETER: 2.4 mm)
(Feedrate: 79.9998 mm/min)
(Feedrate_Z: 79.9998 mm/min)
(Feedrate rapids 79.9998 mm/min)

(Z_Cut: -3.0 mm)
(DepthPerCut: 0.8001 mm <=>4 passes)
(Z_Move: 1.999 mm)
(Z Toolchange: 12.7 mm)
(X,Y Toolchange: 0.0000, 0.0000 mm)
(Z Start: None mm)
(Z End: 12.7 mm)
(Steps per circle: 128)
(Postprocessor Geometry: default)

(X range:  -56.0363 ...    1.1723  mm)
(Y range:  -95.5333 ...    1.2993  mm)

(Spindle Speed: None RPM)

G21
G90
G94

G01 F80.00
G00 Z1.9990

M03
G00 X-24.8827 Y1.2993
G01 F80.00
G01 Z-0.8001
G01 F80.00
G01 X-0.1269 Y1.2993
G01 X0.0004 Y1.2931
G01 X0.1265 Y1.2743
G01 X0.2502 Y1.2434
G01 X0.3703 Y1.2004
G01 X0.4855 Y1.1459
G01 X0.5949 Y1.0804
G01 X0.6973 Y1.0044
G01 X0.7918 Y0.9188
G01 X0.8774 Y0.8243
G01 X0.9534 Y0.7219
G01 X1.0189 Y0.6125
G01 X1.0734 Y0.4973
G01 X1.1164 Y0.3772
G01 X1.1473 Y0.2535
G01 X1.1661 Y0.1274
G01 X1.1723 Y0.0001
G01 X1.1723 Y-44.5678
G00 X1.1723 Y-44.5678
G01 F80.00
G01 Z-1.6002
G01 F80.00
G01 X1.1723 Y0.0001
G01 X1.1661 Y0.1274
G01 X1.1473 Y0.2535
G01 X1.1164 Y0.3772
G01 X1.0734 Y0.4973
G01 X1.0189 Y0.6125
G01 X0.9534 Y0.7219
G01 X0.8774 Y0.8243
G01 X0.7918 Y0.9188
G01 X0.6973 Y1.0044
G01 X0.5949 Y1.0804
G01 X0.4855 Y1.1459
G01 X0.3703 Y1.2004
G01 X0.2502 Y1.2434
G01 X0.1265 Y1.2743
G01 X0.0004 Y1.2931
G01 X-0.1269 Y1.2993
G01 X-24.8827 Y1.2993
G00 X-24.8827 Y1.2993
G01 F80.00
G01 Z-2.4003
G01 F80.00
G01 X-0.1269 Y1.2993
G01 X0.0004 Y1.2931
G01 X0.1265 Y1.2743
G01 X0.2502 Y1.2434
G01 X0.3703 Y1.2004
G01 X0.4855 Y1.1459
G01 X0.5949 Y1.0804
G01 X0.6973 Y1.0044
G01 X0.7918 Y0.9188
G01 X0.8774 Y0.8243
G01 X0.9534 Y0.7219
G01 X1.0189 Y0.6125
G01 X1.0734 Y0.4973
G01 X1.1164 Y0.3772
G01 X1.1473 Y0.2535
G01 X1.1661 Y0.1274
G01 X1.1723 Y0.0001
G01 X1.1723 Y-44.5678
G00 X1.1723 Y-44.5678
G01 F80.00
G01 Z-3.0000
G01 F80.00
G01 X1.1723 Y0.0001
G01 X1.1661 Y0.1274
G01 X1.1473 Y0.2535
G01 X1.1164 Y0.3772
G01 X1.0734 Y0.4973
G01 X1.0189 Y0.6125
G01 X0.9534 Y0.7219
G01 X0.8774 Y0.8243
G01 X0.7918 Y0.9188
G01 X0.6973 Y1.0044
G01 X0.5949 Y1.0804
G01 X0.4855 Y1.1459
G01 X0.3703 Y1.2004
G01 X0.2502 Y1.2434
G01 X0.1265 Y1.2743
G01 X0.0004 Y1.2931
G01 X-0.1269 Y1.2993
G01 X-24.8827 Y1.2993
G00 Z1.9990
G00 X-29.7830 Y1.2993
G01 F80.00
G01 Z-0.8001
G01 F80.00
G01 X-54.7371 Y1.2993
G01 X-54.8644 Y1.2931
G01 X-54.9905 Y1.2743
G01 X-55.1142 Y1.2434
G01 X-55.2343 Y1.2004
G01 X-55.3495 Y1.1459
G01 X-55.4589 Y1.0804
G01 X-55.5613 Y1.0044
G01 X-55.6558 Y0.9188
G01 X-55.7414 Y0.8243
G01 X-55.8174 Y0.7219
G01 X-55.8829 Y0.6125
G01 X-55.9374 Y0.4973
G01 X-55.9804 Y0.3772
G01 X-56.0113 Y0.2535
G01 X-56.0301 Y0.1274
G01 X-56.0363 Y0.0001
G01 X-56.0363 Y-44.5678
G00 X-56.0363 Y-44.5678
G01 F80.00
G01 Z-1.6002
G01 F80.00
G01 X-56.0363 Y0.0001
G01 X-56.0301 Y0.1274
G01 X-56.0113 Y0.2535
G01 X-55.9804 Y0.3772
G01 X-55.9374 Y0.4973
G01 X-55.8829 Y0.6125
G01 X-55.8174 Y0.7219
G01 X-55.7414 Y0.8243
G01 X-55.6558 Y0.9188
G01 X-55.5613 Y1.0044
G01 X-55.4589 Y1.0804
G01 X-55.3495 Y1.1459
G01 X-55.2343 Y1.2004
G01 X-55.1142 Y1.2434
G01 X-54.9905 Y1.2743
G01 X-54.8644 Y1.2931
G01 X-54.7371 Y1.2993
G01 X-29.7830 Y1.2993
G00 X-29.7830 Y1.2993
G01 F80.00
G01 Z-2.4003
G01 F80.00
G01 X-54.7371 Y1.2993
G01 X-54.8644 Y1.2931
G01 X-54.9905 Y1.2743
G01 X-55.1142 Y1.2434
G01 X-55.2343 Y1.2004
G01 X-55.3495 Y1.1459
G01 X-55.4589 Y1.0804
G01 X-55.5613 Y1.0044
G01 X-55.6558 Y0.9188
G01 X-55.7414 Y0.8243
G01 X-55.8174 Y0.7219
G01 X-55.8829 Y0.6125
G01 X-55.9374 Y0.4973
G01 X-55.9804 Y0.3772
G01 X-56.0113 Y0.2535
G01 X-56.0301 Y0.1274
G01 X-56.0363 Y0.0001
G01 X-56.0363 Y-44.5678
G00 X-56.0363 Y-44.5678
G01 F80.00
G01 Z-3.0000
G01 F80.00
G01 X-56.0363 Y0.0001
G01 X-56.0301 Y0.1274
G01 X-56.0113 Y0.2535
G01 X-55.9804 Y0.3772
G01 X-55.9374 Y0.4973
G01 X-55.8829 Y0.6125
G01 X-55.8174 Y0.7219
G01 X-55.7414 Y0.8243
G01 X-55.6558 Y0.9188
G01 X-55.5613 Y1.0044
G01 X-55.4589 Y1.0804
G01 X-55.3495 Y1.1459
G01 X-55.2343 Y1.2004
G01 X-55.1142 Y1.2434
G01 X-54.9905 Y1.2743
G01 X-54.8644 Y1.2931
G01 X-54.7371 Y1.2993
G01 X-29.7830 Y1.2993
G00 Z1.9990
G00 X-56.0363 Y-49.4681
G01 F80.00
G01 Z-0.8001
G01 F80.00
G01 X-56.0363 Y-94.2341
G01 X-56.0301 Y-94.3614
G01 X-56.0113 Y-94.4875
G01 X-55.9804 Y-94.6112
G01 X-55.9374 Y-94.7313
G01 X-55.8829 Y-94.8465
G01 X-55.8174 Y-94.9559
G01 X-55.7414 Y-95.0583
G01 X-55.6558 Y-95.1528
G01 X-55.5613 Y-95.2384
G01 X-55.4589 Y-95.3144
G01 X-55.3495 Y-95.3799
G01 X-55.2343 Y-95.4344
G01 X-55.1142 Y-95.4774
G01 X-54.9905 Y-95.5083
G01 X-54.8644 Y-95.5271
G01 X-54.7371 Y-95.5333
G01 X-29.7830 Y-95.5333
G00 X-29.7830 Y-95.5333
G01 F80.00
G01 Z-1.6002
G01 F80.00
G01 X-54.7371 Y-95.5333
G01 X-54.8644 Y-95.5271
G01 X-54.9905 Y-95.5083
G01 X-55.1142 Y-95.4774
G01 X-55.2343 Y-95.4344
G01 X-55.3495 Y-95.3799
G01 X-55.4589 Y-95.3144
G01 X-55.5613 Y-95.2384
G01 X-55.6558 Y-95.1528
G01 X-55.7414 Y-95.0583
G01 X-55.8174 Y-94.9559
G01 X-55.8829 Y-94.8465
G01 X-55.9374 Y-94.7313
G01 X-55.9804 Y-94.6112
G01 X-56.0113 Y-94.4875
G01 X-56.0301 Y-94.3614
G01 X-56.0363 Y-94.2341
G01 X-56.0363 Y-49.4681
G00 X-56.0363 Y-49.4681
G01 F80.00
G01 Z-2.4003
G01 F80.00
G01 X-56.0363 Y-94.2341
G01 X-56.0301 Y-94.3614
G01 X-56.0113 Y-94.4875
G01 X-55.9804 Y-94.6112
G01 X-55.9374 Y-94.7313
G01 X-55.8829 Y-94.8465
G01 X-55.8174 Y-94.9559
G01 X-55.7414 Y-95.0583
G01 X-55.6558 Y-95.1528
G01 X-55.5613 Y-95.2384
G01 X-55.4589 Y-95.3144
G01 X-55.3495 Y-95.3799
G01 X-55.2343 Y-95.4344
G01 X-55.1142 Y-95.4774
G01 X-54.9905 Y-95.5083
G01 X-54.8644 Y-95.5271
G01 X-54.7371 Y-95.5333
G01 X-29.7830 Y-95.5333
G00 X-29.7830 Y-95.5333
G01 F80.00
G01 Z-3.0000
G01 F80.00
G01 X-54.7371 Y-95.5333
G01 X-54.8644 Y-95.5271
G01 X-54.9905 Y-95.5083
G01 X-55.1142 Y-95.4774
G01 X-55.2343 Y-95.4344
G01 X-55.3495 Y-95.3799
G01 X-55.4589 Y-95.3144
G01 X-55.5613 Y-95.2384
G01 X-55.6558 Y-95.1528
G01 X-55.7414 Y-95.0583
G01 X-55.8174 Y-94.9559
G01 X-55.8829 Y-94.8465
G01 X-55.9374 Y-94.7313
G01 X-55.9804 Y-94.6112
G01 X-56.0113 Y-94.4875
G01 X-56.0301 Y-94.3614
G01 X-56.0363 Y-94.2341
G01 X-56.0363 Y-49.4681
G00 Z1.9990
G00 X-24.8827 Y-95.5333
G01 F80.00
G01 Z-0.8001
G01 F80.00
G01 X-0.1269 Y-95.5333
G00 X-0.1269 Y-95.5333
G01 F80.00
G01 Z-1.6002
G01 F80.00
G01 X-24.8827 Y-95.5333
G00 X-24.8827 Y-95.5333
G01 F80.00
G01 Z-2.4003
G01 F80.00
G01 X-0.1269 Y-95.5333
G00 X-0.1269 Y-95.5333
G01 F80.00
G01 Z-3.0000
G01 F80.00
G01 X-24.8827 Y-95.5333
G00 Z1.9990
G00 X-0.1269 Y-95.5333
G01 F80.00
G01 Z-0.8001
G01 F80.00
G01 X0.0004 Y-95.5271
G01 X0.1265 Y-95.5083
G01 X0.2502 Y-95.4774
G01 X0.3703 Y-95.4344
G01 X0.4855 Y-95.3799
G01 X0.5949 Y-95.3144
G01 X0.6973 Y-95.2384
G01 X0.7918 Y-95.1528
G01 X0.8774 Y-95.0583
G01 X0.9534 Y-94.9559
G01 X1.0189 Y-94.8465
G01 X1.0734 Y-94.7313
G01 X1.1164 Y-94.6112
G01 X1.1473 Y-94.4875
G01 X1.1661 Y-94.3614
G01 X1.1723 Y-94.2341
G01 X1.1723 Y-49.4681
G00 X1.1723 Y-49.4681
G01 F80.00
G01 Z-1.6002
G01 F80.00
G01 X1.1723 Y-94.2341
G01 X1.1661 Y-94.3614
G01 X1.1473 Y-94.4875
G01 X1.1164 Y-94.6112
G01 X1.0734 Y-94.7313
G01 X1.0189 Y-94.8465
G01 X0.9534 Y-94.9559
G01 X0.8774 Y-95.0583
G01 X0.7918 Y-95.1528
G01 X0.6973 Y-95.2384
G01 X0.5949 Y-95.3144
G01 X0.4855 Y-95.3799
G01 X0.3703 Y-95.4344
G01 X0.2502 Y-95.4774
G01 X0.1265 Y-95.5083
G01 X0.0004 Y-95.5271
G01 X-0.1269 Y-95.5333
G00 X-0.1269 Y-95.5333
G01 F80.00
G01 Z-2.4003
G01 F80.00
G01 X0.0004 Y-95.5271
G01 X0.1265 Y-95.5083
G01 X0.2502 Y-95.4774
G01 X0.3703 Y-95.4344
G01 X0.4855 Y-95.3799
G01 X0.5949 Y-95.3144
G01 X0.6973 Y-95.2384
G01 X0.7918 Y-95.1528
G01 X0.8774 Y-95.0583
G01 X0.9534 Y-94.9559
G01 X1.0189 Y-94.8465
G01 X1.0734 Y-94.7313
G01 X1.1164 Y-94.6112
G01 X1.1473 Y-94.4875
G01 X1.1661 Y-94.3614
G01 X1.1723 Y-94.2341
G01 X1.1723 Y-49.4681
G00 X1.1723 Y-49.4681
G01 F80.00
G01 Z-3.0000
G01 F80.00
G01 X1.1723 Y-94.2341
G01 X1.1661 Y-94.3614
G01 X1.1473 Y-94.4875
G01 X1.1164 Y-94.6112
G01 X1.0734 Y-94.7313
G01 X1.0189 Y-94.8465
G01 X0.9534 Y-94.9559
G01 X0.8774 Y-95.0583
G01 X0.7918 Y-95.1528
G01 X0.6973 Y-95.2384
G01 X0.5949 Y-95.3144
G01 X0.4855 Y-95.3799
G01 X0.3703 Y-95.4344
G01 X0.2502 Y-95.4774
G01 X0.1265 Y-95.5083
G01 X0.0004 Y-95.5271
G01 X-0.1269 Y-95.5333
G00 Z1.9990
M05
G00 Z1.9990
G00 Z12.70
G00 X0.0 Y0.0

M02