(G-CODE GENERATED BY FLATCAM v8.96 - www.flatcam.org - Version Date: 2019/08/23)

(Name: hole-1000)
(Type: G-code from Excellon)
(Units: MM)

(Created on jeudi, 20 février 2020 at 17:02)

(Feedrate: 79.9998 mm/min)
(Feedrate rapids 800.0009 mm/min)

(Z_Cut: -3.0 mm)
(Z_Move: 1.999 mm)
(Z Toolchange: 12.7 mm)
(X,Y Toolchange: 0.0000, 0.0000 mm)
(Z Start: None mm)
(Z End: 12.7 mm)
(Steps per circle: 128)
(Postprocessor Excellon: default)

(X range:  -51.9620 ...   -2.9020  mm)
(Y range:  -92.8560 ...   -2.7750  mm)

(Spindle Speed: None RPM)

G21
G90
G94

G01 F80.00
G00 Z1.9990

M03
G00 X-43.3070 Y-6.3500
G01 Z-3.0000
G01 Z0
G00 Z1.9990
G00 X-45.8470 Y-6.3500
G01 Z-3.0000
G01 Z0
G00 Z1.9990
G00 X-44.4500 Y-54.1020
G01 Z-3.0000
G01 Z0
G00 Z1.9990
G00 X-46.9900 Y-54.1020
G01 Z-3.0000
G01 Z0
G00 Z1.9990
G00 X-49.5300 Y-54.1020
G01 Z-3.0000
G01 Z0
G00 Z1.9990
G00 X-49.6570 Y-64.5160
G01 Z-3.0000
G01 Z0
G00 Z1.9990
G00 X-47.1170 Y-64.5160
G01 Z-3.0000
G01 Z0
G00 Z1.9990
G00 X-44.5770 Y-64.5160
G01 Z-3.0000
G01 Z0
G00 Z1.9990
G00 X-37.5920 Y-64.5160
G01 Z-3.0000
G01 Z0
G00 Z1.9990
G00 X-35.0520 Y-64.5160
G01 Z-3.0000
G01 Z0
G00 Z1.9990
G00 X-32.5120 Y-64.5160
G01 Z-3.0000
G01 Z0
G00 Z1.9990
G00 X-25.5270 Y-64.5160
G01 Z-3.0000
G01 Z0
G00 Z1.9990
G00 X-22.9870 Y-64.5160
G01 Z-3.0000
G01 Z0
G00 Z1.9990
G00 X-20.4470 Y-64.5160
G01 Z-3.0000
G01 Z0
G00 Z1.9990
G00 X-20.4470 Y-74.9300
G01 Z-3.0000
G01 Z0
G00 Z1.9990
G00 X-22.9870 Y-74.9300
G01 Z-3.0000
G01 Z0
G00 Z1.9990
G00 X-25.5270 Y-74.9300
G01 Z-3.0000
G01 Z0
G00 Z1.9990
G00 X-32.5120 Y-74.9300
G01 Z-3.0000
G01 Z0
G00 Z1.9990
G00 X-35.0520 Y-74.9300
G01 Z-3.0000
G01 Z0
G00 Z1.9990
G00 X-37.5920 Y-74.9300
G01 Z-3.0000
G01 Z0
G00 Z1.9990
G00 X-44.5770 Y-74.9300
G01 Z-3.0000
G01 Z0
G00 Z1.9990
G00 X-47.1170 Y-74.9300
G01 Z-3.0000
G01 Z0
G00 Z1.9990
G00 X-49.6570 Y-74.9300
G01 Z-3.0000
G01 Z0
G00 Z1.9990
G00 X-49.6570 Y-84.5820
G01 Z-3.0000
G01 Z0
G00 Z1.9990
G00 X-47.1170 Y-84.5820
G01 Z-3.0000
G01 Z0
G00 Z1.9990
G00 X-44.5770 Y-84.5820
G01 Z-3.0000
G01 Z0
G00 Z1.9990
G00 X-37.5920 Y-84.5820
G01 Z-3.0000
G01 Z0
G00 Z1.9990
G00 X-35.0520 Y-84.5820
G01 Z-3.0000
G01 Z0
G00 Z1.9990
G00 X-32.5120 Y-84.5820
G01 Z-3.0000
G01 Z0
G00 Z1.9990
G00 X-25.5270 Y-84.5820
G01 Z-3.0000
G01 Z0
G00 Z1.9990
G00 X-22.9870 Y-84.5820
G01 Z-3.0000
G01 Z0
G00 Z1.9990
G00 X-20.4470 Y-84.5820
G01 Z-3.0000
G01 Z0
G00 Z1.9990
G00 X-13.4620 Y-84.5820
G01 Z-3.0000
G01 Z0
G00 Z1.9990
G00 X-10.9220 Y-84.5820
G01 Z-3.0000
G01 Z0
G00 Z1.9990
G00 X-8.3820 Y-84.5820
G01 Z-3.0000
G01 Z0
G00 Z1.9990
G00 X-8.3820 Y-74.9300
G01 Z-3.0000
G01 Z0
G00 Z1.9990
G00 X-10.9220 Y-74.9300
G01 Z-3.0000
G01 Z0
G00 Z1.9990
G00 X-13.4620 Y-74.9300
G01 Z-3.0000
G01 Z0
G00 Z1.9990
G00 X-13.4620 Y-64.5160
G01 Z-3.0000
G01 Z0
G00 Z1.9990
G00 X-10.9220 Y-64.5160
G01 Z-3.0000
G01 Z0
G00 Z1.9990
G00 X-8.3820 Y-64.5160
G01 Z-3.0000
G01 Z0
G00 Z1.9990
G00 X-9.6520 Y-6.3500
G01 Z-3.0000
G01 Z0
G00 Z1.9990
G00 X-12.1920 Y-6.3500
G01 Z-3.0000
G01 Z0
G00 Z1.9990
G00 X-14.7320 Y-6.3500
G01 Z-3.0000
G01 Z0
G00 Z1.9990
G00 X-17.2720 Y-6.3500
G01 Z-3.0000
G01 Z0
G00 Z1.9990
G00 X-21.0820 Y-6.3500
G01 Z-3.0000
G01 Z0
G00 Z1.9990
G00 X-23.6220 Y-6.3500
G01 Z-3.0000
G01 Z0
G00 Z1.9990
G00 X-26.1620 Y-6.3500
G01 Z-3.0000
G01 Z0
G00 Z1.9990
G00 X-28.7020 Y-6.3500
G01 Z-3.0000
G01 Z0
G00 Z1.9990
M05
G00 Z12.70
G00 X0.0 Y0.0

M02