(G-CODE GENERATED BY FLATCAM v8.96 - www.flatcam.org - Version Date: 2019/08/23)

(Name: hole1000)
(Type: G-code from Excellon)
(Units: MM)

(Created on mercredi, 12 février 2020 at 20:23)

(Feedrate: 79.9998 mm/min)
(Feedrate rapids 800.0009 mm/min)

(Z_Cut: -3.0 mm)
(Z_Move: 1.999 mm)
(Z Toolchange: 12.7 mm)
(X,Y Toolchange: 0.0000, 0.0000 mm)
(Z Start: None mm)
(Z End: 12.7 mm)
(Steps per circle: 128)
(Postprocessor Excellon: default)

(X range:   -1.1000 ...   61.3600  mm)
(Y range:   -1.1000 ...   48.6600  mm)

(Spindle Speed: None RPM)

G21
G90
G94

G01 F80.00
G00 Z1.9990

M03
G00 X9.5250 Y22.8600
G01 Z-3.0000
G01 Z0
G00 Z1.9990
G00 X9.5250 Y25.4000
G01 Z-3.0000
G01 Z0
G00 Z1.9990
G00 X9.5250 Y27.9400
G01 Z-3.0000
G01 Z0
G00 Z1.9990
G00 X9.5250 Y32.3850
G01 Z-3.0000
G01 Z0
G00 Z1.9990
G00 X9.5250 Y34.9250
G01 Z-3.0000
G01 Z0
G00 Z1.9990
G00 X9.5250 Y37.4650
G01 Z-3.0000
G01 Z0
G00 Z1.9990
G00 X9.5250 Y42.5450
G01 Z-3.0000
G01 Z0
G00 Z1.9990
G00 X9.5250 Y45.0850
G01 Z-3.0000
G01 Z0
G00 Z1.9990
G00 X9.5250 Y47.6250
G01 Z-3.0000
G01 Z0
G00 Z1.9990
G00 X21.5900 Y41.9100
G01 Z-3.0000
G01 Z0
G00 Z1.9990
G00 X21.5900 Y39.3700
G01 Z-3.0000
G01 Z0
G00 Z1.9990
G00 X21.5900 Y36.8300
G01 Z-3.0000
G01 Z0
G00 Z1.9990
G00 X36.8300 Y36.8300
G01 Z-3.0000
G01 Z0
G00 Z1.9990
G00 X36.8300 Y39.3700
G01 Z-3.0000
G01 Z0
G00 Z1.9990
G00 X36.8300 Y41.9100
G01 Z-3.0000
G01 Z0
G00 Z1.9990
G00 X52.0700 Y43.1800
G01 Z-3.0000
G01 Z0
G00 Z1.9990
G00 X52.0700 Y40.6400
G01 Z-3.0000
G01 Z0
G00 Z1.9990
G00 X52.0700 Y35.5600
G01 Z-3.0000
G01 Z0
G00 Z1.9990
G00 X52.0700 Y33.0200
G01 Z-3.0000
G01 Z0
G00 Z1.9990
G00 X52.0700 Y30.4800
G01 Z-3.0000
G01 Z0
G00 Z1.9990
G00 X52.0700 Y26.0350
G01 Z-3.0000
G01 Z0
G00 Z1.9990
G00 X52.0700 Y23.4950
G01 Z-3.0000
G01 Z0
G00 Z1.9990
G00 X52.0700 Y20.9550
G01 Z-3.0000
G01 Z0
G00 Z1.9990
G00 X52.0700 Y18.4150
G01 Z-3.0000
G01 Z0
G00 Z1.9990
G00 X52.0700 Y14.6050
G01 Z-3.0000
G01 Z0
G00 Z1.9990
G00 X52.0700 Y12.0650
G01 Z-3.0000
G01 Z0
G00 Z1.9990
G00 X52.0700 Y9.5250
G01 Z-3.0000
G01 Z0
G00 Z1.9990
G00 X52.0700 Y6.9850
G01 Z-3.0000
G01 Z0
G00 Z1.9990
G00 X9.5250 Y3.8100
G01 Z-3.0000
G01 Z0
G00 Z1.9990
G00 X9.5250 Y6.3500
G01 Z-3.0000
G01 Z0
G00 Z1.9990
G00 X9.5250 Y8.8900
G01 Z-3.0000
G01 Z0
G00 Z1.9990
G00 X9.5250 Y13.3350
G01 Z-3.0000
G01 Z0
G00 Z1.9990
G00 X9.5250 Y15.8750
G01 Z-3.0000
G01 Z0
G00 Z1.9990
G00 X9.5250 Y18.4150
G01 Z-3.0000
G01 Z0
G00 Z1.9990
M05
G00 Z12.70
G00 X0.0 Y0.0

M02