(G-CODE GENERATED BY FLATCAM v8.96 - www.flatcam.org - Version Date: 2019/08/23)

(Name: hole-800)
(Type: G-code from Excellon)
(Units: MM)

(Created on jeudi, 20 février 2020 at 17:02)

(Feedrate: 79.9998 mm/min)
(Feedrate rapids 800.0009 mm/min)

(Z_Cut: -3.0 mm)
(Z_Move: 1.999 mm)
(Z Toolchange: 12.7 mm)
(X,Y Toolchange: 0.0000, 0.0000 mm)
(Z Start: None mm)
(Z End: 12.7 mm)
(Steps per circle: 128)
(Postprocessor Excellon: default)

(X range:  -51.9620 ...   -2.9020  mm)
(Y range:  -92.8560 ...   -2.7750  mm)

(Spindle Speed: None RPM)

G21
G90
G94

G01 F80.00
G00 Z1.9990

M03
G00 X-44.5770 Y-69.7230
G01 Z-3.0000
G01 Z0
G00 Z1.9990
G00 X-47.1170 Y-69.7230
G01 Z-3.0000
G01 Z0
G00 Z1.9990
G00 X-47.1170 Y-59.3090
G01 Z-3.0000
G01 Z0
G00 Z1.9990
G00 X-44.5770 Y-59.3090
G01 Z-3.0000
G01 Z0
G00 Z1.9990
G00 X-46.9900 Y-49.0220
G01 Z-3.0000
G01 Z0
G00 Z1.9990
G00 X-44.4500 Y-49.0220
G01 Z-3.0000
G01 Z0
G00 Z1.9990
G00 X-35.0520 Y-59.4360
G01 Z-3.0000
G01 Z0
G00 Z1.9990
G00 X-32.5120 Y-59.4360
G01 Z-3.0000
G01 Z0
G00 Z1.9990
G00 X-22.9870 Y-59.4360
G01 Z-3.0000
G01 Z0
G00 Z1.9990
G00 X-20.4470 Y-59.4360
G01 Z-3.0000
G01 Z0
G00 Z1.9990
G00 X-10.9220 Y-59.4360
G01 Z-3.0000
G01 Z0
G00 Z1.9990
G00 X-8.3820 Y-59.4360
G01 Z-3.0000
G01 Z0
G00 Z1.9990
G00 X-10.9220 Y-69.7230
G01 Z-3.0000
G01 Z0
G00 Z1.9990
G00 X-8.3820 Y-69.7230
G01 Z-3.0000
G01 Z0
G00 Z1.9990
G00 X-8.3820 Y-79.8830
G01 Z-3.0000
G01 Z0
G00 Z1.9990
G00 X-10.9220 Y-79.8830
G01 Z-3.0000
G01 Z0
G00 Z1.9990
G00 X-20.4470 Y-79.8830
G01 Z-3.0000
G01 Z0
G00 Z1.9990
G00 X-22.9870 Y-79.8830
G01 Z-3.0000
G01 Z0
G00 Z1.9990
G00 X-20.4470 Y-69.7230
G01 Z-3.0000
G01 Z0
G00 Z1.9990
G00 X-22.9870 Y-69.7230
G01 Z-3.0000
G01 Z0
G00 Z1.9990
G00 X-32.5120 Y-69.7230
G01 Z-3.0000
G01 Z0
G00 Z1.9990
G00 X-35.0520 Y-69.7230
G01 Z-3.0000
G01 Z0
G00 Z1.9990
G00 X-32.5120 Y-79.8830
G01 Z-3.0000
G01 Z0
G00 Z1.9990
G00 X-35.0520 Y-79.8830
G01 Z-3.0000
G01 Z0
G00 Z1.9990
G00 X-44.5770 Y-79.8830
G01 Z-3.0000
G01 Z0
G00 Z1.9990
G00 X-47.1170 Y-79.8830
G01 Z-3.0000
G01 Z0
G00 Z1.9990
M03
G00 X-7.7350 Y-40.1320
G01 Z-3.0000
G01 Z0
G00 Z1.9990
G00 X-7.7470 Y-43.8150
G01 Z-3.0000
G01 Z0
G00 Z1.9990
G00 X-3.3020 Y-47.8750
G01 Z-3.0000
G01 Z0
G00 Z1.9990
G00 X-3.3020 Y-45.3350
G01 Z-3.0000
G01 Z0
G00 Z1.9990
G00 X-3.3020 Y-42.7950
G01 Z-3.0000
G01 Z0
G00 Z1.9990
G00 X-3.3020 Y-40.2550
G01 Z-3.0000
G01 Z0
G00 Z1.9990
G00 X-3.3020 Y-37.7150
G01 Z-3.0000
G01 Z0
G00 Z1.9990
G00 X-3.3020 Y-35.1750
G01 Z-3.0000
G01 Z0
G00 Z1.9990
G00 X-3.3020 Y-32.6350
G01 Z-3.0000
G01 Z0
G00 Z1.9990
G00 X-3.3020 Y-30.0950
G01 Z-3.0000
G01 Z0
G00 Z1.9990
G00 X-3.3020 Y-27.5550
G01 Z-3.0000
G01 Z0
G00 Z1.9990
G00 X-3.3020 Y-25.0150
G01 Z-3.0000
G01 Z0
G00 Z1.9990
G00 X-3.3020 Y-20.9550
G01 Z-3.0000
G01 Z0
G00 Z1.9990
G00 X-3.3020 Y-18.4150
G01 Z-3.0000
G01 Z0
G00 Z1.9990
G00 X-3.3020 Y-15.8750
G01 Z-3.0000
G01 Z0
G00 Z1.9990
G00 X-3.3020 Y-13.3350
G01 Z-3.0000
G01 Z0
G00 Z1.9990
G00 X-3.3020 Y-10.7950
G01 Z-3.0000
G01 Z0
G00 Z1.9990
G00 X-3.3020 Y-8.2550
G01 Z-3.0000
G01 Z0
G00 Z1.9990
G00 X-3.3020 Y-5.7150
G01 Z-3.0000
G01 Z0
G00 Z1.9990
G00 X-3.3020 Y-3.1750
G01 Z-3.0000
G01 Z0
G00 Z1.9990
G00 X-37.3380 Y-13.4620
G01 Z-3.0000
G01 Z0
G00 Z1.9990
G00 X-37.3380 Y-6.3500
G01 Z-3.0000
G01 Z0
G00 Z1.9990
G00 X-51.5620 Y-3.1750
G01 Z-3.0000
G01 Z0
G00 Z1.9990
G00 X-51.5620 Y-5.7150
G01 Z-3.0000
G01 Z0
G00 Z1.9990
G00 X-51.5620 Y-8.2550
G01 Z-3.0000
G01 Z0
G00 Z1.9990
G00 X-51.5620 Y-10.7950
G01 Z-3.0000
G01 Z0
G00 Z1.9990
G00 X-51.5620 Y-13.3350
G01 Z-3.0000
G01 Z0
G00 Z1.9990
G00 X-51.5620 Y-15.8750
G01 Z-3.0000
G01 Z0
G00 Z1.9990
G00 X-51.5620 Y-20.9550
G01 Z-3.0000
G01 Z0
G00 Z1.9990
G00 X-51.5620 Y-23.4950
G01 Z-3.0000
G01 Z0
G00 Z1.9990
G00 X-51.5620 Y-26.0350
G01 Z-3.0000
G01 Z0
G00 Z1.9990
G00 X-51.5620 Y-28.5750
G01 Z-3.0000
G01 Z0
G00 Z1.9990
G00 X-51.5620 Y-31.1150
G01 Z-3.0000
G01 Z0
G00 Z1.9990
G00 X-51.5620 Y-33.6550
G01 Z-3.0000
G01 Z0
G00 Z1.9990
G00 X-51.5620 Y-36.1950
G01 Z-3.0000
G01 Z0
G00 Z1.9990
G00 X-51.5620 Y-38.7350
G01 Z-3.0000
G01 Z0
G00 Z1.9990
G00 X-33.5280 Y-33.1000
G01 Z-3.0000
G01 Z0
G00 Z1.9990
G00 X-33.5280 Y-38.1000
G01 Z-3.0000
G01 Z0
G00 Z1.9990
G00 X-30.6070 Y-40.6400
G01 Z-3.0000
G01 Z0
G00 Z1.9990
G00 X-25.5270 Y-36.8300
G01 Z-3.0000
G01 Z0
G00 Z1.9990
G00 X-12.4460 Y-34.7980
G01 Z-3.0000
G01 Z0
G00 Z1.9990
G00 X-17.9070 Y-36.8300
G01 Z-3.0000
G01 Z0
G00 Z1.9990
G00 X-22.9870 Y-40.6400
G01 Z-3.0000
G01 Z0
G00 Z1.9990
G00 X-25.5270 Y-43.8150
G01 Z-3.0000
G01 Z0
G00 Z1.9990
G00 X-28.0670 Y-43.8150
G01 Z-3.0000
G01 Z0
G00 Z1.9990
G00 X-30.6070 Y-43.8150
G01 Z-3.0000
G01 Z0
G00 Z1.9990
G00 X-33.1470 Y-43.8150
G01 Z-3.0000
G01 Z0
G00 Z1.9990
G00 X-35.6870 Y-43.8150
G01 Z-3.0000
G01 Z0
G00 Z1.9990
G00 X-38.2270 Y-43.8150
G01 Z-3.0000
G01 Z0
G00 Z1.9990
G00 X-40.7670 Y-43.8150
G01 Z-3.0000
G01 Z0
G00 Z1.9990
G00 X-40.7670 Y-51.4350
G01 Z-3.0000
G01 Z0
G00 Z1.9990
G00 X-38.2270 Y-51.4350
G01 Z-3.0000
G01 Z0
G00 Z1.9990
G00 X-35.6870 Y-51.4350
G01 Z-3.0000
G01 Z0
G00 Z1.9990
G00 X-33.1470 Y-51.4350
G01 Z-3.0000
G01 Z0
G00 Z1.9990
G00 X-30.6070 Y-51.4350
G01 Z-3.0000
G01 Z0
G00 Z1.9990
G00 X-28.0670 Y-51.4350
G01 Z-3.0000
G01 Z0
G00 Z1.9990
G00 X-25.5270 Y-51.4350
G01 Z-3.0000
G01 Z0
G00 Z1.9990
G00 X-47.1170 Y-87.7570
G01 Z-3.0000
G01 Z0
G00 Z1.9990
G00 X-47.1170 Y-92.2020
G01 Z-3.0000
G01 Z0
G00 Z1.9990
G00 X-35.0520 Y-92.2020
G01 Z-3.0000
G01 Z0
G00 Z1.9990
G00 X-35.0520 Y-87.7570
G01 Z-3.0000
G01 Z0
G00 Z1.9990
G00 X-22.9870 Y-92.2020
G01 Z-3.0000
G01 Z0
G00 Z1.9990
G00 X-22.9870 Y-87.7570
G01 Z-3.0000
G01 Z0
G00 Z1.9990
G00 X-10.9220 Y-87.7570
G01 Z-3.0000
G01 Z0
G00 Z1.9990
G00 X-10.9220 Y-92.2020
G01 Z-3.0000
G01 Z0
G00 Z1.9990
G00 X-5.0800 Y-92.4560
G01 Z-3.0000
G01 Z0
G00 Z1.9990
G00 X-5.0800 Y-87.4560
G01 Z-3.0000
G01 Z0
G00 Z1.9990
G00 X-7.7470 Y-51.4350
G01 Z-3.0000
G01 Z0
G00 Z1.9990
G00 X-10.2870 Y-51.4350
G01 Z-3.0000
G01 Z0
G00 Z1.9990
G00 X-12.8270 Y-51.4350
G01 Z-3.0000
G01 Z0
G00 Z1.9990
G00 X-15.3670 Y-51.4350
G01 Z-3.0000
G01 Z0
G00 Z1.9990
G00 X-17.9070 Y-51.4350
G01 Z-3.0000
G01 Z0
G00 Z1.9990
G00 X-20.4470 Y-51.4350
G01 Z-3.0000
G01 Z0
G00 Z1.9990
G00 X-22.9870 Y-51.4350
G01 Z-3.0000
G01 Z0
G00 Z1.9990
G00 X-22.9870 Y-43.8150
G01 Z-3.0000
G01 Z0
G00 Z1.9990
G00 X-20.4470 Y-43.8150
G01 Z-3.0000
G01 Z0
G00 Z1.9990
G00 X-17.9070 Y-43.8150
G01 Z-3.0000
G01 Z0
G00 Z1.9990
G00 X-15.3670 Y-43.8150
G01 Z-3.0000
G01 Z0
G00 Z1.9990
G00 X-12.8270 Y-43.8150
G01 Z-3.0000
G01 Z0
G00 Z1.9990
G00 X-10.2870 Y-43.8150
G01 Z-3.0000
G01 Z0
G00 Z1.9990
M05
G00 Z12.70
G00 X0.0 Y0.0

M02