(G-CODE GENERATED BY FLATCAM v8.96 - www.flatcam.org - Version Date: 2019/08/23)

(Name: hole800)
(Type: G-code from Excellon)
(Units: MM)

(Created on mercredi, 12 février 2020 at 20:23)

(Feedrate: 79.9998 mm/min)
(Feedrate rapids 800.0009 mm/min)

(Z_Cut: -3.0 mm)
(Z_Move: 1.999 mm)
(Z Toolchange: 12.7 mm)
(X,Y Toolchange: 0.0000, 0.0000 mm)
(Z Start: None mm)
(Z End: 12.7 mm)
(Steps per circle: 128)
(Postprocessor Excellon: default)

(X range:   -1.1000 ...   61.3600  mm)
(Y range:   -1.1000 ...   48.6600  mm)

(Spindle Speed: None RPM)

G21
G90
G94

G01 F80.00
G00 Z1.9990

M03
G00 X41.9100 Y3.8100
G01 Z-3.0000
G01 Z0
G00 Z1.9990
G00 X52.0700 Y3.8100
G01 Z-3.0000
G01 Z0
G00 Z1.9990
G00 X60.9600 Y0.0000
G01 Z-3.0000
G01 Z0
G00 Z1.9990
G00 X58.4200 Y0.0000
G01 Z-3.0000
G01 Z0
G00 Z1.9990
G00 X55.8800 Y0.0000
G01 Z-3.0000
G01 Z0
G00 Z1.9990
G00 X53.3400 Y0.0000
G01 Z-3.0000
G01 Z0
G00 Z1.9990
G00 X50.8000 Y0.0000
G01 Z-3.0000
G01 Z0
G00 Z1.9990
G00 X48.2600 Y0.0000
G01 Z-3.0000
G01 Z0
G00 Z1.9990
G00 X45.7200 Y0.0000
G01 Z-3.0000
G01 Z0
G00 Z1.9990
G00 X43.1800 Y0.0000
G01 Z-3.0000
G01 Z0
G00 Z1.9990
G00 X39.1200 Y0.0000
G01 Z-3.0000
G01 Z0
G00 Z1.9990
G00 X36.5800 Y0.0000
G01 Z-3.0000
G01 Z0
G00 Z1.9990
G00 X36.8300 Y3.1750
G01 Z-3.0000
G01 Z0
G00 Z1.9990
G00 X31.8300 Y3.1750
G01 Z-3.0000
G01 Z0
G00 Z1.9990
G00 X34.0400 Y0.0000
G01 Z-3.0000
G01 Z0
G00 Z1.9990
G00 X31.5000 Y0.0000
G01 Z-3.0000
G01 Z0
G00 Z1.9990
G00 X28.9600 Y0.0000
G01 Z-3.0000
G01 Z0
G00 Z1.9990
G00 X26.4200 Y0.0000
G01 Z-3.0000
G01 Z0
G00 Z1.9990
G00 X23.8800 Y0.0000
G01 Z-3.0000
G01 Z0
G00 Z1.9990
G00 X21.3400 Y0.0000
G01 Z-3.0000
G01 Z0
G00 Z1.9990
G00 X18.8000 Y0.0000
G01 Z-3.0000
G01 Z0
G00 Z1.9990
G00 X16.2600 Y0.0000
G01 Z-3.0000
G01 Z0
G00 Z1.9990
G00 X29.2100 Y8.8900
G01 Z-3.0000
G01 Z0
G00 Z1.9990
G00 X29.2100 Y11.4300
G01 Z-3.0000
G01 Z0
G00 Z1.9990
G00 X29.2100 Y13.9700
G01 Z-3.0000
G01 Z0
G00 Z1.9990
G00 X29.2100 Y16.5100
G01 Z-3.0000
G01 Z0
G00 Z1.9990
G00 X29.2100 Y19.0500
G01 Z-3.0000
G01 Z0
G00 Z1.9990
G00 X29.2100 Y21.5900
G01 Z-3.0000
G01 Z0
G00 Z1.9990
G00 X29.2100 Y24.1300
G01 Z-3.0000
G01 Z0
G00 Z1.9990
G00 X29.2100 Y26.6700
G01 Z-3.0000
G01 Z0
G00 Z1.9990
G00 X13.3350 Y45.7200
G01 Z-3.0000
G01 Z0
G00 Z1.9990
G00 X18.4150 Y45.7200
G01 Z-3.0000
G01 Z0
G00 Z1.9990
G00 X25.4000 Y48.2600
G01 Z-3.0000
G01 Z0
G00 Z1.9990
G00 X27.9400 Y48.2600
G01 Z-3.0000
G01 Z0
G00 Z1.9990
G00 X30.4800 Y48.2600
G01 Z-3.0000
G01 Z0
G00 Z1.9990
G00 X33.0200 Y48.2600
G01 Z-3.0000
G01 Z0
G00 Z1.9990
G00 X35.5600 Y48.2600
G01 Z-3.0000
G01 Z0
G00 Z1.9990
G00 X38.1000 Y48.2600
G01 Z-3.0000
G01 Z0
G00 Z1.9990
G00 X40.6400 Y48.2600
G01 Z-3.0000
G01 Z0
G00 Z1.9990
G00 X43.1800 Y48.2600
G01 Z-3.0000
G01 Z0
G00 Z1.9990
G00 X48.2600 Y48.2600
G01 Z-3.0000
G01 Z0
G00 Z1.9990
G00 X50.8000 Y48.2600
G01 Z-3.0000
G01 Z0
G00 Z1.9990
G00 X53.3400 Y48.2600
G01 Z-3.0000
G01 Z0
G00 Z1.9990
G00 X55.8800 Y48.2600
G01 Z-3.0000
G01 Z0
G00 Z1.9990
G00 X58.4200 Y48.2600
G01 Z-3.0000
G01 Z0
G00 Z1.9990
G00 X60.9600 Y48.2600
G01 Z-3.0000
G01 Z0
G00 Z1.9990
G00 X36.8300 Y26.6700
G01 Z-3.0000
G01 Z0
G00 Z1.9990
G00 X36.8300 Y24.1300
G01 Z-3.0000
G01 Z0
G00 Z1.9990
G00 X36.8300 Y21.5900
G01 Z-3.0000
G01 Z0
G00 Z1.9990
G00 X36.8300 Y19.0500
G01 Z-3.0000
G01 Z0
G00 Z1.9990
G00 X36.8300 Y16.5100
G01 Z-3.0000
G01 Z0
G00 Z1.9990
G00 X36.8300 Y13.9700
G01 Z-3.0000
G01 Z0
G00 Z1.9990
G00 X36.8300 Y11.4300
G01 Z-3.0000
G01 Z0
G00 Z1.9990
G00 X36.8300 Y8.8900
G01 Z-3.0000
G01 Z0
G00 Z1.9990
M05
G00 Z12.70
G00 X0.0 Y0.0

M02