(G-CODE GENERATED BY FLATCAM v8.96 - www.flatcam.org - Version Date: 2019/08/23)

(Name: servo-B.Cu)
(Type: G-code from Geometry)
(Units: MM)

(Created on jeudi, 20 février 2020 at 15:29)

(TOOL DIAMETER: 0.35 mm)
(Feedrate: 79.9998 mm/min)
(Feedrate_Z: 79.9998 mm/min)
(Feedrate rapids 79.9998 mm/min)

(Z_Cut: -0.4665 mm)
(Z_Move: 1.999 mm)
(Z Toolchange: 12.7 mm)
(X,Y Toolchange: 0.0000, 0.0000 mm)
(Z Start: None mm)
(Z End: 12.7 mm)
(Steps per circle: 128)
(Postprocessor Geometry: default)

(X range:    0.0000 ...    0.0000  mm)
(Y range:    0.0000 ...    0.0000  mm)

(Spindle Speed: None RPM)

G21
G90
G94

G01 F80.00
G00 Z1.9990

M03
G00 X-4.2760 Y-3.2185
G01 F80.00
G01 Z-0.4665
G01 F80.00
G01 X-4.2727 Y-3.2663
G01 X-4.2670 Y-3.3138
G01 X-4.2591 Y-3.3610
G01 X-4.2488 Y-3.4077
G01 X-4.2362 Y-3.4539
G01 X-4.2213 Y-3.4999
G01 X-4.2043 Y-3.5443
G01 X-4.1852 Y-3.5880
G01 X-4.1639 Y-3.6308
G01 X-4.1382 Y-3.6763
G01 X-4.1128 Y-3.7165
G01 X-4.0876 Y-3.7523
G01 X-4.0584 Y-3.7902
G01 X-4.0273 Y-3.8266
G01 X-3.9914 Y-3.8644
G01 X-3.9584 Y-3.8960
G01 X-3.9238 Y-3.9259
G01 X-3.8862 Y-3.9555
G01 X-3.8435 Y-3.9858
G01 X-3.8033 Y-4.0112
G01 X-3.7654 Y-4.0328
G01 X-3.7223 Y-4.0547
G01 X-3.6791 Y-4.0741
G01 X-3.6345 Y-4.0915
G01 X-3.5891 Y-4.1067
G01 X-3.5431 Y-4.1197
G01 X-3.4963 Y-4.1304
G01 X-3.4482 Y-4.1390
G01 X-3.4013 Y-4.1449
G01 X-3.3541 Y-4.1486
G01 X-3.3020 Y-4.1500
G01 X-3.2563 Y-4.1489
G01 X-3.2022 Y-4.1448
G01 X-3.1558 Y-4.1390
G01 X-3.1160 Y-4.1321
G01 X-3.0693 Y-4.1218
G01 X-3.0231 Y-4.1092
G01 X-2.9771 Y-4.0943
G01 X-2.9327 Y-4.0773
G01 X-2.8890 Y-4.0582
G01 X-2.8462 Y-4.0369
G01 X-2.8007 Y-4.0112
G01 X-2.7605 Y-3.9858
G01 X-2.7247 Y-3.9606
G01 X-2.6868 Y-3.9314
G01 X-2.6504 Y-3.9003
G01 X-2.6126 Y-3.8644
G01 X-2.5810 Y-3.8314
G01 X-2.5511 Y-3.7968
G01 X-2.5215 Y-3.7592
G01 X-2.4912 Y-3.7165
G01 X-2.4658 Y-3.6763
G01 X-2.4442 Y-3.6384
G01 X-2.4223 Y-3.5953
G01 X-2.4029 Y-3.5521
G01 X-2.3855 Y-3.5075
G01 X-2.3703 Y-3.4621
G01 X-2.3573 Y-3.4161
G01 X-2.3466 Y-3.3693
G01 X-2.3380 Y-3.3212
G01 X-2.3321 Y-3.2743
G01 X-2.3284 Y-3.2271
G01 X-2.3270 Y-3.1750
G01 X-2.3281 Y-3.1293
G01 X-2.3322 Y-3.0752
G01 X-2.3380 Y-3.0288
G01 X-2.3449 Y-2.9890
G01 X-2.3552 Y-2.9423
G01 X-2.3678 Y-2.8961
G01 X-2.3827 Y-2.8501
G01 X-2.3997 Y-2.8057
G01 X-2.4188 Y-2.7620
G01 X-2.4401 Y-2.7192
G01 X-2.4658 Y-2.6737
G01 X-2.4912 Y-2.6335
G01 X-2.5164 Y-2.5977
G01 X-2.5456 Y-2.5598
G01 X-2.5767 Y-2.5234
G01 X-2.6126 Y-2.4856
G01 X-2.6456 Y-2.4540
G01 X-2.6802 Y-2.4241
G01 X-2.7178 Y-2.3945
G01 X-2.7605 Y-2.3642
G01 X-2.8007 Y-2.3388
G01 X-2.8386 Y-2.3172
G01 X-2.8817 Y-2.2953
G01 X-2.9249 Y-2.2759
G01 X-2.9695 Y-2.2585
G01 X-3.0149 Y-2.2433
G01 X-3.0609 Y-2.2303
G01 X-3.1077 Y-2.2196
G01 X-3.1558 Y-2.2110
G01 X-3.2027 Y-2.2051
G01 X-3.2499 Y-2.2014
G01 X-3.3020 Y-2.2000
G01 X-3.3477 Y-2.2011
G01 X-3.4018 Y-2.2052
G01 X-3.4482 Y-2.2110
G01 X-3.4880 Y-2.2179
G01 X-3.5347 Y-2.2282
G01 X-3.5809 Y-2.2408
G01 X-3.6269 Y-2.2557
G01 X-3.6713 Y-2.2727
G01 X-3.7150 Y-2.2918
G01 X-3.7578 Y-2.3131
G01 X-3.8033 Y-2.3388
G01 X-3.8435 Y-2.3642
G01 X-3.8793 Y-2.3894
G01 X-3.9172 Y-2.4186
G01 X-3.9536 Y-2.4497
G01 X-3.9914 Y-2.4856
G01 X-4.0230 Y-2.5186
G01 X-4.0529 Y-2.5532
G01 X-4.0825 Y-2.5908
G01 X-4.1128 Y-2.6335
G01 X-4.1382 Y-2.6737
G01 X-4.1598 Y-2.7116
G01 X-4.1817 Y-2.7547
G01 X-4.2011 Y-2.7979
G01 X-4.2185 Y-2.8425
G01 X-4.2337 Y-2.8879
G01 X-4.2467 Y-2.9339
G01 X-4.2574 Y-2.9807
G01 X-4.2660 Y-3.0288
G01 X-4.2719 Y-3.0757
G01 X-4.2756 Y-3.1229
G01 X-4.2770 Y-3.1750
G01 X-4.2760 Y-3.2185
G00 Z1.9990
G00 X-3.1227 Y-4.5433
G01 F80.00
G01 Z-0.4665
G01 F80.00
G01 X-3.1952 Y-4.5345
G01 X-3.2481 Y-4.5308
G01 X-3.2994 Y-4.5296
G01 X-3.3593 Y-4.5310
G01 X-3.4088 Y-4.5345
G01 X-3.4813 Y-4.5433
G01 X-3.4766 Y-4.5152
G01 X-3.4738 Y-4.4906
G01 X-3.4722 Y-4.4659
G01 X-3.4718 Y-4.4424
G01 X-3.4726 Y-4.4156
G01 X-3.4747 Y-4.3905
G01 X-3.4813 Y-4.3467
G01 X-3.4088 Y-4.3555
G01 X-3.3559 Y-4.3592
G01 X-3.3046 Y-4.3604
G01 X-3.2447 Y-4.3590
G01 X-3.1952 Y-4.3555
G01 X-3.1227 Y-4.3467
G01 X-3.1274 Y-4.3748
G01 X-3.1302 Y-4.3994
G01 X-3.1318 Y-4.4241
G01 X-3.1322 Y-4.4476
G01 X-3.1314 Y-4.4744
G01 X-3.1293 Y-4.4995
G01 X-3.1227 Y-4.5433
G00 Z1.9990
G00 X-4.2760 Y-5.7585
G01 F80.00
G01 Z-0.4665
G01 F80.00
G01 X-4.2727 Y-5.8063
G01 X-4.2670 Y-5.8538
G01 X-4.2591 Y-5.9010
G01 X-4.2488 Y-5.9477
G01 X-4.2362 Y-5.9939
G01 X-4.2213 Y-6.0399
G01 X-4.2043 Y-6.0843
G01 X-4.1852 Y-6.1280
G01 X-4.1639 Y-6.1708
G01 X-4.1382 Y-6.2163
G01 X-4.1128 Y-6.2565
G01 X-4.0876 Y-6.2923
G01 X-4.0584 Y-6.3302
G01 X-4.0273 Y-6.3666
G01 X-3.9914 Y-6.4044
G01 X-3.9584 Y-6.4360
G01 X-3.9238 Y-6.4659
G01 X-3.8862 Y-6.4955
G01 X-3.8435 Y-6.5258
G01 X-3.8033 Y-6.5512
G01 X-3.7654 Y-6.5728
G01 X-3.7223 Y-6.5947
G01 X-3.6791 Y-6.6141
G01 X-3.6345 Y-6.6315
G01 X-3.5891 Y-6.6467
G01 X-3.5431 Y-6.6597
G01 X-3.4963 Y-6.6704
G01 X-3.4482 Y-6.6790
G01 X-3.4013 Y-6.6849
G01 X-3.3541 Y-6.6886
G01 X-3.3020 Y-6.6900
G01 X-3.2563 Y-6.6889
G01 X-3.2022 Y-6.6848
G01 X-3.1558 Y-6.6790
G01 X-3.1160 Y-6.6721
G01 X-3.0693 Y-6.6618
G01 X-3.0231 Y-6.6492
G01 X-2.9771 Y-6.6343
G01 X-2.9327 Y-6.6173
G01 X-2.8890 Y-6.5982
G01 X-2.8462 Y-6.5769
G01 X-2.8007 Y-6.5512
G01 X-2.7605 Y-6.5258
G01 X-2.7247 Y-6.5006
G01 X-2.6868 Y-6.4714
G01 X-2.6504 Y-6.4403
G01 X-2.6126 Y-6.4044
G01 X-2.5810 Y-6.3714
G01 X-2.5511 Y-6.3368
G01 X-2.5215 Y-6.2992
G01 X-2.4912 Y-6.2565
G01 X-2.4658 Y-6.2163
G01 X-2.4442 Y-6.1784
G01 X-2.4223 Y-6.1353
G01 X-2.4029 Y-6.0921
G01 X-2.3855 Y-6.0475
G01 X-2.3703 Y-6.0021
G01 X-2.3573 Y-5.9561
G01 X-2.3466 Y-5.9093
G01 X-2.3380 Y-5.8612
G01 X-2.3321 Y-5.8143
G01 X-2.3284 Y-5.7671
G01 X-2.3270 Y-5.7150
G01 X-2.3281 Y-5.6693
G01 X-2.3322 Y-5.6152
G01 X-2.3380 Y-5.5688
G01 X-2.3449 Y-5.5290
G01 X-2.3552 Y-5.4823
G01 X-2.3678 Y-5.4361
G01 X-2.3827 Y-5.3901
G01 X-2.3997 Y-5.3457
G01 X-2.4188 Y-5.3020
G01 X-2.4401 Y-5.2592
G01 X-2.4658 Y-5.2137
G01 X-2.4912 Y-5.1735
G01 X-2.5164 Y-5.1377
G01 X-2.5456 Y-5.0998
G01 X-2.5767 Y-5.0634
G01 X-2.6126 Y-5.0256
G01 X-2.6456 Y-4.9940
G01 X-2.6802 Y-4.9641
G01 X-2.7178 Y-4.9345
G01 X-2.7605 Y-4.9042
G01 X-2.8007 Y-4.8788
G01 X-2.8386 Y-4.8572
G01 X-2.8817 Y-4.8353
G01 X-2.9249 Y-4.8159
G01 X-2.9695 Y-4.7985
G01 X-3.0149 Y-4.7833
G01 X-3.0609 Y-4.7703
G01 X-3.1077 Y-4.7596
G01 X-3.1558 Y-4.7510
G01 X-3.2027 Y-4.7451
G01 X-3.2499 Y-4.7414
G01 X-3.3020 Y-4.7400
G01 X-3.3477 Y-4.7411
G01 X-3.4018 Y-4.7452
G01 X-3.4482 Y-4.7510
G01 X-3.4880 Y-4.7579
G01 X-3.5347 Y-4.7682
G01 X-3.5809 Y-4.7808
G01 X-3.6269 Y-4.7957
G01 X-3.6713 Y-4.8127
G01 X-3.7150 Y-4.8318
G01 X-3.7578 Y-4.8531
G01 X-3.8033 Y-4.8788
G01 X-3.8435 Y-4.9042
G01 X-3.8793 Y-4.9294
G01 X-3.9172 Y-4.9586
G01 X-3.9536 Y-4.9897
G01 X-3.9914 Y-5.0256
G01 X-4.0230 Y-5.0586
G01 X-4.0529 Y-5.0932
G01 X-4.0825 Y-5.1308
G01 X-4.1128 Y-5.1735
G01 X-4.1382 Y-5.2137
G01 X-4.1598 Y-5.2516
G01 X-4.1817 Y-5.2947
G01 X-4.2011 Y-5.3379
G01 X-4.2185 Y-5.3825
G01 X-4.2337 Y-5.4279
G01 X-4.2467 Y-5.4739
G01 X-4.2574 Y-5.5207
G01 X-4.2660 Y-5.5688
G01 X-4.2719 Y-5.6157
G01 X-4.2756 Y-5.6629
G01 X-4.2770 Y-5.7150
G01 X-4.2760 Y-5.7585
G00 Z1.9990
G00 X-4.7023 Y-5.3481
G01 F80.00
G01 Z-0.4665
G01 F80.00
G01 X-4.6678 Y-5.3636
G01 X-4.6400 Y-5.3739
G01 X-4.6093 Y-5.3832
G01 X-4.5797 Y-5.3903
G01 X-4.5459 Y-5.3961
G01 X-4.5102 Y-5.3998
G01 X-4.4782 Y-5.4010
G01 X-4.4446 Y-5.4000
G01 X-4.4529 Y-5.4311
G01 X-4.4638 Y-5.4797
G01 X-4.4753 Y-5.5460
G01 X-4.4813 Y-5.5955
G01 X-4.4854 Y-5.6474
G01 X-4.4874 Y-5.7124
G01 X-4.4854 Y-5.7826
G01 X-4.4812 Y-5.8355
G01 X-4.4759 Y-5.8796
G01 X-4.4638 Y-5.9505
G01 X-4.4495 Y-6.0122
G01 X-4.4351 Y-6.0632
G01 X-4.4210 Y-6.1061
G01 X-4.3954 Y-6.1727
G01 X-4.3696 Y-6.2301
G01 X-4.3454 Y-6.2776
G01 X-4.3222 Y-6.3185
G01 X-4.2838 Y-6.3792
G01 X-4.2567 Y-6.4177
G01 X-4.2243 Y-6.4596
G01 X-4.1832 Y-6.5079
G01 X-4.1353 Y-6.5580
G01 X-4.0910 Y-6.5996
G01 X-4.0507 Y-6.6340
G01 X-4.0157 Y-6.6614
G01 X-3.9625 Y-6.6994
G01 X-3.9137 Y-6.7304
G01 X-3.8570 Y-6.7624
G01 X-3.8002 Y-6.7905
G01 X-3.7469 Y-6.8137
G01 X-3.6980 Y-6.8323
G01 X-3.6551 Y-6.8465
G01 X-3.5942 Y-6.8638
G01 X-3.5373 Y-6.8768
G01 X-3.4783 Y-6.8872
G01 X-3.4088 Y-6.8955
G01 X-3.3559 Y-6.8992
G01 X-3.3115 Y-6.9003
G01 X-3.2499 Y-6.8992
G01 X-3.1901 Y-6.8951
G01 X-3.1227 Y-6.8867
G01 X-3.1274 Y-6.9148
G01 X-3.1302 Y-6.9394
G01 X-3.1318 Y-6.9641
G01 X-3.1322 Y-6.9876
G01 X-3.1314 Y-7.0144
G01 X-3.1293 Y-7.0395
G01 X-3.1227 Y-7.0833
G01 X-3.1825 Y-7.0757
G01 X-3.2395 Y-7.0713
G01 X-3.2994 Y-7.0696
G01 X-3.3593 Y-7.0710
G01 X-3.4225 Y-7.0758
G01 X-3.4783 Y-7.0828
G01 X-3.5290 Y-7.0916
G01 X-3.5859 Y-7.1041
G01 X-3.6420 Y-7.1194
G01 X-3.6980 Y-7.1377
G01 X-3.7520 Y-7.1584
G01 X-3.8120 Y-7.1849
G01 X-3.8646 Y-7.2116
G01 X-3.9137 Y-7.2396
G01 X-3.9625 Y-7.2706
G01 X-4.0116 Y-7.3055
G01 X-4.0507 Y-7.3360
G01 X-4.0910 Y-7.3704
G01 X-4.1420 Y-7.4186
G01 X-4.1798 Y-7.4583
G01 X-4.2123 Y-7.4957
G01 X-4.2567 Y-7.5523
G01 X-4.2864 Y-7.5945
G01 X-4.3138 Y-7.6375
G01 X-4.3494 Y-7.7000
G01 X-4.3721 Y-7.7450
G01 X-4.3935 Y-7.7927
G01 X-4.4210 Y-7.8639
G01 X-4.4390 Y-7.9200
G01 X-4.4529 Y-7.9711
G01 X-4.4627 Y-8.0146
G01 X-4.4742 Y-8.0787
G01 X-4.4821 Y-8.1434
G01 X-4.4863 Y-8.2063
G01 X-4.4874 Y-8.2576
G01 X-4.4863 Y-8.3037
G01 X-4.4821 Y-8.3669
G01 X-4.4742 Y-8.4313
G01 X-4.4638 Y-8.4905
G01 X-4.4495 Y-8.5522
G01 X-4.4351 Y-8.6032
G01 X-4.4210 Y-8.6461
G01 X-4.3986 Y-8.7050
G01 X-4.3721 Y-8.7650
G01 X-4.3429 Y-8.8221
G01 X-4.3200 Y-8.8623
G01 X-4.2928 Y-8.9057
G01 X-4.2567 Y-8.9577
G01 X-4.2123 Y-9.0143
G01 X-4.1774 Y-9.0542
G01 X-4.1420 Y-9.0914
G01 X-4.0910 Y-9.1396
G01 X-4.0507 Y-9.1740
G01 X-4.0157 Y-9.2014
G01 X-3.9625 Y-9.2394
G01 X-3.9033 Y-9.2765
G01 X-3.8570 Y-9.3024
G01 X-3.8167 Y-9.3228
G01 X-3.7517 Y-9.3518
G01 X-3.7056 Y-9.3695
G01 X-3.6551 Y-9.3865
G01 X-3.5942 Y-9.4038
G01 X-3.5240 Y-9.4194
G01 X-3.4783 Y-9.4272
G01 X-3.4267 Y-9.4338
G01 X-3.3559 Y-9.4392
G01 X-3.2925 Y-9.4403
G01 X-3.2447 Y-9.4390
G01 X-3.1952 Y-9.4355
G01 X-3.1227 Y-9.4267
G01 X-3.1274 Y-9.4548
G01 X-3.1302 Y-9.4794
G01 X-3.1318 Y-9.5041
G01 X-3.1322 Y-9.5276
G01 X-3.1314 Y-9.5544
G01 X-3.1293 Y-9.5795
G01 X-3.1227 Y-9.6233
G01 X-3.1825 Y-9.6157
G01 X-3.2481 Y-9.6108
G01 X-3.3046 Y-9.6096
G01 X-3.3696 Y-9.6116
G01 X-3.4225 Y-9.6158
G01 X-3.4666 Y-9.6211
G01 X-3.5240 Y-9.6306
G01 X-3.5859 Y-9.6441
G01 X-3.6502 Y-9.6619
G01 X-3.7056 Y-9.6805
G01 X-3.7643 Y-9.7035
G01 X-3.8120 Y-9.7249
G01 X-3.8524 Y-9.7452
G01 X-3.9033 Y-9.7735
G01 X-3.9582 Y-9.8078
G01 X-4.0116 Y-9.8455
G01 X-4.0573 Y-9.8814
G01 X-4.1050 Y-9.9231
G01 X-4.1420 Y-9.9586
G01 X-4.1739 Y-9.9920
G01 X-4.2123 Y-10.0357
G01 X-4.2515 Y-10.0854
G01 X-4.2864 Y-10.1345
G01 X-4.3200 Y-10.1877
G01 X-4.3518 Y-10.2446
G01 X-4.3721 Y-10.2850
G01 X-4.3935 Y-10.3327
G01 X-4.4148 Y-10.3868
G01 X-4.4351 Y-10.4468
G01 X-4.4529 Y-10.5111
G01 X-4.4654 Y-10.5680
G01 X-4.4759 Y-10.6304
G01 X-4.4813 Y-10.6755
G01 X-4.4854 Y-10.7274
G01 X-4.4873 Y-10.7855
G01 X-4.4862 Y-10.8471
G01 X-4.4825 Y-10.9020
G01 X-4.7023 Y-10.6821
G01 X-4.7023 Y-5.3481
G01 X-4.4919 Y-6.4445
G01 X-4.4614 Y-6.4923
G01 X-4.4302 Y-6.5368
G01 X-4.4143 Y-6.5581
G01 X-4.3766 Y-6.6058
G01 X-4.3391 Y-6.6492
G01 X-4.2983 Y-6.6925
G01 X-4.2785 Y-6.7122
G01 X-4.2328 Y-6.7551
G01 X-4.1908 Y-6.7912
G01 X-4.1451 Y-6.8273
G01 X-4.1216 Y-6.8447
G01 X-4.0728 Y-6.8787
G01 X-4.0220 Y-6.9108
G01 X-3.9706 Y-6.9402
G01 X-3.9110 Y-6.9709
G01 X-3.8808 Y-6.9850
G01 X-3.9110 Y-6.9991
G01 X-3.9706 Y-7.0298
G01 X-4.0220 Y-7.0592
G01 X-4.0728 Y-7.0913
G01 X-4.1216 Y-7.1253
G01 X-4.1451 Y-7.1427
G01 X-4.1908 Y-7.1788
G01 X-4.2342 Y-7.2162
G01 X-4.2785 Y-7.2578
G01 X-4.2983 Y-7.2775
G01 X-4.3365 Y-7.3179
G01 X-4.3766 Y-7.3642
G01 X-4.4143 Y-7.4119
G01 X-4.4302 Y-7.4332
G01 X-4.4614 Y-7.4777
G01 X-4.4919 Y-7.5255
G01 X-4.4919 Y-6.4445
G00 Z1.9990
G00 X-4.2760 Y-8.2985
G01 F80.00
G01 Z-0.4665
G01 F80.00
G01 X-4.2727 Y-8.3463
G01 X-4.2670 Y-8.3938
G01 X-4.2591 Y-8.4410
G01 X-4.2488 Y-8.4877
G01 X-4.2362 Y-8.5339
G01 X-4.2213 Y-8.5799
G01 X-4.2043 Y-8.6243
G01 X-4.1852 Y-8.6680
G01 X-4.1639 Y-8.7108
G01 X-4.1382 Y-8.7563
G01 X-4.1128 Y-8.7965
G01 X-4.0876 Y-8.8323
G01 X-4.0584 Y-8.8702
G01 X-4.0273 Y-8.9066
G01 X-3.9914 Y-8.9444
G01 X-3.9584 Y-8.9760
G01 X-3.9238 Y-9.0059
G01 X-3.8862 Y-9.0355
G01 X-3.8435 Y-9.0658
G01 X-3.8033 Y-9.0912
G01 X-3.7654 Y-9.1128
G01 X-3.7223 Y-9.1347
G01 X-3.6791 Y-9.1541
G01 X-3.6345 Y-9.1715
G01 X-3.5891 Y-9.1867
G01 X-3.5431 Y-9.1997
G01 X-3.4963 Y-9.2104
G01 X-3.4482 Y-9.2190
G01 X-3.4013 Y-9.2249
G01 X-3.3541 Y-9.2286
G01 X-3.3020 Y-9.2300
G01 X-3.2563 Y-9.2289
G01 X-3.2022 Y-9.2248
G01 X-3.1558 Y-9.2190
G01 X-3.1160 Y-9.2121
G01 X-3.0693 Y-9.2018
G01 X-3.0231 Y-9.1892
G01 X-2.9771 Y-9.1743
G01 X-2.9327 Y-9.1573
G01 X-2.8890 Y-9.1382
G01 X-2.8462 Y-9.1169
G01 X-2.8007 Y-9.0912
G01 X-2.7605 Y-9.0658
G01 X-2.7247 Y-9.0406
G01 X-2.6868 Y-9.0114
G01 X-2.6504 Y-8.9803
G01 X-2.6126 Y-8.9444
G01 X-2.5810 Y-8.9114
G01 X-2.5511 Y-8.8768
G01 X-2.5215 Y-8.8392
G01 X-2.4912 Y-8.7965
G01 X-2.4658 Y-8.7563
G01 X-2.4442 Y-8.7184
G01 X-2.4223 Y-8.6753
G01 X-2.4029 Y-8.6321
G01 X-2.3855 Y-8.5875
G01 X-2.3703 Y-8.5421
G01 X-2.3573 Y-8.4961
G01 X-2.3466 Y-8.4493
G01 X-2.3380 Y-8.4012
G01 X-2.3321 Y-8.3543
G01 X-2.3284 Y-8.3071
G01 X-2.3270 Y-8.2550
G01 X-2.3281 Y-8.2093
G01 X-2.3322 Y-8.1552
G01 X-2.3380 Y-8.1088
G01 X-2.3449 Y-8.0690
G01 X-2.3552 Y-8.0223
G01 X-2.3678 Y-7.9761
G01 X-2.3827 Y-7.9301
G01 X-2.3997 Y-7.8857
G01 X-2.4188 Y-7.8420
G01 X-2.4401 Y-7.7992
G01 X-2.4658 Y-7.7537
G01 X-2.4912 Y-7.7135
G01 X-2.5164 Y-7.6777
G01 X-2.5456 Y-7.6398
G01 X-2.5767 Y-7.6034
G01 X-2.6126 Y-7.5656
G01 X-2.6456 Y-7.5340
G01 X-2.6802 Y-7.5041
G01 X-2.7178 Y-7.4745
G01 X-2.7605 Y-7.4442
G01 X-2.8007 Y-7.4188
G01 X-2.8386 Y-7.3972
G01 X-2.8817 Y-7.3753
G01 X-2.9249 Y-7.3559
G01 X-2.9695 Y-7.3385
G01 X-3.0149 Y-7.3233
G01 X-3.0609 Y-7.3103
G01 X-3.1077 Y-7.2996
G01 X-3.1558 Y-7.2910
G01 X-3.2027 Y-7.2851
G01 X-3.2499 Y-7.2814
G01 X-3.3020 Y-7.2800
G01 X-3.3477 Y-7.2811
G01 X-3.4018 Y-7.2852
G01 X-3.4482 Y-7.2910
G01 X-3.4880 Y-7.2979
G01 X-3.5347 Y-7.3082
G01 X-3.5809 Y-7.3208
G01 X-3.6269 Y-7.3357
G01 X-3.6713 Y-7.3527
G01 X-3.7150 Y-7.3718
G01 X-3.7578 Y-7.3931
G01 X-3.8033 Y-7.4188
G01 X-3.8435 Y-7.4442
G01 X-3.8793 Y-7.4694
G01 X-3.9172 Y-7.4986
G01 X-3.9536 Y-7.5297
G01 X-3.9914 Y-7.5656
G01 X-4.0230 Y-7.5986
G01 X-4.0529 Y-7.6332
G01 X-4.0825 Y-7.6708
G01 X-4.1128 Y-7.7135
G01 X-4.1382 Y-7.7537
G01 X-4.1598 Y-7.7916
G01 X-4.1817 Y-7.8347
G01 X-4.2011 Y-7.8779
G01 X-4.2185 Y-7.9225
G01 X-4.2337 Y-7.9679
G01 X-4.2467 Y-8.0139
G01 X-4.2574 Y-8.0607
G01 X-4.2660 Y-8.1088
G01 X-4.2719 Y-8.1557
G01 X-4.2756 Y-8.2029
G01 X-4.2770 Y-8.2550
G01 X-4.2760 Y-8.2985
G00 Z1.9990
G00 X-4.4919 Y-8.9845
G01 F80.00
G01 Z-0.4665
G01 F80.00
G01 X-4.4614 Y-9.0323
G01 X-4.4302 Y-9.0768
G01 X-4.4143 Y-9.0981
G01 X-4.3766 Y-9.1458
G01 X-4.3391 Y-9.1892
G01 X-4.2983 Y-9.2325
G01 X-4.2785 Y-9.2522
G01 X-4.2328 Y-9.2951
G01 X-4.1908 Y-9.3312
G01 X-4.1451 Y-9.3673
G01 X-4.1216 Y-9.3847
G01 X-4.0728 Y-9.4187
G01 X-4.0220 Y-9.4508
G01 X-3.9706 Y-9.4802
G01 X-3.9110 Y-9.5109
G01 X-3.8808 Y-9.5250
G01 X-3.9110 Y-9.5391
G01 X-3.9706 Y-9.5698
G01 X-4.0220 Y-9.5992
G01 X-4.0728 Y-9.6313
G01 X-4.1216 Y-9.6653
G01 X-4.1451 Y-9.6827
G01 X-4.1908 Y-9.7188
G01 X-4.2342 Y-9.7562
G01 X-4.2785 Y-9.7978
G01 X-4.2983 Y-9.8175
G01 X-4.3365 Y-9.8579
G01 X-4.3766 Y-9.9042
G01 X-4.4143 Y-9.9519
G01 X-4.4302 Y-9.9732
G01 X-4.4614 Y-10.0177
G01 X-4.4919 Y-10.0655
G01 X-4.4919 Y-8.9845
G00 Z1.9990
G00 X-3.4090 Y-11.9755
G01 F80.00
G01 Z-0.4665
G01 F80.00
G01 X-3.3559 Y-11.9792
G01 X-3.2994 Y-11.9804
G01 X-3.2447 Y-11.9790
G01 X-3.1815 Y-11.9742
G01 X-3.1257 Y-11.9672
G01 X-3.0665 Y-11.9568
G01 X-3.0098 Y-11.9438
G01 X-2.9489 Y-11.9265
G01 X-2.8984 Y-11.9095
G01 X-2.8443 Y-11.8884
G01 X-2.7920 Y-11.8651
G01 X-2.7349 Y-11.8359
G01 X-2.6903 Y-11.8104
G01 X-2.6378 Y-11.7768
G01 X-2.5883 Y-11.7414
G01 X-2.5533 Y-11.7140
G01 X-2.5267 Y-11.6914
G01 X-2.4877 Y-11.7305
G01 X-2.4877 Y-12.4739
G01 X-2.5130 Y-12.4504
G01 X-2.5574 Y-12.4127
G01 X-2.5993 Y-12.3803
G01 X-2.6458 Y-12.3478
G01 X-2.6903 Y-12.3196
G01 X-2.7394 Y-12.2916
G01 X-2.7920 Y-12.2649
G01 X-2.8397 Y-12.2435
G01 X-2.8984 Y-12.2205
G01 X-2.9489 Y-12.2035
G01 X-3.0232 Y-12.1829
G01 X-3.0750 Y-12.1716
G01 X-3.1257 Y-12.1628
G01 X-3.1825 Y-12.1557
G01 X-3.2328 Y-12.1517
G01 X-3.4090 Y-11.9755
G01 X-2.7232 Y-12.0650
G01 X-2.6981 Y-12.0534
G01 X-2.6981 Y-12.0766
G01 X-2.7232 Y-12.0650
G00 Z1.9990
G00 X-2.4877 Y-14.1961
G01 F80.00
G01 Z-0.4665
G01 F80.00
G01 X-2.4877 Y-15.0139
G01 X-2.5130 Y-14.9904
G01 X-2.5574 Y-14.9527
G01 X-2.5993 Y-14.9203
G01 X-2.6458 Y-14.8878
G01 X-2.6903 Y-14.8596
G01 X-2.7394 Y-14.8316
G01 X-2.7920 Y-14.8049
G01 X-2.8397 Y-14.7835
G01 X-2.8984 Y-14.7605
G01 X-2.9489 Y-14.7435
G01 X-3.0232 Y-14.7229
G01 X-3.0750 Y-14.7116
G01 X-3.1257 Y-14.7028
G01 X-3.1825 Y-14.6957
G01 X-3.2328 Y-14.6917
G01 X-3.4090 Y-14.5155
G01 X-3.3559 Y-14.5192
G01 X-3.2925 Y-14.5203
G01 X-3.2344 Y-14.5184
G01 X-3.1815 Y-14.5142
G01 X-3.1374 Y-14.5089
G01 X-3.0750 Y-14.4984
G01 X-3.0181 Y-14.4859
G01 X-2.9620 Y-14.4706
G01 X-2.9060 Y-14.4523
G01 X-2.8520 Y-14.4316
G01 X-2.7920 Y-14.4051
G01 X-2.7394 Y-14.3784
G01 X-2.6903 Y-14.3504
G01 X-2.6415 Y-14.3194
G01 X-2.5883 Y-14.2814
G01 X-2.5427 Y-14.2453
G01 X-2.5091 Y-14.2162
G01 X-2.4877 Y-14.1961
G01 X-2.7232 Y-14.6050
G01 X-2.6981 Y-14.5934
G01 X-2.6981 Y-14.6166
G01 X-2.7232 Y-14.6050
G00 Z1.9990
G00 X-4.4825 Y-13.4420
G01 F80.00
G01 Z-0.4665
G01 F80.00
G01 X-6.4803 Y-11.4441
G01 X-6.4803 Y-5.4743
G01 X-6.4737 Y-5.4809
G01 X-6.4737 Y-11.0490
G01 X-6.4720 Y-11.1019
G01 X-6.4689 Y-11.1401
G01 X-6.4654 Y-11.1696
G01 X-6.4574 Y-11.2176
G01 X-6.4460 Y-11.2684
G01 X-6.4327 Y-11.3151
G01 X-6.4231 Y-11.3440
G01 X-6.4096 Y-11.3795
G01 X-6.3905 Y-11.4235
G01 X-6.3670 Y-11.4703
G01 X-6.3427 Y-11.5124
G01 X-6.3231 Y-11.5429
G01 X-6.3049 Y-11.5689
G01 X-6.2753 Y-11.6075
G01 X-6.2471 Y-11.6406
G01 X-6.2143 Y-11.6753
G01 X-4.4853 Y-13.4042
G01 X-4.4825 Y-13.4420
G00 Z1.9990
G00 X-8.1818 Y-12.1557
G01 F80.00
G01 Z-0.4665
G01 F80.00
G01 X-11.3117 Y-9.0257
G01 X-11.3363 Y-9.0022
G01 X-11.3562 Y-8.9844
G01 X-11.3195 Y-8.9818
G01 X-11.2814 Y-8.9774
G01 X-11.2250 Y-8.9678
G01 X-11.1910 Y-8.9601
G01 X-11.1540 Y-8.9502
G01 X-11.0948 Y-8.9306
G01 X-11.0590 Y-8.9165
G01 X-11.0201 Y-8.8991
G01 X-10.9883 Y-8.8831
G01 X-10.9548 Y-8.8644
G01 X-10.9044 Y-8.8326
G01 X-10.8710 Y-8.8088
G01 X-10.8435 Y-8.7873
G01 X-10.8104 Y-8.7591
G01 X-10.7757 Y-8.7263
G01 X-9.6349 Y-7.5854
G01 X-8.8020 Y-7.5854
G01 X-8.7779 Y-7.5846
G01 X-8.7591 Y-7.5830
G01 X-8.7218 Y-7.5769
G01 X-8.6852 Y-7.5673
G01 X-8.6498 Y-7.5540
G01 X-8.6158 Y-7.5374
G01 X-8.5836 Y-7.5175
G01 X-8.5535 Y-7.4946
G01 X-8.5259 Y-7.4688
G01 X-8.5074 Y-7.4485
G01 X-8.4894 Y-7.4254
G01 X-8.4688 Y-7.3937
G01 X-8.4558 Y-7.3694
G01 X-8.4409 Y-7.3347
G01 X-8.4317 Y-7.3069
G01 X-8.4251 Y-7.2802
G01 X-8.4201 Y-7.2514
G01 X-8.4169 Y-7.2138
G01 X-8.4166 Y-5.5179
G01 X-8.2517 Y-5.6829
G01 X-8.2517 Y-11.8136
G01 X-8.2503 Y-11.8587
G01 X-8.2469 Y-11.9021
G01 X-8.2417 Y-11.9434
G01 X-8.2338 Y-11.9880
G01 X-8.2240 Y-12.0304
G01 X-8.2122 Y-12.0722
G01 X-8.1983 Y-12.1137
G01 X-8.1818 Y-12.1557
G01 X-9.7056 Y-9.1440
G01 X-9.3040 Y-8.7425
G01 X-9.3040 Y-9.5456
G01 X-9.7056 Y-9.1440
G01 X-10.0032 Y-9.1440
G01 X-9.2863 Y-8.4271
G01 X-9.0936 Y-8.4271
G01 X-9.0935 Y-10.0537
G01 X-10.0032 Y-9.1440
G01 X-10.3007 Y-9.1440
G01 X-9.3734 Y-8.2167
G01 X-8.8832 Y-8.2167
G01 X-8.8830 Y-10.5617
G01 X-10.3007 Y-9.1440
G01 X-10.6062 Y-9.1361
G01 X-10.5699 Y-9.1072
G01 X-10.5385 Y-9.0803
G01 X-10.5139 Y-9.0581
G01 X-10.4818 Y-9.0275
G01 X-9.4606 Y-8.0063
G01 X-8.7917 Y-8.0062
G01 X-8.7573 Y-8.0050
G01 X-8.7307 Y-8.0031
G01 X-8.6990 Y-7.9996
G01 X-8.6728 Y-7.9958
G01 X-8.6726 Y-11.0698
G01 X-10.6062 Y-9.1361
G01 X-10.9441 Y-9.0958
G01 X-10.8983 Y-9.0734
G01 X-10.8725 Y-9.0596
G01 X-10.8339 Y-9.0374
G01 X-10.7912 Y-9.0101
G01 X-10.7525 Y-8.9829
G01 X-10.7160 Y-8.9548
G01 X-10.6769 Y-8.9218
G01 X-10.6571 Y-8.9040
G01 X-10.6269 Y-8.8751
G01 X-9.5477 Y-7.7958
G01 X-8.8020 Y-7.7958
G01 X-8.7779 Y-7.7953
G01 X-8.7487 Y-7.7934
G01 X-8.7095 Y-7.7886
G01 X-8.6757 Y-7.7823
G01 X-8.6340 Y-7.7716
G01 X-8.5964 Y-7.7592
G01 X-8.5645 Y-7.7464
G01 X-8.5257 Y-7.7279
G01 X-8.4913 Y-7.7084
G01 X-8.4621 Y-7.6893
G01 X-8.4621 Y-11.5778
G01 X-10.9441 Y-9.0958
G00 Z1.9990
G00 X-12.4672 Y-10.5377
G01 F80.00
G01 Z-0.4665
G01 F80.00
G01 X-12.3049 Y-10.5377
G01 X-4.4859 Y-18.3566
G01 X-4.4873 Y-18.4245
G01 X-4.4860 Y-18.4723
G01 X-4.4825 Y-18.5220
G01 X-12.4672 Y-10.5377
G00 Z1.9990
G00 X-13.0745 Y-7.2143
G01 F80.00
G01 Z-0.4665
G01 F80.00
G01 X-13.8495 Y-7.2143
G01 X-13.8129 Y-7.1755
G01 X-13.7743 Y-7.1304
G01 X-13.7423 Y-7.0894
G01 X-13.7086 Y-7.0420
G01 X-13.6676 Y-6.9770
G01 X-13.6405 Y-6.9286
G01 X-13.6133 Y-6.8741
G01 X-13.5890 Y-6.8188
G01 X-13.5676 Y-6.7629
G01 X-13.5486 Y-6.7045
G01 X-13.5314 Y-6.6410
G01 X-13.5195 Y-6.5867
G01 X-13.5087 Y-6.5219
G01 X-13.5017 Y-6.4617
G01 X-13.4983 Y-6.4149
G01 X-13.4969 Y-6.3674
G01 X-13.4262 Y-6.2967
G01 X-13.4274 Y-6.3526
G01 X-13.4258 Y-6.4123
G01 X-13.4210 Y-6.4754
G01 X-13.4137 Y-6.5337
G01 X-13.4028 Y-6.5952
G01 X-13.3893 Y-6.6543
G01 X-13.3729 Y-6.7127
G01 X-13.3519 Y-6.7751
G01 X-13.3316 Y-6.8269
G01 X-13.3073 Y-6.8814
G01 X-13.2795 Y-6.9361
G01 X-13.2467 Y-6.9932
G01 X-13.2179 Y-7.0383
G01 X-13.1786 Y-7.0935
G01 X-13.1409 Y-7.1410
G01 X-13.1102 Y-7.1764
G01 X-13.0745 Y-7.2143
G00 Z1.9990
G00 X-13.2158 Y-6.3960
G01 F80.00
G01 Z-0.4665
G01 F80.00
G01 X-13.2124 Y-6.4462
G01 X-13.2054 Y-6.5035
G01 X-13.1964 Y-6.5542
G01 X-13.1852 Y-6.6032
G01 X-13.1716 Y-6.6516
G01 X-13.1556 Y-6.6993
G01 X-13.1405 Y-6.7385
G01 X-13.1204 Y-6.7843
G01 X-13.0979 Y-6.8294
G01 X-13.0711 Y-6.8770
G01 X-13.0444 Y-6.9193
G01 X-13.0127 Y-6.9640
G01 X-12.9816 Y-7.0035
G01 X-12.9486 Y-7.0415
G01 X-12.9168 Y-7.0748
G01 X-12.8835 Y-7.1066
G01 X-12.8455 Y-7.1396
G01 X-12.8060 Y-7.1707
G01 X-12.7613 Y-7.2024
G01 X-12.7190 Y-7.2291
G01 X-12.6714 Y-7.2559
G01 X-12.6263 Y-7.2784
G01 X-12.5803 Y-7.2986
G01 X-12.5413 Y-7.3136
G01 X-12.4936 Y-7.3296
G01 X-12.4452 Y-7.3432
G01 X-12.3961 Y-7.3544
G01 X-12.3455 Y-7.3634
G01 X-12.2962 Y-7.3697
G01 X-12.2380 Y-7.3739
G01 X-12.1877 Y-7.3749
G01 X-12.1374 Y-7.3735
G01 X-12.0873 Y-7.3696
G01 X-12.0374 Y-7.3632
G01 X-11.9878 Y-7.3544
G01 X-11.9471 Y-7.3453
G01 X-11.8986 Y-7.3321
G01 X-11.8427 Y-7.3136
G01 X-11.8035 Y-7.2985
G01 X-11.7577 Y-7.2784
G01 X-11.7051 Y-7.2519
G01 X-11.6650 Y-7.2291
G01 X-11.6261 Y-7.2046
G01 X-11.5849 Y-7.1758
G01 X-11.5385 Y-7.1396
G01 X-11.5005 Y-7.1066
G01 X-11.4672 Y-7.0748
G01 X-11.4354 Y-7.0415
G01 X-11.3970 Y-6.9969
G01 X-11.3662 Y-6.9571
G01 X-11.3396 Y-6.9193
G01 X-11.3151 Y-6.8806
G01 X-11.2861 Y-6.8294
G01 X-11.2636 Y-6.7843
G01 X-11.2434 Y-6.7383
G01 X-11.2284 Y-6.6993
G01 X-11.2099 Y-6.6434
G01 X-11.1967 Y-6.5949
G01 X-11.1876 Y-6.5541
G01 X-11.1786 Y-6.5035
G01 X-11.1716 Y-6.4462
G01 X-11.1681 Y-6.3960
G01 X-11.1670 Y-6.3500
G01 X-11.1681 Y-6.3040
G01 X-11.1716 Y-6.2538
G01 X-11.1786 Y-6.1965
G01 X-11.1876 Y-6.1458
G01 X-11.1988 Y-6.0968
G01 X-11.2099 Y-6.0566
G01 X-11.2284 Y-6.0007
G01 X-11.2435 Y-5.9615
G01 X-11.2636 Y-5.9157
G01 X-11.2901 Y-5.8631
G01 X-11.3129 Y-5.8230
G01 X-11.3374 Y-5.7841
G01 X-11.3713 Y-5.7360
G01 X-11.4024 Y-5.6965
G01 X-11.4297 Y-5.6649
G01 X-11.4672 Y-5.6252
G01 X-11.5021 Y-5.5920
G01 X-11.5167 Y-5.5792
G01 X-11.5167 Y-5.4276
G01 X-11.3644 Y-5.2752
G01 X-8.3617 Y-5.2752
G01 X-8.0413 Y-5.5957
G01 X-8.0413 Y-11.8110
G01 X-8.0402 Y-11.8484
G01 X-8.0375 Y-11.8815
G01 X-8.0335 Y-11.9132
G01 X-8.0291 Y-11.9385
G01 X-8.0220 Y-11.9709
G01 X-8.0109 Y-12.0111
G01 X-8.0003 Y-12.0425
G01 X-7.9882 Y-12.0734
G01 X-7.9747 Y-12.1031
G01 X-7.9635 Y-12.1255
G01 X-7.9429 Y-12.1618
G01 X-7.9276 Y-12.1860
G01 X-7.9109 Y-12.2098
G01 X-7.8852 Y-12.2427
G01 X-7.8634 Y-12.2676
G01 X-7.8435 Y-12.2885
G01 X-4.2766 Y-15.8554
G01 X-4.2770 Y-15.8750
G01 X-4.2759 Y-15.9207
G01 X-4.2727 Y-15.9663
G01 X-4.2660 Y-16.0212
G01 X-4.2574 Y-16.0694
G01 X-4.2467 Y-16.1161
G01 X-4.2337 Y-16.1621
G01 X-4.2213 Y-16.1999
G01 X-4.2044 Y-16.2441
G01 X-4.1852 Y-16.2880
G01 X-4.1639 Y-16.3308
G01 X-4.1382 Y-16.3763
G01 X-4.1128 Y-16.4165
G01 X-4.0825 Y-16.4592
G01 X-4.0529 Y-16.4968
G01 X-4.0215 Y-16.5329
G01 X-3.9914 Y-16.5644
G01 X-3.9599 Y-16.5945
G01 X-3.9238 Y-16.6259
G01 X-3.8793 Y-16.6606
G01 X-3.8435 Y-16.6858
G01 X-3.7995 Y-16.7134
G01 X-3.7578 Y-16.7369
G01 X-3.7150 Y-16.7582
G01 X-3.6711 Y-16.7774
G01 X-3.6269 Y-16.7943
G01 X-3.5809 Y-16.8092
G01 X-3.5347 Y-16.8218
G01 X-3.4880 Y-16.8321
G01 X-3.4482 Y-16.8390
G01 X-3.4013 Y-16.8449
G01 X-3.3541 Y-16.8486
G01 X-3.3020 Y-16.8500
G01 X-3.2563 Y-16.8489
G01 X-3.2022 Y-16.8448
G01 X-3.1558 Y-16.8390
G01 X-3.1160 Y-16.8321
G01 X-3.0693 Y-16.8218
G01 X-3.0231 Y-16.8092
G01 X-2.9771 Y-16.7943
G01 X-2.9327 Y-16.7773
G01 X-2.8890 Y-16.7582
G01 X-2.8462 Y-16.7369
G01 X-2.8007 Y-16.7112
G01 X-2.7605 Y-16.6858
G01 X-2.7247 Y-16.6606
G01 X-2.6868 Y-16.6314
G01 X-2.6504 Y-16.6003
G01 X-2.6096 Y-16.5614
G01 X-2.5810 Y-16.5314
G01 X-2.5511 Y-16.4968
G01 X-2.5215 Y-16.4592
G01 X-2.4937 Y-16.4202
G01 X-2.4658 Y-16.3763
G01 X-2.4442 Y-16.3384
G01 X-2.4188 Y-16.2880
G01 X-2.3996 Y-16.2441
G01 X-2.3827 Y-16.1999
G01 X-2.3678 Y-16.1539
G01 X-2.3552 Y-16.1077
G01 X-2.3449 Y-16.0610
G01 X-2.3380 Y-16.0212
G01 X-2.3321 Y-15.9743
G01 X-2.3284 Y-15.9271
G01 X-2.3270 Y-15.8750
G01 X-2.3281 Y-15.8293
G01 X-2.3313 Y-15.7837
G01 X-2.3370 Y-15.7362
G01 X-2.3449 Y-15.6890
G01 X-2.3552 Y-15.6423
G01 X-2.3703 Y-15.5879
G01 X-2.3855 Y-15.5425
G01 X-2.4029 Y-15.4979
G01 X-2.4223 Y-15.4547
G01 X-2.4442 Y-15.4116
G01 X-2.4658 Y-15.3737
G01 X-2.4912 Y-15.3335
G01 X-2.5164 Y-15.2977
G01 X-2.5456 Y-15.2598
G01 X-2.5767 Y-15.2234
G01 X-2.6156 Y-15.1826
G01 X-2.6504 Y-15.1497
G01 X-2.6868 Y-15.1186
G01 X-2.7178 Y-15.0945
G01 X-2.7605 Y-15.0642
G01 X-2.8007 Y-15.0388
G01 X-2.8462 Y-15.0131
G01 X-2.8890 Y-14.9918
G01 X-2.9329 Y-14.9726
G01 X-2.9771 Y-14.9557
G01 X-3.0149 Y-14.9433
G01 X-3.0609 Y-14.9303
G01 X-3.1077 Y-14.9196
G01 X-3.1558 Y-14.9110
G01 X-3.2107 Y-14.9043
G01 X-3.2585 Y-14.9010
G01 X-3.3020 Y-14.9000
G01 X-3.3216 Y-14.9004
G01 X-6.6907 Y-11.5313
G01 X-6.6907 Y-5.3160
G01 X-6.6918 Y-5.2786
G01 X-6.6945 Y-5.2455
G01 X-6.6975 Y-5.2212
G01 X-6.7046 Y-5.1801
G01 X-6.7121 Y-5.1478
G01 X-6.7211 Y-5.1159
G01 X-6.7290 Y-5.0921
G01 X-6.7438 Y-5.0536
G01 X-6.7573 Y-5.0239
G01 X-6.7685 Y-5.0015
G01 X-6.7869 Y-4.9688
G01 X-6.8044 Y-4.9410
G01 X-6.8211 Y-4.9172
G01 X-6.8468 Y-4.8843
G01 X-6.8686 Y-4.8594
G01 X-6.8885 Y-4.8385
G01 X-7.6076 Y-4.1195
G01 X-7.6317 Y-4.0968
G01 X-7.6570 Y-4.0753
G01 X-7.6832 Y-4.0551
G01 X-7.7070 Y-4.0384
G01 X-7.7348 Y-4.0209
G01 X-7.7599 Y-4.0066
G01 X-7.7899 Y-3.9913
G01 X-7.8196 Y-3.9778
G01 X-7.8586 Y-3.9628
G01 X-7.8901 Y-3.9526
G01 X-7.9221 Y-3.9440
G01 X-7.9545 Y-3.9369
G01 X-7.9872 Y-3.9315
G01 X-8.0201 Y-3.9276
G01 X-8.0532 Y-3.9254
G01 X-8.0820 Y-3.9247
G01 X-11.6484 Y-3.9248
G01 X-11.6815 Y-3.9258
G01 X-11.7145 Y-3.9285
G01 X-11.7463 Y-3.9325
G01 X-11.7800 Y-3.9386
G01 X-11.8123 Y-3.9461
G01 X-11.8442 Y-3.9551
G01 X-11.8679 Y-3.9630
G01 X-11.8987 Y-3.9746
G01 X-11.9289 Y-3.9878
G01 X-11.9586 Y-4.0025
G01 X-11.9913 Y-4.0209
G01 X-12.0191 Y-4.0384
G01 X-12.0428 Y-4.0551
G01 X-12.0691 Y-4.0753
G01 X-12.0943 Y-4.0968
G01 X-12.1185 Y-4.1195
G01 X-12.6695 Y-4.6704
G01 X-12.6894 Y-4.6913
G01 X-12.7167 Y-4.7229
G01 X-12.7369 Y-4.7492
G01 X-12.7536 Y-4.7729
G01 X-12.7689 Y-4.7971
G01 X-12.7854 Y-4.8258
G01 X-12.8007 Y-4.8558
G01 X-12.8142 Y-4.8856
G01 X-12.8263 Y-4.9164
G01 X-12.8369 Y-4.9478
G01 X-12.8459 Y-4.9797
G01 X-12.8534 Y-5.0121
G01 X-12.8595 Y-5.0457
G01 X-12.8636 Y-5.0780
G01 X-12.8662 Y-5.1105
G01 X-12.8673 Y-5.1479
G01 X-12.8673 Y-5.5792
G01 X-12.8835 Y-5.5934
G01 X-12.9168 Y-5.6252
G01 X-12.9500 Y-5.6601
G01 X-12.9870 Y-5.7031
G01 X-13.0178 Y-5.7429
G01 X-13.0466 Y-5.7841
G01 X-13.0711 Y-5.8230
G01 X-13.0939 Y-5.8631
G01 X-13.1169 Y-5.9083
G01 X-13.1373 Y-5.9538
G01 X-13.1583 Y-6.0083
G01 X-13.1741 Y-6.0566
G01 X-13.1873 Y-6.1051
G01 X-13.1981 Y-6.1543
G01 X-13.2065 Y-6.2039
G01 X-13.2117 Y-6.2458
G01 X-13.2155 Y-6.2954
G01 X-13.2170 Y-6.3500
G01 X-13.2158 Y-6.3960
G00 Z1.9990
G00 X-10.8871 Y-5.4857
G01 F80.00
G01 Z-0.4665
G01 F80.00
G01 X-10.8874 Y-6.3329
G01 X-10.9578 Y-6.4033
G01 X-10.9566 Y-6.3474
G01 X-10.9583 Y-6.2851
G01 X-10.9630 Y-6.2246
G01 X-10.9703 Y-6.1663
G01 X-10.9812 Y-6.1048
G01 X-10.9947 Y-6.0457
G01 X-11.0111 Y-5.9873
G01 X-11.0321 Y-5.9249
G01 X-11.0524 Y-5.8731
G01 X-11.0767 Y-5.8186
G01 X-11.1045 Y-5.7639
G01 X-11.1360 Y-5.7090
G01 X-11.1661 Y-5.6617
G01 X-11.2054 Y-5.6065
G01 X-11.2431 Y-5.5590
G01 X-11.2738 Y-5.5236
G01 X-11.2937 Y-5.5022
G01 X-11.2772 Y-5.4857
G01 X-10.8871 Y-5.4857
G00 Z1.9990
G00 X-15.7558 Y-6.3960
G01 F80.00
G01 Z-0.4665
G01 F80.00
G01 X-15.7524 Y-6.4462
G01 X-15.7454 Y-6.5035
G01 X-15.7364 Y-6.5542
G01 X-15.7252 Y-6.6032
G01 X-15.7116 Y-6.6516
G01 X-15.6956 Y-6.6993
G01 X-15.6805 Y-6.7385
G01 X-15.6604 Y-6.7843
G01 X-15.6379 Y-6.8294
G01 X-15.6111 Y-6.8770
G01 X-15.5818 Y-6.9230
G01 X-15.5527 Y-6.9640
G01 X-15.5216 Y-7.0035
G01 X-15.4943 Y-7.0351
G01 X-15.4568 Y-7.0748
G01 X-15.4219 Y-7.1080
G01 X-15.3789 Y-7.1450
G01 X-15.3391 Y-7.1758
G01 X-15.2979 Y-7.2046
G01 X-15.2590 Y-7.2291
G01 X-15.2189 Y-7.2519
G01 X-15.1737 Y-7.2749
G01 X-15.1203 Y-7.2986
G01 X-15.0737 Y-7.3163
G01 X-15.0336 Y-7.3296
G01 X-14.9852 Y-7.3432
G01 X-14.9361 Y-7.3544
G01 X-14.8855 Y-7.3634
G01 X-14.8362 Y-7.3697
G01 X-14.7780 Y-7.3739
G01 X-14.7277 Y-7.3749
G01 X-14.6774 Y-7.3735
G01 X-14.6358 Y-7.3704
G01 X-14.5785 Y-7.3634
G01 X-14.5278 Y-7.3544
G01 X-14.4788 Y-7.3432
G01 X-14.4304 Y-7.3296
G01 X-14.3827 Y-7.3136
G01 X-14.3358 Y-7.2953
G01 X-14.2903 Y-7.2749
G01 X-14.2451 Y-7.2519
G01 X-14.2050 Y-7.2291
G01 X-14.1627 Y-7.2024
G01 X-14.1180 Y-7.1707
G01 X-14.0785 Y-7.1396
G01 X-14.0405 Y-7.1066
G01 X-14.0072 Y-7.0748
G01 X-13.9740 Y-7.0399
G01 X-13.9370 Y-6.9969
G01 X-13.9062 Y-6.9571
G01 X-13.8796 Y-6.9193
G01 X-13.8529 Y-6.8770
G01 X-13.8301 Y-6.8369
G01 X-13.8036 Y-6.7843
G01 X-13.7834 Y-6.7383
G01 X-13.7684 Y-6.6993
G01 X-13.7499 Y-6.6434
G01 X-13.7367 Y-6.5949
G01 X-13.7276 Y-6.5541
G01 X-13.7175 Y-6.4961
G01 X-13.7123 Y-6.4542
G01 X-13.7085 Y-6.4046
G01 X-13.7070 Y-6.3500
G01 X-13.7081 Y-6.3040
G01 X-13.7095 Y-6.2824
G01 X-13.4045 Y-5.9775
G01 X-13.3846 Y-5.9566
G01 X-13.3628 Y-5.9317
G01 X-13.3371 Y-5.8988
G01 X-13.3204 Y-5.8750
G01 X-13.3007 Y-5.8434
G01 X-13.2845 Y-5.8145
G01 X-13.2733 Y-5.7921
G01 X-13.2598 Y-5.7624
G01 X-13.2477 Y-5.7315
G01 X-13.2346 Y-5.6919
G01 X-13.2260 Y-5.6599
G01 X-13.2206 Y-5.6359
G01 X-13.2135 Y-5.5948
G01 X-13.2104 Y-5.5699
G01 X-13.2078 Y-5.5374
G01 X-13.2068 Y-5.5000
G01 X-13.2068 Y-5.1377
G01 X-11.9443 Y-3.8752
G01 X-7.7818 Y-3.8752
G01 X-6.2633 Y-5.3938
G01 X-6.2632 Y-11.0533
G01 X-6.2622 Y-11.0864
G01 X-6.2604 Y-11.1109
G01 X-6.2565 Y-11.1438
G01 X-6.2494 Y-11.1849
G01 X-6.2419 Y-11.2172
G01 X-6.2354 Y-11.2409
G01 X-6.2252 Y-11.2724
G01 X-6.2134 Y-11.3036
G01 X-6.1967 Y-11.3411
G01 X-6.1814 Y-11.3711
G01 X-6.1671 Y-11.3962
G01 X-6.1518 Y-11.4205
G01 X-6.1278 Y-11.4547
G01 X-6.1072 Y-11.4807
G01 X-6.0912 Y-11.4993
G01 X-6.0655 Y-11.5265
G01 X-4.2766 Y-13.3154
G01 X-4.2770 Y-13.3350
G01 X-4.2759 Y-13.3807
G01 X-4.2718 Y-13.4348
G01 X-4.2658 Y-13.4823
G01 X-4.2574 Y-13.5294
G01 X-4.2488 Y-13.5677
G01 X-4.2362 Y-13.6139
G01 X-4.2185 Y-13.6675
G01 X-4.2011 Y-13.7121
G01 X-4.1817 Y-13.7553
G01 X-4.1639 Y-13.7908
G01 X-4.1382 Y-13.8363
G01 X-4.1103 Y-13.8802
G01 X-4.0825 Y-13.9192
G01 X-4.0529 Y-13.9568
G01 X-4.0273 Y-13.9866
G01 X-3.9914 Y-14.0244
G01 X-3.9536 Y-14.0603
G01 X-3.9172 Y-14.0914
G01 X-3.8862 Y-14.1155
G01 X-3.8401 Y-14.1480
G01 X-3.8033 Y-14.1712
G01 X-3.7578 Y-14.1969
G01 X-3.7150 Y-14.2182
G01 X-3.6711 Y-14.2374
G01 X-3.6269 Y-14.2543
G01 X-3.5809 Y-14.2692
G01 X-3.5347 Y-14.2818
G01 X-3.4880 Y-14.2921
G01 X-3.4408 Y-14.3000
G01 X-3.4013 Y-14.3049
G01 X-3.3541 Y-14.3086
G01 X-3.3020 Y-14.3100
G01 X-3.2585 Y-14.3090
G01 X-3.2107 Y-14.3057
G01 X-3.1632 Y-14.3000
G01 X-3.1160 Y-14.2921
G01 X-3.0693 Y-14.2818
G01 X-3.0231 Y-14.2692
G01 X-2.9771 Y-14.2543
G01 X-2.9327 Y-14.2373
G01 X-2.8817 Y-14.2147
G01 X-2.8386 Y-14.1928
G01 X-2.8007 Y-14.1712
G01 X-2.7605 Y-14.1458
G01 X-2.7178 Y-14.1155
G01 X-2.6802 Y-14.0859
G01 X-2.6441 Y-14.0545
G01 X-2.6126 Y-14.0244
G01 X-2.5767 Y-13.9866
G01 X-2.5456 Y-13.9502
G01 X-2.5164 Y-13.9123
G01 X-2.4912 Y-13.8765
G01 X-2.4680 Y-13.8399
G01 X-2.4442 Y-13.7984
G01 X-2.4188 Y-13.7480
G01 X-2.3996 Y-13.7041
G01 X-2.3855 Y-13.6675
G01 X-2.3678 Y-13.6139
G01 X-2.3552 Y-13.5677
G01 X-2.3466 Y-13.5293
G01 X-2.3370 Y-13.4738
G01 X-2.3321 Y-13.4343
G01 X-2.3284 Y-13.3871
G01 X-2.3271 Y-13.3307
G01 X-2.3281 Y-13.2893
G01 X-2.3313 Y-13.2437
G01 X-2.3380 Y-13.1888
G01 X-2.3449 Y-13.1490
G01 X-2.3552 Y-13.1023
G01 X-2.3703 Y-13.0479
G01 X-2.3827 Y-13.0101
G01 X-2.3997 Y-12.9657
G01 X-2.4223 Y-12.9147
G01 X-2.4442 Y-12.8716
G01 X-2.4658 Y-12.8337
G01 X-2.4937 Y-12.7898
G01 X-2.5215 Y-12.7508
G01 X-2.5456 Y-12.7198
G01 X-2.5767 Y-12.6834
G01 X-2.6156 Y-12.6426
G01 X-2.6504 Y-12.6097
G01 X-2.6868 Y-12.5786
G01 X-2.7178 Y-12.5545
G01 X-2.7605 Y-12.5242
G01 X-2.8007 Y-12.4988
G01 X-2.8462 Y-12.4731
G01 X-2.8890 Y-12.4518
G01 X-2.9329 Y-12.4326
G01 X-2.9771 Y-12.4157
G01 X-3.0149 Y-12.4033
G01 X-3.0609 Y-12.3903
G01 X-3.1077 Y-12.3796
G01 X-3.1558 Y-12.3710
G01 X-3.2107 Y-12.3643
G01 X-3.2585 Y-12.3610
G01 X-3.3020 Y-12.3600
G01 X-3.3216 Y-12.3604
G01 X-4.9127 Y-10.7693
G01 X-4.9127 Y-5.1141
G01 X-4.9138 Y-5.0767
G01 X-4.9165 Y-5.0436
G01 X-4.9205 Y-5.0119
G01 X-4.9266 Y-4.9781
G01 X-4.9341 Y-4.9459
G01 X-4.9431 Y-4.9140
G01 X-4.9537 Y-4.8826
G01 X-4.9658 Y-4.8517
G01 X-4.9793 Y-4.8219
G01 X-4.9946 Y-4.7920
G01 X-5.0089 Y-4.7669
G01 X-5.0264 Y-4.7391
G01 X-5.0431 Y-4.7153
G01 X-5.0633 Y-4.6891
G01 X-5.0848 Y-4.6638
G01 X-5.1105 Y-4.6366
G01 X-7.0246 Y-2.7225
G01 X-7.0518 Y-2.6968
G01 X-7.0771 Y-2.6753
G01 X-7.0964 Y-2.6602
G01 X-7.1305 Y-2.6362
G01 X-7.1549 Y-2.6208
G01 X-7.1800 Y-2.6065
G01 X-7.2099 Y-2.5912
G01 X-7.2477 Y-2.5745
G01 X-7.2787 Y-2.5628
G01 X-7.3102 Y-2.5526
G01 X-7.3339 Y-2.5461
G01 X-7.3662 Y-2.5386
G01 X-7.4073 Y-2.5315
G01 X-7.4322 Y-2.5284
G01 X-7.4647 Y-2.5258
G01 X-7.5021 Y-2.5247
G01 X-12.2240 Y-2.5247
G01 X-12.2614 Y-2.5258
G01 X-12.2944 Y-2.5285
G01 X-12.3262 Y-2.5325
G01 X-12.3599 Y-2.5386
G01 X-12.3922 Y-2.5461
G01 X-12.4241 Y-2.5551
G01 X-12.4555 Y-2.5657
G01 X-12.4863 Y-2.5778
G01 X-12.5161 Y-2.5912
G01 X-12.5461 Y-2.6065
G01 X-12.5712 Y-2.6208
G01 X-12.5990 Y-2.6384
G01 X-12.6227 Y-2.6551
G01 X-12.6490 Y-2.6753
G01 X-12.6742 Y-2.6968
G01 X-12.6984 Y-2.7195
G01 X-14.3595 Y-4.3805
G01 X-14.3852 Y-4.4078
G01 X-14.4067 Y-4.4330
G01 X-14.4269 Y-4.4592
G01 X-14.4436 Y-4.4830
G01 X-14.4589 Y-4.5072
G01 X-14.4754 Y-4.5359
G01 X-14.4942 Y-4.5732
G01 X-14.5074 Y-4.6036
G01 X-14.5163 Y-4.6265
G01 X-14.5269 Y-4.6579
G01 X-14.5380 Y-4.6981
G01 X-14.5451 Y-4.7305
G01 X-14.5495 Y-4.7558
G01 X-14.5536 Y-4.7881
G01 X-14.5566 Y-4.8292
G01 X-14.5573 Y-4.8580
G01 X-14.5573 Y-5.2203
G01 X-14.6644 Y-5.3275
G01 X-14.6860 Y-5.3261
G01 X-14.7320 Y-5.3250
G01 X-14.7866 Y-5.3265
G01 X-14.8367 Y-5.3304
G01 X-14.8855 Y-5.3366
G01 X-14.9277 Y-5.3439
G01 X-14.9852 Y-5.3568
G01 X-15.0336 Y-5.3704
G01 X-15.0737 Y-5.3837
G01 X-15.1205 Y-5.4015
G01 X-15.1737 Y-5.4251
G01 X-15.2189 Y-5.4481
G01 X-15.2590 Y-5.4709
G01 X-15.3013 Y-5.4976
G01 X-15.3460 Y-5.5293
G01 X-15.3855 Y-5.5604
G01 X-15.4235 Y-5.5934
G01 X-15.4568 Y-5.6252
G01 X-15.4886 Y-5.6585
G01 X-15.5216 Y-5.6965
G01 X-15.5527 Y-5.7360
G01 X-15.5818 Y-5.7770
G01 X-15.6133 Y-5.8268
G01 X-15.6379 Y-5.8706
G01 X-15.6604 Y-5.9157
G01 X-15.6806 Y-5.9617
G01 X-15.6983 Y-6.0083
G01 X-15.7141 Y-6.0566
G01 X-15.7273 Y-6.1051
G01 X-15.7381 Y-6.1543
G01 X-15.7454 Y-6.1965
G01 X-15.7517 Y-6.2458
G01 X-15.7555 Y-6.2954
G01 X-15.7570 Y-6.3500
G01 X-15.7558 Y-6.3960
G00 Z1.9990
G00 X-15.6145 Y-7.2143
G01 F80.00
G01 Z-0.4665
G01 F80.00
G01 X-16.3895 Y-7.2143
G01 X-16.3538 Y-7.1764
G01 X-16.3231 Y-7.1410
G01 X-16.2854 Y-7.0935
G01 X-16.2461 Y-7.0383
G01 X-16.2111 Y-6.9830
G01 X-16.1781 Y-6.9240
G01 X-16.1567 Y-6.8814
G01 X-16.1343 Y-6.8315
G01 X-16.1104 Y-6.7705
G01 X-16.0886 Y-6.7045
G01 X-16.0714 Y-6.6410
G01 X-16.0595 Y-6.5868
G01 X-16.0511 Y-6.5388
G01 X-16.0429 Y-6.4744
G01 X-16.0379 Y-6.4063
G01 X-16.0367 Y-6.3405
G01 X-16.0383 Y-6.2851
G01 X-16.0417 Y-6.2383
G01 X-16.0493 Y-6.1737
G01 X-16.0604 Y-6.1090
G01 X-16.0322 Y-6.1107
G01 X-16.0008 Y-6.1107
G01 X-15.9705 Y-6.1089
G01 X-15.9430 Y-6.1057
G01 X-15.9537 Y-6.1663
G01 X-15.9623 Y-6.2383
G01 X-15.9661 Y-6.2937
G01 X-15.9673 Y-6.3405
G01 X-15.9658 Y-6.4123
G01 X-15.9610 Y-6.4754
G01 X-15.9525 Y-6.5406
G01 X-15.9428 Y-6.5952
G01 X-15.9326 Y-6.6410
G01 X-15.9154 Y-6.7045
G01 X-15.8936 Y-6.7705
G01 X-15.8697 Y-6.8315
G01 X-15.8473 Y-6.8814
G01 X-15.8259 Y-6.9240
G01 X-15.7929 Y-6.9830
G01 X-15.7579 Y-7.0383
G01 X-15.7186 Y-7.0935
G01 X-15.6809 Y-7.1410
G01 X-15.6502 Y-7.1764
G01 X-15.6145 Y-7.2143
G00 Z1.9990
G00 X-18.3459 Y-5.9209
G01 F80.00
G01 Z-0.4665
G01 F80.00
G01 X-18.2193 Y-5.6514
G01 X-17.8745 Y-5.3372
G01 X-17.7011 Y-5.2654
G01 X-17.7011 Y-5.4193
G01 X-17.7589 Y-5.4481
G01 X-17.7990 Y-5.4709
G01 X-17.8450 Y-5.5002
G01 X-17.8860 Y-5.5293
G01 X-17.9255 Y-5.5604
G01 X-17.9635 Y-5.5934
G01 X-17.9968 Y-5.6252
G01 X-18.0286 Y-5.6585
G01 X-18.0616 Y-5.6965
G01 X-18.0927 Y-5.7360
G01 X-18.1218 Y-5.7770
G01 X-18.1511 Y-5.8230
G01 X-18.1739 Y-5.8631
G01 X-18.2027 Y-5.9209
G01 X-18.3459 Y-5.9209
G00 Z1.9990
G00 X-19.9153 Y-8.7663
G01 F80.00
G01 Z-0.4665
G01 F80.00
G01 X-21.1552 Y-8.7663
G01 X-22.7237 Y-7.1978
G01 X-22.7029 Y-7.1755
G01 X-22.6731 Y-7.1410
G01 X-22.6354 Y-7.0935
G01 X-22.5961 Y-7.0383
G01 X-22.5660 Y-6.9910
G01 X-22.5345 Y-6.9361
G01 X-22.5067 Y-6.8814
G01 X-22.4823 Y-6.8267
G01 X-22.4621 Y-6.7751
G01 X-22.4411 Y-6.7127
G01 X-22.4247 Y-6.6543
G01 X-22.4112 Y-6.5951
G01 X-22.4003 Y-6.5337
G01 X-22.3929 Y-6.4744
G01 X-22.3883 Y-6.4149
G01 X-22.3866 Y-6.3526
G01 X-22.3878 Y-6.2967
G01 X-22.3174 Y-6.3671
G01 X-22.3174 Y-7.2000
G01 X-22.3160 Y-7.2326
G01 X-22.3124 Y-7.2617
G01 X-22.3046 Y-7.2986
G01 X-22.2966 Y-7.3250
G01 X-22.2860 Y-7.3522
G01 X-22.2743 Y-7.3771
G01 X-22.2599 Y-7.4025
G01 X-22.2384 Y-7.4337
G01 X-22.2210 Y-7.4550
G01 X-22.2008 Y-7.4761
G01 X-22.1805 Y-7.4946
G01 X-22.1504 Y-7.5175
G01 X-22.1257 Y-7.5332
G01 X-22.1014 Y-7.5462
G01 X-22.0747 Y-7.5580
G01 X-22.0389 Y-7.5703
G01 X-22.0122 Y-7.5769
G01 X-21.9749 Y-7.5830
G01 X-21.9561 Y-7.5846
G01 X-21.9320 Y-7.5854
G01 X-21.0991 Y-7.5854
G01 X-19.9583 Y-8.7263
G01 X-19.9153 Y-8.7663
G01 X-21.3201 Y-8.0063
G01 X-21.2734 Y-8.0063
G01 X-20.9342 Y-8.3455
G01 X-20.9809 Y-8.3455
G01 X-21.3201 Y-8.0063
G01 X-21.8281 Y-7.7958
G01 X-21.1863 Y-7.7958
G01 X-20.4262 Y-8.5559
G01 X-21.0681 Y-8.5559
G01 X-21.8281 Y-7.7958
G00 Z1.9990
G00 X-24.6458 Y-6.3960
G01 F80.00
G01 Z-0.4665
G01 F80.00
G01 X-24.6424 Y-6.4462
G01 X-24.6365 Y-6.4961
G01 X-24.6281 Y-6.5457
G01 X-24.6173 Y-6.5949
G01 X-24.6041 Y-6.6434
G01 X-24.5883 Y-6.6917
G01 X-24.5705 Y-6.7385
G01 X-24.5469 Y-6.7917
G01 X-24.5239 Y-6.8369
G01 X-24.5011 Y-6.8770
G01 X-24.4744 Y-6.9193
G01 X-24.4427 Y-6.9640
G01 X-24.4116 Y-7.0035
G01 X-24.3786 Y-7.0415
G01 X-24.3468 Y-7.0748
G01 X-24.3135 Y-7.1066
G01 X-24.2973 Y-7.1208
G01 X-24.2972 Y-7.5564
G01 X-24.2962 Y-7.5895
G01 X-24.2944 Y-7.6140
G01 X-24.2895 Y-7.6543
G01 X-24.2834 Y-7.6880
G01 X-24.2759 Y-7.7203
G01 X-24.2694 Y-7.7440
G01 X-24.2590 Y-7.7760
G01 X-24.2442 Y-7.8144
G01 X-24.2307 Y-7.8442
G01 X-24.2195 Y-7.8666
G01 X-24.2033 Y-7.8955
G01 X-24.1836 Y-7.9271
G01 X-24.1618 Y-7.9577
G01 X-24.1412 Y-7.9837
G01 X-24.1252 Y-8.0023
G01 X-24.0995 Y-8.0296
G01 X-21.9965 Y-10.1325
G01 X-21.9723 Y-10.1552
G01 X-21.9471 Y-10.1767
G01 X-21.9277 Y-10.1918
G01 X-21.8971 Y-10.2136
G01 X-21.8693 Y-10.2311
G01 X-21.8366 Y-10.2495
G01 X-21.8069 Y-10.2642
G01 X-21.7765 Y-10.2774
G01 X-21.7536 Y-10.2863
G01 X-21.7222 Y-10.2969
G01 X-21.6820 Y-10.3080
G01 X-21.6496 Y-10.3151
G01 X-21.6243 Y-10.3195
G01 X-21.5840 Y-10.3244
G01 X-21.5509 Y-10.3266
G01 X-21.5221 Y-10.3273
G01 X-12.2177 Y-10.3273
G01 X-4.2672 Y-18.2777
G01 X-4.2719 Y-18.3157
G01 X-4.2756 Y-18.3629
G01 X-4.2769 Y-18.4107
G01 X-4.2759 Y-18.4607
G01 X-4.2718 Y-18.5148
G01 X-4.2658 Y-18.5623
G01 X-4.2574 Y-18.6094
G01 X-4.2488 Y-18.6477
G01 X-4.2362 Y-18.6939
G01 X-4.2185 Y-18.7475
G01 X-4.2011 Y-18.7921
G01 X-4.1817 Y-18.8353
G01 X-4.1639 Y-18.8708
G01 X-4.1382 Y-18.9163
G01 X-4.1128 Y-18.9565
G01 X-4.0825 Y-18.9992
G01 X-4.0529 Y-19.0368
G01 X-4.0273 Y-19.0666
G01 X-3.9914 Y-19.1044
G01 X-3.9536 Y-19.1403
G01 X-3.9172 Y-19.1714
G01 X-3.8793 Y-19.2006
G01 X-3.8435 Y-19.2258
G01 X-3.8069 Y-19.2490
G01 X-3.7654 Y-19.2728
G01 X-3.7223 Y-19.2947
G01 X-3.6711 Y-19.3174
G01 X-3.6269 Y-19.3343
G01 X-3.5891 Y-19.3467
G01 X-3.5431 Y-19.3597
G01 X-3.4963 Y-19.3704
G01 X-3.4482 Y-19.3790
G01 X-3.4013 Y-19.3849
G01 X-3.3455 Y-19.3890
G01 X-3.3020 Y-19.3900
G01 X-3.2499 Y-19.3886
G01 X-3.2022 Y-19.3848
G01 X-3.1632 Y-19.3800
G01 X-3.1160 Y-19.3721
G01 X-3.0693 Y-19.3618
G01 X-3.0231 Y-19.3492
G01 X-2.9771 Y-19.3343
G01 X-2.9249 Y-19.3141
G01 X-2.8817 Y-19.2947
G01 X-2.8386 Y-19.2728
G01 X-2.7971 Y-19.2490
G01 X-2.7605 Y-19.2258
G01 X-2.7247 Y-19.2006
G01 X-2.6868 Y-19.1714
G01 X-2.6504 Y-19.1403
G01 X-2.6126 Y-19.1044
G01 X-2.5767 Y-19.0666
G01 X-2.5456 Y-19.0302
G01 X-2.5164 Y-18.9923
G01 X-2.4912 Y-18.9565
G01 X-2.4680 Y-18.9199
G01 X-2.4442 Y-18.8784
G01 X-2.4188 Y-18.8280
G01 X-2.3996 Y-18.7841
G01 X-2.3827 Y-18.7399
G01 X-2.3703 Y-18.7021
G01 X-2.3573 Y-18.6561
G01 X-2.3449 Y-18.6010
G01 X-2.3380 Y-18.5612
G01 X-2.3321 Y-18.5143
G01 X-2.3280 Y-18.4585
G01 X-2.3270 Y-18.4150
G01 X-2.3281 Y-18.3693
G01 X-2.3313 Y-18.3237
G01 X-2.3370 Y-18.2762
G01 X-2.3466 Y-18.2206
G01 X-2.3573 Y-18.1739
G01 X-2.3678 Y-18.1361
G01 X-2.3855 Y-18.0825
G01 X-2.4029 Y-18.0379
G01 X-2.4223 Y-17.9947
G01 X-2.4401 Y-17.9592
G01 X-2.4636 Y-17.9175
G01 X-2.4912 Y-17.8735
G01 X-2.5164 Y-17.8377
G01 X-2.5456 Y-17.7998
G01 X-2.5825 Y-17.7571
G01 X-2.6126 Y-17.7256
G01 X-2.6504 Y-17.6897
G01 X-2.6868 Y-17.6586
G01 X-2.7178 Y-17.6345
G01 X-2.7605 Y-17.6042
G01 X-2.7971 Y-17.5810
G01 X-2.8462 Y-17.5531
G01 X-2.8817 Y-17.5353
G01 X-2.9249 Y-17.5159
G01 X-2.9695 Y-17.4985
G01 X-3.0149 Y-17.4833
G01 X-3.0609 Y-17.4703
G01 X-3.1077 Y-17.4596
G01 X-3.1558 Y-17.4510
G01 X-3.1882 Y-17.4469
G01 X-11.4605 Y-9.1745
G01 X-11.4877 Y-9.1488
G01 X-11.5130 Y-9.1273
G01 X-11.5323 Y-9.1122
G01 X-11.5665 Y-9.0882
G01 X-11.5908 Y-9.0729
G01 X-11.6159 Y-9.0586
G01 X-11.6459 Y-9.0433
G01 X-11.6836 Y-9.0266
G01 X-11.7146 Y-9.0148
G01 X-11.7461 Y-9.0046
G01 X-11.7698 Y-8.9981
G01 X-11.8021 Y-8.9906
G01 X-11.8432 Y-8.9835
G01 X-11.8681 Y-8.9804
G01 X-11.9006 Y-8.9778
G01 X-11.9380 Y-8.9767
G01 X-21.2424 Y-8.9767
G01 X-22.9467 Y-7.2724
G01 X-22.9467 Y-7.1208
G01 X-22.9305 Y-7.1066
G01 X-22.8972 Y-7.0748
G01 X-22.8597 Y-7.0351
G01 X-22.8270 Y-6.9969
G01 X-22.8013 Y-6.9640
G01 X-22.7696 Y-6.9193
G01 X-22.7429 Y-6.8770
G01 X-22.7161 Y-6.8294
G01 X-22.6936 Y-6.7843
G01 X-22.6734 Y-6.7383
G01 X-22.6584 Y-6.6993
G01 X-22.6424 Y-6.6516
G01 X-22.6288 Y-6.6032
G01 X-22.6176 Y-6.5541
G01 X-22.6086 Y-6.5035
G01 X-22.6023 Y-6.4542
G01 X-22.5985 Y-6.4046
G01 X-22.5970 Y-6.3500
G01 X-22.5981 Y-6.3040
G01 X-22.6016 Y-6.2538
G01 X-22.6086 Y-6.1965
G01 X-22.6176 Y-6.1458
G01 X-22.6288 Y-6.0968
G01 X-22.6424 Y-6.0484
G01 X-22.6584 Y-6.0007
G01 X-22.6735 Y-5.9615
G01 X-22.6936 Y-5.9157
G01 X-22.7161 Y-5.8706
G01 X-22.7429 Y-5.8230
G01 X-22.7696 Y-5.7807
G01 X-22.8013 Y-5.7360
G01 X-22.8324 Y-5.6965
G01 X-22.8654 Y-5.6585
G01 X-22.8972 Y-5.6252
G01 X-22.9305 Y-5.5934
G01 X-22.9685 Y-5.5604
G01 X-23.0080 Y-5.5293
G01 X-23.0561 Y-5.4954
G01 X-23.0950 Y-5.4709
G01 X-23.1351 Y-5.4481
G01 X-23.1877 Y-5.4216
G01 X-23.2337 Y-5.4014
G01 X-23.2727 Y-5.3864
G01 X-23.3286 Y-5.3679
G01 X-23.3771 Y-5.3547
G01 X-23.4263 Y-5.3439
G01 X-23.4685 Y-5.3366
G01 X-23.5258 Y-5.3296
G01 X-23.5760 Y-5.3261
G01 X-23.6177 Y-5.3251
G01 X-23.6766 Y-5.3265
G01 X-23.7267 Y-5.3304
G01 X-23.7681 Y-5.3355
G01 X-23.8262 Y-5.3456
G01 X-23.8752 Y-5.3568
G01 X-23.9154 Y-5.3679
G01 X-23.9637 Y-5.3837
G01 X-24.0182 Y-5.4047
G01 X-24.0637 Y-5.4251
G01 X-24.1014 Y-5.4441
G01 X-24.1490 Y-5.4709
G01 X-24.1950 Y-5.5002
G01 X-24.2360 Y-5.5293
G01 X-24.2689 Y-5.5550
G01 X-24.3135 Y-5.5934
G01 X-24.3468 Y-5.6252
G01 X-24.3786 Y-5.6585
G01 X-24.4170 Y-5.7031
G01 X-24.4427 Y-5.7360
G01 X-24.4718 Y-5.7770
G01 X-24.5033 Y-5.8268
G01 X-24.5279 Y-5.8706
G01 X-24.5469 Y-5.9083
G01 X-24.5706 Y-5.9617
G01 X-24.5883 Y-6.0083
G01 X-24.6016 Y-6.0484
G01 X-24.6173 Y-6.1051
G01 X-24.6264 Y-6.1459
G01 X-24.6352 Y-6.1954
G01 X-24.6417 Y-6.2458
G01 X-24.6459 Y-6.3040
G01 X-24.6470 Y-6.3500
G01 X-24.6458 Y-6.3960
G00 Z1.9990
G00 X-24.5045 Y-5.4857
G01 F80.00
G01 Z-0.4665
G01 F80.00
G01 X-24.5368 Y-5.5197
G01 X-24.5709 Y-5.5590
G01 X-24.6086 Y-5.6065
G01 X-24.6479 Y-5.6617
G01 X-24.6767 Y-5.7068
G01 X-24.7095 Y-5.7639
G01 X-24.7373 Y-5.8186
G01 X-24.7617 Y-5.8733
G01 X-24.7819 Y-5.9249
G01 X-24.8029 Y-5.9873
G01 X-24.8193 Y-6.0457
G01 X-24.8328 Y-6.1049
G01 X-24.8437 Y-6.1663
G01 X-24.8511 Y-6.2256
G01 X-24.8557 Y-6.2851
G01 X-24.8574 Y-6.3474
G01 X-24.8562 Y-6.4033
G01 X-24.9269 Y-6.3326
G01 X-24.9283 Y-6.2851
G01 X-24.9317 Y-6.2383
G01 X-24.9387 Y-6.1781
G01 X-24.9495 Y-6.1132
G01 X-24.9614 Y-6.0590
G01 X-24.9786 Y-5.9955
G01 X-24.9976 Y-5.9372
G01 X-25.0192 Y-5.8809
G01 X-25.0433 Y-5.8260
G01 X-25.0705 Y-5.7714
G01 X-25.0976 Y-5.7230
G01 X-25.1386 Y-5.6580
G01 X-25.1723 Y-5.6106
G01 X-25.2043 Y-5.5696
G01 X-25.2438 Y-5.5236
G01 X-25.2795 Y-5.4857
G01 X-24.5045 Y-5.4857
G00 Z1.9990
G00 X-27.1858 Y-6.3960
G01 F80.00
G01 Z-0.4665
G01 F80.00
G01 X-27.1824 Y-6.4462
G01 X-27.1765 Y-6.4961
G01 X-27.1681 Y-6.5457
G01 X-27.1573 Y-6.5949
G01 X-27.1441 Y-6.6434
G01 X-27.1283 Y-6.6917
G01 X-27.1105 Y-6.7385
G01 X-27.0869 Y-6.7917
G01 X-27.0639 Y-6.8369
G01 X-27.0411 Y-6.8770
G01 X-27.0144 Y-6.9193
G01 X-26.9827 Y-6.9640
G01 X-26.9516 Y-7.0035
G01 X-26.9186 Y-7.0415
G01 X-26.8868 Y-7.0748
G01 X-26.8471 Y-7.1123
G01 X-26.8089 Y-7.1450
G01 X-26.7691 Y-7.1758
G01 X-26.7313 Y-7.2024
G01 X-26.6890 Y-7.2291
G01 X-26.6414 Y-7.2559
G01 X-26.5963 Y-7.2784
G01 X-26.5503 Y-7.2986
G01 X-26.5037 Y-7.3163
G01 X-26.4554 Y-7.3321
G01 X-26.4069 Y-7.3453
G01 X-26.3577 Y-7.3561
G01 X-26.3081 Y-7.3645
G01 X-26.2582 Y-7.3704
G01 X-26.2080 Y-7.3739
G01 X-26.1620 Y-7.3750
G01 X-26.1160 Y-7.3739
G01 X-26.0944 Y-7.3725
G01 X-25.9873 Y-7.4797
G01 X-25.9873 Y-7.8420
G01 X-25.9866 Y-7.8708
G01 X-25.9835 Y-7.9124
G01 X-25.9795 Y-7.9442
G01 X-25.9734 Y-7.9779
G01 X-25.9659 Y-8.0102
G01 X-25.9594 Y-8.0339
G01 X-25.9490 Y-8.0659
G01 X-25.9342 Y-8.1043
G01 X-25.9207 Y-8.1341
G01 X-25.9095 Y-8.1565
G01 X-25.8889 Y-8.1928
G01 X-25.8736 Y-8.2170
G01 X-25.8569 Y-8.2408
G01 X-25.8312 Y-8.2737
G01 X-25.8094 Y-8.2986
G01 X-25.7895 Y-8.3195
G01 X-22.4555 Y-11.6535
G01 X-22.4330 Y-11.6749
G01 X-22.4030 Y-11.7007
G01 X-22.3768 Y-11.7209
G01 X-22.3530 Y-11.7376
G01 X-22.3252 Y-11.7551
G01 X-22.2925 Y-11.7735
G01 X-22.2628 Y-11.7882
G01 X-22.2324 Y-11.8014
G01 X-22.2019 Y-11.8130
G01 X-22.1699 Y-11.8234
G01 X-22.1379 Y-11.8320
G01 X-22.1055 Y-11.8391
G01 X-22.0728 Y-11.8445
G01 X-22.0399 Y-11.8484
G01 X-22.0068 Y-11.8506
G01 X-21.9780 Y-11.8513
G01 X-13.3607 Y-11.8513
G01 X-4.2766 Y-20.9354
G01 X-4.2770 Y-20.9550
G01 X-4.2759 Y-21.0007
G01 X-4.2727 Y-21.0463
G01 X-4.2670 Y-21.0938
G01 X-4.2591 Y-21.1410
G01 X-4.2488 Y-21.1877
G01 X-4.2362 Y-21.2339
G01 X-4.2213 Y-21.2799
G01 X-4.2011 Y-21.3321
G01 X-4.1817 Y-21.3753
G01 X-4.1598 Y-21.4184
G01 X-4.1360 Y-21.4599
G01 X-4.1128 Y-21.4965
G01 X-4.0876 Y-21.5323
G01 X-4.0584 Y-21.5702
G01 X-4.0273 Y-21.6066
G01 X-3.9914 Y-21.6444
G01 X-3.9536 Y-21.6803
G01 X-3.9172 Y-21.7114
G01 X-3.8793 Y-21.7406
G01 X-3.8435 Y-21.7658
G01 X-3.8069 Y-21.7890
G01 X-3.7654 Y-21.8128
G01 X-3.7223 Y-21.8347
G01 X-3.6791 Y-21.8541
G01 X-3.6269 Y-21.8743
G01 X-3.5809 Y-21.8892
G01 X-3.5347 Y-21.9018
G01 X-3.4880 Y-21.9121
G01 X-3.4408 Y-21.9200
G01 X-3.4013 Y-21.9249
G01 X-3.3541 Y-21.9286
G01 X-3.3020 Y-21.9300
G01 X-3.2563 Y-21.9289
G01 X-3.2022 Y-21.9248
G01 X-3.1558 Y-21.9190
G01 X-3.1076 Y-21.9104
G01 X-3.0609 Y-21.8997
G01 X-3.0231 Y-21.8892
G01 X-2.9776 Y-21.8744
G01 X-2.9327 Y-21.8573
G01 X-2.8890 Y-21.8382
G01 X-2.8462 Y-21.8169
G01 X-2.8007 Y-21.7912
G01 X-2.7605 Y-21.7658
G01 X-2.7178 Y-21.7355
G01 X-2.6802 Y-21.7059
G01 X-2.6441 Y-21.6745
G01 X-2.6096 Y-21.6414
G01 X-2.5767 Y-21.6066
G01 X-2.5456 Y-21.5702
G01 X-2.5215 Y-21.5392
G01 X-2.4912 Y-21.4965
G01 X-2.4658 Y-21.4563
G01 X-2.4442 Y-21.4184
G01 X-2.4223 Y-21.3753
G01 X-2.3996 Y-21.3241
G01 X-2.3827 Y-21.2799
G01 X-2.3678 Y-21.2339
G01 X-2.3552 Y-21.1877
G01 X-2.3466 Y-21.1493
G01 X-2.3380 Y-21.1012
G01 X-2.3322 Y-21.0548
G01 X-2.3280 Y-20.9985
G01 X-2.3270 Y-20.9550
G01 X-2.3280 Y-20.9115
G01 X-2.3322 Y-20.8552
G01 X-2.3380 Y-20.8088
G01 X-2.3449 Y-20.7690
G01 X-2.3573 Y-20.7139
G01 X-2.3703 Y-20.6679
G01 X-2.3827 Y-20.6301
G01 X-2.3997 Y-20.5857
G01 X-2.4188 Y-20.5420
G01 X-2.4442 Y-20.4916
G01 X-2.4658 Y-20.4537
G01 X-2.4912 Y-20.4135
G01 X-2.5164 Y-20.3777
G01 X-2.5456 Y-20.3398
G01 X-2.5825 Y-20.2971
G01 X-2.6126 Y-20.2656
G01 X-2.6504 Y-20.2297
G01 X-2.6868 Y-20.1986
G01 X-2.7247 Y-20.1694
G01 X-2.7605 Y-20.1442
G01 X-2.7971 Y-20.1210
G01 X-2.8386 Y-20.0972
G01 X-2.8817 Y-20.0753
G01 X-2.9249 Y-20.0559
G01 X-2.9771 Y-20.0357
G01 X-3.0231 Y-20.0208
G01 X-3.0693 Y-20.0082
G01 X-3.1160 Y-19.9979
G01 X-3.1632 Y-19.9900
G01 X-3.2107 Y-19.9843
G01 X-3.2585 Y-19.9810
G01 X-3.3020 Y-19.9800
G01 X-3.3216 Y-19.9804
G01 X-12.6035 Y-10.6985
G01 X-12.6307 Y-10.6728
G01 X-12.6560 Y-10.6513
G01 X-12.6753 Y-10.6362
G01 X-12.7023 Y-10.6170
G01 X-12.7338 Y-10.5969
G01 X-12.7665 Y-10.5785
G01 X-12.7889 Y-10.5673
G01 X-12.8186 Y-10.5538
G01 X-12.8571 Y-10.5390
G01 X-12.8891 Y-10.5286
G01 X-12.9211 Y-10.5200
G01 X-12.9451 Y-10.5146
G01 X-12.9788 Y-10.5085
G01 X-13.0191 Y-10.5036
G01 X-13.0522 Y-10.5014
G01 X-13.0810 Y-10.5007
G01 X-21.6983 Y-10.5007
G01 X-24.6368 Y-7.5623
G01 X-24.6368 Y-7.2000
G01 X-24.6374 Y-7.1712
G01 X-24.6396 Y-7.1381
G01 X-24.6435 Y-7.1052
G01 X-24.6489 Y-7.0725
G01 X-24.6581 Y-7.0318
G01 X-24.6671 Y-6.9999
G01 X-24.6750 Y-6.9761
G01 X-24.6866 Y-6.9454
G01 X-24.6998 Y-6.9152
G01 X-24.7186 Y-6.8779
G01 X-24.7329 Y-6.8528
G01 X-24.7504 Y-6.8250
G01 X-24.7722 Y-6.7943
G01 X-24.7928 Y-6.7683
G01 X-24.8088 Y-6.7497
G01 X-24.8345 Y-6.7225
G01 X-25.1395 Y-6.4176
G01 X-25.1381 Y-6.3960
G01 X-25.1370 Y-6.3500
G01 X-25.1385 Y-6.2954
G01 X-25.1424 Y-6.2453
G01 X-25.1486 Y-6.1965
G01 X-25.1559 Y-6.1543
G01 X-25.1688 Y-6.0968
G01 X-25.1824 Y-6.0484
G01 X-25.1984 Y-6.0007
G01 X-25.2135 Y-5.9615
G01 X-25.2336 Y-5.9157
G01 X-25.2601 Y-5.8631
G01 X-25.2851 Y-5.8194
G01 X-25.3122 Y-5.7770
G01 X-25.3413 Y-5.7360
G01 X-25.3670 Y-5.7031
G01 X-25.3997 Y-5.6649
G01 X-25.4403 Y-5.6222
G01 X-25.4769 Y-5.5877
G01 X-25.5151 Y-5.5550
G01 X-25.5480 Y-5.5293
G01 X-25.5961 Y-5.4954
G01 X-25.6350 Y-5.4709
G01 X-25.6751 Y-5.4481
G01 X-25.7277 Y-5.4216
G01 X-25.7737 Y-5.4014
G01 X-25.8127 Y-5.3864
G01 X-25.8686 Y-5.3679
G01 X-25.9171 Y-5.3547
G01 X-25.9663 Y-5.3439
G01 X-26.0085 Y-5.3366
G01 X-26.0658 Y-5.3296
G01 X-26.1160 Y-5.3261
G01 X-26.1577 Y-5.3251
G01 X-26.2166 Y-5.3265
G01 X-26.2667 Y-5.3304
G01 X-26.3081 Y-5.3355
G01 X-26.3662 Y-5.3456
G01 X-26.4152 Y-5.3568
G01 X-26.4554 Y-5.3679
G01 X-26.5037 Y-5.3837
G01 X-26.5582 Y-5.4047
G01 X-26.6037 Y-5.4251
G01 X-26.6414 Y-5.4441
G01 X-26.6890 Y-5.4709
G01 X-26.7350 Y-5.5002
G01 X-26.7760 Y-5.5293
G01 X-26.8089 Y-5.5550
G01 X-26.8535 Y-5.5934
G01 X-26.8868 Y-5.6252
G01 X-26.9186 Y-5.6585
G01 X-26.9570 Y-5.7031
G01 X-26.9827 Y-5.7360
G01 X-27.0118 Y-5.7770
G01 X-27.0433 Y-5.8268
G01 X-27.0679 Y-5.8706
G01 X-27.0869 Y-5.9083
G01 X-27.1106 Y-5.9617
G01 X-27.1283 Y-6.0083
G01 X-27.1416 Y-6.0484
G01 X-27.1573 Y-6.1051
G01 X-27.1664 Y-6.1459
G01 X-27.1752 Y-6.1954
G01 X-27.1817 Y-6.2458
G01 X-27.1859 Y-6.3040
G01 X-27.1870 Y-6.3500
G01 X-27.1858 Y-6.3960
G00 Z1.9990
G00 X-27.8195 Y-5.4857
G01 F80.00
G01 Z-0.4665
G01 F80.00
G01 X-27.0445 Y-5.4857
G01 X-27.0768 Y-5.5197
G01 X-27.1109 Y-5.5590
G01 X-27.1486 Y-5.6065
G01 X-27.1879 Y-5.6617
G01 X-27.2229 Y-5.7170
G01 X-27.2559 Y-5.7760
G01 X-27.2773 Y-5.8186
G01 X-27.2997 Y-5.8685
G01 X-27.3236 Y-5.9295
G01 X-27.3454 Y-5.9955
G01 X-27.3626 Y-6.0590
G01 X-27.3745 Y-6.1133
G01 X-27.3829 Y-6.1612
G01 X-27.3911 Y-6.2256
G01 X-27.3961 Y-6.2937
G01 X-27.3973 Y-6.3595
G01 X-27.3958 Y-6.4123
G01 X-27.3923 Y-6.4617
G01 X-27.3837 Y-6.5337
G01 X-27.3730 Y-6.5943
G01 X-27.4008 Y-6.5911
G01 X-27.4308 Y-6.5893
G01 X-27.4634 Y-6.5894
G01 X-27.4904 Y-6.5910
G01 X-27.4793 Y-6.5263
G01 X-27.4717 Y-6.4617
G01 X-27.4679 Y-6.4063
G01 X-27.4667 Y-6.3595
G01 X-27.4679 Y-6.2937
G01 X-27.4730 Y-6.2246
G01 X-27.4811 Y-6.1612
G01 X-27.4895 Y-6.1132
G01 X-27.5014 Y-6.0590
G01 X-27.5186 Y-5.9955
G01 X-27.5404 Y-5.9295
G01 X-27.5643 Y-5.8685
G01 X-27.5867 Y-5.8186
G01 X-27.6081 Y-5.7760
G01 X-27.6411 Y-5.7170
G01 X-27.6761 Y-5.6617
G01 X-27.7154 Y-5.6065
G01 X-27.7531 Y-5.5590
G01 X-27.7838 Y-5.5236
G01 X-27.8195 Y-5.4857
G00 Z1.9990
G00 X-29.7759 Y-6.7791
G01 F80.00
G01 Z-0.4665
G01 F80.00
G01 X-29.6327 Y-6.7791
G01 X-29.6039 Y-6.8369
G01 X-29.5811 Y-6.8770
G01 X-29.5518 Y-6.9230
G01 X-29.5227 Y-6.9640
G01 X-29.4916 Y-7.0035
G01 X-29.4586 Y-7.0415
G01 X-29.4268 Y-7.0748
G01 X-29.3919 Y-7.1080
G01 X-29.3555 Y-7.1396
G01 X-29.3160 Y-7.1707
G01 X-29.2750 Y-7.1998
G01 X-29.2290 Y-7.2291
G01 X-29.1889 Y-7.2519
G01 X-29.1311 Y-7.2807
G01 X-29.1311 Y-7.4346
G01 X-29.3045 Y-7.3628
G01 X-29.6493 Y-7.0486
G01 X-29.7759 Y-6.7791
G00 Z1.9990
G00 X-42.8779 Y-7.5329
G01 F80.00
G01 Z-0.4665
G01 F80.00
G01 X-42.8779 Y-7.3750
G01 X-42.4570 Y-7.3750
G01 X-42.4398 Y-7.3742
G01 X-42.4229 Y-7.3716
G01 X-42.4062 Y-7.3675
G01 X-42.3822 Y-7.3582
G01 X-42.3598 Y-7.3455
G01 X-42.3460 Y-7.3353
G01 X-42.3333 Y-7.3237
G01 X-42.3164 Y-7.3042
G01 X-42.3069 Y-7.2900
G01 X-42.2988 Y-7.2748
G01 X-42.2922 Y-7.2590
G01 X-42.2872 Y-7.2425
G01 X-42.2828 Y-7.2172
G01 X-42.2820 Y-7.2000
G01 X-42.2820 Y-6.7791
G01 X-42.1241 Y-6.7791
G01 X-42.1241 Y-7.2662
G01 X-42.1748 Y-7.3886
G01 X-42.2684 Y-7.4823
G01 X-42.3908 Y-7.5329
G01 X-42.8779 Y-7.5329
G00 Z1.9990
G00 X-44.7346 Y-6.8873
G01 F80.00
G01 Z-0.4665
G01 F80.00
G01 X-44.7073 Y-6.8267
G01 X-44.6826 Y-6.7628
G01 X-44.6636 Y-6.7045
G01 X-44.6464 Y-6.6410
G01 X-44.6362 Y-6.5951
G01 X-44.6265 Y-6.5406
G01 X-44.6185 Y-6.4796
G01 X-44.6133 Y-6.4149
G01 X-44.6116 Y-6.3474
G01 X-44.6133 Y-6.2851
G01 X-44.6186 Y-6.2195
G01 X-44.6265 Y-6.1594
G01 X-44.6362 Y-6.1048
G01 X-44.6464 Y-6.0590
G01 X-44.6636 Y-5.9955
G01 X-44.6826 Y-5.9372
G01 X-44.7074 Y-5.8731
G01 X-44.7346 Y-5.8127
G01 X-44.7074 Y-5.8106
G01 X-44.6843 Y-5.8076
G01 X-44.6577 Y-5.8028
G01 X-44.6332 Y-5.7971
G01 X-44.6090 Y-5.7902
G01 X-44.5850 Y-5.7820
G01 X-44.5617 Y-5.7728
G01 X-44.5424 Y-5.7641
G01 X-44.5424 Y-6.9359
G01 X-44.5618 Y-6.9272
G01 X-44.5850 Y-6.9180
G01 X-44.6090 Y-6.9098
G01 X-44.6332 Y-6.9029
G01 X-44.6578 Y-6.8972
G01 X-44.6843 Y-6.8924
G01 X-44.7083 Y-6.8893
G01 X-44.7346 Y-6.8873
G00 Z1.9990
G00 X-42.8779 Y-5.1671
G01 F80.00
G01 Z-0.4665
G01 F80.00
G01 X-42.3908 Y-5.1671
G01 X-42.2684 Y-5.2177
G01 X-42.1748 Y-5.3114
G01 X-42.1241 Y-5.4338
G01 X-42.1241 Y-5.9209
G01 X-42.2820 Y-5.9209
G01 X-42.2820 Y-5.5000
G01 X-42.2828 Y-5.4828
G01 X-42.2872 Y-5.4575
G01 X-42.2922 Y-5.4410
G01 X-42.2988 Y-5.4252
G01 X-42.3115 Y-5.4028
G01 X-42.3217 Y-5.3890
G01 X-42.3333 Y-5.3763
G01 X-42.3528 Y-5.3594
G01 X-42.3670 Y-5.3499
G01 X-42.3822 Y-5.3418
G01 X-42.4062 Y-5.3325
G01 X-42.4229 Y-5.3284
G01 X-42.4398 Y-5.3258
G01 X-42.4570 Y-5.3250
G01 X-42.8779 Y-5.3250
G01 X-42.8779 Y-5.1671
G00 Z1.9990
G00 X-50.3663 Y-5.8067
G01 F80.00
G01 Z-0.4665
G01 F80.00
G01 X-50.3815 Y-5.8220
G01 X-50.3799 Y-5.8010
G01 X-50.3663 Y-5.8067
G00 Z1.9990
G00 X-51.4550 Y-6.8955
G01 F80.00
G01 Z-0.4665
G01 F80.00
G01 X-51.6312 Y-7.0717
G01 X-51.6825 Y-7.0758
G01 X-51.7413 Y-7.0833
G01 X-51.7366 Y-7.0552
G01 X-51.7338 Y-7.0306
G01 X-51.7322 Y-7.0059
G01 X-51.7318 Y-6.9824
G01 X-51.7326 Y-6.9556
G01 X-51.7347 Y-6.9305
G01 X-51.7413 Y-6.8867
G01 X-51.6736 Y-6.8951
G01 X-51.6107 Y-6.8993
G01 X-51.5594 Y-6.9004
G01 X-51.5133 Y-6.8993
G01 X-51.4550 Y-6.8955
G00 Z1.9990
G00 X-52.5360 Y-5.7585
G01 F80.00
G01 Z-0.4665
G01 F80.00
G01 X-52.5327 Y-5.8063
G01 X-52.5270 Y-5.8538
G01 X-52.5191 Y-5.9010
G01 X-52.5088 Y-5.9477
G01 X-52.4962 Y-5.9939
G01 X-52.4813 Y-6.0398
G01 X-52.4643 Y-6.0843
G01 X-52.4452 Y-6.1280
G01 X-52.4239 Y-6.1708
G01 X-52.3982 Y-6.2163
G01 X-52.3728 Y-6.2565
G01 X-52.3476 Y-6.2923
G01 X-52.3184 Y-6.3302
G01 X-52.2873 Y-6.3666
G01 X-52.2514 Y-6.4044
G01 X-52.2199 Y-6.4345
G01 X-52.1838 Y-6.4659
G01 X-52.1462 Y-6.4955
G01 X-52.1035 Y-6.5258
G01 X-52.0633 Y-6.5512
G01 X-52.0254 Y-6.5728
G01 X-51.9823 Y-6.5947
G01 X-51.9391 Y-6.6141
G01 X-51.8945 Y-6.6315
G01 X-51.8491 Y-6.6467
G01 X-51.8031 Y-6.6597
G01 X-51.7563 Y-6.6704
G01 X-51.7082 Y-6.6790
G01 X-51.6613 Y-6.6849
G01 X-51.6141 Y-6.6886
G01 X-51.5620 Y-6.6900
G01 X-51.5163 Y-6.6889
G01 X-51.4622 Y-6.6848
G01 X-51.4158 Y-6.6790
G01 X-51.3760 Y-6.6721
G01 X-51.3293 Y-6.6618
G01 X-51.2831 Y-6.6492
G01 X-51.2371 Y-6.6343
G01 X-51.1927 Y-6.6173
G01 X-51.1490 Y-6.5982
G01 X-51.1062 Y-6.5769
G01 X-51.0607 Y-6.5512
G01 X-51.0205 Y-6.5258
G01 X-50.9847 Y-6.5006
G01 X-50.9468 Y-6.4714
G01 X-50.9104 Y-6.4403
G01 X-50.8726 Y-6.4044
G01 X-50.8425 Y-6.3729
G01 X-50.8111 Y-6.3368
G01 X-50.7815 Y-6.2992
G01 X-50.7512 Y-6.2565
G01 X-50.7258 Y-6.2163
G01 X-50.7042 Y-6.1784
G01 X-50.6823 Y-6.1353
G01 X-50.6629 Y-6.0921
G01 X-50.6455 Y-6.0475
G01 X-50.6303 Y-6.0021
G01 X-50.6173 Y-5.9561
G01 X-50.6066 Y-5.9093
G01 X-50.5980 Y-5.8612
G01 X-50.5921 Y-5.8143
G01 X-50.5884 Y-5.7671
G01 X-50.5870 Y-5.7150
G01 X-50.5881 Y-5.6693
G01 X-50.5922 Y-5.6152
G01 X-50.5980 Y-5.5688
G01 X-50.6049 Y-5.5290
G01 X-50.6152 Y-5.4823
G01 X-50.6278 Y-5.4361
G01 X-50.6427 Y-5.3901
G01 X-50.6597 Y-5.3457
G01 X-50.6788 Y-5.3020
G01 X-50.7001 Y-5.2592
G01 X-50.7258 Y-5.2137
G01 X-50.7512 Y-5.1735
G01 X-50.7764 Y-5.1377
G01 X-50.8056 Y-5.0998
G01 X-50.8367 Y-5.0634
G01 X-50.8726 Y-5.0256
G01 X-50.9056 Y-4.9940
G01 X-50.9402 Y-4.9641
G01 X-50.9778 Y-4.9345
G01 X-51.0205 Y-4.9042
G01 X-51.0607 Y-4.8788
G01 X-51.0986 Y-4.8572
G01 X-51.1417 Y-4.8353
G01 X-51.1849 Y-4.8159
G01 X-51.2295 Y-4.7985
G01 X-51.2749 Y-4.7833
G01 X-51.3209 Y-4.7703
G01 X-51.3677 Y-4.7596
G01 X-51.4158 Y-4.7510
G01 X-51.4627 Y-4.7451
G01 X-51.5099 Y-4.7414
G01 X-51.5620 Y-4.7400
G01 X-51.6077 Y-4.7411
G01 X-51.6618 Y-4.7452
G01 X-51.7082 Y-4.7510
G01 X-51.7480 Y-4.7579
G01 X-51.7947 Y-4.7682
G01 X-51.8409 Y-4.7808
G01 X-51.8869 Y-4.7957
G01 X-51.9313 Y-4.8127
G01 X-51.9750 Y-4.8318
G01 X-52.0178 Y-4.8531
G01 X-52.0633 Y-4.8788
G01 X-52.1035 Y-4.9042
G01 X-52.1393 Y-4.9294
G01 X-52.1772 Y-4.9586
G01 X-52.2136 Y-4.9897
G01 X-52.2514 Y-5.0256
G01 X-52.2830 Y-5.0586
G01 X-52.3129 Y-5.0932
G01 X-52.3425 Y-5.1308
G01 X-52.3728 Y-5.1735
G01 X-52.3982 Y-5.2137
G01 X-52.4198 Y-5.2516
G01 X-52.4417 Y-5.2947
G01 X-52.4611 Y-5.3379
G01 X-52.4785 Y-5.3825
G01 X-52.4937 Y-5.4279
G01 X-52.5067 Y-5.4739
G01 X-52.5174 Y-5.5207
G01 X-52.5260 Y-5.5688
G01 X-52.5319 Y-5.6157
G01 X-52.5356 Y-5.6629
G01 X-52.5370 Y-5.7150
G01 X-52.5360 Y-5.7585
G00 Z1.9990
G00 X-51.7413 Y-4.5433
G01 F80.00
G01 Z-0.4665
G01 F80.00
G01 X-51.7366 Y-4.5152
G01 X-51.7338 Y-4.4906
G01 X-51.7322 Y-4.4659
G01 X-51.7318 Y-4.4424
G01 X-51.7326 Y-4.4156
G01 X-51.7347 Y-4.3905
G01 X-51.7413 Y-4.3467
G01 X-51.6688 Y-4.3555
G01 X-51.6159 Y-4.3592
G01 X-51.5646 Y-4.3604
G01 X-51.5047 Y-4.3590
G01 X-51.4552 Y-4.3555
G01 X-51.3827 Y-4.3467
G01 X-51.3874 Y-4.3748
G01 X-51.3902 Y-4.3994
G01 X-51.3918 Y-4.4241
G01 X-51.3922 Y-4.4476
G01 X-51.3914 Y-4.4744
G01 X-51.3893 Y-4.4995
G01 X-51.3827 Y-4.5433
G01 X-51.4552 Y-4.5345
G01 X-51.5081 Y-4.5308
G01 X-51.5594 Y-4.5296
G01 X-51.6193 Y-4.5310
G01 X-51.6688 Y-4.5345
G01 X-51.7413 Y-4.5433
G00 Z1.9990
G00 X-52.5360 Y-3.2185
G01 F80.00
G01 Z-0.4665
G01 F80.00
G01 X-52.5327 Y-3.2663
G01 X-52.5270 Y-3.3138
G01 X-52.5191 Y-3.3610
G01 X-52.5088 Y-3.4077
G01 X-52.4962 Y-3.4539
G01 X-52.4813 Y-3.4998
G01 X-52.4643 Y-3.5443
G01 X-52.4452 Y-3.5880
G01 X-52.4239 Y-3.6308
G01 X-52.3982 Y-3.6763
G01 X-52.3728 Y-3.7165
G01 X-52.3476 Y-3.7523
G01 X-52.3184 Y-3.7902
G01 X-52.2873 Y-3.8266
G01 X-52.2514 Y-3.8644
G01 X-52.2199 Y-3.8945
G01 X-52.1838 Y-3.9259
G01 X-52.1462 Y-3.9555
G01 X-52.1035 Y-3.9858
G01 X-52.0633 Y-4.0112
G01 X-52.0254 Y-4.0328
G01 X-51.9823 Y-4.0547
G01 X-51.9391 Y-4.0741
G01 X-51.8945 Y-4.0915
G01 X-51.8491 Y-4.1067
G01 X-51.8031 Y-4.1197
G01 X-51.7563 Y-4.1304
G01 X-51.7082 Y-4.1390
G01 X-51.6613 Y-4.1449
G01 X-51.6141 Y-4.1486
G01 X-51.5620 Y-4.1500
G01 X-51.5163 Y-4.1489
G01 X-51.4622 Y-4.1448
G01 X-51.4158 Y-4.1390
G01 X-51.3760 Y-4.1321
G01 X-51.3293 Y-4.1218
G01 X-51.2831 Y-4.1092
G01 X-51.2371 Y-4.0943
G01 X-51.1927 Y-4.0773
G01 X-51.1490 Y-4.0582
G01 X-51.1062 Y-4.0369
G01 X-51.0607 Y-4.0112
G01 X-51.0205 Y-3.9858
G01 X-50.9847 Y-3.9606
G01 X-50.9468 Y-3.9314
G01 X-50.9104 Y-3.9003
G01 X-50.8726 Y-3.8644
G01 X-50.8425 Y-3.8329
G01 X-50.8111 Y-3.7968
G01 X-50.7815 Y-3.7592
G01 X-50.7512 Y-3.7165
G01 X-50.7258 Y-3.6763
G01 X-50.7042 Y-3.6384
G01 X-50.6823 Y-3.5953
G01 X-50.6629 Y-3.5521
G01 X-50.6455 Y-3.5075
G01 X-50.6303 Y-3.4621
G01 X-50.6173 Y-3.4161
G01 X-50.6066 Y-3.3693
G01 X-50.5980 Y-3.3212
G01 X-50.5921 Y-3.2743
G01 X-50.5884 Y-3.2271
G01 X-50.5870 Y-3.1750
G01 X-50.5881 Y-3.1293
G01 X-50.5922 Y-3.0752
G01 X-50.5980 Y-3.0288
G01 X-50.6049 Y-2.9890
G01 X-50.6152 Y-2.9423
G01 X-50.6278 Y-2.8961
G01 X-50.6427 Y-2.8501
G01 X-50.6597 Y-2.8057
G01 X-50.6788 Y-2.7620
G01 X-50.7001 Y-2.7192
G01 X-50.7258 Y-2.6737
G01 X-50.7512 Y-2.6335
G01 X-50.7764 Y-2.5977
G01 X-50.8056 Y-2.5598
G01 X-50.8367 Y-2.5234
G01 X-50.8726 Y-2.4856
G01 X-50.9056 Y-2.4540
G01 X-50.9402 Y-2.4241
G01 X-50.9778 Y-2.3945
G01 X-51.0205 Y-2.3642
G01 X-51.0607 Y-2.3388
G01 X-51.0986 Y-2.3172
G01 X-51.1417 Y-2.2953
G01 X-51.1849 Y-2.2759
G01 X-51.2295 Y-2.2585
G01 X-51.2749 Y-2.2433
G01 X-51.3209 Y-2.2303
G01 X-51.3677 Y-2.2196
G01 X-51.4158 Y-2.2110
G01 X-51.4627 Y-2.2051
G01 X-51.5099 Y-2.2014
G01 X-51.5620 Y-2.2000
G01 X-51.6077 Y-2.2011
G01 X-51.6618 Y-2.2052
G01 X-51.7082 Y-2.2110
G01 X-51.7480 Y-2.2179
G01 X-51.7947 Y-2.2282
G01 X-51.8409 Y-2.2408
G01 X-51.8869 Y-2.2557
G01 X-51.9313 Y-2.2727
G01 X-51.9750 Y-2.2918
G01 X-52.0178 Y-2.3131
G01 X-52.0633 Y-2.3388
G01 X-52.1035 Y-2.3642
G01 X-52.1393 Y-2.3894
G01 X-52.1772 Y-2.4186
G01 X-52.2136 Y-2.4497
G01 X-52.2514 Y-2.4856
G01 X-52.2830 Y-2.5186
G01 X-52.3129 Y-2.5532
G01 X-52.3425 Y-2.5908
G01 X-52.3728 Y-2.6335
G01 X-52.3982 Y-2.6737
G01 X-52.4198 Y-2.7116
G01 X-52.4417 Y-2.7547
G01 X-52.4611 Y-2.7979
G01 X-52.4785 Y-2.8425
G01 X-52.4937 Y-2.8879
G01 X-52.5067 Y-2.9339
G01 X-52.5174 Y-2.9807
G01 X-52.5260 Y-3.0288
G01 X-52.5319 Y-3.0757
G01 X-52.5356 Y-3.1229
G01 X-52.5370 Y-3.1750
G01 X-52.5360 Y-3.2185
G00 Z1.9990
G00 X-52.5360 Y-8.2985
G01 F80.00
G01 Z-0.4665
G01 F80.00
G01 X-52.5327 Y-8.3463
G01 X-52.5260 Y-8.4012
G01 X-52.5174 Y-8.4494
G01 X-52.5067 Y-8.4961
G01 X-52.4937 Y-8.5421
G01 X-52.4813 Y-8.5798
G01 X-52.4644 Y-8.6241
G01 X-52.4452 Y-8.6680
G01 X-52.4239 Y-8.7108
G01 X-52.3982 Y-8.7563
G01 X-52.3703 Y-8.8002
G01 X-52.3425 Y-8.8392
G01 X-52.3129 Y-8.8768
G01 X-52.2873 Y-8.9066
G01 X-52.2514 Y-8.9444
G01 X-52.2136 Y-8.9803
G01 X-52.1772 Y-9.0114
G01 X-52.1393 Y-9.0406
G01 X-52.1035 Y-9.0658
G01 X-52.0669 Y-9.0890
G01 X-52.0254 Y-9.1128
G01 X-51.9823 Y-9.1347
G01 X-51.9391 Y-9.1541
G01 X-51.8869 Y-9.1743
G01 X-51.8409 Y-9.1892
G01 X-51.7947 Y-9.2018
G01 X-51.7480 Y-9.2121
G01 X-51.7008 Y-9.2200
G01 X-51.6613 Y-9.2249
G01 X-51.6141 Y-9.2286
G01 X-51.5620 Y-9.2300
G01 X-51.5163 Y-9.2289
G01 X-51.4622 Y-9.2248
G01 X-51.4147 Y-9.2188
G01 X-51.3676 Y-9.2104
G01 X-51.3293 Y-9.2018
G01 X-51.2831 Y-9.1892
G01 X-51.2295 Y-9.1715
G01 X-51.1927 Y-9.1573
G01 X-51.1490 Y-9.1382
G01 X-51.0986 Y-9.1128
G01 X-51.0571 Y-9.0890
G01 X-51.0205 Y-9.0658
G01 X-50.9847 Y-9.0406
G01 X-50.9402 Y-9.0059
G01 X-50.9041 Y-8.9745
G01 X-50.8756 Y-8.9474
G01 X-50.8367 Y-8.9066
G01 X-50.8056 Y-8.8702
G01 X-50.7764 Y-8.8323
G01 X-50.7512 Y-8.7965
G01 X-50.7258 Y-8.7563
G01 X-50.7042 Y-8.7184
G01 X-50.6823 Y-8.6753
G01 X-50.6629 Y-8.6321
G01 X-50.6455 Y-8.5875
G01 X-50.6303 Y-8.5421
G01 X-50.6173 Y-8.4961
G01 X-50.6066 Y-8.4493
G01 X-50.5980 Y-8.4012
G01 X-50.5921 Y-8.3543
G01 X-50.5884 Y-8.3071
G01 X-50.5871 Y-8.2593
G01 X-50.5874 Y-8.2354
G01 X-49.3773 Y-7.0253
G01 X-46.6178 Y-7.0253
G01 X-46.6036 Y-7.0415
G01 X-46.5718 Y-7.0748
G01 X-46.5321 Y-7.1123
G01 X-46.4939 Y-7.1450
G01 X-46.4610 Y-7.1707
G01 X-46.4163 Y-7.2024
G01 X-46.3702 Y-7.2313
G01 X-46.3264 Y-7.2559
G01 X-46.2887 Y-7.2749
G01 X-46.2432 Y-7.2953
G01 X-46.1887 Y-7.3163
G01 X-46.1404 Y-7.3321
G01 X-46.0919 Y-7.3453
G01 X-46.0511 Y-7.3544
G01 X-45.9931 Y-7.3645
G01 X-45.9512 Y-7.3697
G01 X-45.9016 Y-7.3735
G01 X-45.8427 Y-7.3749
G01 X-45.7924 Y-7.3735
G01 X-45.7508 Y-7.3704
G01 X-45.6935 Y-7.3634
G01 X-45.6428 Y-7.3544
G01 X-45.5938 Y-7.3432
G01 X-45.5454 Y-7.3296
G01 X-45.4977 Y-7.3136
G01 X-45.4585 Y-7.2985
G01 X-45.4127 Y-7.2784
G01 X-45.3676 Y-7.2559
G01 X-45.3200 Y-7.2291
G01 X-45.2777 Y-7.2024
G01 X-45.2399 Y-7.1758
G01 X-45.2001 Y-7.1450
G01 X-45.1619 Y-7.1123
G01 X-45.1222 Y-7.0748
G01 X-45.0904 Y-7.0415
G01 X-45.0574 Y-7.0035
G01 X-45.0263 Y-6.9640
G01 X-44.9946 Y-6.9193
G01 X-44.9679 Y-6.8770
G01 X-44.9411 Y-6.8294
G01 X-44.9186 Y-6.7843
G01 X-44.8984 Y-6.7383
G01 X-44.8807 Y-6.6917
G01 X-44.8649 Y-6.6434
G01 X-44.8517 Y-6.5949
G01 X-44.8409 Y-6.5457
G01 X-44.8325 Y-6.4961
G01 X-44.8266 Y-6.4462
G01 X-44.8231 Y-6.3960
G01 X-44.8221 Y-6.3457
G01 X-44.8235 Y-6.2954
G01 X-44.8266 Y-6.2538
G01 X-44.8325 Y-6.2039
G01 X-44.8409 Y-6.1543
G01 X-44.8517 Y-6.1051
G01 X-44.8649 Y-6.0566
G01 X-44.8834 Y-6.0007
G01 X-44.8985 Y-5.9615
G01 X-44.9186 Y-5.9157
G01 X-44.9451 Y-5.8631
G01 X-44.9679 Y-5.8230
G01 X-44.9946 Y-5.7807
G01 X-45.0212 Y-5.7429
G01 X-45.0520 Y-5.7031
G01 X-45.0904 Y-5.6585
G01 X-45.1222 Y-5.6252
G01 X-45.1555 Y-5.5934
G01 X-45.2001 Y-5.5550
G01 X-45.2330 Y-5.5293
G01 X-45.2740 Y-5.5002
G01 X-45.3238 Y-5.4687
G01 X-45.3676 Y-5.4441
G01 X-45.4053 Y-5.4251
G01 X-45.4508 Y-5.4047
G01 X-45.4977 Y-5.3864
G01 X-45.5536 Y-5.3679
G01 X-45.6021 Y-5.3547
G01 X-45.6429 Y-5.3456
G01 X-45.7009 Y-5.3355
G01 X-45.7428 Y-5.3303
G01 X-45.7924 Y-5.3265
G01 X-45.8470 Y-5.3250
G01 X-45.9016 Y-5.3265
G01 X-45.9517 Y-5.3304
G01 X-46.0005 Y-5.3366
G01 X-46.0427 Y-5.3439
G01 X-46.1002 Y-5.3568
G01 X-46.1486 Y-5.3704
G01 X-46.1963 Y-5.3864
G01 X-46.2432 Y-5.4047
G01 X-46.2887 Y-5.4251
G01 X-46.3339 Y-5.4481
G01 X-46.3740 Y-5.4709
G01 X-46.4129 Y-5.4954
G01 X-46.4541 Y-5.5242
G01 X-46.5005 Y-5.5604
G01 X-46.5385 Y-5.5934
G01 X-46.5718 Y-5.6252
G01 X-46.6050 Y-5.6601
G01 X-46.6178 Y-5.6747
G01 X-49.6570 Y-5.6747
G01 X-49.6858 Y-5.6754
G01 X-49.7189 Y-5.6776
G01 X-49.7592 Y-5.6825
G01 X-49.7929 Y-5.6886
G01 X-49.8252 Y-5.6961
G01 X-49.8489 Y-5.7026
G01 X-49.8809 Y-5.7130
G01 X-49.9116 Y-5.7246
G01 X-49.9491 Y-5.7413
G01 X-49.9791 Y-5.7566
G01 X-50.0078 Y-5.7731
G01 X-50.0320 Y-5.7884
G01 X-50.0558 Y-5.8051
G01 X-50.0887 Y-5.8308
G01 X-50.1136 Y-5.8526
G01 X-50.1345 Y-5.8725
G01 X-51.5424 Y-7.2804
G01 X-51.5620 Y-7.2800
G01 X-51.6077 Y-7.2811
G01 X-51.6533 Y-7.2843
G01 X-51.7008 Y-7.2900
G01 X-51.7480 Y-7.2979
G01 X-51.7947 Y-7.3082
G01 X-51.8409 Y-7.3208
G01 X-51.8869 Y-7.3357
G01 X-51.9313 Y-7.3527
G01 X-51.9750 Y-7.3718
G01 X-52.0178 Y-7.3931
G01 X-52.0633 Y-7.4188
G01 X-52.1035 Y-7.4442
G01 X-52.1393 Y-7.4694
G01 X-52.1772 Y-7.4986
G01 X-52.2136 Y-7.5297
G01 X-52.2484 Y-7.5626
G01 X-52.2830 Y-7.5986
G01 X-52.3129 Y-7.6332
G01 X-52.3425 Y-7.6708
G01 X-52.3728 Y-7.7135
G01 X-52.3982 Y-7.7537
G01 X-52.4239 Y-7.7992
G01 X-52.4452 Y-7.8420
G01 X-52.4644 Y-7.8859
G01 X-52.4813 Y-7.9302
G01 X-52.4937 Y-7.9679
G01 X-52.5067 Y-8.0139
G01 X-52.5174 Y-8.0607
G01 X-52.5258 Y-8.1077
G01 X-52.5319 Y-8.1557
G01 X-52.5356 Y-8.2029
G01 X-52.5370 Y-8.2550
G01 X-52.5360 Y-8.2985
G00 Z1.9990
G00 X-51.3827 Y-9.6233
G01 F80.00
G01 Z-0.4665
G01 F80.00
G01 X-51.4552 Y-9.6145
G01 X-51.5081 Y-9.6108
G01 X-51.5594 Y-9.6096
G01 X-51.6193 Y-9.6110
G01 X-51.6688 Y-9.6145
G01 X-51.7413 Y-9.6233
G01 X-51.7366 Y-9.5952
G01 X-51.7338 Y-9.5706
G01 X-51.7322 Y-9.5459
G01 X-51.7318 Y-9.5224
G01 X-51.7326 Y-9.4956
G01 X-51.7347 Y-9.4705
G01 X-51.7413 Y-9.4267
G01 X-51.6688 Y-9.4355
G01 X-51.6159 Y-9.4392
G01 X-51.5646 Y-9.4404
G01 X-51.5047 Y-9.4390
G01 X-51.4552 Y-9.4355
G01 X-51.3827 Y-9.4267
G01 X-51.3874 Y-9.4548
G01 X-51.3902 Y-9.4794
G01 X-51.3918 Y-9.5041
G01 X-51.3922 Y-9.5276
G01 X-51.3914 Y-9.5544
G01 X-51.3893 Y-9.5795
G01 X-51.3827 Y-9.6233
G00 Z1.9990
G00 X-52.5360 Y-10.8385
G01 F80.00
G01 Z-0.4665
G01 F80.00
G01 X-52.5327 Y-10.8863
G01 X-52.5270 Y-10.9338
G01 X-52.5191 Y-10.9810
G01 X-52.5088 Y-11.0277
G01 X-52.4962 Y-11.0739
G01 X-52.4813 Y-11.1198
G01 X-52.4643 Y-11.1643
G01 X-52.4452 Y-11.2080
G01 X-52.4239 Y-11.2508
G01 X-52.3982 Y-11.2963
G01 X-52.3728 Y-11.3365
G01 X-52.3476 Y-11.3723
G01 X-52.3184 Y-11.4102
G01 X-52.2873 Y-11.4466
G01 X-52.2514 Y-11.4844
G01 X-52.2199 Y-11.5145
G01 X-52.1838 Y-11.5459
G01 X-52.1462 Y-11.5755
G01 X-52.1035 Y-11.6058
G01 X-52.0633 Y-11.6312
G01 X-52.0254 Y-11.6528
G01 X-51.9823 Y-11.6747
G01 X-51.9391 Y-11.6941
G01 X-51.8945 Y-11.7115
G01 X-51.8491 Y-11.7267
G01 X-51.8031 Y-11.7397
G01 X-51.7563 Y-11.7504
G01 X-51.7082 Y-11.7590
G01 X-51.6613 Y-11.7649
G01 X-51.6141 Y-11.7686
G01 X-51.5620 Y-11.7700
G01 X-51.5163 Y-11.7689
G01 X-51.4622 Y-11.7648
G01 X-51.4158 Y-11.7590
G01 X-51.3760 Y-11.7521
G01 X-51.3293 Y-11.7418
G01 X-51.2831 Y-11.7292
G01 X-51.2371 Y-11.7143
G01 X-51.1927 Y-11.6973
G01 X-51.1490 Y-11.6782
G01 X-51.1062 Y-11.6569
G01 X-51.0607 Y-11.6312
G01 X-51.0205 Y-11.6058
G01 X-50.9847 Y-11.5806
G01 X-50.9468 Y-11.5514
G01 X-50.9104 Y-11.5203
G01 X-50.8726 Y-11.4844
G01 X-50.8425 Y-11.4529
G01 X-50.8111 Y-11.4168
G01 X-50.7815 Y-11.3792
G01 X-50.7512 Y-11.3365
G01 X-50.7258 Y-11.2963
G01 X-50.7042 Y-11.2584
G01 X-50.6823 Y-11.2153
G01 X-50.6629 Y-11.1721
G01 X-50.6455 Y-11.1275
G01 X-50.6303 Y-11.0821
G01 X-50.6173 Y-11.0361
G01 X-50.6066 Y-10.9893
G01 X-50.5980 Y-10.9412
G01 X-50.5921 Y-10.8943
G01 X-50.5884 Y-10.8471
G01 X-50.5870 Y-10.7950
G01 X-50.5881 Y-10.7493
G01 X-50.5922 Y-10.6952
G01 X-50.5980 Y-10.6488
G01 X-50.6049 Y-10.6090
G01 X-50.6152 Y-10.5623
G01 X-50.6278 Y-10.5161
G01 X-50.6427 Y-10.4701
G01 X-50.6597 Y-10.4257
G01 X-50.6788 Y-10.3820
G01 X-50.7001 Y-10.3392
G01 X-50.7258 Y-10.2937
G01 X-50.7512 Y-10.2535
G01 X-50.7764 Y-10.2177
G01 X-50.8056 Y-10.1798
G01 X-50.8367 Y-10.1434
G01 X-50.8726 Y-10.1056
G01 X-50.9056 Y-10.0740
G01 X-50.9402 Y-10.0441
G01 X-50.9778 Y-10.0145
G01 X-51.0205 Y-9.9842
G01 X-51.0607 Y-9.9588
G01 X-51.0986 Y-9.9372
G01 X-51.1417 Y-9.9153
G01 X-51.1849 Y-9.8959
G01 X-51.2295 Y-9.8785
G01 X-51.2749 Y-9.8633
G01 X-51.3209 Y-9.8503
G01 X-51.3677 Y-9.8396
G01 X-51.4158 Y-9.8310
G01 X-51.4627 Y-9.8251
G01 X-51.5099 Y-9.8214
G01 X-51.5620 Y-9.8200
G01 X-51.6077 Y-9.8211
G01 X-51.6618 Y-9.8252
G01 X-51.7082 Y-9.8310
G01 X-51.7480 Y-9.8379
G01 X-51.7947 Y-9.8482
G01 X-51.8409 Y-9.8608
G01 X-51.8869 Y-9.8757
G01 X-51.9313 Y-9.8927
G01 X-51.9750 Y-9.9118
G01 X-52.0178 Y-9.9331
G01 X-52.0633 Y-9.9588
G01 X-52.1035 Y-9.9842
G01 X-52.1393 Y-10.0094
G01 X-52.1772 Y-10.0386
G01 X-52.2136 Y-10.0697
G01 X-52.2514 Y-10.1056
G01 X-52.2830 Y-10.1386
G01 X-52.3129 Y-10.1732
G01 X-52.3425 Y-10.2108
G01 X-52.3728 Y-10.2535
G01 X-52.3982 Y-10.2937
G01 X-52.4198 Y-10.3316
G01 X-52.4417 Y-10.3747
G01 X-52.4611 Y-10.4179
G01 X-52.4785 Y-10.4625
G01 X-52.4937 Y-10.5079
G01 X-52.5067 Y-10.5539
G01 X-52.5174 Y-10.6007
G01 X-52.5260 Y-10.6488
G01 X-52.5319 Y-10.6957
G01 X-52.5356 Y-10.7429
G01 X-52.5370 Y-10.7950
G01 X-52.5360 Y-10.8385
G00 Z1.9990
G00 X-51.3827 Y-12.1633
G01 F80.00
G01 Z-0.4665
G01 F80.00
G01 X-51.4552 Y-12.1545
G01 X-51.5081 Y-12.1508
G01 X-51.5594 Y-12.1496
G01 X-51.6193 Y-12.1510
G01 X-51.6688 Y-12.1545
G01 X-51.7413 Y-12.1633
G01 X-51.7366 Y-12.1352
G01 X-51.7338 Y-12.1106
G01 X-51.7322 Y-12.0859
G01 X-51.7318 Y-12.0624
G01 X-51.7326 Y-12.0356
G01 X-51.7347 Y-12.0105
G01 X-51.7413 Y-11.9667
G01 X-51.6688 Y-11.9755
G01 X-51.6159 Y-11.9792
G01 X-51.5646 Y-11.9804
G01 X-51.5047 Y-11.9790
G01 X-51.4552 Y-11.9755
G01 X-51.3827 Y-11.9667
G01 X-51.3874 Y-11.9948
G01 X-51.3902 Y-12.0194
G01 X-51.3918 Y-12.0441
G01 X-51.3922 Y-12.0676
G01 X-51.3914 Y-12.0944
G01 X-51.3893 Y-12.1195
G01 X-51.3827 Y-12.1633
G00 Z1.9990
G00 X-52.5360 Y-13.3785
G01 F80.00
G01 Z-0.4665
G01 F80.00
G01 X-52.5327 Y-13.4263
G01 X-52.5270 Y-13.4738
G01 X-52.5191 Y-13.5210
G01 X-52.5088 Y-13.5677
G01 X-52.4962 Y-13.6139
G01 X-52.4813 Y-13.6598
G01 X-52.4643 Y-13.7043
G01 X-52.4452 Y-13.7480
G01 X-52.4239 Y-13.7908
G01 X-52.3982 Y-13.8363
G01 X-52.3728 Y-13.8765
G01 X-52.3476 Y-13.9123
G01 X-52.3184 Y-13.9502
G01 X-52.2873 Y-13.9866
G01 X-52.2514 Y-14.0244
G01 X-52.2199 Y-14.0545
G01 X-52.1838 Y-14.0859
G01 X-52.1462 Y-14.1155
G01 X-52.1035 Y-14.1458
G01 X-52.0633 Y-14.1712
G01 X-52.0254 Y-14.1928
G01 X-51.9823 Y-14.2147
G01 X-51.9391 Y-14.2341
G01 X-51.8945 Y-14.2515
G01 X-51.8491 Y-14.2667
G01 X-51.8031 Y-14.2797
G01 X-51.7563 Y-14.2904
G01 X-51.7082 Y-14.2990
G01 X-51.6613 Y-14.3049
G01 X-51.6141 Y-14.3086
G01 X-51.5620 Y-14.3100
G01 X-51.5163 Y-14.3089
G01 X-51.4622 Y-14.3048
G01 X-51.4158 Y-14.2990
G01 X-51.3760 Y-14.2921
G01 X-51.3293 Y-14.2818
G01 X-51.2831 Y-14.2692
G01 X-51.2371 Y-14.2543
G01 X-51.1927 Y-14.2373
G01 X-51.1490 Y-14.2182
G01 X-51.1062 Y-14.1969
G01 X-51.0607 Y-14.1712
G01 X-51.0205 Y-14.1458
G01 X-50.9847 Y-14.1206
G01 X-50.9468 Y-14.0914
G01 X-50.9104 Y-14.0603
G01 X-50.8726 Y-14.0244
G01 X-50.8410 Y-13.9914
G01 X-50.8111 Y-13.9568
G01 X-50.7815 Y-13.9192
G01 X-50.7512 Y-13.8765
G01 X-50.7258 Y-13.8363
G01 X-50.7042 Y-13.7984
G01 X-50.6823 Y-13.7553
G01 X-50.6629 Y-13.7121
G01 X-50.6455 Y-13.6675
G01 X-50.6303 Y-13.6221
G01 X-50.6173 Y-13.5761
G01 X-50.6066 Y-13.5293
G01 X-50.5980 Y-13.4812
G01 X-50.5921 Y-13.4343
G01 X-50.5884 Y-13.3871
G01 X-50.5870 Y-13.3350
G01 X-50.5881 Y-13.2893
G01 X-50.5922 Y-13.2352
G01 X-50.5980 Y-13.1888
G01 X-50.6049 Y-13.1490
G01 X-50.6152 Y-13.1023
G01 X-50.6278 Y-13.0561
G01 X-50.6427 Y-13.0101
G01 X-50.6597 Y-12.9657
G01 X-50.6788 Y-12.9220
G01 X-50.7001 Y-12.8792
G01 X-50.7258 Y-12.8337
G01 X-50.7512 Y-12.7935
G01 X-50.7764 Y-12.7577
G01 X-50.8056 Y-12.7198
G01 X-50.8367 Y-12.6834
G01 X-50.8726 Y-12.6456
G01 X-50.9056 Y-12.6140
G01 X-50.9402 Y-12.5841
G01 X-50.9778 Y-12.5545
G01 X-51.0205 Y-12.5242
G01 X-51.0607 Y-12.4988
G01 X-51.0986 Y-12.4772
G01 X-51.1417 Y-12.4553
G01 X-51.1849 Y-12.4359
G01 X-51.2295 Y-12.4185
G01 X-51.2749 Y-12.4033
G01 X-51.3209 Y-12.3903
G01 X-51.3677 Y-12.3796
G01 X-51.4158 Y-12.3710
G01 X-51.4627 Y-12.3651
G01 X-51.5099 Y-12.3614
G01 X-51.5620 Y-12.3600
G01 X-51.6077 Y-12.3611
G01 X-51.6618 Y-12.3652
G01 X-51.7082 Y-12.3710
G01 X-51.7480 Y-12.3779
G01 X-51.7947 Y-12.3882
G01 X-51.8409 Y-12.4008
G01 X-51.8869 Y-12.4157
G01 X-51.9313 Y-12.4327
G01 X-51.9750 Y-12.4518
G01 X-52.0178 Y-12.4731
G01 X-52.0633 Y-12.4988
G01 X-52.1035 Y-12.5242
G01 X-52.1393 Y-12.5494
G01 X-52.1772 Y-12.5786
G01 X-52.2136 Y-12.6097
G01 X-52.2514 Y-12.6456
G01 X-52.2830 Y-12.6786
G01 X-52.3129 Y-12.7132
G01 X-52.3425 Y-12.7508
G01 X-52.3728 Y-12.7935
G01 X-52.3982 Y-12.8337
G01 X-52.4198 Y-12.8716
G01 X-52.4417 Y-12.9147
G01 X-52.4611 Y-12.9579
G01 X-52.4785 Y-13.0025
G01 X-52.4937 Y-13.0479
G01 X-52.5067 Y-13.0939
G01 X-52.5174 Y-13.1407
G01 X-52.5260 Y-13.1888
G01 X-52.5319 Y-13.2357
G01 X-52.5356 Y-13.2829
G01 X-52.5370 Y-13.3350
G01 X-52.5360 Y-13.3785
G00 Z1.9990
G00 X-52.0764 Y-14.8562
G01 F80.00
G01 Z-0.4665
G01 F80.00
G01 X-52.0560 Y-14.8412
G01 X-52.0337 Y-14.8216
G01 X-52.0176 Y-14.8046
G01 X-51.9991 Y-14.7815
G01 X-51.9852 Y-14.7604
G01 X-51.9729 Y-14.7376
G01 X-51.9613 Y-14.7108
G01 X-51.9540 Y-14.6886
G01 X-51.9472 Y-14.6597
G01 X-51.9440 Y-14.6383
G01 X-51.9422 Y-14.6093
G01 X-51.9428 Y-14.5859
G01 X-51.9459 Y-14.5576
G01 X-51.9502 Y-14.5358
G01 X-51.9584 Y-14.5073
G01 X-51.9669 Y-14.4855
G01 X-51.9759 Y-14.4664
G01 X-51.9852 Y-14.4496
G01 X-52.0042 Y-14.4216
G01 X-52.0176 Y-14.4054
G01 X-52.0307 Y-14.3914
G01 X-52.0560 Y-14.3688
G01 X-52.0764 Y-14.3538
G01 X-52.3788 Y-14.1518
G01 X-52.6292 Y-13.7770
G01 X-52.7171 Y-13.3350
G01 X-52.6292 Y-12.8930
G01 X-52.3788 Y-12.5182
G01 X-52.0678 Y-12.3101
G01 X-52.0493 Y-12.2957
G01 X-52.0382 Y-12.2859
G01 X-52.0234 Y-12.2710
G01 X-52.0081 Y-12.2533
G01 X-51.9991 Y-12.2415
G01 X-51.9874 Y-12.2239
G01 X-51.9731 Y-12.1980
G01 X-51.9613 Y-12.1708
G01 X-51.9523 Y-12.1425
G01 X-51.9459 Y-12.1124
G01 X-51.9428 Y-12.0841
G01 X-51.9424 Y-12.0545
G01 X-51.9433 Y-12.0397
G01 X-51.9459 Y-12.0176
G01 X-51.9502 Y-11.9958
G01 X-51.9586 Y-11.9669
G01 X-51.9694 Y-11.9398
G01 X-51.9799 Y-11.9188
G01 X-51.9930 Y-11.8973
G01 X-52.0081 Y-11.8767
G01 X-52.0234 Y-11.8590
G01 X-52.0398 Y-11.8426
G01 X-52.0560 Y-11.8288
G01 X-52.0764 Y-11.8138
G01 X-52.3788 Y-11.6118
G01 X-52.6292 Y-11.2370
G01 X-52.7171 Y-10.7950
G01 X-52.6292 Y-10.3530
G01 X-52.3788 Y-9.9782
G01 X-52.0678 Y-9.7701
G01 X-52.0493 Y-9.7557
G01 X-52.0382 Y-9.7459
G01 X-52.0234 Y-9.7310
G01 X-52.0081 Y-9.7133
G01 X-51.9907 Y-9.6892
G01 X-51.9759 Y-9.6636
G01 X-51.9636 Y-9.6366
G01 X-51.9565 Y-9.6168
G01 X-51.9489 Y-9.5881
G01 X-51.9440 Y-9.5583
G01 X-51.9422 Y-9.5293
G01 X-51.9433 Y-9.4997
G01 X-51.9459 Y-9.4776
G01 X-51.9502 Y-9.4558
G01 X-51.9565 Y-9.4332
G01 X-51.9637 Y-9.4132
G01 X-51.9729 Y-9.3924
G01 X-51.9852 Y-9.3696
G01 X-51.9991 Y-9.3485
G01 X-52.0135 Y-9.3301
G01 X-52.0277 Y-9.3145
G01 X-52.0398 Y-9.3026
G01 X-52.0560 Y-9.2888
G01 X-52.0678 Y-9.2799
G01 X-52.3788 Y-9.0718
G01 X-52.6292 Y-8.6970
G01 X-52.7171 Y-8.2550
G01 X-52.6292 Y-7.8130
G01 X-52.3788 Y-7.4382
G01 X-52.0678 Y-7.2301
G01 X-52.0493 Y-7.2157
G01 X-52.0382 Y-7.2059
G01 X-52.0234 Y-7.1910
G01 X-52.0081 Y-7.1733
G01 X-51.9907 Y-7.1492
G01 X-51.9759 Y-7.1236
G01 X-51.9636 Y-7.0966
G01 X-51.9565 Y-7.0768
G01 X-51.9489 Y-7.0481
G01 X-51.9441 Y-7.0189
G01 X-51.9422 Y-6.9893
G01 X-51.9428 Y-6.9659
G01 X-51.9459 Y-6.9376
G01 X-51.9502 Y-6.9158
G01 X-51.9565 Y-6.8932
G01 X-51.9637 Y-6.8732
G01 X-51.9729 Y-6.8524
G01 X-51.9852 Y-6.8296
G01 X-51.9991 Y-6.8085
G01 X-52.0135 Y-6.7901
G01 X-52.0277 Y-6.7745
G01 X-52.0398 Y-6.7626
G01 X-52.0560 Y-6.7488
G01 X-52.0678 Y-6.7399
G01 X-52.3788 Y-6.5318
G01 X-52.6292 Y-6.1570
G01 X-52.7171 Y-5.7150
G01 X-52.6292 Y-5.2730
G01 X-52.3788 Y-4.8982
G01 X-52.0678 Y-4.6901
G01 X-52.0493 Y-4.6757
G01 X-52.0382 Y-4.6659
G01 X-52.0234 Y-4.6510
G01 X-52.0081 Y-4.6333
G01 X-51.9907 Y-4.6092
G01 X-51.9759 Y-4.5836
G01 X-51.9636 Y-4.5566
G01 X-51.9565 Y-4.5368
G01 X-51.9489 Y-4.5081
G01 X-51.9441 Y-4.4789
G01 X-51.9422 Y-4.4493
G01 X-51.9428 Y-4.4259
G01 X-51.9459 Y-4.3976
G01 X-51.9502 Y-4.3758
G01 X-51.9565 Y-4.3532
G01 X-51.9637 Y-4.3332
G01 X-51.9729 Y-4.3124
G01 X-51.9852 Y-4.2896
G01 X-51.9991 Y-4.2685
G01 X-52.0135 Y-4.2501
G01 X-52.0277 Y-4.2345
G01 X-52.0398 Y-4.2226
G01 X-52.0560 Y-4.2088
G01 X-52.0678 Y-4.1999
G01 X-52.3788 Y-3.9918
G01 X-52.6292 Y-3.6170
G01 X-52.7171 Y-3.1750
G01 X-52.6292 Y-2.7330
G01 X-52.3788 Y-2.3582
G01 X-52.0040 Y-2.1078
G01 X-51.6736 Y-2.0421
G01 X-51.4504 Y-2.0421
G01 X-51.1200 Y-2.1078
G01 X-50.7452 Y-2.3582
G01 X-50.4948 Y-2.7330
G01 X-50.4069 Y-3.1750
G01 X-50.4948 Y-3.6170
G01 X-50.7452 Y-3.9918
G01 X-51.0562 Y-4.1999
G01 X-51.0747 Y-4.2143
G01 X-51.0858 Y-4.2241
G01 X-51.1006 Y-4.2390
G01 X-51.1159 Y-4.2567
G01 X-51.1333 Y-4.2808
G01 X-51.1481 Y-4.3064
G01 X-51.1604 Y-4.3334
G01 X-51.1675 Y-4.3532
G01 X-51.1751 Y-4.3819
G01 X-51.1799 Y-4.4111
G01 X-51.1818 Y-4.4407
G01 X-51.1812 Y-4.4641
G01 X-51.1781 Y-4.4924
G01 X-51.1738 Y-4.5142
G01 X-51.1654 Y-4.5431
G01 X-51.1546 Y-4.5702
G01 X-51.1410 Y-4.5966
G01 X-51.1285 Y-4.6164
G01 X-51.1105 Y-4.6399
G01 X-51.0933 Y-4.6586
G01 X-51.0747 Y-4.6757
G01 X-51.0511 Y-4.6937
G01 X-50.7452 Y-4.8982
G01 X-50.4948 Y-5.2730
G01 X-50.4715 Y-5.3901
G01 X-50.4655 Y-5.4148
G01 X-50.4581 Y-5.4370
G01 X-50.4501 Y-5.4565
G01 X-50.4396 Y-5.4774
G01 X-50.4287 Y-5.4954
G01 X-50.4152 Y-5.5146
G01 X-50.4019 Y-5.5309
G01 X-50.3812 Y-5.5521
G01 X-50.3635 Y-5.5674
G01 X-50.3429 Y-5.5825
G01 X-50.3268 Y-5.5925
G01 X-50.3078 Y-5.6026
G01 X-50.2868 Y-5.6119
G01 X-50.2670 Y-5.6190
G01 X-50.2444 Y-5.6252
G01 X-50.2238 Y-5.6293
G01 X-50.2085 Y-5.6314
G01 X-50.1858 Y-5.6331
G01 X-50.1647 Y-5.6331
G01 X-50.1414 Y-5.6314
G01 X-50.1205 Y-5.6283
G01 X-50.1060 Y-5.6252
G01 X-50.0834 Y-5.6190
G01 X-50.0694 Y-5.6141
G01 X-50.0500 Y-5.6061
G01 X-50.0199 Y-5.5903
G01 X-49.9820 Y-5.5654
G01 X-49.6570 Y-5.5007
G01 X-49.5926 Y-5.5133
G01 X-49.5705 Y-5.5160
G01 X-49.5452 Y-5.5171
G01 X-46.8213 Y-5.5171
G01 X-46.7874 Y-5.5151
G01 X-46.7666 Y-5.5120
G01 X-46.7521 Y-5.5090
G01 X-46.7231 Y-5.5007
G01 X-46.6960 Y-5.4899
G01 X-46.6659 Y-5.4740
G01 X-46.3086 Y-5.2357
G01 X-45.9635 Y-5.1671
G01 X-45.7305 Y-5.1671
G01 X-45.3854 Y-5.2357
G01 X-44.9881 Y-5.5012
G01 X-44.9679 Y-5.5219
G01 X-44.9502 Y-5.5372
G01 X-44.9333 Y-5.5498
G01 X-44.9135 Y-5.5623
G01 X-44.8945 Y-5.5724
G01 X-44.8735 Y-5.5817
G01 X-44.8537 Y-5.5888
G01 X-44.8311 Y-5.5950
G01 X-44.8093 Y-5.5993
G01 X-44.7872 Y-5.6020
G01 X-44.7619 Y-5.6031
G01 X-44.7428 Y-5.6025
G01 X-44.7145 Y-5.5993
G01 X-44.6844 Y-5.5929
G01 X-44.6638 Y-5.5867
G01 X-44.6367 Y-5.5759
G01 X-44.6158 Y-5.5654
G01 X-44.5942 Y-5.5523
G01 X-44.5736 Y-5.5372
G01 X-44.5514 Y-5.5176
G01 X-44.5352 Y-5.5007
G01 X-44.5219 Y-5.4844
G01 X-44.5106 Y-5.4687
G01 X-44.4976 Y-5.4472
G01 X-44.4845 Y-5.4206
G01 X-44.4392 Y-5.3114
G01 X-44.3456 Y-5.2177
G01 X-44.2232 Y-5.1671
G01 X-43.7361 Y-5.1671
G01 X-43.7361 Y-5.3250
G01 X-44.1570 Y-5.3250
G01 X-44.1742 Y-5.3258
G01 X-44.1911 Y-5.3284
G01 X-44.2078 Y-5.3325
G01 X-44.2318 Y-5.3418
G01 X-44.2542 Y-5.3545
G01 X-44.2745 Y-5.3703
G01 X-44.2867 Y-5.3825
G01 X-44.3025 Y-5.4028
G01 X-44.3152 Y-5.4252
G01 X-44.3245 Y-5.4492
G01 X-44.3301 Y-5.4743
G01 X-44.3320 Y-5.5000
G01 X-44.3320 Y-7.2000
G01 X-44.3312 Y-7.2172
G01 X-44.3286 Y-7.2341
G01 X-44.3218 Y-7.2590
G01 X-44.3113 Y-7.2825
G01 X-44.2976 Y-7.3042
G01 X-44.2807 Y-7.3237
G01 X-44.2612 Y-7.3406
G01 X-44.2470 Y-7.3501
G01 X-44.2318 Y-7.3582
G01 X-44.2078 Y-7.3675
G01 X-44.1827 Y-7.3731
G01 X-44.1570 Y-7.3750
G01 X-43.7361 Y-7.3750
G01 X-43.7361 Y-7.5329
G01 X-44.2232 Y-7.5329
G01 X-44.3456 Y-7.4823
G01 X-44.4392 Y-7.3886
G01 X-44.4845 Y-7.2794
G01 X-44.4976 Y-7.2528
G01 X-44.5106 Y-7.2313
G01 X-44.5219 Y-7.2156
G01 X-44.5352 Y-7.1993
G01 X-44.5514 Y-7.1824
G01 X-44.5736 Y-7.1628
G01 X-44.5942 Y-7.1477
G01 X-44.6158 Y-7.1346
G01 X-44.6367 Y-7.1241
G01 X-44.6638 Y-7.1133
G01 X-44.6844 Y-7.1071
G01 X-44.7145 Y-7.1007
G01 X-44.7428 Y-7.0975
G01 X-44.7619 Y-7.0969
G01 X-44.7872 Y-7.0980
G01 X-44.8093 Y-7.1007
G01 X-44.8311 Y-7.1050
G01 X-44.8537 Y-7.1112
G01 X-44.8737 Y-7.1184
G01 X-44.8945 Y-7.1276
G01 X-44.9135 Y-7.1377
G01 X-44.9333 Y-7.1502
G01 X-44.9502 Y-7.1628
G01 X-44.9679 Y-7.1781
G01 X-44.9873 Y-7.1980
G01 X-45.3855 Y-7.4643
G01 X-45.7305 Y-7.5329
G01 X-45.9635 Y-7.5329
G01 X-46.3086 Y-7.4643
G01 X-46.6535 Y-7.2338
G01 X-46.6697 Y-7.2237
G01 X-46.6960 Y-7.2101
G01 X-46.7155 Y-7.2021
G01 X-46.7295 Y-7.1972
G01 X-46.7582 Y-7.1896
G01 X-46.7880 Y-7.1848
G01 X-46.8213 Y-7.1829
G01 X-49.1869 Y-7.1829
G01 X-49.2207 Y-7.1849
G01 X-49.2416 Y-7.1880
G01 X-49.2644 Y-7.1931
G01 X-49.2850 Y-7.1993
G01 X-49.3121 Y-7.2101
G01 X-49.3330 Y-7.2207
G01 X-49.3545 Y-7.2337
G01 X-49.3751 Y-7.2488
G01 X-49.3929 Y-7.2641
G01 X-50.3477 Y-8.2187
G01 X-50.3703 Y-8.2440
G01 X-50.3793 Y-8.2558
G01 X-50.3910 Y-8.2733
G01 X-50.4053 Y-8.2993
G01 X-50.4171 Y-8.3265
G01 X-50.4261 Y-8.3547
G01 X-50.4304 Y-8.3734
G01 X-50.4948 Y-8.6970
G01 X-50.7452 Y-9.0718
G01 X-51.0562 Y-9.2799
G01 X-51.0747 Y-9.2943
G01 X-51.0858 Y-9.3041
G01 X-51.1006 Y-9.3190
G01 X-51.1105 Y-9.3301
G01 X-51.1249 Y-9.3485
G01 X-51.1388 Y-9.3696
G01 X-51.1511 Y-9.3924
G01 X-51.1627 Y-9.4192
G01 X-51.1717 Y-9.4475
G01 X-51.1768 Y-9.4703
G01 X-51.1807 Y-9.4997
G01 X-51.1818 Y-9.5250
G01 X-51.1807 Y-9.5503
G01 X-51.1768 Y-9.5797
G01 X-51.1717 Y-9.6025
G01 X-51.1627 Y-9.6308
G01 X-51.1511 Y-9.6576
G01 X-51.1388 Y-9.6804
G01 X-51.1249 Y-9.7015
G01 X-51.1105 Y-9.7199
G01 X-51.0963 Y-9.7355
G01 X-51.0842 Y-9.7474
G01 X-51.0680 Y-9.7612
G01 X-51.0562 Y-9.7701
G01 X-50.7452 Y-9.9782
G01 X-50.4948 Y-10.3530
G01 X-50.4069 Y-10.7950
G01 X-50.4948 Y-11.2370
G01 X-50.7452 Y-11.6118
G01 X-51.0476 Y-11.8138
G01 X-51.0680 Y-11.8288
G01 X-51.0858 Y-11.8441
G01 X-51.1064 Y-11.8654
G01 X-51.1198 Y-11.8816
G01 X-51.1310 Y-11.8973
G01 X-51.1441 Y-11.9188
G01 X-51.1546 Y-11.9398
G01 X-51.1627 Y-11.9592
G01 X-51.1700 Y-11.9814
G01 X-51.1751 Y-12.0019
G01 X-51.1800 Y-12.0317
G01 X-51.1818 Y-12.0650
G01 X-51.1799 Y-12.0989
G01 X-51.1768 Y-12.1197
G01 X-51.1738 Y-12.1342
G01 X-51.1654 Y-12.1631
G01 X-51.1603 Y-12.1768
G01 X-51.1511 Y-12.1976
G01 X-51.1366 Y-12.2239
G01 X-51.1198 Y-12.2484
G01 X-51.1064 Y-12.2646
G01 X-51.0903 Y-12.2816
G01 X-51.0747 Y-12.2957
G01 X-51.0562 Y-12.3101
G01 X-50.7452 Y-12.5182
G01 X-50.4948 Y-12.8930
G01 X-50.4069 Y-13.3350
G01 X-50.4948 Y-13.7770
G01 X-50.7452 Y-14.1518
G01 X-51.0562 Y-14.3599
G01 X-51.0747 Y-14.3743
G01 X-51.0858 Y-14.3841
G01 X-51.1006 Y-14.3990
G01 X-51.1159 Y-14.4167
G01 X-51.1333 Y-14.4408
G01 X-51.1481 Y-14.4664
G01 X-51.1604 Y-14.4934
G01 X-51.1700 Y-14.5214
G01 X-51.1768 Y-14.5503
G01 X-51.1807 Y-14.5797
G01 X-51.1818 Y-14.6093
G01 X-51.1799 Y-14.6389
G01 X-51.1751 Y-14.6681
G01 X-51.1700 Y-14.6886
G01 X-51.1627 Y-14.7108
G01 X-51.1511 Y-14.7376
G01 X-51.1388 Y-14.7604
G01 X-51.1249 Y-14.7815
G01 X-51.1064 Y-14.8046
G01 X-51.0903 Y-14.8216
G01 X-51.0680 Y-14.8412
G01 X-51.0476 Y-14.8562
G01 X-50.7452 Y-15.0582
G01 X-50.4948 Y-15.4330
G01 X-50.4069 Y-15.8750
G01 X-50.4948 Y-16.3170
G01 X-50.7452 Y-16.6918
G01 X-51.1200 Y-16.9422
G01 X-51.4504 Y-17.0079
G01 X-51.6736 Y-17.0079
G01 X-52.0040 Y-16.9422
G01 X-52.3788 Y-16.6918
G01 X-52.6292 Y-16.3170
G01 X-52.7171 Y-15.8750
G01 X-52.6292 Y-15.4330
G01 X-52.3788 Y-15.0582
G01 X-52.0764 Y-14.8562
G01 X-51.3827 Y-14.7033
G01 X-51.4552 Y-14.6945
G01 X-51.5081 Y-14.6908
G01 X-51.5594 Y-14.6896
G01 X-51.6193 Y-14.6910
G01 X-51.6688 Y-14.6945
G01 X-51.7413 Y-14.7033
G01 X-51.7366 Y-14.6752
G01 X-51.7338 Y-14.6506
G01 X-51.7322 Y-14.6259
G01 X-51.7318 Y-14.6024
G01 X-51.7326 Y-14.5756
G01 X-51.7347 Y-14.5505
G01 X-51.7413 Y-14.5067
G01 X-51.6688 Y-14.5155
G01 X-51.6159 Y-14.5192
G01 X-51.5646 Y-14.5204
G01 X-51.5047 Y-14.5190
G01 X-51.4552 Y-14.5155
G01 X-51.3827 Y-14.5067
G01 X-51.3874 Y-14.5348
G01 X-51.3902 Y-14.5594
G01 X-51.3918 Y-14.5841
G01 X-51.3922 Y-14.6076
G01 X-51.3914 Y-14.6344
G01 X-51.3893 Y-14.6595
G01 X-51.3827 Y-14.7033
G00 Z1.9990
G00 X-52.5360 Y-15.9185
G01 F80.00
G01 Z-0.4665
G01 F80.00
G01 X-52.5327 Y-15.9663
G01 X-52.5270 Y-16.0138
G01 X-52.5191 Y-16.0610
G01 X-52.5088 Y-16.1077
G01 X-52.4962 Y-16.1539
G01 X-52.4813 Y-16.1998
G01 X-52.4643 Y-16.2443
G01 X-52.4452 Y-16.2880
G01 X-52.4239 Y-16.3308
G01 X-52.3982 Y-16.3763
G01 X-52.3728 Y-16.4165
G01 X-52.3476 Y-16.4523
G01 X-52.3184 Y-16.4902
G01 X-52.2873 Y-16.5266
G01 X-52.2514 Y-16.5644
G01 X-52.2199 Y-16.5945
G01 X-52.1838 Y-16.6259
G01 X-52.1462 Y-16.6555
G01 X-52.1035 Y-16.6858
G01 X-52.0633 Y-16.7112
G01 X-52.0254 Y-16.7328
G01 X-51.9823 Y-16.7547
G01 X-51.9391 Y-16.7741
G01 X-51.8945 Y-16.7915
G01 X-51.8491 Y-16.8067
G01 X-51.8031 Y-16.8197
G01 X-51.7563 Y-16.8304
G01 X-51.7082 Y-16.8390
G01 X-51.6613 Y-16.8449
G01 X-51.6141 Y-16.8486
G01 X-51.5620 Y-16.8500
G01 X-51.5163 Y-16.8489
G01 X-51.4622 Y-16.8448
G01 X-51.4158 Y-16.8390
G01 X-51.3760 Y-16.8321
G01 X-51.3293 Y-16.8218
G01 X-51.2831 Y-16.8092
G01 X-51.2371 Y-16.7943
G01 X-51.1927 Y-16.7773
G01 X-51.1490 Y-16.7582
G01 X-51.1062 Y-16.7369
G01 X-51.0607 Y-16.7112
G01 X-51.0205 Y-16.6858
G01 X-50.9847 Y-16.6606
G01 X-50.9468 Y-16.6314
G01 X-50.9104 Y-16.6003
G01 X-50.8726 Y-16.5644
G01 X-50.8410 Y-16.5314
G01 X-50.8111 Y-16.4968
G01 X-50.7815 Y-16.4592
G01 X-50.7512 Y-16.4165
G01 X-50.7258 Y-16.3763
G01 X-50.7042 Y-16.3384
G01 X-50.6823 Y-16.2953
G01 X-50.6629 Y-16.2521
G01 X-50.6455 Y-16.2075
G01 X-50.6303 Y-16.1621
G01 X-50.6173 Y-16.1161
G01 X-50.6066 Y-16.0693
G01 X-50.5980 Y-16.0212
G01 X-50.5921 Y-15.9743
G01 X-50.5884 Y-15.9271
G01 X-50.5870 Y-15.8750
G01 X-50.5881 Y-15.8293
G01 X-50.5922 Y-15.7752
G01 X-50.5980 Y-15.7288
G01 X-50.6049 Y-15.6890
G01 X-50.6152 Y-15.6423
G01 X-50.6278 Y-15.5961
G01 X-50.6427 Y-15.5501
G01 X-50.6597 Y-15.5057
G01 X-50.6788 Y-15.4620
G01 X-50.7001 Y-15.4192
G01 X-50.7258 Y-15.3737
G01 X-50.7512 Y-15.3335
G01 X-50.7764 Y-15.2977
G01 X-50.8056 Y-15.2598
G01 X-50.8367 Y-15.2234
G01 X-50.8726 Y-15.1856
G01 X-50.9056 Y-15.1540
G01 X-50.9402 Y-15.1241
G01 X-50.9778 Y-15.0945
G01 X-51.0205 Y-15.0642
G01 X-51.0607 Y-15.0388
G01 X-51.0986 Y-15.0172
G01 X-51.1417 Y-14.9953
G01 X-51.1849 Y-14.9759
G01 X-51.2295 Y-14.9585
G01 X-51.2749 Y-14.9433
G01 X-51.3209 Y-14.9303
G01 X-51.3677 Y-14.9196
G01 X-51.4158 Y-14.9110
G01 X-51.4627 Y-14.9051
G01 X-51.5099 Y-14.9014
G01 X-51.5620 Y-14.9000
G01 X-51.6077 Y-14.9011
G01 X-51.6618 Y-14.9052
G01 X-51.7082 Y-14.9110
G01 X-51.7480 Y-14.9179
G01 X-51.7947 Y-14.9282
G01 X-51.8409 Y-14.9408
G01 X-51.8869 Y-14.9557
G01 X-51.9313 Y-14.9727
G01 X-51.9750 Y-14.9918
G01 X-52.0178 Y-15.0131
G01 X-52.0633 Y-15.0388
G01 X-52.1035 Y-15.0642
G01 X-52.1393 Y-15.0894
G01 X-52.1772 Y-15.1186
G01 X-52.2136 Y-15.1497
G01 X-52.2514 Y-15.1856
G01 X-52.2830 Y-15.2186
G01 X-52.3129 Y-15.2532
G01 X-52.3425 Y-15.2908
G01 X-52.3728 Y-15.3335
G01 X-52.3982 Y-15.3737
G01 X-52.4198 Y-15.4116
G01 X-52.4417 Y-15.4547
G01 X-52.4611 Y-15.4979
G01 X-52.4785 Y-15.5425
G01 X-52.4937 Y-15.5879
G01 X-52.5067 Y-15.6339
G01 X-52.5174 Y-15.6807
G01 X-52.5260 Y-15.7288
G01 X-52.5319 Y-15.7757
G01 X-52.5356 Y-15.8229
G01 X-52.5370 Y-15.8750
G01 X-52.5360 Y-15.9185
G00 Z1.9990
G00 X-52.5360 Y-20.9985
G01 F80.00
G01 Z-0.4665
G01 F80.00
G01 X-52.5327 Y-21.0463
G01 X-52.5270 Y-21.0938
G01 X-52.5191 Y-21.1410
G01 X-52.5088 Y-21.1877
G01 X-52.4962 Y-21.2339
G01 X-52.4813 Y-21.2798
G01 X-52.4643 Y-21.3243
G01 X-52.4452 Y-21.3680
G01 X-52.4239 Y-21.4108
G01 X-52.3982 Y-21.4563
G01 X-52.3728 Y-21.4965
G01 X-52.3476 Y-21.5323
G01 X-52.3184 Y-21.5702
G01 X-52.2873 Y-21.6066
G01 X-52.2514 Y-21.6444
G01 X-52.2199 Y-21.6745
G01 X-52.1838 Y-21.7059
G01 X-52.1462 Y-21.7355
G01 X-52.1035 Y-21.7658
G01 X-52.0633 Y-21.7912
G01 X-52.0254 Y-21.8128
G01 X-51.9823 Y-21.8347
G01 X-51.9391 Y-21.8541
G01 X-51.8945 Y-21.8715
G01 X-51.8491 Y-21.8867
G01 X-51.8031 Y-21.8997
G01 X-51.7563 Y-21.9104
G01 X-51.7082 Y-21.9190
G01 X-51.6613 Y-21.9249
G01 X-51.6141 Y-21.9286
G01 X-51.5620 Y-21.9300
G01 X-51.5163 Y-21.9289
G01 X-51.4622 Y-21.9248
G01 X-51.4158 Y-21.9190
G01 X-51.3760 Y-21.9121
G01 X-51.3293 Y-21.9018
G01 X-51.2831 Y-21.8892
G01 X-51.2371 Y-21.8743
G01 X-51.1927 Y-21.8573
G01 X-51.1490 Y-21.8382
G01 X-51.1062 Y-21.8169
G01 X-51.0607 Y-21.7912
G01 X-51.0205 Y-21.7658
G01 X-50.9847 Y-21.7406
G01 X-50.9468 Y-21.7114
G01 X-50.9104 Y-21.6803
G01 X-50.8726 Y-21.6444
G01 X-50.8425 Y-21.6129
G01 X-50.8111 Y-21.5768
G01 X-50.7815 Y-21.5392
G01 X-50.7512 Y-21.4965
G01 X-50.7258 Y-21.4563
G01 X-50.7042 Y-21.4184
G01 X-50.6823 Y-21.3753
G01 X-50.6629 Y-21.3321
G01 X-50.6455 Y-21.2875
G01 X-50.6303 Y-21.2421
G01 X-50.6173 Y-21.1961
G01 X-50.6066 Y-21.1493
G01 X-50.5980 Y-21.1012
G01 X-50.5921 Y-21.0543
G01 X-50.5884 Y-21.0071
G01 X-50.5870 Y-20.9550
G01 X-50.5881 Y-20.9093
G01 X-50.5922 Y-20.8552
G01 X-50.5980 Y-20.8088
G01 X-50.6049 Y-20.7690
G01 X-50.6152 Y-20.7223
G01 X-50.6278 Y-20.6761
G01 X-50.6427 Y-20.6301
G01 X-50.6597 Y-20.5857
G01 X-50.6788 Y-20.5420
G01 X-50.7001 Y-20.4992
G01 X-50.7258 Y-20.4537
G01 X-50.7512 Y-20.4135
G01 X-50.7764 Y-20.3777
G01 X-50.8056 Y-20.3398
G01 X-50.8367 Y-20.3034
G01 X-50.8726 Y-20.2656
G01 X-50.9056 Y-20.2340
G01 X-50.9402 Y-20.2041
G01 X-50.9778 Y-20.1745
G01 X-51.0205 Y-20.1442
G01 X-51.0607 Y-20.1188
G01 X-51.0986 Y-20.0972
G01 X-51.1417 Y-20.0753
G01 X-51.1849 Y-20.0559
G01 X-51.2295 Y-20.0385
G01 X-51.2749 Y-20.0233
G01 X-51.3209 Y-20.0103
G01 X-51.3677 Y-19.9996
G01 X-51.4158 Y-19.9910
G01 X-51.4627 Y-19.9851
G01 X-51.5099 Y-19.9814
G01 X-51.5620 Y-19.9800
G01 X-51.6077 Y-19.9811
G01 X-51.6618 Y-19.9852
G01 X-51.7082 Y-19.9910
G01 X-51.7480 Y-19.9979
G01 X-51.7947 Y-20.0082
G01 X-51.8409 Y-20.0208
G01 X-51.8869 Y-20.0357
G01 X-51.9313 Y-20.0527
G01 X-51.9750 Y-20.0718
G01 X-52.0178 Y-20.0931
G01 X-52.0633 Y-20.1188
G01 X-52.1035 Y-20.1442
G01 X-52.1393 Y-20.1694
G01 X-52.1772 Y-20.1986
G01 X-52.2136 Y-20.2297
G01 X-52.2514 Y-20.2656
G01 X-52.2830 Y-20.2986
G01 X-52.3129 Y-20.3332
G01 X-52.3425 Y-20.3708
G01 X-52.3728 Y-20.4135
G01 X-52.3982 Y-20.4537
G01 X-52.4198 Y-20.4916
G01 X-52.4417 Y-20.5347
G01 X-52.4611 Y-20.5779
G01 X-52.4785 Y-20.6225
G01 X-52.4937 Y-20.6679
G01 X-52.5067 Y-20.7139
G01 X-52.5174 Y-20.7607
G01 X-52.5260 Y-20.8088
G01 X-52.5319 Y-20.8557
G01 X-52.5356 Y-20.9029
G01 X-52.5370 Y-20.9550
G01 X-52.5360 Y-20.9985
G00 Z1.9990
G00 X-50.9832 Y-22.2250
G01 F80.00
G01 Z-0.4665
G01 F80.00
G01 X-50.9581 Y-22.2134
G01 X-50.9581 Y-22.2366
G01 X-50.9832 Y-22.2250
G01 X-50.7403 Y-21.8091
G01 X-50.7438 Y-21.8398
G01 X-50.7460 Y-21.8691
G01 X-50.7477 Y-21.9194
G01 X-50.7477 Y-22.6339
G01 X-50.7701 Y-22.6130
G01 X-50.8027 Y-22.5847
G01 X-50.8524 Y-22.5455
G01 X-50.9015 Y-22.5106
G01 X-50.9547 Y-22.4770
G01 X-51.0070 Y-22.4476
G01 X-51.0638 Y-22.4195
G01 X-51.1171 Y-22.3963
G01 X-51.1660 Y-22.3777
G01 X-51.2089 Y-22.3635
G01 X-51.2698 Y-22.3462
G01 X-51.3267 Y-22.3332
G01 X-51.3857 Y-22.3228
G01 X-51.4504 Y-22.3149
G01 X-51.5081 Y-22.3108
G01 X-51.5689 Y-22.3096
G01 X-51.6296 Y-22.3116
G01 X-51.6739 Y-22.3149
G01 X-51.7056 Y-22.3186
G01 X-51.7013 Y-22.2753
G01 X-51.7004 Y-22.2485
G01 X-51.7008 Y-22.2268
G01 X-51.7021 Y-22.2051
G01 X-51.7047 Y-22.1801
G01 X-51.7085 Y-22.1552
G01 X-51.7136 Y-22.1305
G01 X-51.6736 Y-22.1351
G01 X-51.6159 Y-22.1392
G01 X-51.5594 Y-22.1404
G01 X-51.4983 Y-22.1387
G01 X-51.4415 Y-22.1342
G01 X-51.3857 Y-22.1272
G01 X-51.3265 Y-22.1168
G01 X-51.2698 Y-22.1038
G01 X-51.2138 Y-22.0881
G01 X-51.1660 Y-22.0723
G01 X-51.1120 Y-22.0516
G01 X-51.0593 Y-22.0285
G01 X-51.0070 Y-22.0024
G01 X-50.9547 Y-21.9730
G01 X-50.9058 Y-21.9422
G01 X-50.8635 Y-21.9127
G01 X-50.8067 Y-21.8686
G01 X-50.7691 Y-21.8362
G01 X-50.7403 Y-21.8091
G01 X-50.3057 Y-21.1132
G01 X-50.4052 Y-21.2126
G01 X-50.3986 Y-21.1820
G01 X-50.3906 Y-21.1364
G01 X-50.3837 Y-21.0839
G01 X-50.3470 Y-21.0996
G01 X-50.3057 Y-21.1132
G00 Z1.9990
G00 X-50.7477 Y-24.3561
G01 F80.00
G01 Z-0.4665
G01 F80.00
G01 X-50.7477 Y-25.1739
G01 X-50.7730 Y-25.1504
G01 X-50.8174 Y-25.1127
G01 X-50.8635 Y-25.0773
G01 X-50.9015 Y-25.0506
G01 X-50.9225 Y-25.0371
G01 X-50.9225 Y-24.4929
G01 X-50.9015 Y-24.4794
G01 X-50.8635 Y-24.4527
G01 X-50.8174 Y-24.4173
G01 X-50.7730 Y-24.3796
G01 X-50.7477 Y-24.3561
G00 Z1.9990
G00 X-51.9911 Y-25.0093
G01 F80.00
G01 Z-0.4665
G01 F80.00
G01 X-51.9911 Y-25.1597
G01 X-52.0254 Y-25.1772
G01 X-52.0633 Y-25.1988
G01 X-52.1035 Y-25.2242
G01 X-52.1393 Y-25.2494
G01 X-52.1838 Y-25.2841
G01 X-52.2199 Y-25.3155
G01 X-52.2514 Y-25.3456
G01 X-52.2830 Y-25.3786
G01 X-52.3129 Y-25.4132
G01 X-52.3476 Y-25.4577
G01 X-52.3728 Y-25.4935
G01 X-52.3982 Y-25.5337
G01 X-52.4198 Y-25.5716
G01 X-52.4373 Y-25.6059
G01 X-52.5938 Y-25.6059
G01 X-52.5340 Y-25.4616
G01 X-52.2336 Y-25.1299
G01 X-52.0356 Y-25.0361
G01 X-52.0096 Y-25.0218
G01 X-51.9911 Y-25.0093
G00 Z1.9990
G00 X-52.5938 Y-23.9241
G01 F80.00
G01 Z-0.4665
G01 F80.00
G01 X-52.4373 Y-23.9241
G01 X-52.4198 Y-23.9584
G01 X-52.3982 Y-23.9963
G01 X-52.3728 Y-24.0365
G01 X-52.3476 Y-24.0723
G01 X-52.3129 Y-24.1168
G01 X-52.2815 Y-24.1529
G01 X-52.2514 Y-24.1844
G01 X-52.2199 Y-24.2145
G01 X-52.1838 Y-24.2459
G01 X-52.1393 Y-24.2806
G01 X-52.1035 Y-24.3058
G01 X-52.0633 Y-24.3312
G01 X-52.0254 Y-24.3528
G01 X-51.9911 Y-24.3703
G01 X-51.9911 Y-24.5207
G01 X-52.0096 Y-24.5082
G01 X-52.0356 Y-24.4939
G01 X-52.2336 Y-24.4001
G01 X-52.5340 Y-24.0684
G01 X-52.5938 Y-23.9241
G00 Z1.9990
G00 X-50.7477 Y-26.8961
G01 F80.00
G01 Z-0.4665
G01 F80.00
G01 X-50.7691 Y-26.9162
G01 X-50.8027 Y-26.9453
G01 X-50.8524 Y-26.9845
G01 X-50.9015 Y-27.0194
G01 X-50.9547 Y-27.0530
G01 X-51.0070 Y-27.0824
G01 X-51.0638 Y-27.1105
G01 X-51.1171 Y-27.1337
G01 X-51.1660 Y-27.1523
G01 X-51.2089 Y-27.1665
G01 X-51.2698 Y-27.1838
G01 X-51.3265 Y-27.1968
G01 X-51.3857 Y-27.2072
G01 X-51.4501 Y-27.2151
G01 X-51.5047 Y-27.2190
G01 X-51.5689 Y-27.2204
G01 X-51.6296 Y-27.2184
G01 X-51.6736 Y-27.2151
G01 X-51.7056 Y-27.2114
G01 X-51.7013 Y-27.2547
G01 X-51.7004 Y-27.2815
G01 X-51.7009 Y-27.3050
G01 X-51.7025 Y-27.3297
G01 X-51.7053 Y-27.3543
G01 X-51.7085 Y-27.3748
G01 X-51.7136 Y-27.3995
G01 X-51.6739 Y-27.3949
G01 X-51.6296 Y-27.3916
G01 X-51.5689 Y-27.3896
G01 X-51.5081 Y-27.3908
G01 X-51.4504 Y-27.3949
G01 X-51.3857 Y-27.4028
G01 X-51.3267 Y-27.4132
G01 X-51.2698 Y-27.4262
G01 X-51.2089 Y-27.4435
G01 X-51.1660 Y-27.4577
G01 X-51.1171 Y-27.4763
G01 X-51.0638 Y-27.4995
G01 X-51.0070 Y-27.5276
G01 X-50.9547 Y-27.5570
G01 X-50.9015 Y-27.5906
G01 X-50.8524 Y-27.6255
G01 X-50.8027 Y-27.6647
G01 X-50.7701 Y-27.6930
G01 X-50.7477 Y-27.7139
G01 X-50.7477 Y-26.8961
G01 X-50.9832 Y-27.3050
G01 X-50.9581 Y-27.3166
G01 X-50.9581 Y-27.2934
G01 X-50.9832 Y-27.3050
G00 Z1.9990
G00 X-52.5360 Y-28.6185
G01 F80.00
G01 Z-0.4665
G01 F80.00
G01 X-52.5318 Y-28.6748
G01 X-52.5260 Y-28.7212
G01 X-52.5174 Y-28.7694
G01 X-52.5067 Y-28.8161
G01 X-52.4937 Y-28.8621
G01 X-52.4785 Y-28.9075
G01 X-52.4611 Y-28.9521
G01 X-52.4417 Y-28.9953
G01 X-52.4198 Y-29.0384
G01 X-52.3982 Y-29.0763
G01 X-52.3728 Y-29.1165
G01 X-52.3425 Y-29.1592
G01 X-52.3129 Y-29.1968
G01 X-52.2815 Y-29.2329
G01 X-52.2484 Y-29.2674
G01 X-52.2136 Y-29.3003
G01 X-52.1772 Y-29.3314
G01 X-52.1393 Y-29.3606
G01 X-52.1035 Y-29.3858
G01 X-52.0633 Y-29.4112
G01 X-52.0178 Y-29.4369
G01 X-51.9750 Y-29.4582
G01 X-51.9311 Y-29.4774
G01 X-51.8869 Y-29.4943
G01 X-51.8409 Y-29.5092
G01 X-51.7947 Y-29.5218
G01 X-51.7480 Y-29.5321
G01 X-51.7008 Y-29.5400
G01 X-51.6533 Y-29.5457
G01 X-51.6055 Y-29.5490
G01 X-51.5620 Y-29.5500
G01 X-51.5424 Y-29.5496
G01 X-50.5372 Y-30.5547
G01 X-50.5372 Y-39.9753
G01 X-52.0395 Y-41.4775
G01 X-52.0652 Y-41.5047
G01 X-52.0867 Y-41.5300
G01 X-52.1018 Y-41.5493
G01 X-52.1236 Y-41.5800
G01 X-52.1389 Y-41.6042
G01 X-52.1595 Y-41.6405
G01 X-52.1742 Y-41.6702
G01 X-52.1874 Y-41.7006
G01 X-52.1990 Y-41.7311
G01 X-52.2094 Y-41.7631
G01 X-52.2180 Y-41.7951
G01 X-52.2234 Y-41.8191
G01 X-52.2295 Y-41.8528
G01 X-52.2335 Y-41.8845
G01 X-52.2366 Y-41.9262
G01 X-52.2373 Y-41.9550
G01 X-52.2373 Y-89.1712
G01 X-52.2366 Y-89.2001
G01 X-52.2344 Y-89.2331
G01 X-52.2293 Y-89.2745
G01 X-52.2234 Y-89.3071
G01 X-52.2159 Y-89.3394
G01 X-52.2069 Y-89.3713
G01 X-52.1990 Y-89.3951
G01 X-52.1874 Y-89.4259
G01 X-52.1742 Y-89.4560
G01 X-52.1554 Y-89.4933
G01 X-52.1411 Y-89.5184
G01 X-52.1258 Y-89.5428
G01 X-52.1018 Y-89.5769
G01 X-52.0812 Y-89.6029
G01 X-52.0652 Y-89.6215
G01 X-52.0395 Y-89.6487
G01 X-49.0087 Y-92.6795
G01 X-48.9815 Y-92.7052
G01 X-48.9562 Y-92.7267
G01 X-48.9369 Y-92.7418
G01 X-48.9062 Y-92.7636
G01 X-48.8747 Y-92.7833
G01 X-48.8457 Y-92.7995
G01 X-48.8234 Y-92.8107
G01 X-48.7936 Y-92.8242
G01 X-48.7551 Y-92.8390
G01 X-48.7231 Y-92.8494
G01 X-48.6911 Y-92.8580
G01 X-48.6671 Y-92.8634
G01 X-48.6334 Y-92.8695
G01 X-48.5931 Y-92.8744
G01 X-48.5601 Y-92.8766
G01 X-48.5355 Y-92.8772
G01 X-48.0782 Y-92.8773
G01 X-48.0582 Y-92.9054
G01 X-48.0280 Y-92.9441
G01 X-47.9905 Y-92.9879
G01 X-47.9479 Y-93.0329
G01 X-47.9092 Y-93.0697
G01 X-47.8657 Y-93.1075
G01 X-47.8204 Y-93.1432
G01 X-47.7696 Y-93.1791
G01 X-47.7174 Y-93.2120
G01 X-47.6671 Y-93.2402
G01 X-47.6232 Y-93.2623
G01 X-47.5706 Y-93.2859
G01 X-47.5169 Y-93.3068
G01 X-47.4622 Y-93.3251
G01 X-47.4067 Y-93.3407
G01 X-47.3504 Y-93.3536
G01 X-47.2925 Y-93.3638
G01 X-47.2279 Y-93.3717
G01 X-47.1704 Y-93.3757
G01 X-47.1213 Y-93.3769
G01 X-47.0551 Y-93.3753
G01 X-46.9976 Y-93.3709
G01 X-46.9415 Y-93.3638
G01 X-46.8920 Y-93.3552
G01 X-46.8357 Y-93.3428
G01 X-46.7718 Y-93.3251
G01 X-46.7171 Y-93.3068
G01 X-46.6711 Y-93.2891
G01 X-46.6185 Y-93.2660
G01 X-46.5593 Y-93.2362
G01 X-46.5093 Y-93.2076
G01 X-46.4644 Y-93.1791
G01 X-46.4205 Y-93.1483
G01 X-46.3683 Y-93.1075
G01 X-46.3248 Y-93.0697
G01 X-46.2861 Y-93.0329
G01 X-46.2493 Y-92.9942
