(G-CODE GENERATED BY FLATCAM v8.96 - www.flatcam.org - Version Date: 2019/08/23)

(Name: servo-B.Cu)
(Type: G-code from Geometry)
(Units: MM)

(Created on mercredi, 12 février 2020 at 20:22)

(TOOL DIAMETER: 0.3 mm)
(Feedrate: 79.9998 mm/min)
(Feedrate_Z: 79.9998 mm/min)
(Feedrate rapids 79.9998 mm/min)

(Z_Cut: -0.3732 mm)
(Z_Move: 1.999 mm)
(Z Toolchange: 12.7 mm)
(X,Y Toolchange: 0.0000, 0.0000 mm)
(Z Start: None mm)
(Z End: 12.7 mm)
(Steps per circle: 128)
(Postprocessor Geometry: default)

(X range:    0.0000 ...    0.0000  mm)
(Y range:    0.0000 ...    0.0000  mm)

(Spindle Speed: None RPM)

G21
G90
G94

G01 F80.00
G00 Z1.9990

M03
G00 X-0.0151 Y-0.0030
G01 F80.00
G01 Z-0.3732
G01 F80.00
G01 X-0.0151 Y0.0030
G01 X-0.0128 Y0.0085
G01 X-0.0085 Y0.0128
G01 X-0.0030 Y0.0151
G01 X0.0030 Y0.0151
G01 X0.0085 Y0.0128
G01 X0.0128 Y0.0085
G01 X0.0151 Y0.0030
G01 X0.0151 Y-0.0030
G01 X0.0128 Y-0.0085
G01 X0.0085 Y-0.0128
G01 X0.0030 Y-0.0151
G01 X-0.0030 Y-0.0151
G01 X-0.0085 Y-0.0128
G01 X-0.0128 Y-0.0085
G01 X-0.0151 Y-0.0030
G01 X-0.1954 Y-0.0389
G01 X-0.1954 Y0.0389
G01 X-0.1657 Y0.1107
G01 X-0.1107 Y0.1657
G01 X-0.0389 Y0.1954
G01 X0.0389 Y0.1954
G01 X0.1107 Y0.1657
G01 X0.1657 Y0.1107
G01 X0.1954 Y0.0389
G01 X0.1954 Y-0.0389
G01 X0.1657 Y-0.1107
G01 X0.1107 Y-0.1657
G01 X0.0389 Y-0.1954
G01 X-0.0389 Y-0.1954
G01 X-0.1107 Y-0.1657
G01 X-0.1657 Y-0.1107
G01 X-0.1954 Y-0.0389
G01 X-0.3758 Y-0.0747
G01 X-0.3758 Y0.0747
G01 X-0.3186 Y0.2129
G01 X-0.2129 Y0.3186
G01 X-0.0747 Y0.3758
G01 X0.0747 Y0.3758
G01 X0.2129 Y0.3186
G01 X0.3186 Y0.2129
G01 X0.3758 Y0.0747
G01 X0.3758 Y-0.0747
G01 X0.3186 Y-0.2129
G01 X0.2129 Y-0.3186
G01 X0.0747 Y-0.3758
G01 X-0.0747 Y-0.3758
G01 X-0.2129 Y-0.3186
G01 X-0.3186 Y-0.2129
G01 X-0.3758 Y-0.0747
G01 X-0.5561 Y-0.1106
G01 X-0.5561 Y0.1106
G01 X-0.4715 Y0.3150
G01 X-0.3150 Y0.4715
G01 X-0.1106 Y0.5561
G01 X0.1106 Y0.5561
G01 X0.3150 Y0.4715
G01 X0.4715 Y0.3150
G01 X0.5561 Y0.1106
G01 X0.5561 Y-0.1106
G01 X0.4715 Y-0.3150
G01 X0.3150 Y-0.4715
G01 X0.1106 Y-0.5561
G01 X-0.1106 Y-0.5561
G01 X-0.3150 Y-0.4715
G01 X-0.4715 Y-0.3150
G01 X-0.5561 Y-0.1106
G01 X-0.7365 Y-0.1465
G01 X-0.7365 Y0.1465
G01 X-0.6244 Y0.4172
G01 X-0.4172 Y0.6244
G01 X-0.1465 Y0.7365
G01 X0.1465 Y0.7365
G01 X0.4172 Y0.6244
G01 X0.6244 Y0.4172
G01 X0.7365 Y0.1465
G01 X0.7365 Y-0.1465
G01 X0.6244 Y-0.4172
G01 X0.4172 Y-0.6244
G01 X0.1465 Y-0.7365
G01 X-0.1465 Y-0.7365
G01 X-0.4172 Y-0.6244
G01 X-0.6244 Y-0.4172
G01 X-0.7365 Y-0.1465
G01 X-0.9169 Y-0.1824
G01 X-0.9169 Y0.1824
G01 X-0.7773 Y0.5194
G01 X-0.5194 Y0.7773
G01 X-0.1824 Y0.9169
G01 X0.1824 Y0.9169
G01 X0.5194 Y0.7773
G01 X0.7773 Y0.5194
G01 X0.9169 Y0.1824
G01 X0.9169 Y-0.1824
G01 X0.7773 Y-0.5194
G01 X0.5194 Y-0.7773
G01 X0.1824 Y-0.9169
G01 X-0.1824 Y-0.9169
G01 X-0.5194 Y-0.7773
G01 X-0.7773 Y-0.5194
G01 X-0.9169 Y-0.1824
G01 X-1.0972 Y-0.2183
G01 X-1.0972 Y0.2183
G01 X-0.9302 Y0.6215
G01 X-0.6215 Y0.9302
G01 X-0.2183 Y1.0972
G01 X0.2183 Y1.0972
G01 X0.6215 Y0.9302
G01 X0.9302 Y0.6215
G01 X1.0972 Y0.2183
G01 X1.0972 Y-0.2183
G01 X0.9302 Y-0.6215
G01 X0.6215 Y-0.9302
G01 X0.2183 Y-1.0972
G01 X-0.2183 Y-1.0972
G01 X-0.6215 Y-0.9302
G01 X-0.9302 Y-0.6215
G01 X-1.0972 Y-0.2183
G01 X-1.2776 Y-0.2541
G01 X-1.2776 Y0.2541
G01 X-1.0831 Y0.7237
G01 X-0.7237 Y1.0831
G01 X-0.2541 Y1.2776
G01 X0.2541 Y1.2776
G01 X0.7237 Y1.0831
G01 X1.0831 Y0.7237
G01 X1.2776 Y0.2541
G01 X1.2776 Y-0.2541
G01 X1.0831 Y-0.7237
G01 X0.7237 Y-1.0831
G01 X0.2541 Y-1.2776
G01 X-0.2541 Y-1.2776
G01 X-0.7237 Y-1.0831
G01 X-1.0831 Y-0.7237
G01 X-1.2776 Y-0.2541
G01 X-1.4579 Y-0.2900
G01 X-1.4579 Y0.2900
G01 X-1.2360 Y0.8259
G01 X-0.8259 Y1.2360
G01 X-0.2900 Y1.4579
G01 X0.2900 Y1.4579
G01 X0.8259 Y1.2360
G01 X1.2360 Y0.8259
G01 X1.4579 Y0.2900
G01 X1.4579 Y-0.2900
G01 X1.2360 Y-0.8259
G01 X0.8259 Y-1.2360
G01 X0.2900 Y-1.4579
G01 X-0.2900 Y-1.4579
G01 X-0.8259 Y-1.2360
G01 X-1.2360 Y-0.8259
G01 X-1.4579 Y-0.2900
G00 Z1.9990
G00 X-2.6901 Y-2.4130
G01 F80.00
G01 Z-0.3732
G01 F80.00
G01 X-2.6890 Y-2.4365
G01 X-2.6854 Y-2.4634
G01 X-2.6792 Y-2.4899
G01 X-2.6703 Y-2.5156
G01 X-2.6590 Y-2.5404
G01 X-2.6435 Y-2.5668
G01 X-2.6295 Y-2.5859
G01 X-2.6089 Y-2.6089
G01 X-2.5859 Y-2.6295
G01 X-2.5668 Y-2.6435
G01 X-2.5468 Y-2.6556
G01 X-2.5222 Y-2.6676
G01 X-2.4968 Y-2.6771
G01 X-2.4706 Y-2.6840
G01 X-2.4438 Y-2.6883
G01 X-2.4130 Y-2.6901
G01 X63.3730 Y-2.6901
G01 X63.3965 Y-2.6890
G01 X63.4173 Y-2.6865
G01 X63.4367 Y-2.6826
G01 X63.4629 Y-2.6751
G01 X63.4824 Y-2.6675
G01 X63.5068 Y-2.6556
G01 X63.5268 Y-2.6435
G01 X63.5459 Y-2.6295
G01 X63.5689 Y-2.6089
G01 X63.5895 Y-2.5859
G01 X63.6087 Y-2.5586
G01 X63.6220 Y-2.5344
G01 X63.6303 Y-2.5156
G01 X63.6351 Y-2.5029
G01 X63.6426 Y-2.4767
G01 X63.6483 Y-2.4438
G01 X63.6501 Y-2.4130
G01 X63.6501 Y50.6730
G01 X63.6490 Y50.6965
G01 X63.6454 Y50.7234
G01 X63.6392 Y50.7499
G01 X63.6303 Y50.7756
G01 X63.6190 Y50.8004
G01 X63.6035 Y50.8268
G01 X63.5895 Y50.8459
G01 X63.5689 Y50.8689
G01 X63.5507 Y50.8856
G01 X63.5268 Y50.9035
G01 X63.5068 Y50.9156
G01 X63.4822 Y50.9276
G01 X63.4568 Y50.9371
G01 X63.4306 Y50.9440
G01 X63.4038 Y50.9483
G01 X63.3730 Y50.9501
G01 X-2.4130 Y50.9501
G01 X-2.4365 Y50.9490
G01 X-2.4573 Y50.9465
G01 X-2.4767 Y50.9426
G01 X-2.5029 Y50.9351
G01 X-2.5224 Y50.9275
G01 X-2.5468 Y50.9156
G01 X-2.5668 Y50.9035
G01 X-2.5859 Y50.8895
G01 X-2.6089 Y50.8689
G01 X-2.6295 Y50.8459
G01 X-2.6487 Y50.8186
G01 X-2.6620 Y50.7944
G01 X-2.6703 Y50.7756
G01 X-2.6751 Y50.7629
G01 X-2.6826 Y50.7367
G01 X-2.6883 Y50.7038
G01 X-2.6901 Y50.6730
G01 X-2.6901 Y-2.4130
G01 X-2.8704 Y-2.4130
G01 X-2.8699 Y-2.4347
G01 X-2.8678 Y-2.4615
G01 X-2.8649 Y-2.4838
G01 X-2.8609 Y-2.5058
G01 X-2.8558 Y-2.5277
G01 X-2.8496 Y-2.5493
G01 X-2.8424 Y-2.5706
G01 X-2.8342 Y-2.5914
G01 X-2.8252 Y-2.6113
G01 X-2.8146 Y-2.6319
G01 X-2.7922 Y-2.6688
G01 X-2.7782 Y-2.6884
G01 X-2.7642 Y-2.7060
G01 X-2.7494 Y-2.7229
G01 X-2.7349 Y-2.7380
G01 X-2.7174 Y-2.7544
G01 X-2.7003 Y-2.7689
G01 X-2.6821 Y-2.7829
G01 X-2.6651 Y-2.7947
G01 X-2.6551 Y-2.8011
G01 X-2.6513 Y-2.8034
G01 X-2.6450 Y-2.8072
G01 X-2.6254 Y-2.8181
G01 X-2.6050 Y-2.8281
G01 X-2.5845 Y-2.8370
G01 X-2.5635 Y-2.8449
G01 X-2.5422 Y-2.8518
G01 X-2.5205 Y-2.8576
G01 X-2.4986 Y-2.8623
G01 X-2.4765 Y-2.8660
G01 X-2.4542 Y-2.8685
G01 X-2.4130 Y-2.8704
G01 X63.3730 Y-2.8704
G01 X63.4098 Y-2.8689
G01 X63.4481 Y-2.8642
G01 X63.4877 Y-2.8558
G01 X63.5236 Y-2.8449
G01 X63.5612 Y-2.8299
G01 X63.5957 Y-2.8125
G01 X63.6288 Y-2.7922
G01 X63.6603 Y-2.7689
G01 X63.6774 Y-2.7544
G01 X63.6980 Y-2.7349
G01 X63.7144 Y-2.7174
G01 X63.7317 Y-2.6969
G01 X63.7452 Y-2.6789
G01 X63.7611 Y-2.6551
G01 X63.7746 Y-2.6319
G01 X63.7852 Y-2.6113
G01 X63.7970 Y-2.5845
G01 X63.8049 Y-2.5635
G01 X63.8130 Y-2.5380
G01 X63.8186 Y-2.5163
G01 X63.8242 Y-2.4881
G01 X63.8273 Y-2.4659
G01 X63.8296 Y-2.4391
G01 X63.8304 Y-2.4130
G01 X63.8304 Y50.6730
G01 X63.8299 Y50.6947
G01 X63.8278 Y50.7215
G01 X63.8249 Y50.7438
G01 X63.8209 Y50.7658
G01 X63.8158 Y50.7877
G01 X63.8096 Y50.8093
G01 X63.8024 Y50.8306
G01 X63.7942 Y50.8514
G01 X63.7852 Y50.8713
G01 X63.7746 Y50.8919
G01 X63.7522 Y50.9288
G01 X63.7382 Y50.9484
G01 X63.7242 Y50.9660
G01 X63.7094 Y50.9829
G01 X63.6949 Y50.9980
G01 X63.6774 Y51.0144
G01 X63.6597 Y51.0294
G01 X63.6251 Y51.0547
G01 X63.6050 Y51.0672
G01 X63.5854 Y51.0781
G01 X63.5650 Y51.0881
G01 X63.5445 Y51.0970
G01 X63.5235 Y51.1049
G01 X63.5022 Y51.1118
G01 X63.4805 Y51.1176
G01 X63.4586 Y51.1223
G01 X63.4365 Y51.1260
G01 X63.4142 Y51.1285
G01 X63.3730 Y51.1304
G01 X-2.4130 Y51.1304
G01 X-2.4498 Y51.1289
G01 X-2.4881 Y51.1242
G01 X-2.5277 Y51.1158
G01 X-2.5636 Y51.1049
G01 X-2.6012 Y51.0899
G01 X-2.6357 Y51.0725
G01 X-2.6688 Y51.0522
G01 X-2.7003 Y51.0289
G01 X-2.7174 Y51.0144
G01 X-2.7380 Y50.9949
G01 X-2.7544 Y50.9774
G01 X-2.7717 Y50.9569
G01 X-2.7852 Y50.9389
G01 X-2.8011 Y50.9151
G01 X-2.8146 Y50.8919
G01 X-2.8252 Y50.8713
G01 X-2.8370 Y50.8445
G01 X-2.8449 Y50.8235
G01 X-2.8530 Y50.7980
G01 X-2.8586 Y50.7763
G01 X-2.8642 Y50.7481
G01 X-2.8673 Y50.7259
G01 X-2.8696 Y50.6991
G01 X-2.8704 Y50.6730
G01 X-2.8704 Y-2.4130
G01 X-2.4172 Y-3.2105
G01 X-2.4437 Y-3.2100
G01 X-2.4830 Y-3.2075
G01 X-2.5218 Y-3.2031
G01 X-2.5604 Y-3.1968
G01 X-2.5988 Y-3.1886
G01 X-2.6369 Y-3.1785
G01 X-2.6740 Y-3.1666
G01 X-2.7107 Y-3.1529
G01 X-2.7466 Y-3.1374
G01 X-2.7815 Y-3.1203
G01 X-2.8159 Y-3.1013
G01 X-2.8494 Y-3.0805
G01 X-2.8814 Y-3.0585
G01 X-2.9126 Y-3.0347
G01 X-2.9425 Y-3.0094
G01 X-2.9711 Y-2.9827
G01 X-2.9984 Y-2.9546
G01 X-3.0243 Y-2.9252
G01 X-3.0486 Y-2.8947
G01 X-3.0717 Y-2.8627
G01 X-3.0928 Y-2.8301
G01 X-3.1125 Y-2.7961
G01 X-3.1304 Y-2.7614
G01 X-3.1467 Y-2.7257
G01 X-3.1612 Y-2.6892
G01 X-3.1739 Y-2.6521
G01 X-3.1846 Y-2.6148
G01 X-3.1936 Y-2.5768
G01 X-3.2007 Y-2.5382
G01 X-3.2059 Y-2.4994
G01 X-3.2091 Y-2.4606
G01 X-3.2105 Y-2.4172
G01 X-3.2105 Y50.6752
G01 X-3.2092 Y50.7201
G01 X-3.2062 Y50.7568
G01 X-3.2005 Y50.7993
G01 X-3.1932 Y50.8383
G01 X-3.1887 Y50.8585
G01 X-3.1779 Y50.8989
G01 X-3.1620 Y50.9470
G01 X-3.1472 Y50.9846
G01 X-3.1298 Y51.0226
G01 X-3.1113 Y51.0582
G01 X-3.0911 Y51.0927
G01 X-3.0718 Y51.1225
G01 X-3.0583 Y51.1416
G01 X-3.0372 Y51.1694
G01 X-3.0079 Y51.2043
G01 X-2.9824 Y51.2315
G01 X-2.9446 Y51.2676
G01 X-2.9123 Y51.2949
G01 X-2.8940 Y51.3092
G01 X-2.8641 Y51.3307
G01 X-2.8303 Y51.3527
G01 X-2.7990 Y51.3709
G01 X-2.7788 Y51.3817
G01 X-2.7457 Y51.3978
G01 X-2.7079 Y51.4140
G01 X-2.6742 Y51.4266
G01 X-2.6361 Y51.4387
G01 X-2.5998 Y51.4484
G01 X-2.5599 Y51.4569
G01 X-2.5360 Y51.4610
G01 X-2.4822 Y51.4675
G01 X-2.4426 Y51.4700
G01 X-2.4107 Y51.4705
G01 X63.3096 Y51.4705
G01 X63.4150 Y51.4692
G01 X63.4512 Y51.4669
G01 X63.4883 Y51.4623
G01 X63.5181 Y51.4572
G01 X63.5666 Y51.4468
G01 X63.6417 Y51.4241
G01 X63.7158 Y51.3933
G01 X63.7831 Y51.3572
G01 X63.8345 Y51.3233
G01 X63.8573 Y51.3066
G01 X63.8791 Y51.2896
G01 X63.9119 Y51.2600
G01 X63.9639 Y51.2079
G01 X63.9856 Y51.1838
G01 X64.0396 Y51.1110
G01 X64.0572 Y51.0831
G01 X64.0765 Y51.0490
G01 X64.0916 Y51.0190
G01 X64.1258 Y50.9365
G01 X64.1376 Y50.9000
G01 X64.1468 Y50.8668
G01 X64.1554 Y50.8286
G01 X64.1621 Y50.7900
G01 X64.1669 Y50.7512
G01 X64.1695 Y50.7156
G01 X64.1705 Y50.6328
G01 X64.1705 Y-2.4072
G01 X64.1692 Y-2.4601
G01 X64.1658 Y-2.5000
G01 X64.1632 Y-2.5205
G01 X64.1570 Y-2.5594
G01 X64.1486 Y-2.5989
G01 X64.1342 Y-2.6511
G01 X64.1207 Y-2.6905
G01 X64.1058 Y-2.7276
G01 X64.0888 Y-2.7647
G01 X64.0635 Y-2.8119
G01 X64.0413 Y-2.8482
G01 X64.0196 Y-2.8798
G01 X63.9959 Y-2.9110
G01 X63.9675 Y-2.9447
G01 X63.9449 Y-2.9688
G01 X63.9138 Y-2.9992
G01 X63.8727 Y-3.0346
G01 X63.8399 Y-3.0596
G01 X63.8214 Y-3.0726
G01 X63.7907 Y-3.0924
G01 X63.7576 Y-3.1117
G01 X63.7235 Y-3.1294
G01 X63.7044 Y-3.1384
G01 X63.6695 Y-3.1534
G01 X63.6345 Y-3.1665
G01 X63.5746 Y-3.1847
G01 X63.5355 Y-3.1938
G01 X63.5007 Y-3.2002
G01 X63.4428 Y-3.2075
G01 X63.4040 Y-3.2099
G01 X63.3734 Y-3.2105
G01 X-2.4172 Y-3.2105
G01 X-2.4183 Y-3.3909
G01 X-2.4503 Y-3.3902
G01 X-2.4985 Y-3.3872
G01 X-2.5461 Y-3.3818
G01 X-2.5669 Y-3.3787
G01 X-2.6141 Y-3.3700
G01 X-2.6608 Y-3.3590
G01 X-2.7066 Y-3.3458
G01 X-2.7327 Y-3.3372
G01 X-2.7776 Y-3.3204
G01 X-2.8217 Y-3.3014
G01 X-2.8645 Y-3.2804
G01 X-2.8834 Y-3.2704
G01 X-2.9247 Y-3.2463
G01 X-2.9648 Y-3.2204
G01 X-2.9871 Y-3.2047
G01 X-3.0253 Y-3.1755
G01 X-3.0620 Y-3.1445
G01 X-3.0774 Y-3.1306
G01 X-3.1118 Y-3.0971
G01 X-3.1445 Y-3.0620
G01 X-3.1755 Y-3.0253
G01 X-3.2047 Y-2.9871
G01 X-3.2204 Y-2.9648
G01 X-3.2463 Y-2.9247
G01 X-3.2705 Y-2.8831
G01 X-3.2925 Y-2.8405
G01 X-3.3125 Y-2.7968
G01 X-3.3204 Y-2.7776
G01 X-3.3372 Y-2.7328
G01 X-3.3517 Y-2.6871
G01 X-3.3641 Y-2.6405
G01 X-3.3700 Y-2.6141
G01 X-3.3787 Y-2.5669
G01 X-3.3851 Y-2.5192
G01 X-3.3892 Y-2.4716
G01 X-3.3909 Y-2.4183
G01 X-3.3909 Y50.6764
G01 X-3.3892 Y50.7312
G01 X-3.3854 Y50.7767
G01 X-3.3786 Y50.8279
G01 X-3.3697 Y50.8756
G01 X-3.3589 Y50.9211
G01 X-3.3465 Y50.9647
G01 X-3.3311 Y51.0098
G01 X-3.3130 Y51.0556
G01 X-3.2919 Y51.1017
G01 X-3.2694 Y51.1452
G01 X-3.2447 Y51.1873
G01 X-3.2206 Y51.2245
G01 X-3.1923 Y51.2637
G01 X-3.1597 Y51.3045
G01 X-3.1322 Y51.3357
G01 X-3.0975 Y51.3715
G01 X-3.0641 Y51.4027
G01 X-3.0251 Y51.4357
G01 X-2.9878 Y51.4642
G01 X-2.9464 Y51.4926
G01 X-2.9065 Y51.5172
G01 X-2.8619 Y51.5418
G01 X-2.8208 Y51.5618
G01 X-2.7748 Y51.5815
G01 X-2.7329 Y51.5971
G01 X-2.6864 Y51.6119
G01 X-2.6415 Y51.6239
G01 X-2.5930 Y51.6342
G01 X-2.5483 Y51.6415
G01 X-2.4976 Y51.6472
G01 X-2.4492 Y51.6502
G01 X-2.4118 Y51.6509
G01 X63.3107 Y51.6509
G01 X63.4206 Y51.6495
G01 X63.4391 Y51.6486
G01 X63.4689 Y51.6464
G01 X63.5125 Y51.6410
G01 X63.5511 Y51.6345
G01 X63.6103 Y51.6219
G01 X63.6936 Y51.5969
G01 X63.7210 Y51.5868
G01 X63.7731 Y51.5652
G01 X63.8040 Y51.5507
G01 X63.8759 Y51.5120
G01 X63.9366 Y51.4721
G01 X63.9665 Y51.4501
G01 X63.9935 Y51.4291
G01 X64.0363 Y51.3906
G01 X64.0946 Y51.3323
G01 X64.1265 Y51.2965
G01 X64.1884 Y51.2131
G01 X64.2120 Y51.1759
G01 X64.2356 Y51.1341
G01 X64.2557 Y51.0941
G01 X64.2950 Y50.9994
G01 X64.3109 Y50.9502
G01 X64.3218 Y50.9107
G01 X64.3323 Y50.8638
G01 X64.3405 Y50.8165
G01 X64.3464 Y50.7689
G01 X64.3498 Y50.7234
G01 X64.3509 Y50.6339
G01 X64.3509 Y-2.4083
G01 X64.3492 Y-2.4711
G01 X64.3451 Y-2.5199
G01 X64.3385 Y-2.5681
G01 X64.3298 Y-2.6151
G01 X64.3191 Y-2.6606
G01 X64.3061 Y-2.7056
G01 X64.2898 Y-2.7533
G01 X64.2811 Y-2.7757
G01 X64.2629 Y-2.8183
G01 X64.2405 Y-2.8644
G01 X64.2194 Y-2.9028
G01 X64.1925 Y-2.9465
G01 X64.1658 Y-2.9855
G01 X64.1510 Y-3.0055
G01 X64.1210 Y-3.0429
G01 X64.1026 Y-3.0642
G01 X64.0740 Y-3.0948
G01 X64.0366 Y-3.1313
G01 X64.0013 Y-3.1624
G01 X63.9654 Y-3.1910
G01 X63.9235 Y-3.2213
G01 X63.8853 Y-3.2460
G01 X63.8661 Y-3.2575
G01 X63.8233 Y-3.2810
G01 X63.7795 Y-3.3024
G01 X63.7365 Y-3.3208
G01 X63.7117 Y-3.3304
G01 X63.6695 Y-3.3449
G01 X63.6442 Y-3.3525
G01 X63.6006 Y-3.3641
G01 X63.5547 Y-3.3739
G01 X63.5036 Y-3.3821
G01 X63.4582 Y-3.3872
G01 X63.4106 Y-3.3902
G01 X63.3745 Y-3.3909
G01 X-2.4183 Y-3.3909
G00 Z1.9990
G00 X8.5261 Y3.7646
G01 F80.00
G01 Z-0.3732
G01 F80.00
G01 X8.5296 Y3.7144
G01 X8.5364 Y3.6596
G01 X8.5450 Y3.6113
G01 X8.5543 Y3.5700
G01 X8.5670 Y3.5233
G01 X8.5824 Y3.4762
G01 X8.6026 Y3.4239
G01 X8.6224 Y3.3795
G01 X8.6414 Y3.3419
G01 X8.6692 Y3.2928
G01 X8.6956 Y3.2514
G01 X8.7196 Y3.2173
G01 X8.7544 Y3.1728
G01 X8.7866 Y3.1357
G01 X8.8179 Y3.1029
G01 X8.8507 Y3.0716
G01 X8.8878 Y3.0394
G01 X8.9323 Y3.0046
G01 X8.9725 Y2.9765
G01 X9.0078 Y2.9542
G01 X9.0508 Y2.9296
G01 X9.1008 Y2.9045
G01 X9.1391 Y2.8875
G01 X9.1847 Y2.8697
G01 X9.2383 Y2.8520
G01 X9.2856 Y2.8391
G01 X9.3264 Y2.8300
G01 X9.3747 Y2.8214
G01 X9.4307 Y2.8145
G01 X9.4796 Y2.8111
G01 X9.5250 Y2.8100
G01 X9.5704 Y2.8111
G01 X9.6206 Y2.8146
G01 X9.6754 Y2.8214
G01 X9.7237 Y2.8300
G01 X9.7650 Y2.8393
G01 X9.8117 Y2.8520
G01 X9.8588 Y2.8674
G01 X9.9111 Y2.8876
G01 X9.9555 Y2.9074
G01 X9.9931 Y2.9264
G01 X10.0422 Y2.9542
G01 X10.0836 Y2.9806
G01 X10.1177 Y3.0046
G01 X10.1622 Y3.0394
G01 X10.1993 Y3.0716
G01 X10.2321 Y3.1029
G01 X10.2634 Y3.1357
G01 X10.2956 Y3.1728
G01 X10.3304 Y3.2173
G01 X10.3585 Y3.2575
G01 X10.3811 Y3.2933
G01 X10.4086 Y3.3419
G01 X10.4276 Y3.3795
G01 X10.4475 Y3.4241
G01 X10.4653 Y3.4697
G01 X10.4808 Y3.5162
G01 X10.4959 Y3.5706
G01 X10.5050 Y3.6114
G01 X10.5136 Y3.6597
G01 X10.5205 Y3.7157
G01 X10.5239 Y3.7646
G01 X10.5250 Y3.8063
G01 X10.5239 Y3.8572
G01 X10.5204 Y3.9056
G01 X10.5147 Y3.9531
G01 X10.5046 Y4.0108
G01 X12.7666 Y6.2736
G01 X12.7851 Y6.2933
G01 X12.8026 Y6.3138
G01 X12.8304 Y6.3513
G01 X12.8450 Y6.3740
G01 X12.8585 Y6.3974
G01 X12.8710 Y6.4218
G01 X12.8820 Y6.4463
G01 X12.8918 Y6.4713
G01 X12.9004 Y6.4968
G01 X12.9078 Y6.5228
G01 X12.9153 Y6.5563
G01 X12.9198 Y6.5829
G01 X12.9229 Y6.6097
G01 X12.9247 Y6.6367
G01 X12.9252 Y6.6600
G01 X12.9252 Y14.2600
G01 X14.2191 Y15.5539
G01 X14.2352 Y15.5708
G01 X14.2538 Y15.5920
G01 X14.2741 Y15.6182
G01 X14.2895 Y15.6404
G01 X14.3038 Y15.6633
G01 X14.3169 Y15.6869
G01 X14.3289 Y15.7111
G01 X14.3397 Y15.7358
G01 X14.3554 Y15.7797
G01 X14.3646 Y15.8128
G01 X14.3737 Y15.8586
G01 X14.3779 Y15.8927
G01 X14.3797 Y15.9196
G01 X14.3802 Y15.9430
G01 X14.3802 Y19.5250
G01 X14.6250 Y19.7698
G01 X24.0407 Y19.7698
G01 X27.6896 Y16.1209
G01 X27.7064 Y16.1048
G01 X27.7277 Y16.0863
G01 X27.7479 Y16.0703
G01 X27.7699 Y16.0546
G01 X27.8051 Y16.0327
G01 X27.8225 Y16.0231
G01 X27.8467 Y16.0111
G01 X27.8899 Y15.9932
G01 X27.9154 Y15.9846
G01 X27.9415 Y15.9772
G01 X27.9678 Y15.9711
G01 X27.9943 Y15.9663
G01 X28.0284 Y15.9621
G01 X28.0553 Y15.9603
G01 X28.0786 Y15.9598
G01 X28.4358 Y15.9598
G01 X28.4492 Y15.9412
G01 X28.4780 Y15.9045
G01 X28.5086 Y15.8693
G01 X28.5409 Y15.8357
G01 X28.5707 Y15.8073
G01 X28.6054 Y15.7772
G01 X28.6419 Y15.7486
G01 X28.6853 Y15.7181
G01 X28.7248 Y15.6933
G01 X28.7654 Y15.6705
G01 X28.8072 Y15.6497
G01 X28.8433 Y15.6337
G01 X28.8866 Y15.6168
G01 X28.9308 Y15.6020
G01 X28.9757 Y15.5894
G01 X29.0211 Y15.5790
G01 X29.0743 Y15.5698
G01 X29.1206 Y15.5643
G01 X29.1671 Y15.5610
G01 X29.2100 Y15.5600
G01 X29.2529 Y15.5610
G01 X29.3068 Y15.5650
G01 X29.3530 Y15.5709
G01 X29.3989 Y15.5790
G01 X29.4444 Y15.5894
G01 X29.4822 Y15.5999
G01 X29.5335 Y15.6168
G01 X29.5769 Y15.6338
G01 X29.6130 Y15.6497
G01 X29.6611 Y15.6739
G01 X29.7015 Y15.6971
G01 X29.7408 Y15.7222
G01 X29.7788 Y15.7492
G01 X29.8155 Y15.7780
G01 X29.8507 Y15.8086
G01 X29.8818 Y15.8382
G01 X29.9163 Y15.8748
G01 X29.9428 Y15.9054
G01 X29.9752 Y15.9471
G01 X30.0019 Y15.9853
G01 X30.0267 Y16.0248
G01 X30.0461 Y16.0589
G01 X30.0672 Y16.1005
G01 X30.0863 Y16.1433
G01 X30.1032 Y16.1866
G01 X30.1180 Y16.2308
G01 X30.1306 Y16.2757
G01 X30.1424 Y16.3283
G01 X30.1502 Y16.3743
G01 X30.1557 Y16.4206
G01 X30.1590 Y16.4671
G01 X30.1600 Y16.5100
G01 X30.1590 Y16.5529
G01 X30.1557 Y16.5994
G01 X30.1502 Y16.6457
G01 X30.1424 Y16.6917
G01 X30.1324 Y16.7372
G01 X30.1201 Y16.7822
G01 X30.1032 Y16.8335
G01 X30.0862 Y16.8769
G01 X30.0672 Y16.9195
G01 X30.0461 Y16.9611
G01 X30.0229 Y17.0015
G01 X29.9978 Y17.0408
G01 X29.9752 Y17.0729
G01 X29.9467 Y17.1098
G01 X29.9163 Y17.1452
G01 X29.8818 Y17.1818
G01 X29.8452 Y17.2163
G01 X29.8146 Y17.2428
G01 X29.7788 Y17.2708
G01 X29.7408 Y17.2978
G01 X29.6952 Y17.3267
G01 X29.6546 Y17.3495
G01 X29.6195 Y17.3672
G01 X29.5767 Y17.3863
G01 X29.5334 Y17.4032
G01 X29.4822 Y17.4201
G01 X29.4372 Y17.4324
G01 X29.3917 Y17.4424
G01 X29.3530 Y17.4491
G01 X29.3068 Y17.4550
G01 X29.2529 Y17.4590
G01 X29.2100 Y17.4600
G01 X29.1597 Y17.4586
G01 X29.1132 Y17.4550
G01 X29.0743 Y17.4502
G01 X29.0283 Y17.4424
G01 X28.9828 Y17.4324
G01 X28.9307 Y17.4180
G01 X28.8865 Y17.4032
G01 X28.8431 Y17.3862
G01 X28.8070 Y17.3703
G01 X28.7654 Y17.3495
G01 X28.7185 Y17.3229
G01 X28.6792 Y17.2978
G01 X28.6471 Y17.2752
G01 X28.6102 Y17.2467
G01 X28.5693 Y17.2114
G01 X28.5383 Y17.1818
G01 X28.5073 Y17.1493
G01 X28.4733 Y17.1098
G01 X28.4486 Y17.0781
G01 X28.4358 Y17.0602
G01 X28.3065 Y17.0602
G01 X24.6550 Y20.7116
G01 X24.6354 Y20.7301
G01 X24.6196 Y20.7437
G01 X24.5993 Y20.7597
G01 X24.5712 Y20.7795
G01 X24.5312 Y20.8035
G01 X24.5068 Y20.8159
G01 X24.4758 Y20.8297
G01 X24.4319 Y20.8454
G01 X24.3987 Y20.8546
G01 X24.3723 Y20.8603
G01 X24.3262 Y20.8671
G01 X24.2993 Y20.8693
G01 X24.2686 Y20.8702
G01 X14.3971 Y20.8702
G01 X14.3664 Y20.8693
G01 X14.3456 Y20.8678
G01 X14.3200 Y20.8647
G01 X14.2861 Y20.8589
G01 X14.2404 Y20.8474
G01 X14.2083 Y20.8368
G01 X14.1652 Y20.8189
G01 X14.1345 Y20.8035
G01 X14.1111 Y20.7900
G01 X14.0842 Y20.7724
G01 X14.0509 Y20.7476
G01 X14.0303 Y20.7301
G01 X14.0107 Y20.7116
G01 X13.4410 Y20.1420
G01 X13.4199 Y20.1197
G01 X13.3903 Y20.0836
G01 X13.3705 Y20.0555
G01 X13.3466 Y20.0155
G01 X13.3341 Y19.9911
G01 X13.3203 Y19.9601
G01 X13.3046 Y19.9162
G01 X13.2972 Y19.8901
G01 X13.2897 Y19.8567
G01 X13.2853 Y19.8300
G01 X13.2822 Y19.8032
G01 X13.2803 Y19.7763
G01 X13.2798 Y19.7529
G01 X13.2798 Y16.1709
G01 X11.9860 Y14.8770
G01 X11.9649 Y14.8547
G01 X11.9513 Y14.8389
G01 X11.9353 Y14.8186
G01 X11.9155 Y14.7905
G01 X11.8916 Y14.7505
G01 X11.8791 Y14.7261
G01 X11.8653 Y14.6951
G01 X11.8496 Y14.6512
G01 X11.8404 Y14.6180
G01 X11.8313 Y14.5723
G01 X11.8271 Y14.5382
G01 X11.8253 Y14.5113
G01 X11.8248 Y14.4879
G01 X11.8248 Y6.8879
G01 X9.7263 Y4.7894
G01 X9.6753 Y4.7986
G01 X9.6267 Y4.8048
G01 X9.5777 Y4.8086
G01 X9.5213 Y4.8100
G01 X9.4723 Y4.8086
G01 X9.4294 Y4.8054
G01 X9.3819 Y4.7997
G01 X9.3335 Y4.7915
G01 X9.2785 Y4.7791
G01 X9.2312 Y4.7658
G01 X9.1912 Y4.7526
G01 X9.1457 Y4.7352
G01 X9.0945 Y4.7126
G01 X9.0504 Y4.6901
G01 X9.0078 Y4.6658
G01 X8.9664 Y4.6394
G01 X8.9323 Y4.6154
G01 X8.8878 Y4.5806
G01 X8.8507 Y4.5484
G01 X8.8179 Y4.5171
G01 X8.7816 Y4.4788
G01 X8.7544 Y4.4472
G01 X8.7240 Y4.4086
G01 X8.6956 Y4.3686
G01 X8.6689 Y4.3267
G01 X8.6446 Y4.2842
G01 X8.6224 Y4.2405
G01 X8.6025 Y4.1959
G01 X8.5823 Y4.1434
G01 X8.5670 Y4.0967
G01 X8.5541 Y4.0494
G01 X8.5435 Y4.0015
G01 X8.5364 Y3.9603
G01 X8.5302 Y3.9117
G01 X8.5264 Y3.8627
G01 X8.5250 Y3.8100
G01 X8.5261 Y3.7646
G00 Z1.9990
G00 X9.1886 Y5.2186
G01 F80.00
G01 Z-0.3732
G01 F80.00
G01 X9.2346 Y5.2060
G01 X9.2869 Y5.1940
G01 X9.3598 Y5.1813
G01 X9.4130 Y5.1750
G01 X9.4634 Y5.1713
G01 X9.5228 Y5.1697
G01 X9.5748 Y5.1708
G01 X9.6488 Y5.1762
G01 X9.7018 Y5.1830
G01 X9.7517 Y5.1916
G01 X9.8196 Y5.2071
G01 X9.8712 Y5.2216
G01 X9.9193 Y5.2375
G01 X9.6638 Y4.9819
G01 X9.6370 Y4.9850
G01 X9.5910 Y4.9884
G01 X9.5309 Y4.9903
G01 X9.4678 Y4.9890
G01 X9.4154 Y4.9852
G01 X9.3555 Y4.9781
G01 X9.2983 Y4.9684
G01 X9.2408 Y4.9556
G01 X9.1886 Y4.9414
G01 X9.1983 Y4.9767
G01 X9.2046 Y5.0092
G01 X9.2087 Y5.0432
G01 X9.2102 Y5.0822
G01 X9.2085 Y5.1187
G01 X9.2046 Y5.1513
G01 X9.1983 Y5.1833
G01 X9.1886 Y5.2186
G00 Z1.9990
G00 X11.1809 Y6.4991
G01 F80.00
G01 Z-0.3732
G01 F80.00
G01 X10.6375 Y5.9557
G01 X10.6556 Y6.0109
G01 X10.6719 Y6.0711
G01 X10.6842 Y6.1277
G01 X10.6920 Y6.1733
G01 X10.6988 Y6.2262
G01 X10.7037 Y6.2884
G01 X10.7053 Y6.3478
G01 X10.7040 Y6.4072
G01 X10.6993 Y6.4694
G01 X10.9750 Y6.4694
G01 X11.0156 Y6.4706
G01 X11.0510 Y6.4734
G01 X11.0902 Y6.4786
G01 X11.1211 Y6.4842
G01 X11.1446 Y6.4895
G01 X11.1809 Y6.4991
G00 Z1.9990
G00 X9.8515 Y7.7096
G01 F80.00
G01 Z-0.3732
G01 F80.00
G01 X9.6638 Y7.5219
G01 X9.6326 Y7.5254
G01 X9.5792 Y7.5291
G01 X9.5272 Y7.5303
G01 X9.4722 Y7.5291
G01 X9.4012 Y7.5238
G01 X9.3482 Y7.5170
G01 X9.2911 Y7.5069
G01 X9.2408 Y7.4956
G01 X9.1901 Y7.4818
G01 X9.1197 Y7.4585
G01 X9.0699 Y7.4391
G01 X9.0176 Y7.4157
G01 X8.9718 Y7.3927
G01 X8.9285 Y7.3684
G01 X8.9316 Y7.3939
G01 X8.9330 Y7.4163
G01 X8.9334 Y7.4373
G01 X8.9327 Y7.4612
G01 X8.9308 Y7.4836
G01 X8.9279 Y7.5058
G01 X8.9239 Y7.5279
G01 X8.9188 Y7.5498
G01 X8.9126 Y7.5714
G01 X8.9054 Y7.5926
G01 X8.8971 Y7.6136
G01 X8.8882 Y7.6334
G01 X8.8776 Y7.6540
G01 X8.8664 Y7.6734
G01 X8.8543 Y7.6923
G01 X8.8419 Y7.7096
G01 X9.8515 Y7.7096
G00 Z1.9990
G00 X8.3171 Y9.2941
G01 F80.00
G01 Z-0.3732
G01 F80.00
G01 X8.3171 Y9.8112
G01 X8.3716 Y9.9428
G01 X8.4722 Y10.0434
G01 X8.6038 Y10.0979
G01 X9.1209 Y10.0979
G01 X9.1209 Y9.8900
G01 X8.6750 Y9.8900
G01 X8.6603 Y9.8893
G01 X8.6457 Y9.8871
G01 X8.6315 Y9.8835
G01 X8.6109 Y9.8756
G01 X8.5917 Y9.8647
G01 X8.5798 Y9.8560
G01 X8.5689 Y9.8461
G01 X8.5545 Y9.8294
G01 X8.5463 Y9.8171
G01 X8.5394 Y9.8041
G01 X8.5338 Y9.7905
G01 X8.5295 Y9.7764
G01 X8.5257 Y9.7547
G01 X8.5250 Y9.7400
G01 X8.5250 Y9.2941
G01 X8.3171 Y9.2941
G00 Z1.9990
G00 X10.2202 Y10.3017
G01 F80.00
G01 Z-0.3732
G01 F80.00
G01 X10.4444 Y10.0774
G01 X10.4444 Y10.0629
G01 X10.4118 Y10.0683
G01 X10.3794 Y10.0703
G01 X10.1416 Y10.0704
G01 X10.1577 Y10.0958
G01 X10.1738 Y10.1255
G01 X10.1875 Y10.1563
G01 X10.1968 Y10.1813
G01 X10.2063 Y10.2132
G01 X10.2128 Y10.2422
G01 X10.2178 Y10.2749
G01 X10.2202 Y10.3017
G00 Z1.9990
G00 X10.4777 Y12.3636
G01 F80.00
G01 Z-0.3732
G01 F80.00
G01 X10.5292 Y12.4169
G01 X10.5731 Y12.4672
G01 X10.6157 Y12.5215
G01 X10.6543 Y12.5760
G01 X10.6909 Y12.6335
G01 X10.7270 Y12.6974
G01 X10.7568 Y12.7570
G01 X10.7868 Y12.8259
G01 X10.8103 Y12.8884
G01 X10.8282 Y12.9435
G01 X10.8417 Y12.9923
G01 X10.8584 Y13.0639
G01 X10.8690 Y13.1231
G01 X10.8785 Y13.1958
G01 X10.8839 Y13.2646
G01 X10.8857 Y13.3328
G01 X10.8839 Y13.4053
G01 X11.4641 Y13.9859
G01 X11.4641 Y11.3791
G01 X10.5141 Y12.3291
G01 X10.4777 Y12.3636
G01 X10.7272 Y12.3711
G01 X10.7650 Y12.4200
G01 X10.8024 Y12.4730
G01 X10.8388 Y12.5297
G01 X10.8549 Y12.5565
G01 X10.8863 Y12.6126
G01 X10.9165 Y12.6728
G01 X10.9427 Y12.7312
G01 X10.9551 Y12.7610
G01 X10.9776 Y12.8204
G01 X10.9983 Y12.8831
G01 X11.0159 Y12.9452
G01 X11.0238 Y12.9771
G01 X11.0374 Y13.0392
G01 X11.0488 Y13.1054
G01 X11.0569 Y13.1682
G01 X11.0601 Y13.2008
G01 X11.0644 Y13.2642
G01 X11.0661 Y13.3326
G01 X11.2837 Y13.5504
G01 X11.2837 Y11.8146
G01 X10.7272 Y12.3711
G01 X10.9636 Y12.3898
G01 X11.0007 Y12.4487
G01 X11.0402 Y12.5180
G01 X11.0773 Y12.5909
G01 X11.1034 Y12.6484
G01 X11.1034 Y12.2500
G01 X10.9636 Y12.3898
G01 X11.6444 Y14.4213
G01 X11.6444 Y10.9437
G01 X10.3808 Y12.2072
G01 X10.3612 Y12.2258
G01 X10.3348 Y12.2486
G01 X10.3081 Y12.2696
G01 X10.2826 Y12.2879
G01 X10.2487 Y12.3097
G01 X10.2215 Y12.3254
G01 X10.1741 Y12.3492
G01 X10.2346 Y12.3918
G01 X10.2766 Y12.4249
G01 X10.3116 Y12.4550
G01 X10.3612 Y12.5019
G01 X10.4050 Y12.5484
G01 X10.4351 Y12.5834
G01 X10.4682 Y12.6254
G01 X10.5084 Y12.6823
G01 X10.5360 Y12.7259
G01 X10.5625 Y12.7722
G01 X10.5937 Y12.8339
G01 X10.6142 Y12.8802
G01 X10.6335 Y12.9297
G01 X10.6534 Y12.9888
G01 X10.6719 Y13.0561
G01 X10.6819 Y13.1012
G01 X10.6913 Y13.1539
G01 X10.7004 Y13.2274
G01 X10.7041 Y13.2808
G01 X10.7053 Y13.3291
G01 X10.7037 Y13.3977
G01 X10.7002 Y13.4446
G01 X10.6970 Y13.4734
G01 X11.6444 Y14.4213
G00 Z1.9990
G00 X10.6375 Y15.4807
G01 F80.00
G01 Z-0.3732
G01 F80.00
G01 X10.6556 Y15.5359
G01 X10.6719 Y15.5961
G01 X10.6842 Y15.6527
G01 X10.6920 Y15.6983
G01 X10.6988 Y15.7512
G01 X10.7037 Y15.8134
G01 X10.7053 Y15.8728
G01 X10.7040 Y15.9322
G01 X10.6993 Y15.9944
G01 X10.9750 Y15.9944
G01 X11.0156 Y15.9956
G01 X11.0510 Y15.9984
G01 X11.0902 Y16.0036
G01 X11.1139 Y16.0078
G01 X11.1446 Y16.0145
G01 X11.1809 Y16.0241
G01 X10.6375 Y15.4807
G00 Z1.9990
G00 X9.1307 Y14.4475
G01 F80.00
G01 Z-0.3732
G01 F80.00
G01 X9.3862 Y14.7031
G01 X9.4130 Y14.7000
G01 X9.4590 Y14.6966
G01 X9.5228 Y14.6947
G01 X9.5822 Y14.6960
G01 X9.6451 Y14.7008
G01 X9.7062 Y14.7087
G01 X9.7589 Y14.7181
G01 X9.8039 Y14.7281
G01 X9.8641 Y14.7444
G01 X9.9193 Y14.7625
G01 X9.6638 Y14.5069
G01 X9.6370 Y14.5100
G01 X9.5910 Y14.5134
G01 X9.5272 Y14.5153
G01 X9.4678 Y14.5140
G01 X9.4049 Y14.5092
G01 X9.3438 Y14.5013
G01 X9.2911 Y14.4919
G01 X9.2461 Y14.4819
G01 X9.1859 Y14.4656
G01 X9.1307 Y14.4475
G00 Z1.9990
G00 X8.5261 Y13.2896
G01 F80.00
G01 Z-0.3732
G01 F80.00
G01 X8.5296 Y13.2394
G01 X8.5364 Y13.1846
G01 X8.5450 Y13.1363
G01 X8.5543 Y13.0950
G01 X8.5670 Y13.0483
G01 X8.5824 Y13.0012
G01 X8.6026 Y12.9489
G01 X8.6224 Y12.9045
G01 X8.6414 Y12.8669
G01 X8.6692 Y12.8178
G01 X8.6956 Y12.7764
G01 X8.7196 Y12.7423
G01 X8.7544 Y12.6978
G01 X8.7866 Y12.6607
G01 X8.8179 Y12.6279
G01 X8.8507 Y12.5966
G01 X8.8878 Y12.5644
G01 X8.9323 Y12.5296
G01 X8.9725 Y12.5015
G01 X9.0078 Y12.4792
G01 X9.0508 Y12.4546
G01 X9.1008 Y12.4295
G01 X9.1391 Y12.4125
G01 X9.1847 Y12.3947
G01 X9.2383 Y12.3770
G01 X9.2856 Y12.3641
G01 X9.3264 Y12.3550
G01 X9.3747 Y12.3464
G01 X9.4307 Y12.3395
G01 X9.4796 Y12.3361
G01 X9.5250 Y12.3350
G01 X9.5704 Y12.3361
G01 X9.6206 Y12.3396
G01 X9.6754 Y12.3464
G01 X9.7237 Y12.3550
G01 X9.7650 Y12.3643
G01 X9.8117 Y12.3770
G01 X9.8588 Y12.3924
G01 X9.9111 Y12.4126
G01 X9.9555 Y12.4324
G01 X9.9931 Y12.4514
G01 X10.0422 Y12.4792
G01 X10.0836 Y12.5056
G01 X10.1177 Y12.5296
G01 X10.1622 Y12.5644
G01 X10.1993 Y12.5966
G01 X10.2321 Y12.6279
G01 X10.2634 Y12.6607
G01 X10.2956 Y12.6978
G01 X10.3304 Y12.7423
G01 X10.3585 Y12.7825
G01 X10.3811 Y12.8183
G01 X10.4086 Y12.8669
G01 X10.4276 Y12.9045
G01 X10.4475 Y12.9491
G01 X10.4653 Y12.9947
G01 X10.4808 Y13.0412
G01 X10.4959 Y13.0956
G01 X10.5050 Y13.1364
G01 X10.5136 Y13.1847
G01 X10.5205 Y13.2407
G01 X10.5239 Y13.2896
G01 X10.5250 Y13.3313
G01 X10.5239 Y13.3822
G01 X10.5204 Y13.4306
G01 X10.5147 Y13.4781
G01 X10.5045 Y13.5359
G01 X13.0191 Y16.0510
G01 X13.0352 Y16.0678
G01 X13.0530 Y16.0881
G01 X13.0741 Y16.1152
G01 X13.1000 Y16.1540
G01 X13.1169 Y16.1839
G01 X13.1370 Y16.2263
G01 X13.1492 Y16.2581
G01 X13.1628 Y16.3028
G01 X13.1703 Y16.3363
G01 X13.1772 Y16.3824
G01 X13.1797 Y16.4167
G01 X13.1802 Y16.4400
G01 X13.1802 Y20.0221
G01 X14.1979 Y21.0398
G01 X25.3107 Y21.0398
G01 X27.6896 Y18.6609
G01 X27.7119 Y18.6399
G01 X27.7277 Y18.6263
G01 X27.7479 Y18.6103
G01 X27.7699 Y18.5946
G01 X27.7990 Y18.5762
G01 X27.8401 Y18.5542
G01 X27.8649 Y18.5431
G01 X27.8899 Y18.5332
G01 X27.9225 Y18.5225
G01 X27.9634 Y18.5121
G01 X27.9943 Y18.5063
G01 X28.0284 Y18.5021
G01 X28.0749 Y18.4998
G01 X28.4358 Y18.4998
G01 X28.4492 Y18.4812
G01 X28.4733 Y18.4502
G01 X28.5037 Y18.4148
G01 X28.5382 Y18.3782
G01 X28.5707 Y18.3473
G01 X28.6054 Y18.3172
G01 X28.6419 Y18.2886
G01 X28.6853 Y18.2581
G01 X28.7248 Y18.2333
G01 X28.7654 Y18.2105
G01 X28.8072 Y18.1897
G01 X28.8499 Y18.1709
G01 X28.8934 Y18.1543
G01 X28.9378 Y18.1399
G01 X28.9828 Y18.1276
G01 X29.0283 Y18.1176
G01 X29.0670 Y18.1109
G01 X29.1132 Y18.1050
G01 X29.1671 Y18.1010
G01 X29.2137 Y18.1000
G01 X29.2548 Y18.1011
G01 X29.2994 Y18.1043
G01 X29.3467 Y18.1099
G01 X29.3989 Y18.1190
G01 X29.4444 Y18.1294
G01 X29.4822 Y18.1399
G01 X29.5266 Y18.1543
G01 X29.5701 Y18.1709
G01 X29.6130 Y18.1897
G01 X29.6611 Y18.2139
G01 X29.7015 Y18.2371
G01 X29.7408 Y18.2622
G01 X29.7729 Y18.2848
G01 X29.8155 Y18.3180
G01 X29.8507 Y18.3486
G01 X29.8818 Y18.3783
G01 X29.9114 Y18.4093
G01 X29.9428 Y18.4454
G01 X29.9714 Y18.4819
G01 X30.0019 Y18.5253
G01 X30.0267 Y18.5648
G01 X30.0495 Y18.6054
G01 X30.0672 Y18.6405
G01 X30.0863 Y18.6833
G01 X30.1057 Y18.7334
G01 X30.1201 Y18.7778
G01 X30.1306 Y18.8157
G01 X30.1410 Y18.8611
G01 X30.1491 Y18.9070
G01 X30.1557 Y18.9606
G01 X30.1590 Y19.0071
G01 X30.1600 Y19.0463
G01 X30.1589 Y19.0948
G01 X30.1550 Y19.1468
G01 X30.1491 Y19.1930
G01 X30.1410 Y19.2389
G01 X30.1324 Y19.2772
G01 X30.1201 Y19.3222
G01 X30.1032 Y19.3735
G01 X30.0862 Y19.4169
G01 X30.0703 Y19.4530
G01 X30.0495 Y19.4946
G01 X30.0229 Y19.5415
G01 X29.9978 Y19.5808
G01 X29.9752 Y19.6129
G01 X29.9420 Y19.6555
G01 X29.9114 Y19.6907
G01 X29.8843 Y19.7191
G01 X29.8452 Y19.7563
G01 X29.8146 Y19.7828
G01 X29.7781 Y19.8114
G01 X29.7347 Y19.8419
G01 X29.6952 Y19.8667
G01 X29.6611 Y19.8861
G01 X29.6128 Y19.9103
G01 X29.5767 Y19.9263
G01 X29.5335 Y19.9432
G01 X29.4892 Y19.9580
G01 X29.4372 Y19.9724
G01 X29.3917 Y19.9824
G01 X29.3530 Y19.9891
G01 X29.3068 Y19.9950
G01 X29.2529 Y19.9990
G01 X29.2100 Y20.0000
G01 X29.1671 Y19.9990
G01 X29.1132 Y19.9950
G01 X29.0670 Y19.9891
G01 X29.0211 Y19.9810
G01 X28.9828 Y19.9724
G01 X28.9378 Y19.9601
G01 X28.8865 Y19.9432
G01 X28.8431 Y19.9262
G01 X28.8070 Y19.9103
G01 X28.7589 Y19.8861
G01 X28.7185 Y19.8629
G01 X28.6853 Y19.8419
G01 X28.6412 Y19.8108
G01 X28.6045 Y19.7820
G01 X28.5748 Y19.7563
G01 X28.5357 Y19.7191
G01 X28.5073 Y19.6893
G01 X28.4772 Y19.6546
G01 X28.4486 Y19.6181
G01 X28.4358 Y19.6002
G01 X28.3065 Y19.6002
G01 X25.9277 Y21.9791
G01 X25.9108 Y21.9952
G01 X25.8848 Y22.0176
G01 X25.8473 Y22.0454
G01 X25.8183 Y22.0638
G01 X25.7768 Y22.0859
G01 X25.7458 Y22.0997
G01 X25.7019 Y22.1154
G01 X25.6687 Y22.1246
G01 X25.6230 Y22.1337
G01 X25.5889 Y22.1379
G01 X25.5619 Y22.1397
G01 X25.5386 Y22.1402
G01 X13.9700 Y22.1402
G01 X13.9393 Y22.1393
G01 X13.9185 Y22.1378
G01 X13.8929 Y22.1347
G01 X13.8591 Y22.1289
G01 X13.8133 Y22.1174
G01 X13.7812 Y22.1068
G01 X13.7561 Y22.0969
G01 X13.7315 Y22.0858
G01 X13.6903 Y22.0638
G01 X13.6613 Y22.0454
G01 X13.6393 Y22.0297
G01 X13.6033 Y22.0001
G01 X13.5809 Y21.9791
G01 X12.2410 Y20.6391
G01 X12.2248 Y20.6222
G01 X12.2063 Y20.6009
G01 X12.1859 Y20.5748
G01 X12.1705 Y20.5526
G01 X12.1562 Y20.5297
G01 X12.1342 Y20.4886
G01 X12.1231 Y20.4639
G01 X12.1132 Y20.4387
G01 X12.1046 Y20.4132
G01 X12.0954 Y20.3801
G01 X12.0863 Y20.3344
G01 X12.0821 Y20.3003
G01 X12.0803 Y20.2733
G01 X12.0798 Y20.2500
G01 X12.0798 Y16.6679
G01 X9.7263 Y14.3144
G01 X9.6753 Y14.3236
G01 X9.6267 Y14.3298
G01 X9.5777 Y14.3336
G01 X9.5213 Y14.3350
G01 X9.4723 Y14.3336
G01 X9.4294 Y14.3304
G01 X9.3819 Y14.3247
G01 X9.3335 Y14.3165
G01 X9.2785 Y14.3041
G01 X9.2312 Y14.2908
G01 X9.1912 Y14.2776
G01 X9.1457 Y14.2602
G01 X9.0945 Y14.2376
G01 X9.0504 Y14.2151
G01 X9.0078 Y14.1908
G01 X8.9664 Y14.1644
G01 X8.9323 Y14.1404
G01 X8.8878 Y14.1056
G01 X8.8507 Y14.0734
G01 X8.8179 Y14.0421
G01 X8.7816 Y14.0038
G01 X8.7544 Y13.9722
G01 X8.7240 Y13.9336
G01 X8.6956 Y13.8936
G01 X8.6689 Y13.8517
G01 X8.6446 Y13.8092
G01 X8.6224 Y13.7655
G01 X8.6025 Y13.7209
G01 X8.5823 Y13.6684
G01 X8.5670 Y13.6217
G01 X8.5541 Y13.5744
G01 X8.5435 Y13.5265
G01 X8.5364 Y13.4853
G01 X8.5302 Y13.4367
G01 X8.5264 Y13.3877
G01 X8.5250 Y13.3350
G01 X8.5261 Y13.2896
G00 Z1.9990
G00 X9.8515 Y17.2346
G01 F80.00
G01 Z-0.3732
G01 F80.00
G01 X9.6638 Y17.0469
G01 X9.6326 Y17.0504
G01 X9.5792 Y17.0541
G01 X9.5272 Y17.0553
G01 X9.4722 Y17.0541
G01 X9.4012 Y17.0488
G01 X9.3482 Y17.0420
G01 X9.2911 Y17.0319
G01 X9.2408 Y17.0206
G01 X9.1901 Y17.0068
G01 X9.1197 Y16.9835
G01 X9.0699 Y16.9641
G01 X9.0176 Y16.9407
G01 X8.9718 Y16.9177
G01 X8.9285 Y16.8934
G01 X8.9316 Y16.9189
G01 X8.9330 Y16.9413
G01 X8.9334 Y16.9623
G01 X8.9327 Y16.9862
G01 X8.9308 Y17.0086
G01 X8.9279 Y17.0308
G01 X8.9239 Y17.0529
G01 X8.9188 Y17.0748
G01 X8.9126 Y17.0964
G01 X8.9054 Y17.1176
G01 X8.8971 Y17.1386
G01 X8.8882 Y17.1584
G01 X8.8776 Y17.1790
G01 X8.8664 Y17.1984
G01 X8.8543 Y17.2173
G01 X8.8419 Y17.2346
G01 X9.8515 Y17.2346
G01 X10.6994 Y17.5030
G01 X10.6994 Y17.4826
G01 X10.6932 Y17.4764
G01 X10.6994 Y17.5030
G01 X10.6932 Y19.3536
G01 X10.6994 Y19.3474
G01 X10.6994 Y19.3270
G01 X10.6932 Y19.3536
G01 X10.2202 Y19.8267
G01 X10.4636 Y19.5832
G01 X10.4596 Y19.5843
G01 X10.4510 Y19.5865
G01 X10.4438 Y19.5881
G01 X10.4278 Y19.5911
G01 X10.4118 Y19.5933
G01 X10.3868 Y19.5951
G01 X10.1416 Y19.5954
G01 X10.1577 Y19.6208
G01 X10.1738 Y19.6505
G01 X10.1875 Y19.6813
G01 X10.1968 Y19.7063
G01 X10.2063 Y19.7382
G01 X10.2128 Y19.7672
G01 X10.2178 Y19.7999
G01 X10.2202 Y19.8267
G00 Z1.9990
G00 X11.8994 Y20.2137
G01 F80.00
G01 Z-0.3732
G01 F80.00
G01 X10.3808 Y21.7322
G01 X10.3612 Y21.7508
G01 X10.3348 Y21.7736
G01 X10.3081 Y21.7946
G01 X10.2826 Y21.8129
G01 X10.2487 Y21.8347
G01 X10.2215 Y21.8504
G01 X10.1741 Y21.8742
G01 X10.2346 Y21.9168
G01 X10.2766 Y21.9499
G01 X10.3116 Y21.9800
G01 X10.3612 Y22.0269
G01 X10.4050 Y22.0734
G01 X10.4351 Y22.1084
G01 X10.4682 Y22.1504
G01 X10.5084 Y22.2073
G01 X10.5360 Y22.2509
G01 X10.5625 Y22.2972
G01 X10.5937 Y22.3589
G01 X10.6142 Y22.4052
G01 X10.6335 Y22.4547
G01 X10.6534 Y22.5138
G01 X10.6719 Y22.5811
G01 X10.6819 Y22.6262
G01 X10.6913 Y22.6789
G01 X10.7004 Y22.7524
G01 X10.7041 Y22.8058
G01 X10.7053 Y22.8541
G01 X10.7037 Y22.9227
G01 X10.7002 Y22.9696
G01 X10.6970 Y22.9983
G01 X11.0977 Y23.3994
G01 X12.3974 Y23.3994
G01 X13.4576 Y22.3393
G01 X13.4789 Y22.3192
G01 X13.5003 Y22.3005
G01 X13.5319 Y22.2754
G01 X13.5672 Y22.2506
G01 X13.6090 Y22.2250
G01 X13.5672 Y22.1994
G01 X13.5319 Y22.1746
G01 X13.5094 Y22.1570
G01 X13.4855 Y22.1367
G01 X13.4550 Y22.1081
G01 X12.1134 Y20.7666
G01 X12.0912 Y20.7433
G01 X12.0692 Y20.7182
G01 X12.0454 Y20.6881
G01 X12.0247 Y20.6589
G01 X12.0053 Y20.6287
G01 X11.9896 Y20.6015
G01 X11.9662 Y20.5550
G01 X11.9536 Y20.5261
G01 X11.9395 Y20.4885
G01 X11.9299 Y20.4585
G01 X11.9205 Y20.4239
G01 X11.9128 Y20.3889
G01 X11.9069 Y20.3536
G01 X11.9034 Y20.3253
G01 X11.9006 Y20.2895
G01 X11.8995 Y20.2559
G01 X11.8994 Y20.2137
G01 X11.6253 Y22.0189
G01 X11.6565 Y22.1013
G01 X11.6822 Y22.1780
G01 X11.6984 Y22.2317
G01 X11.7213 Y22.3169
G01 X11.9493 Y22.3171
G01 X12.0414 Y22.2250
G01 X11.7304 Y21.9140
G01 X11.6253 Y22.0189
G01 X11.4110 Y21.9779
G01 X11.4409 Y22.0449
G01 X11.4597 Y22.0908
G01 X11.4876 Y22.1646
G01 X11.5132 Y22.2419
G01 X11.5259 Y22.2845
G01 X11.5475 Y22.3652
G01 X11.5645 Y22.4411
G01 X11.5750 Y22.4971
G01 X12.0239 Y22.4976
G01 X12.2965 Y22.2250
G01 X11.7306 Y21.6591
G01 X11.4110 Y21.9779
G01 X11.1909 Y21.9428
G01 X11.2107 Y21.9798
G01 X11.2398 Y22.0378
G01 X11.2783 Y22.1234
G01 X11.3135 Y22.2135
G01 X11.3429 Y22.3015
G01 X11.3686 Y22.3933
G01 X11.3895 Y22.4854
G01 X11.4067 Y22.5848
G01 X11.4180 Y22.6780
G01 X12.0986 Y22.6780
G01 X12.5516 Y22.2250
G01 X11.7307 Y21.4041
G01 X11.1909 Y21.9428
G01 X10.9636 Y21.9148
G01 X10.9998 Y21.9722
G01 X11.0337 Y22.0313
G01 X11.0509 Y22.0634
G01 X11.0799 Y22.1214
G01 X11.1079 Y22.1837
G01 X11.1218 Y22.2171
G01 X11.1445 Y22.2766
G01 X11.1665 Y22.3420
G01 X11.1777 Y22.3787
G01 X11.1957 Y22.4453
G01 X11.2099 Y22.5078
G01 X11.2170 Y22.5436
G01 X11.2283 Y22.6112
G01 X11.2363 Y22.6744
G01 X11.2399 Y22.7109
G01 X11.2446 Y22.7803
G01 X11.3222 Y22.8584
G01 X12.1733 Y22.8584
G01 X12.8066 Y22.2250
G01 X11.7308 Y21.1492
G01 X11.7300 Y21.1484
G01 X10.9636 Y21.9148
G01 X10.7272 Y21.8961
G01 X10.7669 Y21.9476
G01 X10.8084 Y22.0069
G01 X10.8452 Y22.0651
G01 X10.8772 Y22.1209
G01 X10.9109 Y22.1863
G01 X10.9248 Y22.2156
G01 X10.9507 Y22.2750
G01 X10.9776 Y22.3454
G01 X11.0007 Y22.4162
G01 X11.0187 Y22.4809
G01 X11.0351 Y22.5527
G01 X11.0467 Y22.6173
G01 X11.0517 Y22.6507
G01 X11.0599 Y22.7225
G01 X11.0644 Y22.7881
G01 X11.0661 Y22.8573
G01 X11.2472 Y23.0387
G01 X12.2480 Y23.0387
G01 X13.0617 Y22.2250
G01 X11.8549 Y21.0181
G01 X11.8239 Y20.9856
G01 X11.7930 Y20.9501
G01 X11.7894 Y20.9459
G01 X11.7887 Y20.9450
G01 X11.7873 Y20.9433
G01 X11.7804 Y20.9348
G01 X11.7631 Y20.9127
G01 X11.7408 Y20.8825
G01 X10.7272 Y21.8961
G01 X10.4777 Y21.8886
G01 X10.5292 Y21.9419
G01 X10.5731 Y21.9922
G01 X10.6157 Y22.0465
G01 X10.6543 Y22.1010
G01 X10.6909 Y22.1585
G01 X10.7270 Y22.2224
G01 X10.7568 Y22.2820
G01 X10.7868 Y22.3509
G01 X10.8103 Y22.4134
G01 X10.8282 Y22.4685
G01 X10.8417 Y22.5173
G01 X10.8584 Y22.5889
G01 X10.8690 Y22.6481
G01 X10.8785 Y22.7208
G01 X10.8839 Y22.7896
G01 X10.8857 Y22.8578
G01 X10.8839 Y22.9302
G01 X11.1725 Y23.2191
G01 X12.3227 Y23.2191
G01 X13.3168 Y22.2250
G01 X11.9859 Y20.8941
G01 X11.9621 Y20.8693
G01 X11.9307 Y20.8337
G01 X11.9046 Y20.8009
G01 X11.8784 Y20.7646
G01 X11.8553 Y20.7290
G01 X11.8316 Y20.6885
G01 X11.8284 Y20.6826
G01 X11.8250 Y20.6761
G01 X11.8219 Y20.6703
G01 X11.8119 Y20.6504
G01 X11.7932 Y20.6097
G01 X11.7831 Y20.5852
G01 X10.5141 Y21.8541
G01 X10.4777 Y21.8886
G00 Z1.9990
G00 X8.5261 Y22.8146
G01 F80.00
G01 Z-0.3732
G01 F80.00
G01 X8.5296 Y22.7644
G01 X8.5353 Y22.7169
G01 X8.5435 Y22.6685
G01 X8.5543 Y22.6200
G01 X8.5670 Y22.5733
G01 X8.5824 Y22.5262
G01 X8.6026 Y22.4739
G01 X8.6226 Y22.4291
G01 X8.6449 Y22.3854
G01 X8.6692 Y22.3428
G01 X8.6956 Y22.3014
G01 X8.7240 Y22.2614
G01 X8.7497 Y22.2285
G01 X8.7816 Y22.1912
G01 X8.8179 Y22.1529
G01 X8.8562 Y22.1166
G01 X8.8935 Y22.0847
G01 X8.9323 Y22.0546
G01 X8.9725 Y22.0265
G01 X9.0141 Y22.0004
G01 X9.0569 Y21.9764
G01 X9.0945 Y21.9574
G01 X9.1389 Y21.9376
G01 X9.1847 Y21.9197
G01 X9.2312 Y21.9042
G01 X9.2785 Y21.8909
G01 X9.3264 Y21.8800
G01 X9.3747 Y21.8714
G01 X9.4307 Y21.8645
G01 X9.4796 Y21.8611
G01 X9.5250 Y21.8600
G01 X9.5777 Y21.8614
G01 X9.6267 Y21.8652
G01 X9.6754 Y21.8714
G01 X9.7165 Y21.8785
G01 X9.7715 Y21.8909
G01 X9.8188 Y21.9042
G01 X9.8653 Y21.9197
G01 X9.9111 Y21.9376
G01 X9.9555 Y21.9574
G01 X9.9996 Y21.9799
G01 X10.0422 Y22.0042
G01 X10.0836 Y22.0306
G01 X10.1236 Y22.0590
G01 X10.1622 Y22.0894
G01 X10.1993 Y22.1216
G01 X10.2321 Y22.1529
G01 X10.2684 Y22.1912
G01 X10.2956 Y22.2228
G01 X10.3260 Y22.2614
G01 X10.3544 Y22.3014
G01 X10.3811 Y22.3433
G01 X10.4054 Y22.3858
G01 X10.4305 Y22.4358
G01 X10.4475 Y22.4741
G01 X10.4653 Y22.5197
G01 X10.4808 Y22.5662
G01 X10.4941 Y22.6135
G01 X10.5050 Y22.6614
G01 X10.5136 Y22.7097
G01 X10.5198 Y22.7583
G01 X10.5236 Y22.8073
G01 X10.5250 Y22.8600
G01 X10.5239 Y22.9072
G01 X10.5204 Y22.9556
G01 X10.5136 Y23.0104
G01 X10.5045 Y23.0608
G01 X11.0229 Y23.5798
G01 X12.4721 Y23.5798
G01 X13.5810 Y22.4709
G01 X13.6033 Y22.4499
G01 X13.6191 Y22.4363
G01 X13.6393 Y22.4203
G01 X13.6674 Y22.4005
G01 X13.7074 Y22.3765
G01 X13.7381 Y22.3611
G01 X13.7813 Y22.3432
G01 X13.8191 Y22.3310
G01 X13.8399 Y22.3254
G01 X13.8663 Y22.3197
G01 X13.9124 Y22.3129
G01 X13.9393 Y22.3107
G01 X13.9700 Y22.3098
G01 X26.5807 Y22.3098
G01 X27.6896 Y21.2009
G01 X27.7064 Y21.1848
G01 X27.7277 Y21.1663
G01 X27.7539 Y21.1459
G01 X27.7760 Y21.1305
G01 X27.7990 Y21.1162
G01 X27.8401 Y21.0942
G01 X27.8649 Y21.0831
G01 X27.8899 Y21.0732
G01 X27.9154 Y21.0646
G01 X27.9415 Y21.0572
G01 X27.9678 Y21.0511
G01 X28.0015 Y21.0453
G01 X28.0480 Y21.0407
G01 X28.0749 Y21.0398
G01 X28.4358 Y21.0398
G01 X28.4492 Y21.0212
G01 X28.4733 Y20.9902
G01 X28.5037 Y20.9548
G01 X28.5382 Y20.9182
G01 X28.5748 Y20.8837
G01 X28.6054 Y20.8572
G01 X28.6471 Y20.8248
G01 X28.6853 Y20.7981
G01 X28.7248 Y20.7733
G01 X28.7589 Y20.7539
G01 X28.8005 Y20.7328
G01 X28.8433 Y20.7137
G01 X28.8866 Y20.6968
G01 X28.9378 Y20.6799
G01 X28.9828 Y20.6676
G01 X29.0283 Y20.6576
G01 X29.0670 Y20.6509
G01 X29.1132 Y20.6450
G01 X29.1671 Y20.6410
G01 X29.2100 Y20.6400
G01 X29.2548 Y20.6411
G01 X29.3068 Y20.6450
G01 X29.3530 Y20.6509
G01 X29.3989 Y20.6590
G01 X29.4444 Y20.6694
G01 X29.4893 Y20.6820
G01 X29.5335 Y20.6968
G01 X29.5769 Y20.7138
G01 X29.6130 Y20.7297
G01 X29.6546 Y20.7505
G01 X29.6952 Y20.7733
G01 X29.7347 Y20.7981
G01 X29.7729 Y20.8248
G01 X29.8098 Y20.8533
G01 X29.8452 Y20.8837
G01 X29.8818 Y20.9183
G01 X29.9127 Y20.9507
G01 X29.9428 Y20.9854
G01 X29.9714 Y21.0219
G01 X29.9978 Y21.0592
G01 X30.0229 Y21.0985
G01 X30.0461 Y21.1389
G01 X30.0672 Y21.1805
G01 X30.0863 Y21.2233
G01 X30.1032 Y21.2666
G01 X30.1180 Y21.3108
G01 X30.1306 Y21.3557
G01 X30.1410 Y21.4011
G01 X30.1491 Y21.4470
G01 X30.1550 Y21.4932
G01 X30.1586 Y21.5397
G01 X30.1600 Y21.5937
G01 X30.1589 Y21.6348
G01 X30.1557 Y21.6794
G01 X30.1491 Y21.7330
G01 X30.1410 Y21.7789
G01 X30.1324 Y21.8172
G01 X30.1180 Y21.8693
G01 X30.1032 Y21.9135
G01 X30.0891 Y21.9501
G01 X30.0703 Y21.9930
G01 X30.0461 Y22.0411
G01 X30.0229 Y22.0815
G01 X30.0019 Y22.1147
G01 X29.9708 Y22.1588
G01 X29.9420 Y22.1955
G01 X29.9163 Y22.2252
G01 X29.8843 Y22.2591
G01 X29.8493 Y22.2927
G01 X29.8098 Y22.3267
G01 X29.7781 Y22.3514
G01 X29.7408 Y22.3778
G01 X29.6952 Y22.4067
G01 X29.6546 Y22.4295
G01 X29.6128 Y22.4503
G01 X29.5767 Y22.4663
G01 X29.5334 Y22.4832
G01 X29.4892 Y22.4980
G01 X29.4443 Y22.5106
G01 X29.3989 Y22.5210
G01 X29.3530 Y22.5291
G01 X29.3068 Y22.5350
G01 X29.2603 Y22.5386
G01 X29.2063 Y22.5400
G01 X29.1652 Y22.5389
G01 X29.1132 Y22.5350
G01 X29.0733 Y22.5301
G01 X29.0283 Y22.5224
G01 X28.9828 Y22.5124
G01 X28.9378 Y22.5001
G01 X28.8934 Y22.4857
G01 X28.8499 Y22.4691
G01 X28.8070 Y22.4503
G01 X28.7654 Y22.4295
G01 X28.7248 Y22.4067
G01 X28.6853 Y22.3819
G01 X28.6471 Y22.3552
G01 X28.6102 Y22.3267
G01 X28.5748 Y22.2963
G01 X28.5409 Y22.2643
G01 X28.5073 Y22.2293
G01 X28.4772 Y22.1946
G01 X28.4486 Y22.1581
G01 X28.4358 Y22.1402
G01 X28.3065 Y22.1402
G01 X27.1977 Y23.2491
G01 X27.1754 Y23.2701
G01 X27.1596 Y23.2837
G01 X27.1393 Y23.2997
G01 X27.1112 Y23.3195
G01 X27.0712 Y23.3435
G01 X27.0468 Y23.3559
G01 X27.0158 Y23.3697
G01 X26.9719 Y23.3854
G01 X26.9458 Y23.3928
G01 X26.9123 Y23.4003
G01 X26.8857 Y23.4047
G01 X26.8589 Y23.4079
G01 X26.8319 Y23.4097
G01 X26.8086 Y23.4102
G01 X14.1979 Y23.4102
G01 X13.0891 Y24.5191
G01 X13.0667 Y24.5401
G01 X13.0509 Y24.5537
G01 X13.0307 Y24.5697
G01 X13.0087 Y24.5854
G01 X12.9860 Y24.6000
G01 X12.9561 Y24.6169
G01 X12.9138 Y24.6369
G01 X12.8887 Y24.6468
G01 X12.8632 Y24.6554
G01 X12.8301 Y24.6646
G01 X12.8037 Y24.6703
G01 X12.7771 Y24.6747
G01 X12.7307 Y24.6793
G01 X12.7000 Y24.6802
G01 X10.7913 Y24.6802
G01 X10.7643 Y24.6793
G01 X10.7374 Y24.6771
G01 X10.7106 Y24.6737
G01 X10.6841 Y24.6689
G01 X10.6578 Y24.6628
G01 X10.6318 Y24.6554
G01 X10.5879 Y24.6397
G01 X10.5631 Y24.6289
G01 X10.5389 Y24.6169
G01 X10.5153 Y24.6038
G01 X10.4863 Y24.5854
G01 X10.4488 Y24.5576
G01 X10.4228 Y24.5352
G01 X10.4059 Y24.5191
G01 X9.7263 Y23.8394
G01 X9.6753 Y23.8486
G01 X9.6267 Y23.8548
G01 X9.5777 Y23.8586
G01 X9.5213 Y23.8600
G01 X9.4723 Y23.8586
G01 X9.4294 Y23.8554
G01 X9.3819 Y23.8497
G01 X9.3335 Y23.8415
G01 X9.2785 Y23.8291
G01 X9.2312 Y23.8158
G01 X9.1912 Y23.8026
G01 X9.1457 Y23.7852
G01 X9.0945 Y23.7626
G01 X9.0504 Y23.7401
G01 X9.0078 Y23.7158
G01 X8.9664 Y23.6894
G01 X8.9264 Y23.6610
G01 X8.8878 Y23.6306
G01 X8.8562 Y23.6034
G01 X8.8179 Y23.5671
G01 X8.7866 Y23.5343
G01 X8.7544 Y23.4972
G01 X8.7196 Y23.4527
G01 X8.6915 Y23.4125
G01 X8.6689 Y23.3767
G01 X8.6449 Y23.3346
G01 X8.6224 Y23.2905
G01 X8.6025 Y23.2459
G01 X8.5823 Y23.1934
G01 X8.5670 Y23.1467
G01 X8.5541 Y23.0994
G01 X8.5435 Y23.0515
G01 X8.5364 Y23.0103
G01 X8.5302 Y22.9617
G01 X8.5264 Y22.9127
G01 X8.5250 Y22.8600
G01 X8.5261 Y22.8146
G00 Z1.9990
G00 X9.1307 Y23.9725
G01 F80.00
G01 Z-0.3732
G01 F80.00
G01 X9.3862 Y24.2281
G01 X9.4130 Y24.2250
G01 X9.4590 Y24.2216
G01 X9.5228 Y24.2197
G01 X9.5822 Y24.2210
G01 X9.5910 Y24.2216
G01 X9.6326 Y24.2246
G01 X9.6451 Y24.2258
G01 X9.7062 Y24.2337
G01 X9.7589 Y24.2431
G01 X9.8039 Y24.2531
G01 X9.8641 Y24.2694
G01 X9.9193 Y24.2875
G01 X9.6638 Y24.0319
G01 X9.6370 Y24.0350
G01 X9.5910 Y24.0384
G01 X9.5272 Y24.0403
G01 X9.4678 Y24.0390
G01 X9.4049 Y24.0342
G01 X9.3438 Y24.0263
G01 X9.2911 Y24.0169
G01 X9.2461 Y24.0069
G01 X9.1859 Y23.9906
G01 X9.1307 Y23.9725
G01 X10.8605 Y24.8606
G01 X10.8845 Y24.8834
G01 X11.6916 Y25.6905
G01 X11.7108 Y25.7105
G01 X11.7425 Y25.7471
G01 X11.7596 Y25.7689
G01 X11.7779 Y25.7945
G01 X11.8035 Y25.8347
G01 X11.8268 Y25.8773
G01 X11.8584 Y25.8434
G01 X12.8589 Y24.8430
G01 X12.8152 Y24.8514
G01 X12.7797 Y24.8561
G01 X12.7395 Y24.8595
G01 X12.7022 Y24.8605
G01 X10.8605 Y24.8606
G01 X11.2971 Y25.0409
G01 X11.8191 Y25.5630
G01 X11.8506 Y25.5961
G01 X12.4058 Y25.0409
G01 X11.2971 Y25.0409
G01 X11.7325 Y25.2213
G01 X11.8515 Y25.3402
G01 X11.9704 Y25.2213
G01 X11.7325 Y25.2213
G00 Z1.9990
G00 X10.4444 Y26.7671
G01 F80.00
G01 Z-0.3732
G01 F80.00
G01 X10.4444 Y26.5097
G01 X10.2589 Y26.3242
G01 X10.2252 Y26.3502
G01 X10.1777 Y26.3834
G01 X10.1341 Y26.4110
G01 X10.0878 Y26.4375
G01 X10.0223 Y26.4704
G01 X9.9798 Y26.4892
G01 X9.9303 Y26.5085
G01 X9.8599 Y26.5318
G01 X9.8082 Y26.5458
G01 X9.7588 Y26.5569
G01 X9.6902 Y26.5687
G01 X9.6370 Y26.5750
G01 X9.5910 Y26.5784
G01 X9.5169 Y26.5803
G01 X9.4678 Y26.5790
G01 X9.4110 Y26.5748
G01 X9.3438 Y26.5663
G01 X9.2911 Y26.5569
G01 X9.2408 Y26.5456
G01 X9.1746 Y26.5271
G01 X9.1236 Y26.5100
G01 X9.0767 Y26.4919
G01 X9.0136 Y26.4638
G01 X8.9718 Y26.4427
G01 X8.9285 Y26.4184
G01 X8.9316 Y26.4439
G01 X8.9330 Y26.4663
G01 X8.9334 Y26.4873
G01 X8.9327 Y26.5112
G01 X8.9308 Y26.5336
G01 X8.9279 Y26.5558
G01 X8.9239 Y26.5779
G01 X8.9188 Y26.5998
G01 X8.9126 Y26.6214
G01 X8.9054 Y26.6426
G01 X8.8971 Y26.6636
G01 X8.8882 Y26.6834
G01 X8.8776 Y26.7040
G01 X8.8664 Y26.7234
G01 X8.8543 Y26.7423
G01 X8.8419 Y26.7596
G01 X10.3750 Y26.7596
G01 X10.4118 Y26.7617
G01 X10.4444 Y26.7671
G01 X10.2034 Y26.5793
G01 X10.2590 Y26.5793
G01 X10.2383 Y26.5586
G01 X10.2034 Y26.5793
G00 Z1.9990
G00 X10.4370 Y29.1144
G01 F80.00
G01 Z-0.3732
G01 F80.00
G01 X10.4444 Y29.1144
G01 X10.4444 Y29.1129
G01 X10.4438 Y29.1131
G01 X10.4370 Y29.1144
G01 X9.0359 Y29.3989
G01 X9.1122 Y29.3228
G01 X9.1318 Y29.3042
G01 X9.1582 Y29.2814
G01 X9.1849 Y29.2604
G01 X9.2141 Y29.2396
G01 X9.2443 Y29.2203
G01 X9.2715 Y29.2046
G01 X9.3079 Y29.1859
G01 X9.3403 Y29.1714
G01 X9.3736 Y29.1584
G01 X9.4032 Y29.1483
G01 X9.4421 Y29.1372
G01 X9.4726 Y29.1301
G01 X9.5078 Y29.1236
G01 X9.5311 Y29.1204
G01 X8.9205 Y29.1204
G01 X8.9445 Y29.1496
G01 X8.9674 Y29.1829
G01 X8.9844 Y29.2126
G01 X9.0006 Y29.2469
G01 X9.0146 Y29.2845
G01 X9.0249 Y29.3217
G01 X9.0323 Y29.3615
G01 X9.0359 Y29.3989
G00 Z1.9990
G00 X9.2679 Y31.2332
G01 F80.00
G01 Z-0.3732
G01 F80.00
G01 X9.2984 Y31.2266
G01 X9.3555 Y31.2169
G01 X9.4130 Y31.2100
G01 X9.4634 Y31.2063
G01 X9.5228 Y31.2047
G01 X9.5778 Y31.2059
G01 X9.6346 Y31.2098
G01 X9.6634 Y31.2130
G01 X9.8587 Y31.0182
G01 X9.8817 Y30.9962
G01 X9.9102 Y30.9714
G01 X9.9369 Y30.9504
G01 X9.9661 Y30.9296
G01 X9.9925 Y30.9126
G01 X10.0378 Y30.8870
G01 X10.0662 Y30.8729
G01 X10.0923 Y30.8614
G01 X10.1256 Y30.8484
G01 X10.1552 Y30.8383
G01 X10.2054 Y30.8245
G01 X10.2290 Y30.8192
G01 X10.2598 Y30.8136
G01 X10.3115 Y30.8073
G01 X10.3428 Y30.8052
G01 X10.3669 Y30.8045
G01 X10.4645 Y30.8044
G01 X10.6933 Y30.5756
G01 X9.9256 Y30.5756
G01 X9.2679 Y31.2332
G00 Z1.9990
G00 X8.5261 Y32.3396
G01 F80.00
G01 Z-0.3732
G01 F80.00
G01 X8.5296 Y32.2894
G01 X8.5353 Y32.2419
G01 X8.5435 Y32.1935
G01 X8.5543 Y32.1450
G01 X8.5670 Y32.0983
G01 X8.5824 Y32.0512
G01 X8.6026 Y31.9989
G01 X8.6226 Y31.9541
G01 X8.6449 Y31.9104
G01 X8.6692 Y31.8678
G01 X8.6956 Y31.8264
G01 X8.7240 Y31.7864
G01 X8.7497 Y31.7535
G01 X8.7816 Y31.7162
G01 X8.8179 Y31.6779
G01 X8.8562 Y31.6416
G01 X8.8935 Y31.6097
G01 X8.9264 Y31.5840
G01 X8.9664 Y31.5556
G01 X9.0078 Y31.5292
G01 X9.0508 Y31.5046
G01 X9.0945 Y31.4824
G01 X9.1391 Y31.4625
G01 X9.1916 Y31.4423
G01 X9.2383 Y31.4270
G01 X9.2856 Y31.4141
G01 X9.3335 Y31.4035
G01 X9.3747 Y31.3964
G01 X9.4233 Y31.3902
G01 X9.4723 Y31.3864
G01 X9.5213 Y31.3850
G01 X9.5722 Y31.3861
G01 X9.6206 Y31.3896
G01 X9.6754 Y31.3964
G01 X9.7259 Y31.4055
G01 X10.0028 Y31.1298
G01 X10.0241 Y31.1113
G01 X10.0502 Y31.0909
G01 X10.0890 Y31.0650
G01 X10.1189 Y31.0481
G01 X10.1612 Y31.0281
G01 X10.1863 Y31.0182
G01 X10.2118 Y31.0096
G01 X10.2449 Y31.0004
G01 X10.2906 Y30.9913
G01 X10.3174 Y30.9879
G01 X10.3517 Y30.9853
G01 X10.5392 Y30.9848
G01 X11.8248 Y29.6992
G01 X11.8248 Y26.3600
G01 X11.8255 Y26.3330
G01 X11.8275 Y26.3060
G01 X11.8308 Y26.2793
G01 X11.8354 Y26.2526
G01 X11.8413 Y26.2263
G01 X11.8485 Y26.2003
G01 X11.8570 Y26.1747
G01 X11.8667 Y26.1495
G01 X11.8777 Y26.1247
G01 X11.8898 Y26.1006
G01 X11.9031 Y26.0771
G01 X11.9175 Y26.0543
G01 X11.9331 Y26.0323
G01 X11.9497 Y26.0109
G01 X11.9673 Y25.9905
G01 X11.9834 Y25.9736
G01 X14.2160 Y23.7409
G01 X14.2342 Y23.7236
G01 X14.2541 Y23.7063
G01 X14.2802 Y23.6859
G01 X14.3024 Y23.6705
G01 X14.3253 Y23.6562
G01 X14.3489 Y23.6431
G01 X14.3731 Y23.6311
G01 X14.3979 Y23.6203
G01 X14.4231 Y23.6108
G01 X14.4488 Y23.6025
G01 X14.4749 Y23.5954
G01 X14.5013 Y23.5897
G01 X14.5279 Y23.5853
G01 X14.5547 Y23.5821
G01 X14.5817 Y23.5803
G01 X14.6050 Y23.5798
G01 X28.4358 Y23.5798
G01 X28.4492 Y23.5612
G01 X28.4733 Y23.5302
G01 X28.5037 Y23.4948
G01 X28.5383 Y23.4582
G01 X28.5748 Y23.4237
G01 X28.6054 Y23.3972
G01 X28.6412 Y23.3692
G01 X28.6792 Y23.3422
G01 X28.7248 Y23.3133
G01 X28.7654 Y23.2905
G01 X28.8072 Y23.2697
G01 X28.8431 Y23.2538
G01 X28.8866 Y23.2368
G01 X28.9308 Y23.2220
G01 X28.9828 Y23.2076
G01 X29.0283 Y23.1976
G01 X29.0670 Y23.1909
G01 X29.1132 Y23.1850
G01 X29.1597 Y23.1814
G01 X29.2100 Y23.1800
G01 X29.2603 Y23.1814
G01 X29.3068 Y23.1850
G01 X29.3467 Y23.1899
G01 X29.3917 Y23.1976
G01 X29.4372 Y23.2076
G01 X29.4893 Y23.2220
G01 X29.5335 Y23.2368
G01 X29.5701 Y23.2509
G01 X29.6195 Y23.2728
G01 X29.6611 Y23.2939
G01 X29.6952 Y23.3133
G01 X29.7408 Y23.3422
G01 X29.7788 Y23.3692
G01 X29.8098 Y23.3933
G01 X29.8507 Y23.4286
G01 X29.8818 Y23.4582
G01 X29.9114 Y23.4893
G01 X29.9428 Y23.5254
G01 X29.9714 Y23.5619
G01 X29.9978 Y23.5992
G01 X30.0267 Y23.6448
G01 X30.0495 Y23.6854
G01 X30.0672 Y23.7205
G01 X30.0891 Y23.7699
G01 X30.1032 Y23.8066
G01 X30.1180 Y23.8507
G01 X30.1306 Y23.8957
G01 X30.1424 Y23.9483
G01 X30.1502 Y23.9943
G01 X30.1557 Y24.0406
G01 X30.1590 Y24.0871
G01 X30.1600 Y24.1300
G01 X30.1590 Y24.1729
G01 X30.1557 Y24.2194
G01 X30.1501 Y24.2667
G01 X30.1410 Y24.3189
G01 X30.1306 Y24.3644
G01 X30.1201 Y24.4022
G01 X30.1057 Y24.4466
G01 X30.0891 Y24.4901
G01 X30.0703 Y24.5330
G01 X30.0461 Y24.5811
G01 X30.0229 Y24.6215
G01 X29.9978 Y24.6608
G01 X29.9752 Y24.6929
G01 X29.9467 Y24.7298
G01 X29.9163 Y24.7652
G01 X29.8818 Y24.8017
G01 X29.8452 Y24.8363
G01 X29.8146 Y24.8628
G01 X29.7788 Y24.8908
G01 X29.7408 Y24.9178
G01 X29.6952 Y24.9467
G01 X29.6546 Y24.9695
G01 X29.6128 Y24.9903
G01 X29.5769 Y25.0062
G01 X29.5334 Y25.0232
G01 X29.4892 Y25.0380
G01 X29.4443 Y25.0506
G01 X29.3917 Y25.0624
G01 X29.3457 Y25.0702
G01 X29.2994 Y25.0757
G01 X29.2603 Y25.0786
G01 X29.2100 Y25.0800
G01 X29.1597 Y25.0786
G01 X29.1132 Y25.0750
G01 X29.0733 Y25.0701
G01 X29.0211 Y25.0610
G01 X28.9756 Y25.0506
G01 X28.9378 Y25.0401
G01 X28.8934 Y25.0257
G01 X28.8499 Y25.0091
G01 X28.8005 Y24.9872
G01 X28.7589 Y24.9661
G01 X28.7248 Y24.9467
G01 X28.6853 Y24.9219
G01 X28.6471 Y24.8952
G01 X28.6045 Y24.8620
G01 X28.5693 Y24.8314
G01 X28.5409 Y24.8043
G01 X28.5073 Y24.7693
G01 X28.4733 Y24.7298
G01 X28.4486 Y24.6981
G01 X28.4358 Y24.6802
G01 X14.8329 Y24.6802
G01 X12.9252 Y26.5879
G01 X12.9252 Y29.9271
G01 X12.9247 Y29.9504
G01 X12.9222 Y29.9847
G01 X12.9193 Y30.0078
G01 X12.9146 Y30.0344
G01 X12.9087 Y30.0607
G01 X12.9025 Y30.0832
G01 X12.8918 Y30.1159
G01 X12.8834 Y30.1376
G01 X12.8724 Y30.1623
G01 X12.8603 Y30.1864
G01 X12.8488 Y30.2067
G01 X12.8304 Y30.2358
G01 X12.8169 Y30.2548
G01 X12.8003 Y30.2761
G01 X12.7827 Y30.2965
G01 X12.7641 Y30.3161
G01 X11.1561 Y31.9241
G01 X11.1393 Y31.9402
G01 X11.1180 Y31.9587
G01 X11.0918 Y31.9791
G01 X11.0697 Y31.9945
G01 X11.0467 Y32.0088
G01 X11.0056 Y32.0308
G01 X10.9808 Y32.0420
G01 X10.9558 Y32.0518
G01 X10.9232 Y32.0625
G01 X10.8972 Y32.0696
G01 X10.8708 Y32.0753
G01 X10.8442 Y32.0797
G01 X10.7977 Y32.0843
G01 X10.7671 Y32.0852
G01 X10.6029 Y32.0852
G01 X10.5044 Y32.1837
G01 X10.5147 Y32.2419
G01 X10.5205 Y32.2907
G01 X10.5236 Y32.3323
G01 X10.5250 Y32.3850
G01 X10.5239 Y32.4304
G01 X10.5198 Y32.4867
G01 X10.5136 Y32.5354
G01 X10.5065 Y32.5765
G01 X10.4957 Y32.6250
G01 X10.4830 Y32.6717
G01 X10.4653 Y32.7253
G01 X10.4474 Y32.7711
G01 X10.4276 Y32.8155
G01 X10.4086 Y32.8531
G01 X10.3846 Y32.8959
G01 X10.3585 Y32.9375
G01 X10.3304 Y32.9777
G01 X10.2956 Y33.0222
G01 X10.2634 Y33.0593
G01 X10.2321 Y33.0921
G01 X10.1993 Y33.1234
G01 X10.1622 Y33.1556
G01 X10.1177 Y33.1904
G01 X10.0775 Y33.2185
G01 X10.0417 Y33.2411
G01 X9.9996 Y33.2651
G01 X9.9555 Y33.2876
G01 X9.9109 Y33.3075
G01 X9.8584 Y33.3277
G01 X9.8117 Y33.3430
G01 X9.7715 Y33.3541
G01 X9.7236 Y33.3650
G01 X9.6681 Y33.3747
G01 X9.6193 Y33.3805
G01 X9.5777 Y33.3836
G01 X9.5250 Y33.3850
G01 X9.4723 Y33.3836
G01 X9.4233 Y33.3798
G01 X9.3746 Y33.3736
G01 X9.3335 Y33.3665
G01 X9.2785 Y33.3541
G01 X9.2312 Y33.3408
G01 X9.1916 Y33.3277
G01 X9.1457 Y33.3102
G01 X9.0945 Y33.2876
G01 X9.0504 Y33.2651
G01 X9.0141 Y33.2446
G01 X8.9725 Y33.2185
G01 X8.9264 Y33.1860
G01 X8.8878 Y33.1556
G01 X8.8507 Y33.1234
G01 X8.8205 Y33.0947
G01 X8.7816 Y33.0538
G01 X8.7544 Y33.0222
G01 X8.7240 Y32.9836
G01 X8.6956 Y32.9436
G01 X8.6689 Y32.9017
G01 X8.6414 Y32.8531
G01 X8.6224 Y32.8155
G01 X8.6026 Y32.7711
G01 X8.5847 Y32.7253
G01 X8.5670 Y32.6717
G01 X8.5541 Y32.6244
G01 X8.5450 Y32.5837
G01 X8.5364 Y32.5353
G01 X8.5295 Y32.4793
G01 X8.5261 Y32.4304
G01 X8.5250 Y32.3887
G01 X8.5261 Y32.3396
G00 Z1.9990
G00 X9.8614 Y33.5164
G01 F80.00
G01 Z-0.3732
G01 F80.00
G01 X9.8154 Y33.5290
G01 X9.7631 Y33.5410
G01 X9.6902 Y33.5537
G01 X9.6370 Y33.5600
G01 X9.5866 Y33.5637
G01 X9.5272 Y33.5653
G01 X9.4752 Y33.5642
G01 X9.4012 Y33.5588
G01 X9.3482 Y33.5520
G01 X9.2983 Y33.5434
G01 X9.2304 Y33.5279
G01 X9.1788 Y33.5134
G01 X9.1307 Y33.4975
G01 X9.3862 Y33.7531
G01 X9.4130 Y33.7500
G01 X9.4590 Y33.7466
G01 X9.5191 Y33.7447
G01 X9.5822 Y33.7460
G01 X9.6346 Y33.7498
G01 X9.6945 Y33.7569
G01 X9.7517 Y33.7666
G01 X9.8092 Y33.7794
G01 X9.8614 Y33.7936
G01 X9.8517 Y33.7583
G01 X9.8454 Y33.7258
G01 X9.8413 Y33.6918
G01 X9.8398 Y33.6528
G01 X9.8415 Y33.6163
G01 X9.8454 Y33.5837
G01 X9.8517 Y33.5517
G01 X9.8614 Y33.5164
G00 Z1.9990
G00 X10.1215 Y35.9434
G01 F80.00
G01 Z-0.3732
G01 F80.00
G01 X10.0782 Y35.9677
G01 X10.0261 Y35.9937
G01 X9.9732 Y36.0169
G01 X9.9192 Y36.0376
G01 X9.8641 Y36.0556
G01 X9.8154 Y36.0690
G01 X9.7588 Y36.0819
G01 X9.7061 Y36.0913
G01 X9.6326 Y36.1004
G01 X9.5792 Y36.1041
G01 X9.5191 Y36.1053
G01 X9.4678 Y36.1040
G01 X9.4110 Y36.0998
G01 X9.3555 Y36.0931
G01 X9.3027 Y36.0842
G01 X9.2304 Y36.0679
G01 X9.1788 Y36.0534
G01 X9.1746 Y36.0521
G01 X9.1350 Y36.0390
G01 X9.1343 Y36.0388
G01 X9.1197 Y36.0335
G01 X9.0699 Y36.0141
G01 X9.0176 Y35.9907
G01 X8.9718 Y35.9677
G01 X8.9214 Y35.9393
G01 X8.8723 Y35.9084
G01 X8.8248 Y35.8752
G01 X8.7791 Y35.8397
G01 X8.7384 Y35.8050
G01 X8.6847 Y35.7538
G01 X8.6480 Y35.7149
G01 X8.6102 Y35.6709
G01 X8.3506 Y35.9305
G01 X8.3506 Y36.5530
G01 X8.3576 Y36.5234
G01 X8.3655 Y36.4996
G01 X8.3745 Y36.4778
G01 X8.3858 Y36.4554
G01 X8.3979 Y36.4352
G01 X8.4123 Y36.4147
G01 X8.4273 Y36.3965
G01 X8.4499 Y36.3732
G01 X8.4689 Y36.3569
G01 X8.4952 Y36.3379
G01 X8.5154 Y36.3258
G01 X8.5378 Y36.3145
G01 X8.5596 Y36.3055
G01 X8.5834 Y36.2976
G01 X8.6062 Y36.2919
G01 X8.6309 Y36.2876
G01 X8.6544 Y36.2853
G01 X8.6750 Y36.2846
G01 X10.2081 Y36.2846
G01 X10.1957 Y36.2673
G01 X10.1836 Y36.2484
G01 X10.1723 Y36.2289
G01 X10.1618 Y36.2084
G01 X10.1528 Y36.1885
G01 X10.1446 Y36.1676
G01 X10.1373 Y36.1462
G01 X10.1312 Y36.1248
G01 X10.1261 Y36.1029
G01 X10.1221 Y36.0808
G01 X10.1192 Y36.0586
G01 X10.1173 Y36.0362
G01 X10.1166 Y36.0123
G01 X10.1171 Y35.9884
G01 X10.1186 Y35.9670
G01 X10.1215 Y35.9434
G01 X8.5309 Y36.1251
G01 X8.5595 Y36.1175
G01 X8.5841 Y36.1125
G01 X8.6088 Y36.1086
G01 X8.6411 Y36.1054
G01 X8.6750 Y36.1043
G01 X8.8466 Y36.1043
G01 X8.8344 Y36.0973
G01 X8.8286 Y36.0940
G01 X8.8223 Y36.0902
G01 X8.8204 Y36.0890
G01 X8.7777 Y36.0620
G01 X8.7192 Y36.0214
G01 X8.6646 Y35.9792
G01 X8.6069 Y35.9293
G01 X8.5309 Y36.0053
G01 X8.5309 Y36.1251
G00 Z1.9990
G00 X7.0698 Y35.6279
G01 F80.00
G01 Z-0.3732
G01 F80.00
G01 X7.0704 Y35.6028
G01 X7.0722 Y35.5764
G01 X7.0753 Y35.5508
G01 X7.0797 Y35.5242
G01 X7.0854 Y35.4978
G01 X7.0926 Y35.4712
G01 X7.1008 Y35.4460
G01 X7.1103 Y35.4208
G01 X7.1211 Y35.3960
G01 X7.1331 Y35.3718
G01 X7.1500 Y35.3419
G01 X7.1646 Y35.3192
G01 X7.1803 Y35.2972
G01 X7.1971 Y35.2761
G01 X7.2148 Y35.2557
G01 X7.2309 Y35.2389
G01 X7.9339 Y34.5359
G01 X7.9562 Y34.5149
G01 X7.9767 Y34.4974
G01 X8.0142 Y34.4696
G01 X8.0432 Y34.4512
G01 X8.0668 Y34.4381
G01 X8.1090 Y34.4181
G01 X8.1342 Y34.4082
G01 X8.1667 Y34.3975
G01 X8.2088 Y34.3869
G01 X7.4859 Y33.6640
G01 X7.4649 Y33.6417
G01 X7.4513 Y33.6259
G01 X7.4353 Y33.6057
G01 X7.4196 Y33.5837
G01 X7.4012 Y33.5547
G01 X7.3881 Y33.5311
G01 X7.3681 Y33.4889
G01 X7.3582 Y33.4638
G01 X7.3496 Y33.4382
G01 X7.3422 Y33.4122
G01 X7.3361 Y33.3859
G01 X7.3303 Y33.3521
G01 X7.3257 Y33.3057
G01 X7.3248 Y33.2750
G01 X7.3248 Y31.5893
G01 X7.3254 Y31.5678
G01 X7.3271 Y31.5427
G01 X7.3303 Y31.5159
G01 X7.3347 Y31.4893
G01 X7.3422 Y31.4558
G01 X7.3496 Y31.4298
G01 X7.3653 Y31.3859
G01 X7.3791 Y31.3548
G01 X7.3915 Y31.3304
G01 X7.4155 Y31.2904
G01 X7.4353 Y31.2623
G01 X7.4649 Y31.2263
G01 X7.4859 Y31.2039
G01 X9.2339 Y29.4559
G01 X9.2521 Y29.4386
G01 X9.2721 Y29.4213
G01 X9.2982 Y29.4009
G01 X9.3204 Y29.3855
G01 X9.3604 Y29.3615
G01 X9.3848 Y29.3491
G01 X9.4092 Y29.3381
G01 X9.4411 Y29.3258
G01 X9.4858 Y29.3122
G01 X9.5121 Y29.3061
G01 X9.5459 Y29.3003
G01 X9.5727 Y29.2971
G01 X9.5997 Y29.2953
G01 X9.6230 Y29.2948
G01 X10.5321 Y29.2948
G01 X10.6248 Y29.2021
G01 X10.6248 Y26.4350
G01 X10.2637 Y26.0739
G01 X10.2321 Y26.1071
G01 X10.1993 Y26.1384
G01 X10.1622 Y26.1706
G01 X10.1236 Y26.2010
G01 X10.0836 Y26.2294
G01 X10.0417 Y26.2561
G01 X9.9992 Y26.2804
G01 X9.9555 Y26.3026
G01 X9.9109 Y26.3225
G01 X9.8653 Y26.3403
G01 X9.8188 Y26.3558
G01 X9.7715 Y26.3691
G01 X9.7165 Y26.3815
G01 X9.6681 Y26.3897
G01 X9.6193 Y26.3955
G01 X9.5704 Y26.3989
G01 X9.5250 Y26.4000
G01 X9.4778 Y26.3989
G01 X9.4294 Y26.3954
G01 X9.3819 Y26.3897
G01 X9.3335 Y26.3815
G01 X9.2850 Y26.3707
G01 X9.2383 Y26.3580
G01 X9.1912 Y26.3426
G01 X9.1457 Y26.3252
G01 X9.1008 Y26.3055
G01 X9.0569 Y26.2836
G01 X9.0141 Y26.2596
G01 X8.9725 Y26.2335
G01 X8.9323 Y26.2054
G01 X8.8935 Y26.1753
G01 X8.8507 Y26.1384
G01 X8.8179 Y26.1071
G01 X8.7866 Y26.0743
G01 X8.7497 Y26.0315
G01 X8.7240 Y25.9986
G01 X8.6956 Y25.9586
G01 X8.6689 Y25.9167
G01 X8.6414 Y25.8681
G01 X8.6224 Y25.8305
G01 X8.6025 Y25.7859
G01 X8.5823 Y25.7334
G01 X8.5670 Y25.6867
G01 X8.5559 Y25.6465
G01 X8.5450 Y25.5986
G01 X8.5353 Y25.5431
G01 X8.5295 Y25.4943
G01 X8.5264 Y25.4527
G01 X8.5250 Y25.3963
G01 X8.5261 Y25.3528
G01 X8.5295 Y25.3057
G01 X8.5364 Y25.2496
G01 X8.5454 Y25.1992
G01 X7.4859 Y24.1390
G01 X7.4698 Y24.1222
G01 X7.4521 Y24.1019
G01 X7.4309 Y24.0748
G01 X7.4050 Y24.0360
G01 X7.3915 Y24.0126
G01 X7.3792 Y23.9885
G01 X7.3653 Y23.9571
G01 X7.3558 Y23.9319
G01 X7.3475 Y23.9062
G01 X7.3361 Y23.8609
G01 X7.3313 Y23.8344
G01 X7.3279 Y23.8076
G01 X7.3253 Y23.7733
G01 X7.3248 Y23.7500
G01 X7.3248 Y21.9700
G01 X7.3257 Y21.9393
G01 X7.3272 Y21.9185
G01 X7.3303 Y21.8929
G01 X7.3361 Y21.8591
G01 X7.3476 Y21.8133
G01 X7.3558 Y21.7881
G01 X7.3653 Y21.7629
G01 X7.3791 Y21.7318
G01 X7.4012 Y21.6903
G01 X7.4196 Y21.6613
G01 X7.4474 Y21.6238
G01 X7.4649 Y21.6033
G01 X7.4859 Y21.5810
G01 X8.2460 Y20.8209
G01 X8.2628 Y20.8048
G01 X8.2888 Y20.7824
G01 X8.3102 Y20.7659
G01 X8.3324 Y20.7505
G01 X8.3553 Y20.7362
G01 X8.3789 Y20.7231
G01 X8.4212 Y20.7030
G01 X8.4463 Y20.6932
G01 X8.4718 Y20.6846
G01 X8.4978 Y20.6772
G01 X8.5241 Y20.6711
G01 X8.5506 Y20.6663
G01 X8.5774 Y20.6629
G01 X8.6117 Y20.6603
G01 X8.6350 Y20.6598
G01 X9.6421 Y20.6598
G01 X10.8798 Y19.4221
G01 X10.8798 Y17.4079
G01 X10.7471 Y17.2752
G01 X10.3750 Y17.2752
G01 X10.3443 Y17.2743
G01 X10.3235 Y17.2728
G01 X10.2979 Y17.2697
G01 X10.2641 Y17.2639
G01 X10.2183 Y17.2524
G01 X10.1931 Y17.2442
G01 X10.1679 Y17.2347
G01 X10.1364 Y17.2208
G01 X10.1124 Y17.2085
G01 X10.0890 Y17.1950
G01 X10.0502 Y17.1691
G01 X10.0231 Y17.1479
G01 X10.0028 Y17.1302
G01 X9.9859 Y17.1141
G01 X9.7263 Y16.8544
G01 X9.6753 Y16.8636
G01 X9.6267 Y16.8698
G01 X9.5777 Y16.8736
G01 X9.5213 Y16.8750
G01 X9.4723 Y16.8736
G01 X9.4294 Y16.8704
G01 X9.3819 Y16.8647
G01 X9.3335 Y16.8565
G01 X9.2785 Y16.8441
G01 X9.2312 Y16.8308
G01 X9.1912 Y16.8176
G01 X9.1457 Y16.8002
G01 X9.0945 Y16.7776
G01 X9.0504 Y16.7551
G01 X9.0078 Y16.7308
G01 X8.9664 Y16.7044
G01 X8.9264 Y16.6760
G01 X8.8878 Y16.6456
G01 X8.8562 Y16.6184
G01 X8.8179 Y16.5821
G01 X8.7816 Y16.5438
G01 X8.7544 Y16.5122
G01 X8.7240 Y16.4736
G01 X8.6915 Y16.4275
G01 X8.6689 Y16.3917
G01 X8.6449 Y16.3496
G01 X8.6224 Y16.3055
G01 X8.5998 Y16.2543
G01 X8.5823 Y16.2084
G01 X8.5692 Y16.1688
G01 X8.5559 Y16.1215
G01 X8.5435 Y16.0665
G01 X8.5364 Y16.0253
G01 X8.5302 Y15.9767
G01 X8.5261 Y15.9204
G01 X8.5250 Y15.8750
G01 X8.5261 Y15.8296
G01 X8.5296 Y15.7794
G01 X8.5364 Y15.7246
G01 X8.5454 Y15.6742
G01 X7.4859 Y14.6140
G01 X7.4649 Y14.5917
G01 X7.4474 Y14.5712
G01 X7.4309 Y14.5498
G01 X7.4050 Y14.5110
G01 X7.3881 Y14.4811
G01 X7.3680 Y14.4388
G01 X7.3558 Y14.4069
G01 X7.3422 Y14.3622
G01 X7.3361 Y14.3359
G01 X7.3313 Y14.3094
G01 X7.3271 Y14.2753
G01 X7.3253 Y14.2483
G01 X7.3248 Y14.2250
G01 X7.3248 Y12.4450
G01 X7.3254 Y12.4198
G01 X7.3272 Y12.3935
G01 X7.3303 Y12.3679
G01 X7.3361 Y12.3341
G01 X7.3475 Y12.2888
G01 X7.3582 Y12.2562
G01 X7.3761 Y12.2131
G01 X7.3967 Y12.1733
G01 X7.4196 Y12.1363
G01 X7.4474 Y12.0988
G01 X7.4649 Y12.0783
G01 X7.4859 Y12.0560
G01 X8.2460 Y11.2959
G01 X8.2628 Y11.2798
G01 X8.2888 Y11.2574
G01 X8.3102 Y11.2409
G01 X8.3324 Y11.2255
G01 X8.3553 Y11.2112
G01 X8.3789 Y11.1981
G01 X8.4212 Y11.1780
G01 X8.4463 Y11.1682
G01 X8.4718 Y11.1596
G01 X8.4978 Y11.1522
G01 X8.5241 Y11.1461
G01 X8.5506 Y11.1413
G01 X8.5774 Y11.1379
G01 X8.6117 Y11.1353
G01 X8.6350 Y11.1348
G01 X9.6421 Y11.1348
G01 X10.6248 Y10.1521
G01 X10.6248 Y7.7502
G01 X10.3750 Y7.7502
G01 X10.3498 Y7.7496
G01 X10.3174 Y7.7471
G01 X10.2713 Y7.7403
G01 X10.2378 Y7.7328
G01 X10.1931 Y7.7192
G01 X10.1679 Y7.7097
G01 X10.1431 Y7.6989
G01 X10.1124 Y7.6835
G01 X10.0724 Y7.6595
G01 X10.0443 Y7.6397
G01 X10.0083 Y7.6101
G01 X9.9859 Y7.5890
G01 X9.7263 Y7.3294
G01 X9.6681 Y7.3397
G01 X9.6193 Y7.3455
G01 X9.5704 Y7.3489
G01 X9.5250 Y7.3500
G01 X9.4778 Y7.3489
G01 X9.4294 Y7.3454
G01 X9.3746 Y7.3386
G01 X9.3263 Y7.3300
G01 X9.2850 Y7.3207
G01 X9.2383 Y7.3080
G01 X9.1912 Y7.2926
G01 X9.1457 Y7.2752
G01 X9.1008 Y7.2555
G01 X9.0569 Y7.2336
G01 X9.0141 Y7.2096
G01 X8.9664 Y7.1794
G01 X8.9264 Y7.1510
G01 X8.8878 Y7.1206
G01 X8.8507 Y7.0884
G01 X8.8179 Y7.0571
G01 X8.7816 Y7.0188
G01 X8.7497 Y6.9815
G01 X8.7196 Y6.9427
G01 X8.6915 Y6.9025
G01 X8.6654 Y6.8609
G01 X8.6414 Y6.8181
G01 X8.6224 Y6.7805
G01 X8.6026 Y6.7361
G01 X8.5847 Y6.6903
G01 X8.5692 Y6.6438
G01 X8.5559 Y6.5965
G01 X8.5450 Y6.5486
G01 X8.5364 Y6.5003
G01 X8.5295 Y6.4443
G01 X8.5261 Y6.3954
G01 X8.5250 Y6.3500
G01 X8.5261 Y6.3046
G01 X8.5296 Y6.2544
G01 X8.5364 Y6.1996
G01 X8.5450 Y6.1513
G01 X8.5559 Y6.1035
G01 X8.5692 Y6.0562
G01 X8.5824 Y6.0162
G01 X8.5998 Y5.9707
G01 X8.6224 Y5.9195
G01 X8.6449 Y5.8754
G01 X8.6692 Y5.8328
G01 X8.6956 Y5.7914
G01 X8.7240 Y5.7514
G01 X8.7544 Y5.7128
G01 X8.7816 Y5.6812
G01 X8.8179 Y5.6429
G01 X8.8562 Y5.6066
G01 X8.8878 Y5.5794
G01 X8.9264 Y5.5490
G01 X8.9664 Y5.5206
G01 X9.0083 Y5.4939
G01 X9.0508 Y5.4696
G01 X9.0945 Y5.4474
G01 X9.1457 Y5.4248
G01 X9.1916 Y5.4073
G01 X9.2383 Y5.3920
G01 X9.2785 Y5.3809
G01 X9.3264 Y5.3700
G01 X9.3819 Y5.3603
G01 X9.4307 Y5.3545
G01 X9.4723 Y5.3514
G01 X9.5213 Y5.3500
G01 X9.5722 Y5.3511
G01 X9.6206 Y5.3546
G01 X9.6754 Y5.3614
G01 X9.7237 Y5.3700
G01 X9.7715 Y5.3809
G01 X9.8188 Y5.3942
G01 X9.8653 Y5.4097
G01 X9.9111 Y5.4276
G01 X9.9555 Y5.4474
G01 X9.9996 Y5.4699
G01 X10.0422 Y5.4942
G01 X10.0836 Y5.5206
G01 X10.1236 Y5.5490
G01 X10.1622 Y5.5794
G01 X10.1993 Y5.6116
G01 X10.2321 Y5.6429
G01 X10.2634 Y5.6757
G01 X10.2956 Y5.7128
G01 X10.3260 Y5.7514
G01 X10.3544 Y5.7914
G01 X10.3811 Y5.8333
G01 X10.4054 Y5.8758
G01 X10.4305 Y5.9258
G01 X10.4475 Y5.9641
G01 X10.4653 Y6.0097
G01 X10.4808 Y6.0562
G01 X10.4941 Y6.1035
G01 X10.5050 Y6.1514
G01 X10.5136 Y6.1997
G01 X10.5198 Y6.2483
G01 X10.5236 Y6.2973
G01 X10.5250 Y6.3500
G01 X10.5239 Y6.3972
G01 X10.5204 Y6.4456
G01 X10.5136 Y6.5004
G01 X10.5045 Y6.5509
G01 X10.6030 Y6.6498
G01 X10.9750 Y6.6498
G01 X11.0002 Y6.6504
G01 X11.0265 Y6.6522
G01 X11.0521 Y6.6553
G01 X11.0787 Y6.6597
G01 X11.1051 Y6.6654
G01 X11.1312 Y6.6725
G01 X11.1569 Y6.6808
G01 X11.1821 Y6.6903
G01 X11.2136 Y6.7042
G01 X11.2547 Y6.7262
G01 X11.2837 Y6.7446
G01 X11.3212 Y6.7724
G01 X11.3417 Y6.7899
G01 X11.3641 Y6.8109
G01 X11.5666 Y7.0136
G01 X11.5851 Y7.0333
G01 X11.6026 Y7.0538
G01 X11.6191 Y7.0752
G01 X11.6345 Y7.0974
G01 X11.6488 Y7.1203
G01 X11.6619 Y7.1439
G01 X11.6739 Y7.1681
G01 X11.6847 Y7.1929
G01 X11.6942 Y7.2181
G01 X11.7025 Y7.2438
G01 X11.7096 Y7.2699
G01 X11.7153 Y7.2963
G01 X11.7197 Y7.3229
G01 X11.7229 Y7.3497
G01 X11.7247 Y7.3767
G01 X11.7252 Y7.4000
G01 X11.7252 Y10.3800
G01 X11.7243 Y10.4107
G01 X11.7228 Y10.4315
G01 X11.7197 Y10.4571
G01 X11.7139 Y10.4909
G01 X11.7024 Y10.5367
G01 X11.6942 Y10.5619
G01 X11.6847 Y10.5871
G01 X11.6709 Y10.6182
G01 X11.6488 Y10.6597
G01 X11.6304 Y10.6887
G01 X11.6026 Y10.7262
G01 X11.5802 Y10.7522
G01 X11.5641 Y10.7691
G01 X10.2591 Y12.0740
G01 X10.2409 Y12.0914
G01 X10.2209 Y12.1087
G01 X10.2007 Y12.1247
G01 X10.1787 Y12.1404
G01 X10.1497 Y12.1588
G01 X10.1174 Y12.1763
G01 X10.0838 Y12.1919
G01 X10.0519 Y12.2042
G01 X10.0073 Y12.2178
G01 X9.9809 Y12.2239
G01 X9.9471 Y12.2297
G01 X9.9007 Y12.2343
G01 X9.8700 Y12.2352
G01 X8.8629 Y12.2352
G01 X8.4252 Y12.6729
G01 X8.4252 Y13.9971
G01 X9.3237 Y14.8956
G01 X9.3747 Y14.8864
G01 X9.4307 Y14.8795
G01 X9.4796 Y14.8761
G01 X9.5213 Y14.8750
G01 X9.5722 Y14.8761
G01 X9.6206 Y14.8796
G01 X9.6754 Y14.8864
G01 X9.7237 Y14.8950
G01 X9.7650 Y14.9043
G01 X9.8117 Y14.9170
G01 X9.8588 Y14.9324
G01 X9.9111 Y14.9526
G01 X9.9555 Y14.9724
G01 X9.9931 Y14.9914
G01 X10.0359 Y15.0154
G01 X10.0836 Y15.0456
G01 X10.1236 Y15.0740
G01 X10.1622 Y15.1044
G01 X10.1938 Y15.1316
G01 X10.2321 Y15.1679
G01 X10.2684 Y15.2062
G01 X10.3003 Y15.2435
G01 X10.3304 Y15.2823
G01 X10.3585 Y15.3225
G01 X10.3846 Y15.3641
G01 X10.4086 Y15.4069
G01 X10.4276 Y15.4445
G01 X10.4474 Y15.4889
G01 X10.4653 Y15.5347
G01 X10.4830 Y15.5883
G01 X10.4959 Y15.6356
G01 X10.5050 Y15.6764
G01 X10.5147 Y15.7319
G01 X10.5205 Y15.7807
G01 X10.5236 Y15.8223
G01 X10.5250 Y15.8787
G01 X10.5239 Y15.9222
G01 X10.5205 Y15.9693
G01 X10.5136 Y16.0254
G01 X10.5045 Y16.0759
G01 X10.6030 Y16.1748
G01 X10.9750 Y16.1748
G01 X11.0002 Y16.1754
G01 X11.0326 Y16.1779
G01 X11.0594 Y16.1813
G01 X11.0859 Y16.1861
G01 X11.1122 Y16.1922
G01 X11.1382 Y16.1996
G01 X11.1638 Y16.2082
G01 X11.1889 Y16.2181
G01 X11.2132 Y16.2291
G01 X11.2376 Y16.2415
G01 X11.2776 Y16.2655
G01 X11.3057 Y16.2853
G01 X11.3417 Y16.3149
G01 X11.3641 Y16.3359
G01 X11.8216 Y16.7936
G01 X11.8401 Y16.8133
G01 X11.8576 Y16.8338
G01 X11.8741 Y16.8552
G01 X11.9000 Y16.8940
G01 X11.9135 Y16.9174
G01 X11.9289 Y16.9481
G01 X11.9468 Y16.9913
G01 X11.9575 Y17.0238
G01 X11.9689 Y17.0691
G01 X11.9737 Y17.0956
G01 X11.9771 Y17.1224
G01 X11.9797 Y17.1567
G01 X11.9802 Y17.1800
G01 X11.9802 Y19.6500
G01 X11.9793 Y19.6807
G01 X11.9771 Y19.7076
G01 X11.9737 Y19.7344
G01 X11.9646 Y19.7801
G01 X11.9554 Y19.8132
G01 X11.9468 Y19.8388
G01 X11.9369 Y19.8639
G01 X11.9169 Y19.9061
G01 X11.9000 Y19.9360
G01 X11.8854 Y19.9587
G01 X11.8697 Y19.9807
G01 X11.8401 Y20.0167
G01 X11.8191 Y20.0391
G01 X10.2591 Y21.5990
G01 X10.2409 Y21.6164
G01 X10.2219 Y21.6329
G01 X10.1948 Y21.6541
G01 X10.1560 Y21.6800
G01 X10.1261 Y21.6969
G01 X10.0839 Y21.7169
G01 X10.0587 Y21.7268
G01 X10.0262 Y21.7375
G01 X9.9809 Y21.7489
G01 X9.9471 Y21.7547
G01 X9.9203 Y21.7579
G01 X9.8933 Y21.7597
G01 X9.8700 Y21.7602
G01 X8.8629 Y21.7602
G01 X8.4252 Y22.1979
G01 X8.4252 Y23.5221
G01 X9.3237 Y24.4206
G01 X9.3819 Y24.4103
G01 X9.4307 Y24.4045
G01 X9.4723 Y24.4014
G01 X9.5287 Y24.4000
G01 X9.5722 Y24.4011
G01 X9.6206 Y24.4046
G01 X9.6754 Y24.4114
G01 X9.7237 Y24.4200
G01 X9.7650 Y24.4293
G01 X9.8188 Y24.4442
G01 X9.8588 Y24.4574
G01 X9.9043 Y24.4748
G01 X9.9555 Y24.4974
G01 X9.9931 Y24.5164
G01 X10.0359 Y24.5404
G01 X10.0836 Y24.5706
G01 X10.1236 Y24.5990
G01 X10.1622 Y24.6294
G01 X10.1993 Y24.6616
G01 X10.2295 Y24.6903
G01 X10.2684 Y24.7312
G01 X10.2956 Y24.7628
G01 X10.3260 Y24.8014
G01 X10.3599 Y24.8498
G01 X10.3986 Y24.8507
G01 X10.4194 Y24.8522
G01 X10.4450 Y24.8553
G01 X10.4789 Y24.8611
G01 X10.5052 Y24.8672
G01 X10.5312 Y24.8746
G01 X10.5751 Y24.8903
G01 X10.5998 Y24.9011
G01 X10.6240 Y24.9131
G01 X10.6539 Y24.9300
G01 X10.6766 Y24.9446
G01 X10.6986 Y24.9603
G01 X10.7347 Y24.9899
G01 X10.7570 Y25.0109
G01 X11.5666 Y25.8207
G01 X11.5851 Y25.8403
G01 X11.5987 Y25.8561
G01 X11.6147 Y25.8764
G01 X11.6345 Y25.9045
G01 X11.6585 Y25.9445
G01 X11.6709 Y25.9689
G01 X11.6847 Y25.9999
G01 X11.7004 Y26.0438
G01 X11.7078 Y26.0699
G01 X11.7139 Y26.0962
G01 X11.7197 Y26.1300
G01 X11.7243 Y26.1764
G01 X11.7252 Y26.2034
G01 X11.7252 Y29.4300
G01 X11.7246 Y29.4552
G01 X11.7228 Y29.4815
G01 X11.7197 Y29.5071
G01 X11.7139 Y29.5409
G01 X11.7024 Y29.5867
G01 X11.6918 Y29.6188
G01 X11.6739 Y29.6619
G01 X11.6585 Y29.6926
G01 X11.6450 Y29.7160
G01 X11.6304 Y29.7387
G01 X11.6026 Y29.7762
G01 X11.5851 Y29.7967
G01 X11.5641 Y29.8191
G01 X11.1491 Y30.2341
G01 X11.1322 Y30.2502
G01 X11.1062 Y30.2726
G01 X11.0687 Y30.3004
G01 X11.0397 Y30.3188
G01 X10.9986 Y30.3408
G01 X10.9738 Y30.3519
G01 X10.9487 Y30.3618
G01 X10.9232 Y30.3704
G01 X10.8972 Y30.3778
G01 X10.8709 Y30.3839
G01 X10.8371 Y30.3897
G01 X10.8103 Y30.3929
G01 X10.7833 Y30.3947
G01 X10.7600 Y30.3952
G01 X9.8509 Y30.3952
G01 X8.4252 Y31.8209
G01 X8.4252 Y33.0471
G01 X9.3237 Y33.9456
G01 X9.3747 Y33.9364
G01 X9.4233 Y33.9302
G01 X9.4723 Y33.9264
G01 X9.5287 Y33.9250
G01 X9.5777 Y33.9264
G01 X9.6206 Y33.9296
G01 X9.6681 Y33.9353
G01 X9.7165 Y33.9435
G01 X9.7715 Y33.9559
G01 X9.8188 Y33.9692
G01 X9.8588 Y33.9824
G01 X9.9043 Y33.9998
G01 X9.9555 Y34.0224
G01 X9.9996 Y34.0449
G01 X10.0422 Y34.0692
G01 X10.0836 Y34.0956
G01 X10.1236 Y34.1240
G01 X10.1622 Y34.1544
G01 X10.1938 Y34.1816
G01 X10.2321 Y34.2179
G01 X10.2634 Y34.2507
G01 X10.2956 Y34.2878
G01 X10.3304 Y34.3323
G01 X10.3585 Y34.3725
G01 X10.3846 Y34.4141
G01 X10.4086 Y34.4569
G01 X10.4276 Y34.4945
G01 X10.4474 Y34.5389
G01 X10.4653 Y34.5847
G01 X10.4808 Y34.6312
G01 X10.4941 Y34.6785
G01 X10.5050 Y34.7264
G01 X10.5136 Y34.7747
G01 X10.5205 Y34.8307
G01 X10.5239 Y34.8796
G01 X10.5250 Y34.9287
G01 X10.5239 Y34.9722
G01 X10.5205 Y35.0193
G01 X10.5136 Y35.0754
G01 X10.5050 Y35.1237
G01 X10.4957 Y35.1650
G01 X10.4808 Y35.2188
G01 X10.4676 Y35.2588
G01 X10.4502 Y35.3043
G01 X10.4276 Y35.3555
G01 X10.4086 Y35.3931
G01 X10.3846 Y35.4359
G01 X10.3544 Y35.4836
G01 X10.3260 Y35.5236
G01 X10.3003 Y35.5565
G01 X10.2634 Y35.5993
G01 X10.2321 Y35.6321
G01 X10.1993 Y35.6634
G01 X10.1565 Y35.7003
G01 X10.1236 Y35.7260
G01 X10.0836 Y35.7544
G01 X10.0359 Y35.7846
G01 X9.9931 Y35.8086
G01 X9.9555 Y35.8276
G01 X9.9043 Y35.8502
G01 X9.8584 Y35.8677
G01 X9.8188 Y35.8808
G01 X9.7644 Y35.8959
G01 X9.7236 Y35.9050
G01 X9.6753 Y35.9136
G01 X9.6267 Y35.9198
G01 X9.5777 Y35.9236
G01 X9.5250 Y35.9250
G01 X9.4796 Y35.9239
G01 X9.4233 Y35.9198
G01 X9.3746 Y35.9136
G01 X9.3335 Y35.9065
G01 X9.2850 Y35.8957
G01 X9.2383 Y35.8830
G01 X9.1912 Y35.8676
G01 X9.1457 Y35.8502
G01 X9.1008 Y35.8305
G01 X9.0569 Y35.8086
G01 X9.0078 Y35.7808
G01 X8.9664 Y35.7544
G01 X8.9264 Y35.7260
G01 X8.8878 Y35.6956
G01 X8.8507 Y35.6634
G01 X8.8179 Y35.6321
G01 X8.7866 Y35.5993
G01 X8.7544 Y35.5622
G01 X8.7240 Y35.5236
G01 X8.6903 Y35.4755
G01 X8.5507 Y35.4753
G01 X8.1702 Y35.8558
G01 X8.1702 Y42.9521
G01 X9.3237 Y44.1056
G01 X9.3747 Y44.0964
G01 X9.4233 Y44.0902
G01 X9.4723 Y44.0864
G01 X9.5287 Y44.0850
G01 X9.5777 Y44.0864
G01 X9.6206 Y44.0896
G01 X9.6681 Y44.0953
G01 X9.7165 Y44.1035
G01 X9.7715 Y44.1159
G01 X9.8188 Y44.1292
G01 X9.8588 Y44.1424
G01 X9.9043 Y44.1598
G01 X9.9555 Y44.1824
G01 X9.9996 Y44.2049
G01 X10.0422 Y44.2292
G01 X10.0836 Y44.2556
G01 X10.1177 Y44.2796
G01 X10.1622 Y44.3144
G01 X10.1993 Y44.3466
G01 X10.2321 Y44.3779
G01 X10.2684 Y44.4162
G01 X10.2956 Y44.4478
G01 X10.3260 Y44.4864
G01 X10.3544 Y44.5264
G01 X10.3811 Y44.5683
G01 X10.4086 Y44.6169
G01 X10.4305 Y44.6608
G01 X10.4502 Y44.7057
G01 X10.4677 Y44.7516
G01 X10.4830 Y44.7983
G01 X10.4941 Y44.8385
G01 X10.5050 Y44.8864
G01 X10.5136 Y44.9347
G01 X10.5205 Y44.9907
G01 X10.5239 Y45.0396
G01 X10.5250 Y45.0887
G01 X10.5239 Y45.1322
G01 X10.5212 Y45.1698
G01 X12.5608 Y45.1698
G01 X12.5742 Y45.1512
G01 X12.5983 Y45.1202
G01 X12.6287 Y45.0848
G01 X12.6632 Y45.0482
G01 X12.6957 Y45.0173
G01 X12.7295 Y44.9880
G01 X12.7669 Y44.9586
G01 X12.8103 Y44.9281
G01 X12.8498 Y44.9033
G01 X12.8904 Y44.8805
G01 X12.9322 Y44.8597
G01 X12.9681 Y44.8438
G01 X13.0116 Y44.8268
G01 X13.0558 Y44.8120
G01 X13.1007 Y44.7994
G01 X13.1533 Y44.7876
G01 X13.1993 Y44.7798
G01 X13.2456 Y44.7743
G01 X13.2921 Y44.7710
G01 X13.3313 Y44.7700
G01 X13.3853 Y44.7714
G01 X13.4318 Y44.7750
G01 X13.4717 Y44.7799
G01 X13.5167 Y44.7876
G01 X13.5622 Y44.7976
G01 X13.6143 Y44.8120
G01 X13.6585 Y44.8268
G01 X13.6951 Y44.8409
G01 X13.7380 Y44.8597
G01 X13.7796 Y44.8805
G01 X13.8265 Y44.9071
G01 X13.8658 Y44.9322
G01 X13.8979 Y44.9548
G01 X13.9348 Y44.9833
G01 X13.9757 Y45.0186
G01 X14.0068 Y45.0482
G01 X14.0364 Y45.0793
G01 X14.0717 Y45.1202
G01 X14.1002 Y45.1571
G01 X14.1269 Y45.1953
G01 X14.1517 Y45.2348
G01 X14.1711 Y45.2689
G01 X14.1953 Y45.3172
G01 X14.2141 Y45.3599
G01 X14.2282 Y45.3966
G01 X14.2430 Y45.4407
G01 X14.2556 Y45.4857
G01 X14.2674 Y45.5383
G01 X14.2752 Y45.5843
G01 X14.2807 Y45.6306
G01 X14.2836 Y45.6697
G01 X14.2850 Y45.7200
G01 X14.2836 Y45.7703
G01 X14.2800 Y45.8168
G01 X14.2752 Y45.8557
G01 X14.2660 Y45.9089
G01 X14.2556 Y45.9544
G01 X14.2451 Y45.9922
G01 X14.2307 Y46.0366
G01 X14.2141 Y46.0801
G01 X14.1953 Y46.1230
G01 X14.1711 Y46.1711
G01 X14.1479 Y46.2115
G01 X14.1228 Y46.2508
G01 X14.1002 Y46.2829
G01 X14.0670 Y46.3255
G01 X14.0364 Y46.3607
G01 X14.0067 Y46.3918
G01 X13.9757 Y46.4214
G01 X13.9396 Y46.4528
G01 X13.8979 Y46.4852
G01 X13.8597 Y46.5119
G01 X13.8265 Y46.5329
G01 X13.7796 Y46.5595
G01 X13.7378 Y46.5803
G01 X13.7017 Y46.5963
G01 X13.6584 Y46.6132
G01 X13.6143 Y46.6280
G01 X13.5622 Y46.6424
G01 X13.5167 Y46.6524
G01 X13.4780 Y46.6591
G01 X13.4318 Y46.6650
G01 X13.3853 Y46.6686
G01 X13.3350 Y46.6700
G01 X13.2921 Y46.6690
G01 X13.2382 Y46.6650
G01 X13.1920 Y46.6591
G01 X13.1461 Y46.6510
G01 X13.1078 Y46.6424
G01 X13.0628 Y46.6301
G01 X13.0184 Y46.6157
G01 X12.9749 Y46.5991
G01 X12.9320 Y46.5803
G01 X12.8904 Y46.5595
G01 X12.8498 Y46.5367
G01 X12.8103 Y46.5119
G01 X12.7721 Y46.4852
G01 X12.7295 Y46.4520
G01 X12.6943 Y46.4214
G01 X12.6633 Y46.3918
G01 X12.6287 Y46.3552
G01 X12.5983 Y46.3198
G01 X12.5736 Y46.2881
G01 X12.5608 Y46.2702
G01 X10.1600 Y46.2702
G01 X10.1348 Y46.2696
G01 X10.1085 Y46.2678
G01 X10.0829 Y46.2647
G01 X10.0563 Y46.2603
G01 X10.0299 Y46.2546
G01 X10.0033 Y46.2474
G01 X9.9781 Y46.2392
G01 X9.9529 Y46.2297
G01 X9.9281 Y46.2189
G01 X9.9039 Y46.2069
G01 X9.8803 Y46.1938
G01 X9.8574 Y46.1795
G01 X9.8352 Y46.1641
G01 X9.8138 Y46.1476
G01 X9.7878 Y46.1252
G01 X9.7263 Y46.0644
G01 X9.6681 Y46.0747
G01 X9.6193 Y46.0805
G01 X9.5777 Y46.0836
G01 X9.5250 Y46.0850
G01 X9.4796 Y46.0839
G01 X9.4233 Y46.0798
G01 X9.3746 Y46.0736
G01 X9.3335 Y46.0665
G01 X9.2785 Y46.0541
G01 X9.2312 Y46.0408
G01 X9.1912 Y46.0276
G01 X9.1457 Y46.0102
G01 X9.1008 Y45.9905
G01 X9.0569 Y45.9686
G01 X9.0141 Y45.9446
G01 X8.9664 Y45.9144
G01 X8.9264 Y45.8860
G01 X8.8878 Y45.8556
G01 X8.8507 Y45.8234
G01 X8.8179 Y45.7921
G01 X8.7866 Y45.7593
G01 X8.7544 Y45.7222
G01 X8.7196 Y45.6777
G01 X8.6915 Y45.6375
G01 X8.6654 Y45.5959
G01 X8.6414 Y45.5531
G01 X8.6226 Y45.5159
G01 X8.6025 Y45.4709
G01 X8.5847 Y45.4253
G01 X8.5670 Y45.3717
G01 X8.5541 Y45.3244
G01 X8.5450 Y45.2836
G01 X8.5364 Y45.2353
G01 X8.5302 Y45.1867
G01 X8.5261 Y45.1304
G01 X8.5250 Y45.0850
G01 X8.5261 Y45.0378
G01 X8.5296 Y44.9894
G01 X8.5353 Y44.9419
G01 X8.5454 Y44.8842
G01 X7.2309 Y43.5690
G01 X7.2136 Y43.5508
G01 X7.1924 Y43.5262
G01 X7.1759 Y43.5048
G01 X7.1500 Y43.4660
G01 X7.1365 Y43.4426
G01 X7.1211 Y43.4119
G01 X7.1032 Y43.3687
G01 X7.0925 Y43.3362
G01 X7.0811 Y43.2909
G01 X7.0753 Y43.2571
G01 X7.0707 Y43.2107
G01 X7.0698 Y43.1800
G01 X7.0698 Y35.6279
G00 Z1.9990
G00 X6.8567 Y35.6758
G01 F80.00
G01 Z-0.3732
G01 F80.00
G01 X6.8603 Y35.6990
G01 X6.8621 Y35.7299
G01 X6.8621 Y43.0781
G01 X6.8615 Y43.0953
G01 X6.8596 Y43.1151
G01 X6.8472 Y43.1800
G01 X6.9060 Y43.4757
G01 X7.0736 Y43.7264
G01 X7.1282 Y43.7636
G01 X7.1435 Y43.7762
G01 X7.1561 Y43.7880
G01 X8.2152 Y44.8471
G01 X8.2357 Y44.8701
G01 X8.2516 Y44.8921
G01 X8.2653 Y44.9156
G01 X8.2739 Y44.9337
G01 X8.2833 Y44.9591
G01 X8.2902 Y44.9853
G01 X8.2938 Y45.0060
G01 X8.2961 Y45.0331
G01 X8.2958 Y45.0602
G01 X8.2932 Y45.0841
G01 X8.3871 Y45.5563
G01 X8.6573 Y45.9606
G01 X8.6693 Y45.9716
G01 X8.6838 Y45.9868
G01 X8.7043 Y46.0131
G01 X8.7155 Y46.0308
G01 X8.7221 Y46.0428
G01 X8.7356 Y46.0733
G01 X8.7401 Y46.0863
G01 X8.7456 Y46.1064
G01 X8.7506 Y46.1331
G01 X8.7525 Y46.1528
G01 X8.7531 Y46.1701
G01 X8.7514 Y46.2009
G01 X8.7456 Y46.2338
G01 X8.7422 Y46.2470
G01 X8.7356 Y46.2669
G01 X8.7221 Y46.2974
G01 X8.7084 Y46.3209
G01 X8.6925 Y46.3430
G01 X8.6719 Y46.3660
G01 X8.6489 Y46.3866
G01 X8.6269 Y46.4025
G01 X8.6099 Y46.4127
G01 X8.5911 Y46.4221
G01 X8.4722 Y46.4716
G01 X8.3716 Y46.5722
G01 X8.3171 Y46.7038
G01 X8.3171 Y47.2209
G01 X8.5250 Y47.2209
G01 X8.5250 Y46.7750
G01 X8.5257 Y46.7603
G01 X8.5295 Y46.7386
G01 X8.5338 Y46.7245
G01 X8.5394 Y46.7109
G01 X8.5503 Y46.6917
G01 X8.5639 Y46.6743
G01 X8.5798 Y46.6590
G01 X8.5979 Y46.6463
G01 X8.6109 Y46.6394
G01 X8.6245 Y46.6338
G01 X8.6457 Y46.6279
G01 X8.6676 Y46.6252
G01 X10.3750 Y46.6250
G01 X10.3970 Y46.6266
G01 X10.4185 Y46.6315
G01 X10.4391 Y46.6394
G01 X10.4521 Y46.6463
G01 X10.4702 Y46.6590
G01 X10.4861 Y46.6743
G01 X10.4997 Y46.6917
G01 X10.5106 Y46.7109
G01 X10.5162 Y46.7245
G01 X10.5221 Y46.7457
G01 X10.5243 Y46.7603
G01 X10.5250 Y46.7750
G01 X10.5250 Y47.2209
G01 X10.7329 Y47.2209
G01 X10.7331 Y46.7451
G01 X10.7347 Y46.7242
G01 X10.7376 Y46.7046
G01 X10.7422 Y46.6841
G01 X10.7479 Y46.6651
G01 X10.7555 Y46.6456
G01 X10.7640 Y46.6276
G01 X10.7743 Y46.6094
G01 X10.7853 Y46.5929
G01 X10.7935 Y46.5821
G01 X10.8072 Y46.5662
G01 X10.8212 Y46.5522
G01 X10.8371 Y46.5385
G01 X10.8562 Y46.5245
G01 X10.8707 Y46.5155
G01 X10.9008 Y46.5004
G01 X10.9201 Y46.4929
G01 X10.9392 Y46.4872
G01 X10.9596 Y46.4826
G01 X10.9792 Y46.4797
G01 X11.0100 Y46.4779
G01 X12.3406 Y46.4779
G01 X12.3641 Y46.4790
G01 X12.3849 Y46.4815
G01 X12.4175 Y46.4888
G01 X12.4374 Y46.4954
G01 X12.4500 Y46.5005
G01 X12.4799 Y46.5155
G01 X12.4944 Y46.5245
G01 X12.5086 Y46.5347
G01 X12.5239 Y46.5473
G01 X12.5365 Y46.5591
G01 X12.6791 Y46.7017
G01 X13.1047 Y46.8779
G01 X13.5653 Y46.8779
G01 X13.9909 Y46.7017
G01 X14.3167 Y46.3759
G01 X14.4929 Y45.9503
G01 X14.4929 Y45.4897
G01 X14.3167 Y45.0641
G01 X13.9909 Y44.7383
G01 X13.5653 Y44.5621
G01 X13.1047 Y44.5621
G01 X12.6791 Y44.7383
G01 X12.5365 Y44.8809
G01 X12.5239 Y44.8927
G01 X12.5079 Y44.9059
G01 X12.4944 Y44.9155
G01 X12.4799 Y44.9245
G01 X12.4498 Y44.9396
G01 X12.4373 Y44.9446
G01 X12.4175 Y44.9512
G01 X12.3910 Y44.9574
G01 X12.3641 Y44.9610
G01 X12.3406 Y44.9621
G01 X10.9595 Y44.9621
G01 X10.9423 Y44.9615
G01 X10.9216 Y44.9594
G01 X10.8886 Y44.9528
G01 X10.8627 Y44.9446
G01 X10.8381 Y44.9340
G01 X10.8203 Y44.9245
G01 X10.7975 Y44.9097
G01 X10.7762 Y44.8927
G01 X10.7610 Y44.8783
G01 X10.7431 Y44.8579
G01 X10.7308 Y44.8414
G01 X10.7170 Y44.8188
G01 X10.7075 Y44.8001
G01 X10.6999 Y44.7818
G01 X10.6934 Y44.7619
G01 X10.6878 Y44.7391
G01 X10.6629 Y44.6137
G01 X10.3959 Y44.2141
G01 X10.1433 Y44.0454
G01 X10.1293 Y44.0353
G01 X10.1139 Y44.0227
G01 X10.0945 Y44.0038
G01 X10.0808 Y43.9879
G01 X10.0649 Y43.9658
G01 X10.0547 Y43.9488
G01 X10.0452 Y43.9301
G01 X10.0377 Y43.9118
G01 X10.0311 Y43.8919
G01 X10.0263 Y43.8727
G01 X10.0227 Y43.8520
G01 X10.0207 Y43.8323
G01 X10.0202 Y43.8150
G01 X10.0207 Y43.7977
G01 X10.0228 Y43.7771
G01 X10.0263 Y43.7573
G01 X10.0311 Y43.7381
G01 X10.0377 Y43.7182
G01 X10.0452 Y43.6999
G01 X10.0547 Y43.6812
G01 X10.0649 Y43.6642
G01 X10.0808 Y43.6421
G01 X10.0945 Y43.6262
G01 X10.1139 Y43.6073
G01 X10.1293 Y43.5947
G01 X10.1433 Y43.5846
G01 X10.3967 Y43.4154
G01 X10.4076 Y43.4014
G01 X10.4209 Y43.3867
G01 X10.4361 Y43.3723
G01 X10.4465 Y43.3635
G01 X10.4739 Y43.3443
G01 X10.4856 Y43.3374
G01 X10.5043 Y43.3280
G01 X10.5292 Y43.3181
G01 X10.5557 Y43.3104
G01 X10.5824 Y43.3054
G01 X10.6095 Y43.3031
G01 X10.7043 Y43.3029
G01 X10.7278 Y43.3040
G01 X10.7547 Y43.3076
G01 X10.8062 Y43.3178
G01 X11.1019 Y43.2590
G01 X11.3527 Y43.0914
G01 X11.3898 Y43.0368
G01 X11.4024 Y43.0215
G01 X11.4142 Y43.0089
G01 X25.1490 Y29.2741
G01 X25.1720 Y29.2535
G01 X25.1879 Y29.2417
G01 X25.2111 Y29.2274
G01 X25.2355 Y29.2155
G01 X25.2550 Y29.2080
G01 X25.2812 Y29.2004
G01 X25.3006 Y29.1965
G01 X25.3214 Y29.1940
G01 X25.3449 Y29.1930
G01 X34.9630 Y29.1930
G01 X34.9803 Y29.1935
G01 X35.0010 Y29.1956
G01 X35.0650 Y29.2078
G01 X35.3607 Y29.1490
G01 X35.6114 Y28.9815
G01 X35.6486 Y28.9268
G01 X35.6612 Y28.9115
G01 X35.6730 Y28.8989
G01 X36.6628 Y27.9091
G01 X36.6754 Y27.8973
G01 X36.6907 Y27.8847
G01 X36.7049 Y27.8745
G01 X36.7195 Y27.8655
G01 X36.7373 Y27.8560
G01 X36.7620 Y27.8454
G01 X36.7879 Y27.8372
G01 X36.8083 Y27.8326
G01 X36.8279 Y27.8297
G01 X36.8488 Y27.8281
G01 X36.9440 Y27.8279
G01 X37.2818 Y27.7608
G01 X37.3112 Y27.7424
G01 X37.3356 Y27.7304
G01 X37.3483 Y27.7253
G01 X37.3681 Y27.7188
G01 X37.4007 Y27.7114
G01 X37.4215 Y27.7089
G01 X37.4413 Y27.7079
G01 X37.4623 Y27.7084
G01 X37.4758 Y27.7096
G01 X37.4954 Y27.7125
G01 X37.5159 Y27.7171
G01 X37.5352 Y27.7230
G01 X37.5544 Y27.7304
G01 X37.5723 Y27.7389
G01 X37.5906 Y27.7492
G01 X37.6071 Y27.7602
G01 X37.6236 Y27.7731
G01 X37.6409 Y27.7890
G01 X37.6527 Y27.8016
G01 X37.6733 Y27.8280
G01 X37.6845 Y27.8457
G01 X37.6940 Y27.8635
G01 X37.7023 Y27.8823
G01 X37.7090 Y27.9010
G01 X37.7146 Y27.9212
G01 X37.7185 Y27.9406
G01 X37.7210 Y27.9614
G01 X37.7220 Y27.9812
G01 X37.7219 Y35.3549
G01 X37.7210 Y35.3685
G01 X37.7185 Y35.3893
G01 X37.7112 Y35.4219
G01 X37.7046 Y35.4418
G01 X37.6970 Y35.4601
G01 X37.6910 Y35.4723
G01 X37.6807 Y35.4906
G01 X37.6697 Y35.5071
G01 X37.6568 Y35.5236
G01 X37.6338 Y35.5478
G01 X37.6227 Y35.5576
G01 X37.6071 Y35.5697
G01 X37.5788 Y35.5876
G01 X37.5542 Y35.5996
G01 X37.5288 Y35.6091
G01 X37.5026 Y35.6160
G01 X37.4758 Y35.6203
G01 X37.4450 Y35.6221
G01 X37.2341 Y35.6221
G01 X37.2341 Y35.8300
G01 X37.6800 Y35.8300
G01 X37.6947 Y35.8307
G01 X37.7093 Y35.8329
G01 X37.7305 Y35.8388
G01 X37.7441 Y35.8444
G01 X37.7633 Y35.8553
G01 X37.7807 Y35.8689
G01 X37.7960 Y35.8848
G01 X37.8087 Y35.9029
G01 X37.8156 Y35.9159
G01 X37.8235 Y35.9365
G01 X37.8284 Y35.9580
G01 X37.8300 Y35.9800
G01 X37.8300 Y37.6800
G01 X37.8284 Y37.7020
G01 X37.8235 Y37.7235
G01 X37.8156 Y37.7441
G01 X37.8047 Y37.7633
G01 X37.7911 Y37.7807
G01 X37.7752 Y37.7960
G01 X37.7571 Y37.8087
G01 X37.7441 Y37.8156
G01 X37.7305 Y37.8212
G01 X37.7093 Y37.8271
G01 X37.6874 Y37.8298
G01 X35.9800 Y37.8300
G01 X35.9580 Y37.8284
G01 X35.9365 Y37.8235
G01 X35.9159 Y37.8156
G01 X35.8967 Y37.8047
G01 X35.8793 Y37.7911
G01 X35.8640 Y37.7752
G01 X35.8513 Y37.7571
G01 X35.8444 Y37.7441
G01 X35.8365 Y37.7235
G01 X35.8316 Y37.7020
G01 X35.8300 Y37.6800
G01 X35.8300 Y37.3802
G01 X35.6221 Y37.3802
G01 X35.6221 Y37.7512
G01 X35.6766 Y37.8828
G01 X35.7772 Y37.9834
G01 X35.8871 Y38.0289
G01 X35.9149 Y38.0423
G01 X35.9380 Y38.0566
G01 X35.9539 Y38.0684
G01 X35.9698 Y38.0821
G01 X35.9851 Y38.0975
G01 X36.0013 Y38.1169
G01 X36.0167 Y38.1393
G01 X36.0301 Y38.1635
G01 X36.0406 Y38.1881
G01 X36.0489 Y38.2140
G01 X36.0534 Y38.2345
G01 X36.0571 Y38.2614
G01 X36.0581 Y38.2886
G01 X36.0570 Y38.3096
G01 X36.0545 Y38.3292
G01 X36.0472 Y38.3618
G01 X36.0430 Y38.3752
G01 X36.0356 Y38.3943
G01 X36.0271 Y38.4122
G01 X36.0167 Y38.4305
G01 X36.0057 Y38.4470
G01 X35.9928 Y38.4635
G01 X35.9795 Y38.4782
G01 X35.9631 Y38.4937
G01 X35.6921 Y38.8987
G01 X35.5982 Y39.3709
G01 X35.6008 Y39.3948
G01 X35.6013 Y39.4157
G01 X35.5996 Y39.4428
G01 X35.5967 Y39.4625
G01 X35.5921 Y39.4829
G01 X35.5862 Y39.5023
G01 X35.5788 Y39.5214
G01 X35.5703 Y39.5394
G01 X35.5600 Y39.5576
G01 X35.5490 Y39.5741
G01 X35.5361 Y39.5906
G01 X35.5202 Y39.6079
G01 X33.4222 Y41.7059
G01 X33.4096 Y41.7177
G01 X33.3884 Y41.7347
G01 X33.3655 Y41.7495
G01 X33.3477 Y41.7590
G01 X33.3231 Y41.7696
G01 X33.3032 Y41.7762
G01 X33.2767 Y41.7824
G01 X33.2498 Y41.7860
G01 X33.2263 Y41.7871
G01 X25.1937 Y41.7871
G01 X25.1702 Y41.7860
G01 X25.1494 Y41.7835
G01 X25.1228 Y41.7778
G01 X25.1039 Y41.7721
G01 X25.0911 Y41.7673
G01 X25.0723 Y41.7590
G01 X25.0481 Y41.7457
G01 X25.0208 Y41.7265
G01 X24.9978 Y41.7059
G01 X22.8998 Y39.6079
G01 X22.8831 Y39.5897
G01 X22.8710 Y39.5741
G01 X22.8600 Y39.5576
G01 X22.8497 Y39.5394
G01 X22.8412 Y39.5214
G01 X22.8338 Y39.5023
G01 X22.8279 Y39.4829
G01 X22.8233 Y39.4625
G01 X22.8197 Y39.4355
G01 X22.8187 Y39.4157
G01 X22.8192 Y39.3948
G01 X22.8218 Y39.3709
G01 X22.7279 Y38.8987
G01 X22.4577 Y38.4944
G01 X22.4405 Y38.4782
G01 X22.4272 Y38.4635
G01 X22.4143 Y38.4470
G01 X22.4033 Y38.4305
G01 X22.3929 Y38.4122
G01 X22.3844 Y38.3943
G01 X22.3794 Y38.3817
G01 X22.3728 Y38.3618
G01 X22.3655 Y38.3292
G01 X22.3629 Y38.3084
G01 X22.3619 Y38.2886
G01 X22.3625 Y38.2676
G01 X22.3655 Y38.2406
G01 X22.3711 Y38.2140
G01 X22.3794 Y38.1881
G01 X22.3899 Y38.1635
G01 X22.4033 Y38.1393
G01 X22.4187 Y38.1169
G01 X22.4362 Y38.0961
G01 X22.4515 Y38.0809
G01 X22.4661 Y38.0684
G01 X22.4826 Y38.0562
G01 X22.5051 Y38.0423
G01 X22.5329 Y38.0289
G01 X22.6428 Y37.9834
G01 X22.7434 Y37.8828
G01 X22.7979 Y37.7512
G01 X22.7979 Y37.3802
G01 X22.5900 Y37.3802
G01 X22.5900 Y37.6800
G01 X22.5884 Y37.7020
G01 X22.5855 Y37.7164
G01 X22.5786 Y37.7374
G01 X22.5687 Y37.7571
G01 X22.5560 Y37.7752
G01 X22.5407 Y37.7911
G01 X22.5233 Y37.8047
G01 X22.5041 Y37.8156
G01 X22.4905 Y37.8212
G01 X22.4693 Y37.8271
G01 X22.4547 Y37.8293
G01 X22.4400 Y37.8300
G01 X20.7326 Y37.8298
G01 X20.7107 Y37.8271
G01 X20.6895 Y37.8212
G01 X20.6693 Y37.8123
G01 X20.6567 Y37.8047
G01 X20.6448 Y37.7960
G01 X20.6339 Y37.7861
G01 X20.6240 Y37.7752
G01 X20.6113 Y37.7571
G01 X20.6014 Y37.7374
G01 X20.5945 Y37.7164
G01 X20.5916 Y37.7020
G01 X20.5900 Y37.6800
G01 X20.5900 Y37.2341
G01 X20.3821 Y37.2341
G01 X20.3821 Y37.7512
G01 X20.4366 Y37.8828
G01 X20.5372 Y37.9834
G01 X20.6561 Y38.0329
G01 X20.6749 Y38.0423
G01 X20.6919 Y38.0525
G01 X20.7139 Y38.0684
G01 X20.7369 Y38.0890
G01 X20.7575 Y38.1120
G01 X20.7734 Y38.1341
G01 X20.7901 Y38.1635
G01 X20.7984 Y38.1823
G01 X20.8031 Y38.1950
G01 X20.8120 Y38.2273
G01 X20.8164 Y38.2541
G01 X20.8181 Y38.2849
G01 X20.8175 Y38.3022
G01 X20.8156 Y38.3219
G01 X20.8105 Y38.3492
G01 X20.8006 Y38.3817
G01 X20.7871 Y38.4122
G01 X20.7805 Y38.4242
G01 X20.7693 Y38.4419
G01 X20.7488 Y38.4682
G01 X20.7343 Y38.4834
G01 X20.7231 Y38.4937
G01 X20.4521 Y38.8987
G01 X20.3582 Y39.3709
G01 X20.3608 Y39.3948
G01 X20.3611 Y39.4219
G01 X20.3588 Y39.4490
G01 X20.3552 Y39.4697
G01 X20.3483 Y39.4960
G01 X20.3388 Y39.5214
G01 X20.3268 Y39.5459
G01 X20.3126 Y39.5690
G01 X20.2961 Y39.5906
G01 X20.2802 Y39.6079
G01 X19.4761 Y40.4120
G01 X19.4635 Y40.4238
G01 X19.4482 Y40.4364
G01 X19.3936 Y40.4736
G01 X19.2260 Y40.7243
G01 X19.1672 Y41.0200
G01 X19.1796 Y41.0849
G01 X19.1815 Y41.1047
G01 X19.1821 Y41.1219
G01 X19.1821 Y42.2733
G01 X19.1803 Y42.3041
G01 X19.1760 Y42.3309
G01 X19.1669 Y42.3635
G01 X19.1595 Y42.3827
G01 X19.1510 Y42.4006
G01 X19.1407 Y42.4189
G01 X19.1297 Y42.4354
G01 X19.1168 Y42.4519
G01 X19.1078 Y42.4621
G01 X18.7485 Y42.8216
G01 X18.7338 Y42.8349
G01 X18.7173 Y42.8478
G01 X18.6686 Y42.8806
G01 X18.5010 Y43.1313
G01 X18.4422 Y43.4270
G01 X18.4535 Y43.4847
G01 X18.4560 Y43.5055
G01 X18.4570 Y43.5253
G01 X18.4570 Y44.3073
G01 X18.4553 Y44.3344
G01 X18.4496 Y44.3674
G01 X18.4419 Y44.3939
G01 X18.4290 Y44.4250
G01 X18.4195 Y44.4429
G01 X18.4083 Y44.4606
G01 X18.3965 Y44.4765
G01 X18.3828 Y44.4924
G01 X18.3688 Y44.5064
G01 X18.3480 Y44.5239
G01 X18.3308 Y44.5360
G01 X18.3138 Y44.5462
G01 X18.2951 Y44.5556
G01 X18.2768 Y44.5632
G01 X18.2569 Y44.5698
G01 X18.2437 Y44.5732
G01 X17.9632 Y44.6292
G01 X17.5802 Y44.8852
G01 X17.3242 Y45.2682
G01 X17.2344 Y45.7200
G01 X17.3242 Y46.1718
G01 X17.5802 Y46.5548
G01 X17.9632 Y46.8108
G01 X18.3010 Y46.8779
G01 X18.5290 Y46.8779
G01 X18.8668 Y46.8108
G01 X19.2498 Y46.5548
G01 X19.5058 Y46.1718
G01 X19.6060 Y45.6679
G01 X19.6137 Y45.6380
G01 X19.6232 Y45.6126
G01 X19.6317 Y45.5945
G01 X19.6453 Y45.5711
G01 X19.6574 Y45.5540
G01 X19.6749 Y45.5332
G01 X19.6944 Y45.5142
G01 X19.7097 Y45.5017
G01 X19.7614 Y45.4664
G01 X19.9290 Y45.2157
G01 X19.9878 Y44.9200
G01 X19.9765 Y44.8623
G01 X19.9740 Y44.8416
G01 X19.9731 Y44.8280
G01 X19.9729 Y44.4757
G01 X19.9740 Y44.4510
G01 X19.9777 Y44.4246
G01 X19.9838 Y44.3988
G01 X19.9904 Y44.3789
G01 X19.9980 Y44.3606
G01 X20.0074 Y44.3419
G01 X20.0176 Y44.3249
G01 X20.0297 Y44.3077
G01 X20.0423 Y44.2924
G01 X20.0567 Y44.2772
G01 X20.0714 Y44.2639
G01 X20.0930 Y44.2474
G01 X20.1107 Y44.2362
G01 X20.1286 Y44.2267
G01 X20.1474 Y44.2184
G01 X20.1662 Y44.2117
G01 X20.1863 Y44.2061
G01 X20.2058 Y44.2022
G01 X20.2265 Y44.1997
G01 X20.2500 Y44.1986
G01 X20.2747 Y44.1998
G01 X20.3012 Y44.2034
G01 X20.3269 Y44.2096
G01 X20.3468 Y44.2161
G01 X20.3714 Y44.2267
G01 X20.3956 Y44.2400
G01 X20.4180 Y44.2554
G01 X20.4333 Y44.2680
G01 X20.4459 Y44.2798
G01 X21.4427 Y45.2766
G01 X21.4633 Y45.2996
G01 X21.4792 Y45.3217
G01 X21.4928 Y45.3452
G01 X21.5046 Y45.3711
G01 X21.6786 Y45.6314
G01 X21.9293 Y45.7990
G01 X22.1504 Y45.8429
G01 X22.2211 Y45.8429
G01 X22.2446 Y45.8440
G01 X22.2715 Y45.8476
G01 X22.3230 Y45.8578
G01 X22.3879 Y45.8454
G01 X22.4077 Y45.8435
G01 X22.4249 Y45.8429
G01 X33.0877 Y45.8429
G01 X33.1124 Y45.8440
G01 X33.1381 Y45.8476
G01 X33.1585 Y45.8522
G01 X33.1779 Y45.8581
G01 X33.1971 Y45.8655
G01 X33.2150 Y45.8740
G01 X33.2332 Y45.8843
G01 X33.2497 Y45.8953
G01 X33.2662 Y45.9082
G01 X33.2809 Y45.9215
G01 X33.2836 Y45.9241
G01 X34.5882 Y47.2287
G01 X34.6088 Y47.2518
G01 X34.6247 Y47.2738
G01 X34.6383 Y47.2973
G01 X34.6519 Y47.3279
G01 X34.6601 Y47.3538
G01 X34.6633 Y47.3671
G01 X34.6669 Y47.3876
G01 X34.6693 Y47.4210
G01 X34.6683 Y47.4494
G01 X34.6633 Y47.4823
G01 X34.6544 Y47.5145
G01 X34.6496 Y47.5273
G01 X34.6413 Y47.5461
G01 X34.6280 Y47.5702
G01 X34.5147 Y47.7398
G01 X34.4977 Y47.7611
G01 X34.4788 Y47.7805
G01 X34.4580 Y47.7981
G01 X34.4408 Y47.8101
G01 X34.4114 Y47.8268
G01 X34.3926 Y47.8351
G01 X34.3738 Y47.8418
G01 X34.3537 Y47.8474
G01 X34.3343 Y47.8512
G01 X34.3208 Y47.8531
G01 X34.2999 Y47.8546
G01 X34.2801 Y47.8546
G01 X34.2653 Y47.8537
G01 X34.2457 Y47.8512
G01 X34.2263 Y47.8474
G01 X34.2061 Y47.8418
G01 X34.1874 Y47.8351
G01 X34.1749 Y47.8298
G01 X34.1562 Y47.8203
G01 X34.1279 Y47.8025
G01 X34.1067 Y47.7855
G01 X34.0872 Y47.7665
G01 X34.0697 Y47.7457
G01 X34.0596 Y47.7317
G01 X33.8548 Y47.4252
G01 X33.4718 Y47.1692
G01 X33.1340 Y47.1021
G01 X32.9060 Y47.1021
G01 X32.5682 Y47.1692
G01 X32.1852 Y47.4252
G01 X31.9783 Y47.7347
G01 X31.9665 Y47.7507
G01 X31.9528 Y47.7665
G01 X31.9286 Y47.7896
G01 X31.9070 Y47.8060
G01 X31.8893 Y47.8173
G01 X31.8714 Y47.8268
G01 X31.8467 Y47.8374
G01 X31.8209 Y47.8456
G01 X31.8004 Y47.8502
G01 X31.7735 Y47.8538
G01 X31.7500 Y47.8548
G01 X31.7265 Y47.8538
G01 X31.6996 Y47.8502
G01 X31.6731 Y47.8439
G01 X31.6532 Y47.8373
G01 X31.6286 Y47.8268
G01 X31.6107 Y47.8173
G01 X31.5930 Y47.8060
G01 X31.5714 Y47.7896
G01 X31.5541 Y47.7737
G01 X31.5423 Y47.7611
G01 X31.5217 Y47.7347
G01 X31.3148 Y47.4252
G01 X30.9318 Y47.1692
G01 X30.5940 Y47.1021
G01 X30.3660 Y47.1021
G01 X30.0282 Y47.1692
G01 X29.6452 Y47.4252
G01 X29.4383 Y47.7347
G01 X29.4265 Y47.7507
G01 X29.4128 Y47.7665
G01 X29.3886 Y47.7896
G01 X29.3670 Y47.8060
G01 X29.3493 Y47.8173
G01 X29.3314 Y47.8268
G01 X29.3067 Y47.8374
G01 X29.2809 Y47.8456
G01 X29.2604 Y47.8502
G01 X29.2335 Y47.8538
G01 X29.2100 Y47.8548
G01 X29.1865 Y47.8538
G01 X29.1596 Y47.8502
G01 X29.1331 Y47.8439
G01 X29.1132 Y47.8373
G01 X29.0886 Y47.8268
G01 X29.0707 Y47.8173
G01 X29.0530 Y47.8060
G01 X29.0314 Y47.7896
G01 X29.0141 Y47.7737
G01 X29.0023 Y47.7611
G01 X28.9817 Y47.7347
G01 X28.7748 Y47.4252
G01 X28.3918 Y47.1692
G01 X28.0540 Y47.1021
G01 X27.8260 Y47.1021
G01 X27.4882 Y47.1692
G01 X27.1052 Y47.4252
G01 X27.0531 Y47.5031
G01 X27.0366 Y47.5247
G01 X27.0233 Y47.5394
G01 X27.0122 Y47.5502
G01 X26.9977 Y47.5626
G01 X26.9817 Y47.5744
G01 X26.9640 Y47.5856
G01 X26.9462 Y47.5951
G01 X26.9274 Y47.6034
G01 X26.9086 Y47.6102
G01 X26.8885 Y47.6157
G01 X26.8691 Y47.6196
G01 X26.8483 Y47.6222
G01 X26.8248 Y47.6232
G01 X26.7940 Y47.6214
G01 X26.7671 Y47.6171
G01 X26.7408 Y47.6101
G01 X26.7154 Y47.6006
G01 X26.6910 Y47.5887
G01 X26.6678 Y47.5744
G01 X26.6462 Y47.5579
G01 X26.6263 Y47.5394
G01 X26.6083 Y47.5190
G01 X26.5924 Y47.4969
G01 X26.5787 Y47.4734
G01 X26.5674 Y47.4487
G01 X26.5608 Y47.4300
G01 X26.5552 Y47.4098
G01 X26.5372 Y47.3203
G01 X26.4581 Y47.2019
G01 X26.3397 Y47.1228
G01 X26.1727 Y47.0896
G01 X24.6273 Y47.0896
G01 X24.4603 Y47.1228
G01 X24.3419 Y47.2019
G01 X24.2628 Y47.3203
G01 X24.2296 Y47.4873
G01 X24.2296 Y49.0327
G01 X24.2628 Y49.1997
G01 X24.3419 Y49.3181
G01 X24.4603 Y49.3972
G01 X24.6273 Y49.4304
G01 X26.1727 Y49.4304
G01 X26.3397 Y49.3972
G01 X26.4581 Y49.3181
G01 X26.5372 Y49.1997
G01 X26.5552 Y49.1102
G01 X26.5608 Y49.0900
G01 X26.5674 Y49.0713
G01 X26.5759 Y49.0521
G01 X26.5891 Y49.0283
G01 X26.6045 Y49.0059
G01 X26.6220 Y48.9851
G01 X26.6462 Y48.9621
G01 X26.6684 Y48.9452
G01 X26.6974 Y48.9279
G01 X26.7222 Y48.9166
G01 X26.7479 Y48.9077
G01 X26.7805 Y48.9004
G01 X26.7940 Y48.8986
G01 X26.8149 Y48.8970
G01 X26.8421 Y48.8974
G01 X26.8752 Y48.9015
G01 X26.8957 Y48.9061
G01 X26.9146 Y48.9118
G01 X26.9342 Y48.9194
G01 X26.9521 Y48.9279
G01 X26.9640 Y48.9344
G01 X26.9817 Y48.9456
G01 X26.9977 Y48.9574
G01 X27.0135 Y48.9711
G01 X27.0366 Y48.9953
G01 X27.0531 Y49.0169
G01 X27.1052 Y49.0948
G01 X27.4882 Y49.3508
G01 X27.8260 Y49.4179
G01 X28.0540 Y49.4179
G01 X28.3918 Y49.3508
G01 X28.7748 Y49.0948
G01 X28.9817 Y48.7853
G01 X28.9935 Y48.7693
G01 X29.0072 Y48.7535
G01 X29.0314 Y48.7304
G01 X29.0530 Y48.7140
G01 X29.0707 Y48.7027
G01 X29.0949 Y48.6902
G01 X29.1201 Y48.6802
G01 X29.1391 Y48.6744
G01 X29.1657 Y48.6688
G01 X29.1928 Y48.6657
G01 X29.2199 Y48.6654
G01 X29.2408 Y48.6669
G01 X29.2677 Y48.6713
G01 X29.2869 Y48.6761
G01 X29.3068 Y48.6827
G01 X29.3314 Y48.6932
G01 X29.3493 Y48.7027
G01 X29.3670 Y48.7140
G01 X29.3886 Y48.7304
G01 X29.4059 Y48.7463
G01 X29.4177 Y48.7589
G01 X29.4383 Y48.7853
G01 X29.6452 Y49.0948
G01 X30.0282 Y49.3508
G01 X30.3660 Y49.4179
G01 X30.5940 Y49.4179
G01 X30.9318 Y49.3508
G01 X31.3148 Y49.0948
G01 X31.5217 Y48.7853
G01 X31.5335 Y48.7693
G01 X31.5472 Y48.7535
G01 X31.5714 Y48.7304
G01 X31.5930 Y48.7140
G01 X31.6107 Y48.7027
G01 X31.6349 Y48.6902
G01 X31.6601 Y48.6802
G01 X31.6791 Y48.6744
G01 X31.7057 Y48.6688
G01 X31.7328 Y48.6657
G01 X31.7599 Y48.6654
G01 X31.7808 Y48.6669
G01 X31.8077 Y48.6713
G01 X31.8269 Y48.6761
G01 X31.8468 Y48.6827
G01 X31.8714 Y48.6932
G01 X31.8893 Y48.7027
G01 X31.9070 Y48.7140
G01 X31.9286 Y48.7304
G01 X31.9459 Y48.7463
G01 X31.9577 Y48.7589
G01 X31.9783 Y48.7853
G01 X32.1852 Y49.0948
G01 X32.5682 Y49.3508
G01 X32.9060 Y49.4179
G01 X33.1340 Y49.4179
G01 X33.4718 Y49.3508
G01 X33.8548 Y49.0948
G01 X34.0617 Y48.7853
G01 X34.0735 Y48.7693
G01 X34.0872 Y48.7535
G01 X34.1114 Y48.7304
G01 X34.1330 Y48.7140
G01 X34.1507 Y48.7027
G01 X34.1686 Y48.6932
G01 X34.1933 Y48.6826
G01 X34.2191 Y48.6744
G01 X34.2457 Y48.6688
G01 X34.2665 Y48.6662
G01 X34.2937 Y48.6652
G01 X34.3135 Y48.6662
G01 X34.3404 Y48.6698
G01 X34.3669 Y48.6761
G01 X34.3868 Y48.6827
G01 X34.4114 Y48.6932
G01 X34.4293 Y48.7027
G01 X34.4470 Y48.7140
G01 X34.4686 Y48.7304
G01 X34.4859 Y48.7463
G01 X34.4977 Y48.7589
G01 X34.5183 Y48.7853
G01 X34.7252 Y49.0948
G01 X35.1082 Y49.3508
G01 X35.4460 Y49.4179
G01 X35.6740 Y49.4179
G01 X36.0118 Y49.3508
G01 X36.3948 Y49.0948
G01 X36.6227 Y48.7539
G01 X36.6432 Y48.7276
G01 X36.6577 Y48.7124
G01 X36.6724 Y48.6991
G01 X36.6889 Y48.6862
G01 X36.7117 Y48.6714
G01 X36.7358 Y48.6589
G01 X36.7543 Y48.6513
G01 X36.7800 Y48.6431
G01 X36.8005 Y48.6385
G01 X36.8274 Y48.6348
G01 X36.8509 Y48.6338
G01 X36.8744 Y48.6348
G01 X36.9013 Y48.6385
G01 X36.9218 Y48.6431
G01 X36.9477 Y48.6513
G01 X36.9723 Y48.6619
G01 X36.9902 Y48.6714
G01 X37.0079 Y48.6826
G01 X37.0295 Y48.6991
G01 X37.0442 Y48.7124
G01 X37.0627 Y48.7323
G01 X37.0792 Y48.7539
G01 X37.0904 Y48.7716
G01 X37.1014 Y48.7924
G01 X37.1745 Y48.9468
G01 X37.5130 Y49.2534
G01 X37.6959 Y49.3292
G01 X37.6959 Y49.1197
G01 X37.6554 Y49.0995
G01 X37.6148 Y49.0767
G01 X37.5692 Y49.0478
G01 X37.5312 Y49.0208
G01 X37.4945 Y48.9920
G01 X37.4593 Y48.9614
G01 X37.4309 Y48.9343
G01 X37.3937 Y48.8952
G01 X37.3672 Y48.8646
G01 X37.3348 Y48.8229
G01 X37.3081 Y48.7847
G01 X37.2871 Y48.7515
G01 X37.2605 Y48.7046
G01 X37.2397 Y48.6628
G01 X37.2238 Y48.6269
G01 X37.2068 Y48.5834
G01 X37.1920 Y48.5392
G01 X37.1776 Y48.4872
G01 X37.1676 Y48.4417
G01 X37.1609 Y48.4030
G01 X37.1550 Y48.3568
G01 X37.1514 Y48.3103
G01 X37.1500 Y48.2600
G01 X37.1511 Y48.2152
G01 X37.1550 Y48.1632
G01 X37.1609 Y48.1170
G01 X37.1690 Y48.0711
G01 X37.1776 Y48.0328
G01 X37.1899 Y47.9878
G01 X37.2068 Y47.9365
G01 X37.2238 Y47.8931
G01 X37.2397 Y47.8570
G01 X37.2605 Y47.8154
G01 X37.2871 Y47.7685
G01 X37.3122 Y47.7292
G01 X37.3348 Y47.6971
G01 X37.3633 Y47.6602
G01 X37.3937 Y47.6248
G01 X37.4309 Y47.5857
G01 X37.4607 Y47.5573
G01 X37.4954 Y47.5272
G01 X37.5319 Y47.4986
G01 X37.5692 Y47.4722
G01 X37.6148 Y47.4433
G01 X37.6554 Y47.4205
G01 X37.6959 Y47.4003
G01 X37.6959 Y47.1908
G01 X37.5130 Y47.2666
G01 X37.1745 Y47.5732
G01 X37.1014 Y47.7276
G01 X37.0935 Y47.7430
G01 X37.0833 Y47.7600
G01 X37.0674 Y47.7821
G01 X37.0468 Y47.8050
G01 X37.0238 Y47.8256
G01 X37.0017 Y47.8415
G01 X36.9847 Y47.8517
G01 X36.9660 Y47.8611
G01 X36.9477 Y47.8687
G01 X36.9278 Y47.8753
G01 X36.9086 Y47.8801
G01 X36.8879 Y47.8837
G01 X36.8682 Y47.8856
G01 X36.8509 Y47.8862
G01 X36.8336 Y47.8856
G01 X36.8139 Y47.8837
G01 X36.7933 Y47.8801
G01 X36.7740 Y47.8753
G01 X36.7606 Y47.8710
G01 X36.7415 Y47.8636
G01 X36.7236 Y47.8551
G01 X36.7054 Y47.8448
G01 X36.6830 Y47.8294
G01 X36.6622 Y47.8119
G01 X36.6432 Y47.7924
G01 X36.6263 Y47.7712
G01 X36.3653 Y47.3810
G01 X36.3531 Y47.3609
G01 X36.3412 Y47.3365
G01 X36.3336 Y47.3169
G01 X36.3261 Y47.2908
G01 X36.3211 Y47.2641
G01 X36.3188 Y47.2370
G01 X36.3192 Y47.2098
G01 X36.3211 Y47.1901
G01 X36.3328 Y47.1286
G01 X36.2740 Y46.8329
G01 X36.1064 Y46.5822
G01 X36.0518 Y46.5450
G01 X36.0365 Y46.5324
G01 X36.0239 Y46.5206
G01 X35.8123 Y46.3088
G01 X35.8025 Y46.2977
G01 X35.7904 Y46.2821
G01 X35.7794 Y46.2656
G01 X35.7690 Y46.2473
G01 X35.7554 Y46.2167
G01 X35.7510 Y46.2038
G01 X35.7455 Y46.1837
G01 X35.7398 Y46.1508
G01 X35.7380 Y46.1200
G01 X35.7398 Y46.0892
