(G-CODE GENERATED BY FLATCAM v8.993 - www.flatcam.org - Version Date: 2020/06/05)

(Name: lighthouse-PTH-1200.drl_cnc)
(Type: G-code from Excellon)
(Units: MM)

(Created on Friday, 06 November 2020 at 22:40)

(This preprocessor is the default preprocessor used by FlatCAM.)
(It is made to work with MACH3 compatible motion controllers.)


(TOOLS DIAMETER: )
(Tool: 3 -> Dia: 0.8000999999999999)
(Tool: 1 -> Dia: 0.70104)
(Tool: 4 -> Dia: 1.19888)
(Tool: 2 -> Dia: 0.7619999999999999)

(FEEDRATE Z: )
(Tool: 3 -> Feedrate: 300)
(Tool: 1 -> Feedrate: 300)
(Tool: 4 -> Feedrate: 300)
(Tool: 2 -> Feedrate: 300)

(FEEDRATE RAPIDS: )
(Tool: 3 -> Feedrate Rapids: 1500)
(Tool: 1 -> Feedrate Rapids: 1500)
(Tool: 4 -> Feedrate Rapids: 1500)
(Tool: 2 -> Feedrate Rapids: 1500)

(Z_CUT: )
(Tool: 3 -> Z_Cut: -4.0)
(Tool: 1 -> Z_Cut: -4.0)
(Tool: 4 -> Z_Cut: -4.0)
(Tool: 2 -> Z_Cut: -4.0)

(Tools Offset: )
(Tool: 4 -> Offset Z: -0.0)

(Z_MOVE: )
(Tool: 3 -> Z_Move: 2)
(Tool: 1 -> Z_Move: 2)
(Tool: 4 -> Z_Move: 2)
(Tool: 2 -> Z_Move: 2)

(Z Start: None mm)
(Z End: 2.0 mm)
(Steps per circle: 64)
(Preprocessor Excellon: default)

(X range:    3.4646 ...   21.6814  mm)
(Y range:  -18.8925 ...   -2.5209  mm)

(Spindle Speed: None RPM)
G21
G90
G94



G00 Z2.0000

G01 F300.00
M03
G00 X21.0820 Y-14.9860
G01 Z-4.0000
G01 Z0
G00 Z2.0000
G00 X21.0820 Y-14.9860
G01 Z-4.0000
G01 Z0
G00 Z2.0000
G00 X21.0820 Y-12.4460
G01 Z-4.0000
G01 Z0
G00 Z2.0000
G00 X21.0820 Y-8.6360
G01 Z-4.0000
G01 Z0
G00 Z2.0000
G00 X21.0820 Y-6.0960
G01 Z-4.0000
G01 Z0
G00 Z2.0000
G00 X21.0820 Y-3.5560
G01 Z-4.0000
G01 Z0
G00 Z2.0000
G00 X4.0640 Y-11.6840
G01 Z-4.0000
G01 Z0
G00 Z2.0000
G00 X4.0640 Y-14.2240
G01 Z-4.0000
G01 Z0
G00 Z2.0000
M05
G00 Z2.00

