(G-CODE GENERATED BY FLATCAM v8.993 - www.flatcam.org - Version Date: 2020/06/05)

(Name: lighthouse-B_Cu.gbr_cutout_cnc)
(Type: G-code from Geometry)
(Units: MM)

(Created on Friday, 06 November 2020 at 22:39)

(This preprocessor is the default preprocessor used by FlatCAM.)
(It is made to work with MACH3 compatible motion controllers.)

(TOOL DIAMETER: 2.4 mm)
(Feedrate_XY: 120.0 mm/min)
(Feedrate_Z: 60.0 mm/min)
(Feedrate rapids 1500.0 mm/min)

(Z_Cut: -3.0 mm)
(DepthPerCut: 0.3 mm <=>10 passes)
(Z_Move: 2.0 mm)
(Z Start: None mm)
(Z End: 15.0 mm)
(Steps per circle: 64)
(Preprocessor Geometry: default)

(X range:   -0.7671 ...   25.6591  mm)
(Y range:  -22.6111 ...    0.7671  mm)

(Spindle Speed: None RPM)
G21
G90
G94



G01 F120.00
G00 Z2.0000

M03
G00 X-0.7671 Y-8.6220
G01 F60.00
G01 Z-0.3000
G01 F120.00
G01 X-0.7671 Y-0.5329
G01 X-0.7608 Y-0.4055
G01 X-0.7421 Y-0.2793
G01 X-0.7111 Y-0.1556
G01 X-0.6681 Y-0.0354
G01 X-0.6136 Y0.0799
G01 X-0.5480 Y0.1893
G01 X-0.4720 Y0.2918
G01 X-0.3863 Y0.3863
G01 X-0.2918 Y0.4720
G01 X-0.1893 Y0.5480
G01 X-0.0799 Y0.6136
G01 X0.0354 Y0.6681
G01 X0.1556 Y0.7111
G01 X0.2793 Y0.7421
G01 X0.4055 Y0.7608
G01 X0.5329 Y0.7671
G01 X10.3460 Y0.7671
G00 X10.3460 Y0.7671
G01 F60.00
G01 Z-0.6000
G01 F120.00
G01 X0.5329 Y0.7671
G01 X0.4055 Y0.7608
G01 X0.2793 Y0.7421
G01 X0.1556 Y0.7111
G01 X0.0354 Y0.6681
G01 X-0.0799 Y0.6136
G01 X-0.1893 Y0.5480
G01 X-0.2918 Y0.4720
G01 X-0.3863 Y0.3863
G01 X-0.4720 Y0.2918
G01 X-0.5480 Y0.1893
G01 X-0.6136 Y0.0799
G01 X-0.6681 Y-0.0354
G01 X-0.7111 Y-0.1556
G01 X-0.7421 Y-0.2793
G01 X-0.7608 Y-0.4055
G01 X-0.7671 Y-0.5329
G01 X-0.7671 Y-8.6220
G00 X-0.7671 Y-8.6220
G01 F60.00
G01 Z-0.9000
G01 F120.00
G01 X-0.7671 Y-0.5329
G01 X-0.7608 Y-0.4055
G01 X-0.7421 Y-0.2793
G01 X-0.7111 Y-0.1556
G01 X-0.6681 Y-0.0354
G01 X-0.6136 Y0.0799
G01 X-0.5480 Y0.1893
G01 X-0.4720 Y0.2918
G01 X-0.3863 Y0.3863
G01 X-0.2918 Y0.4720
G01 X-0.1893 Y0.5480
G01 X-0.0799 Y0.6136
G01 X0.0354 Y0.6681
G01 X0.1556 Y0.7111
G01 X0.2793 Y0.7421
G01 X0.4055 Y0.7608
G01 X0.5329 Y0.7671
G01 X10.3460 Y0.7671
G00 X10.3460 Y0.7671
G01 F60.00
G01 Z-1.2000
G01 F120.00
G01 X0.5329 Y0.7671
G01 X0.4055 Y0.7608
G01 X0.2793 Y0.7421
G01 X0.1556 Y0.7111
G01 X0.0354 Y0.6681
G01 X-0.0799 Y0.6136
G01 X-0.1893 Y0.5480
G01 X-0.2918 Y0.4720
G01 X-0.3863 Y0.3863
G01 X-0.4720 Y0.2918
G01 X-0.5480 Y0.1893
G01 X-0.6136 Y0.0799
G01 X-0.6681 Y-0.0354
G01 X-0.7111 Y-0.1556
G01 X-0.7421 Y-0.2793
G01 X-0.7608 Y-0.4055
G01 X-0.7671 Y-0.5329
G01 X-0.7671 Y-8.6220
G00 X-0.7671 Y-8.6220
G01 F60.00
G01 Z-1.5000
G01 F120.00
G01 X-0.7671 Y-0.5329
G01 X-0.7608 Y-0.4055
G01 X-0.7421 Y-0.2793
G01 X-0.7111 Y-0.1556
G01 X-0.6681 Y-0.0354
G01 X-0.6136 Y0.0799
G01 X-0.5480 Y0.1893
G01 X-0.4720 Y0.2918
G01 X-0.3863 Y0.3863
G01 X-0.2918 Y0.4720
G01 X-0.1893 Y0.5480
G01 X-0.0799 Y0.6136
G01 X0.0354 Y0.6681
G01 X0.1556 Y0.7111
G01 X0.2793 Y0.7421
G01 X0.4055 Y0.7608
G01 X0.5329 Y0.7671
G01 X10.3460 Y0.7671
G00 X10.3460 Y0.7671
G01 F60.00
G01 Z-1.8000
G01 F120.00
G01 X0.5329 Y0.7671
G01 X0.4055 Y0.7608
G01 X0.2793 Y0.7421
G01 X0.1556 Y0.7111
G01 X0.0354 Y0.6681
G01 X-0.0799 Y0.6136
G01 X-0.1893 Y0.5480
G01 X-0.2918 Y0.4720
G01 X-0.3863 Y0.3863
G01 X-0.4720 Y0.2918
G01 X-0.5480 Y0.1893
G01 X-0.6136 Y0.0799
G01 X-0.6681 Y-0.0354
G01 X-0.7111 Y-0.1556
G01 X-0.7421 Y-0.2793
G01 X-0.7608 Y-0.4055
G01 X-0.7671 Y-0.5329
G01 X-0.7671 Y-8.6220
G00 X-0.7671 Y-8.6220
G01 F60.00
G01 Z-2.1000
G01 F120.00
G01 X-0.7671 Y-0.5329
G01 X-0.7608 Y-0.4055
G01 X-0.7421 Y-0.2793
G01 X-0.7111 Y-0.1556
G01 X-0.6681 Y-0.0354
G01 X-0.6136 Y0.0799
G01 X-0.5480 Y0.1893
G01 X-0.4720 Y0.2918
G01 X-0.3863 Y0.3863
G01 X-0.2918 Y0.4720
G01 X-0.1893 Y0.5480
G01 X-0.0799 Y0.6136
G01 X0.0354 Y0.6681
G01 X0.1556 Y0.7111
G01 X0.2793 Y0.7421
G01 X0.4055 Y0.7608
G01 X0.5329 Y0.7671
G01 X10.3460 Y0.7671
G00 X10.3460 Y0.7671
G01 F60.00
G01 Z-2.4000
G01 F120.00
G01 X0.5329 Y0.7671
G01 X0.4055 Y0.7608
G01 X0.2793 Y0.7421
G01 X0.1556 Y0.7111
G01 X0.0354 Y0.6681
G01 X-0.0799 Y0.6136
G01 X-0.1893 Y0.5480
G01 X-0.2918 Y0.4720
G01 X-0.3863 Y0.3863
G01 X-0.4720 Y0.2918
G01 X-0.5480 Y0.1893
G01 X-0.6136 Y0.0799
G01 X-0.6681 Y-0.0354
G01 X-0.7111 Y-0.1556
G01 X-0.7421 Y-0.2793
G01 X-0.7608 Y-0.4055
G01 X-0.7671 Y-0.5329
G01 X-0.7671 Y-8.6220
G00 X-0.7671 Y-8.6220
G01 F60.00
G01 Z-2.7000
G01 F120.00
G01 X-0.7671 Y-0.5329
G01 X-0.7608 Y-0.4055
G01 X-0.7421 Y-0.2793
G01 X-0.7111 Y-0.1556
G01 X-0.6681 Y-0.0354
G01 X-0.6136 Y0.0799
G01 X-0.5480 Y0.1893
G01 X-0.4720 Y0.2918
G01 X-0.3863 Y0.3863
G01 X-0.2918 Y0.4720
G01 X-0.1893 Y0.5480
G01 X-0.0799 Y0.6136
G01 X0.0354 Y0.6681
G01 X0.1556 Y0.7111
G01 X0.2793 Y0.7421
G01 X0.4055 Y0.7608
G01 X0.5329 Y0.7671
G01 X10.3460 Y0.7671
G00 X10.3460 Y0.7671
G01 F60.00
G01 Z-3.0000
G01 F120.00
G01 X0.5329 Y0.7671
G01 X0.4055 Y0.7608
G01 X0.2793 Y0.7421
G01 X0.1556 Y0.7111
G01 X0.0354 Y0.6681
G01 X-0.0799 Y0.6136
G01 X-0.1893 Y0.5480
G01 X-0.2918 Y0.4720
G01 X-0.3863 Y0.3863
G01 X-0.4720 Y0.2918
G01 X-0.5480 Y0.1893
G01 X-0.6136 Y0.0799
G01 X-0.6681 Y-0.0354
G01 X-0.7111 Y-0.1556
G01 X-0.7421 Y-0.2793
G01 X-0.7608 Y-0.4055
G01 X-0.7671 Y-0.5329
G01 X-0.7671 Y-8.6220
G00 Z2.0000
G00 X-0.7671 Y-13.0220
G01 F60.00
G01 Z-0.3000
G01 F120.00
G01 X-0.7671 Y-21.3111
G01 X-0.7608 Y-21.4385
G01 X-0.7421 Y-21.5647
G01 X-0.7111 Y-21.6884
G01 X-0.6681 Y-21.8086
G01 X-0.6136 Y-21.9239
G01 X-0.5480 Y-22.0333
G01 X-0.4720 Y-22.1358
G01 X-0.3863 Y-22.2303
G01 X-0.2918 Y-22.3160
G01 X-0.1893 Y-22.3920
G01 X-0.0799 Y-22.4576
G01 X0.0354 Y-22.5121
G01 X0.1556 Y-22.5551
G01 X0.2793 Y-22.5861
G01 X0.4055 Y-22.6048
G01 X0.5329 Y-22.6111
G01 X10.3460 Y-22.6111
G00 X10.3460 Y-22.6111
G01 F60.00
G01 Z-0.6000
G01 F120.00
G01 X0.5329 Y-22.6111
G01 X0.4055 Y-22.6048
G01 X0.2793 Y-22.5861
G01 X0.1556 Y-22.5551
G01 X0.0354 Y-22.5121
G01 X-0.0799 Y-22.4576
G01 X-0.1893 Y-22.3920
G01 X-0.2918 Y-22.3160
G01 X-0.3863 Y-22.2303
G01 X-0.4720 Y-22.1358
G01 X-0.5480 Y-22.0333
G01 X-0.6136 Y-21.9239
G01 X-0.6681 Y-21.8086
G01 X-0.7111 Y-21.6884
G01 X-0.7421 Y-21.5647
G01 X-0.7608 Y-21.4385
G01 X-0.7671 Y-21.3111
G01 X-0.7671 Y-13.0220
G00 X-0.7671 Y-13.0220
G01 F60.00
G01 Z-0.9000
G01 F120.00
G01 X-0.7671 Y-21.3111
G01 X-0.7608 Y-21.4385
G01 X-0.7421 Y-21.5647
G01 X-0.7111 Y-21.6884
G01 X-0.6681 Y-21.8086
G01 X-0.6136 Y-21.9239
G01 X-0.5480 Y-22.0333
G01 X-0.4720 Y-22.1358
G01 X-0.3863 Y-22.2303
G01 X-0.2918 Y-22.3160
G01 X-0.1893 Y-22.3920
G01 X-0.0799 Y-22.4576
G01 X0.0354 Y-22.5121
G01 X0.1556 Y-22.5551
G01 X0.2793 Y-22.5861
G01 X0.4055 Y-22.6048
G01 X0.5329 Y-22.6111
G01 X10.3460 Y-22.6111
G00 X10.3460 Y-22.6111
G01 F60.00
G01 Z-1.2000
G01 F120.00
G01 X0.5329 Y-22.6111
G01 X0.4055 Y-22.6048
G01 X0.2793 Y-22.5861
G01 X0.1556 Y-22.5551
G01 X0.0354 Y-22.5121
G01 X-0.0799 Y-22.4576
G01 X-0.1893 Y-22.3920
G01 X-0.2918 Y-22.3160
G01 X-0.3863 Y-22.2303
G01 X-0.4720 Y-22.1358
G01 X-0.5480 Y-22.0333
G01 X-0.6136 Y-21.9239
G01 X-0.6681 Y-21.8086
G01 X-0.7111 Y-21.6884
G01 X-0.7421 Y-21.5647
G01 X-0.7608 Y-21.4385
G01 X-0.7671 Y-21.3111
G01 X-0.7671 Y-13.0220
G00 X-0.7671 Y-13.0220
G01 F60.00
G01 Z-1.5000
G01 F120.00
G01 X-0.7671 Y-21.3111
G01 X-0.7608 Y-21.4385
G01 X-0.7421 Y-21.5647
G01 X-0.7111 Y-21.6884
G01 X-0.6681 Y-21.8086
G01 X-0.6136 Y-21.9239
G01 X-0.5480 Y-22.0333
G01 X-0.4720 Y-22.1358
G01 X-0.3863 Y-22.2303
G01 X-0.2918 Y-22.3160
G01 X-0.1893 Y-22.3920
G01 X-0.0799 Y-22.4576
G01 X0.0354 Y-22.5121
G01 X0.1556 Y-22.5551
G01 X0.2793 Y-22.5861
G01 X0.4055 Y-22.6048
G01 X0.5329 Y-22.6111
G01 X10.3460 Y-22.6111
G00 X10.3460 Y-22.6111
G01 F60.00
G01 Z-1.8000
G01 F120.00
G01 X0.5329 Y-22.6111
G01 X0.4055 Y-22.6048
G01 X0.2793 Y-22.5861
G01 X0.1556 Y-22.5551
G01 X0.0354 Y-22.5121
G01 X-0.0799 Y-22.4576
G01 X-0.1893 Y-22.3920
G01 X-0.2918 Y-22.3160
G01 X-0.3863 Y-22.2303
G01 X-0.4720 Y-22.1358
G01 X-0.5480 Y-22.0333
G01 X-0.6136 Y-21.9239
G01 X-0.6681 Y-21.8086
G01 X-0.7111 Y-21.6884
G01 X-0.7421 Y-21.5647
G01 X-0.7608 Y-21.4385
G01 X-0.7671 Y-21.3111
G01 X-0.7671 Y-13.0220
G00 X-0.7671 Y-13.0220
G01 F60.00
G01 Z-2.1000
G01 F120.00
G01 X-0.7671 Y-21.3111
G01 X-0.7608 Y-21.4385
G01 X-0.7421 Y-21.5647
G01 X-0.7111 Y-21.6884
G01 X-0.6681 Y-21.8086
G01 X-0.6136 Y-21.9239
G01 X-0.5480 Y-22.0333
G01 X-0.4720 Y-22.1358
G01 X-0.3863 Y-22.2303
G01 X-0.2918 Y-22.3160
G01 X-0.1893 Y-22.3920
G01 X-0.0799 Y-22.4576
G01 X0.0354 Y-22.5121
G01 X0.1556 Y-22.5551
G01 X0.2793 Y-22.5861
G01 X0.4055 Y-22.6048
G01 X0.5329 Y-22.6111
G01 X10.3460 Y-22.6111
G00 X10.3460 Y-22.6111
G01 F60.00
G01 Z-2.4000
G01 F120.00
G01 X0.5329 Y-22.6111
G01 X0.4055 Y-22.6048
G01 X0.2793 Y-22.5861
G01 X0.1556 Y-22.5551
G01 X0.0354 Y-22.5121
G01 X-0.0799 Y-22.4576
G01 X-0.1893 Y-22.3920
G01 X-0.2918 Y-22.3160
G01 X-0.3863 Y-22.2303
G01 X-0.4720 Y-22.1358
G01 X-0.5480 Y-22.0333
G01 X-0.6136 Y-21.9239
G01 X-0.6681 Y-21.8086
G01 X-0.7111 Y-21.6884
G01 X-0.7421 Y-21.5647
G01 X-0.7608 Y-21.4385
G01 X-0.7671 Y-21.3111
G01 X-0.7671 Y-13.0220
G00 X-0.7671 Y-13.0220
G01 F60.00
G01 Z-2.7000
G01 F120.00
G01 X-0.7671 Y-21.3111
G01 X-0.7608 Y-21.4385
G01 X-0.7421 Y-21.5647
G01 X-0.7111 Y-21.6884
G01 X-0.6681 Y-21.8086
G01 X-0.6136 Y-21.9239
G01 X-0.5480 Y-22.0333
G01 X-0.4720 Y-22.1358
G01 X-0.3863 Y-22.2303
G01 X-0.2918 Y-22.3160
G01 X-0.1893 Y-22.3920
G01 X-0.0799 Y-22.4576
G01 X0.0354 Y-22.5121
G01 X0.1556 Y-22.5551
G01 X0.2793 Y-22.5861
G01 X0.4055 Y-22.6048
G01 X0.5329 Y-22.6111
G01 X10.3460 Y-22.6111
G00 X10.3460 Y-22.6111
G01 F60.00
G01 Z-3.0000
G01 F120.00
G01 X0.5329 Y-22.6111
G01 X0.4055 Y-22.6048
G01 X0.2793 Y-22.5861
G01 X0.1556 Y-22.5551
G01 X0.0354 Y-22.5121
G01 X-0.0799 Y-22.4576
G01 X-0.1893 Y-22.3920
G01 X-0.2918 Y-22.3160
G01 X-0.3863 Y-22.2303
G01 X-0.4720 Y-22.1358
G01 X-0.5480 Y-22.0333
G01 X-0.6136 Y-21.9239
G01 X-0.6681 Y-21.8086
G01 X-0.7111 Y-21.6884
G01 X-0.7421 Y-21.5647
G01 X-0.7608 Y-21.4385
G01 X-0.7671 Y-21.3111
G01 X-0.7671 Y-13.0220
G00 Z2.0000
G00 X14.7460 Y-22.6111
G01 F60.00
G01 Z-0.3000
G01 F120.00
G01 X24.3591 Y-22.6111
G00 X24.3591 Y-22.6111
G01 F60.00
G01 Z-0.6000
G01 F120.00
G01 X14.7460 Y-22.6111
G00 X14.7460 Y-22.6111
G01 F60.00
G01 Z-0.9000
G01 F120.00
G01 X24.3591 Y-22.6111
G00 X24.3591 Y-22.6111
G01 F60.00
G01 Z-1.2000
G01 F120.00
G01 X14.7460 Y-22.6111
G00 X14.7460 Y-22.6111
G01 F60.00
G01 Z-1.5000
G01 F120.00
G01 X24.3591 Y-22.6111
G00 X24.3591 Y-22.6111
G01 F60.00
G01 Z-1.8000
G01 F120.00
G01 X14.7460 Y-22.6111
G00 X14.7460 Y-22.6111
G01 F60.00
G01 Z-2.1000
G01 F120.00
G01 X24.3591 Y-22.6111
G00 X24.3591 Y-22.6111
G01 F60.00
G01 Z-2.4000
G01 F120.00
G01 X14.7460 Y-22.6111
G00 X14.7460 Y-22.6111
G01 F60.00
G01 Z-2.7000
G01 F120.00
G01 X24.3591 Y-22.6111
G00 X24.3591 Y-22.6111
G01 F60.00
G01 Z-3.0000
G01 F120.00
G01 X14.7460 Y-22.6111
G00 Z2.0000
G00 X24.3591 Y-22.6111
G01 F60.00
G01 Z-0.3000
G01 F120.00
G01 X24.4865 Y-22.6048
G01 X24.6127 Y-22.5861
G01 X24.7364 Y-22.5551
G01 X24.8566 Y-22.5121
G01 X24.9719 Y-22.4576
G01 X25.0813 Y-22.3920
G01 X25.1838 Y-22.3160
G01 X25.2783 Y-22.2303
G01 X25.3640 Y-22.1358
G01 X25.4400 Y-22.0333
G01 X25.5056 Y-21.9239
G01 X25.5601 Y-21.8086
G01 X25.6031 Y-21.6884
G01 X25.6341 Y-21.5647
G01 X25.6528 Y-21.4385
G01 X25.6591 Y-21.3111
G01 X25.6591 Y-13.0220
G00 X25.6591 Y-13.0220
G01 F60.00
G01 Z-0.6000
G01 F120.00
G01 X25.6591 Y-21.3111
G01 X25.6528 Y-21.4385
G01 X25.6341 Y-21.5647
G01 X25.6031 Y-21.6884
G01 X25.5601 Y-21.8086
G01 X25.5056 Y-21.9239
G01 X25.4400 Y-22.0333
G01 X25.3640 Y-22.1358
G01 X25.2783 Y-22.2303
G01 X25.1838 Y-22.3160
G01 X25.0813 Y-22.3920
G01 X24.9719 Y-22.4576
G01 X24.8566 Y-22.5121
G01 X24.7364 Y-22.5551
G01 X24.6127 Y-22.5861
G01 X24.4865 Y-22.6048
G01 X24.3591 Y-22.6111
G00 X24.3591 Y-22.6111
G01 F60.00
G01 Z-0.9000
G01 F120.00
G01 X24.4865 Y-22.6048
G01 X24.6127 Y-22.5861
G01 X24.7364 Y-22.5551
G01 X24.8566 Y-22.5121
G01 X24.9719 Y-22.4576
G01 X25.0813 Y-22.3920
G01 X25.1838 Y-22.3160
G01 X25.2783 Y-22.2303
G01 X25.3640 Y-22.1358
G01 X25.4400 Y-22.0333
G01 X25.5056 Y-21.9239
G01 X25.5601 Y-21.8086
G01 X25.6031 Y-21.6884
G01 X25.6341 Y-21.5647
G01 X25.6528 Y-21.4385
G01 X25.6591 Y-21.3111
G01 X25.6591 Y-13.0220
G00 X25.6591 Y-13.0220
G01 F60.00
G01 Z-1.2000
G01 F120.00
G01 X25.6591 Y-21.3111
G01 X25.6528 Y-21.4385
G01 X25.6341 Y-21.5647
G01 X25.6031 Y-21.6884
G01 X25.5601 Y-21.8086
G01 X25.5056 Y-21.9239
G01 X25.4400 Y-22.0333
G01 X25.3640 Y-22.1358
G01 X25.2783 Y-22.2303
G01 X25.1838 Y-22.3160
G01 X25.0813 Y-22.3920
G01 X24.9719 Y-22.4576
G01 X24.8566 Y-22.5121
G01 X24.7364 Y-22.5551
G01 X24.6127 Y-22.5861
G01 X24.4865 Y-22.6048
G01 X24.3591 Y-22.6111
G00 X24.3591 Y-22.6111
G01 F60.00
G01 Z-1.5000
G01 F120.00
G01 X24.4865 Y-22.6048
G01 X24.6127 Y-22.5861
G01 X24.7364 Y-22.5551
G01 X24.8566 Y-22.5121
G01 X24.9719 Y-22.4576
G01 X25.0813 Y-22.3920
G01 X25.1838 Y-22.3160
G01 X25.2783 Y-22.2303
G01 X25.3640 Y-22.1358
G01 X25.4400 Y-22.0333
G01 X25.5056 Y-21.9239
G01 X25.5601 Y-21.8086
G01 X25.6031 Y-21.6884
G01 X25.6341 Y-21.5647
G01 X25.6528 Y-21.4385
G01 X25.6591 Y-21.3111
G01 X25.6591 Y-13.0220
G00 X25.6591 Y-13.0220
G01 F60.00
G01 Z-1.8000
G01 F120.00
G01 X25.6591 Y-21.3111
G01 X25.6528 Y-21.4385
G01 X25.6341 Y-21.5647
G01 X25.6031 Y-21.6884
G01 X25.5601 Y-21.8086
G01 X25.5056 Y-21.9239
G01 X25.4400 Y-22.0333
G01 X25.3640 Y-22.1358
G01 X25.2783 Y-22.2303
G01 X25.1838 Y-22.3160
G01 X25.0813 Y-22.3920
G01 X24.9719 Y-22.4576
G01 X24.8566 Y-22.5121
G01 X24.7364 Y-22.5551
G01 X24.6127 Y-22.5861
G01 X24.4865 Y-22.6048
G01 X24.3591 Y-22.6111
G00 X24.3591 Y-22.6111
G01 F60.00
G01 Z-2.1000
G01 F120.00
G01 X24.4865 Y-22.6048
G01 X24.6127 Y-22.5861
G01 X24.7364 Y-22.5551
G01 X24.8566 Y-22.5121
G01 X24.9719 Y-22.4576
G01 X25.0813 Y-22.3920
G01 X25.1838 Y-22.3160
G01 X25.2783 Y-22.2303
G01 X25.3640 Y-22.1358
G01 X25.4400 Y-22.0333
G01 X25.5056 Y-21.9239
G01 X25.5601 Y-21.8086
G01 X25.6031 Y-21.6884
G01 X25.6341 Y-21.5647
G01 X25.6528 Y-21.4385
G01 X25.6591 Y-21.3111
G01 X25.6591 Y-13.0220
G00 X25.6591 Y-13.0220
G01 F60.00
G01 Z-2.4000
G01 F120.00
G01 X25.6591 Y-21.3111
G01 X25.6528 Y-21.4385
G01 X25.6341 Y-21.5647
G01 X25.6031 Y-21.6884
G01 X25.5601 Y-21.8086
G01 X25.5056 Y-21.9239
G01 X25.4400 Y-22.0333
G01 X25.3640 Y-22.1358
G01 X25.2783 Y-22.2303
G01 X25.1838 Y-22.3160
G01 X25.0813 Y-22.3920
G01 X24.9719 Y-22.4576
G01 X24.8566 Y-22.5121
G01 X24.7364 Y-22.5551
G01 X24.6127 Y-22.5861
G01 X24.4865 Y-22.6048
G01 X24.3591 Y-22.6111
G00 X24.3591 Y-22.6111
G01 F60.00
G01 Z-2.7000
G01 F120.00
G01 X24.4865 Y-22.6048
G01 X24.6127 Y-22.5861
G01 X24.7364 Y-22.5551
G01 X24.8566 Y-22.5121
G01 X24.9719 Y-22.4576
G01 X25.0813 Y-22.3920
G01 X25.1838 Y-22.3160
G01 X25.2783 Y-22.2303
G01 X25.3640 Y-22.1358
G01 X25.4400 Y-22.0333
G01 X25.5056 Y-21.9239
G01 X25.5601 Y-21.8086
G01 X25.6031 Y-21.6884
G01 X25.6341 Y-21.5647
G01 X25.6528 Y-21.4385
G01 X25.6591 Y-21.3111
G01 X25.6591 Y-13.0220
G00 X25.6591 Y-13.0220
G01 F60.00
G01 Z-3.0000
G01 F120.00
G01 X25.6591 Y-21.3111
G01 X25.6528 Y-21.4385
G01 X25.6341 Y-21.5647
G01 X25.6031 Y-21.6884
G01 X25.5601 Y-21.8086
G01 X25.5056 Y-21.9239
G01 X25.4400 Y-22.0333
G01 X25.3640 Y-22.1358
G01 X25.2783 Y-22.2303
G01 X25.1838 Y-22.3160
G01 X25.0813 Y-22.3920
G01 X24.9719 Y-22.4576
G01 X24.8566 Y-22.5121
G01 X24.7364 Y-22.5551
G01 X24.6127 Y-22.5861
G01 X24.4865 Y-22.6048
G01 X24.3591 Y-22.6111
G00 Z2.0000
G00 X25.6591 Y-8.6220
G01 F60.00
G01 Z-0.3000
G01 F120.00
G01 X25.6591 Y-0.5329
G01 X25.6528 Y-0.4055
G01 X25.6341 Y-0.2793
G01 X25.6031 Y-0.1556
G01 X25.5601 Y-0.0354
G01 X25.5056 Y0.0799
G01 X25.4400 Y0.1893
G01 X25.3640 Y0.2918
G01 X25.2783 Y0.3863
G01 X25.1838 Y0.4720
G01 X25.0813 Y0.5480
G01 X24.9719 Y0.6136
G01 X24.8566 Y0.6681
G01 X24.7364 Y0.7111
G01 X24.6127 Y0.7421
G01 X24.4865 Y0.7608
G01 X24.3591 Y0.7671
G01 X14.7460 Y0.7671
G00 X14.7460 Y0.7671
G01 F60.00
G01 Z-0.6000
G01 F120.00
G01 X24.3591 Y0.7671
G01 X24.4865 Y0.7608
G01 X24.6127 Y0.7421
G01 X24.7364 Y0.7111
G01 X24.8566 Y0.6681
G01 X24.9719 Y0.6136
G01 X25.0813 Y0.5480
G01 X25.1838 Y0.4720
G01 X25.2783 Y0.3863
G01 X25.3640 Y0.2918
G01 X25.4400 Y0.1893
G01 X25.5056 Y0.0799
G01 X25.5601 Y-0.0354
G01 X25.6031 Y-0.1556
G01 X25.6341 Y-0.2793
G01 X25.6528 Y-0.4055
G01 X25.6591 Y-0.5329
G01 X25.6591 Y-8.6220
G00 X25.6591 Y-8.6220
G01 F60.00
G01 Z-0.9000
G01 F120.00
G01 X25.6591 Y-0.5329
G01 X25.6528 Y-0.4055
G01 X25.6341 Y-0.2793
G01 X25.6031 Y-0.1556
G01 X25.5601 Y-0.0354
G01 X25.5056 Y0.0799
G01 X25.4400 Y0.1893
G01 X25.3640 Y0.2918
G01 X25.2783 Y0.3863
G01 X25.1838 Y0.4720
G01 X25.0813 Y0.5480
G01 X24.9719 Y0.6136
G01 X24.8566 Y0.6681
G01 X24.7364 Y0.7111
G01 X24.6127 Y0.7421
G01 X24.4865 Y0.7608
G01 X24.3591 Y0.7671
G01 X14.7460 Y0.7671
G00 X14.7460 Y0.7671
G01 F60.00
G01 Z-1.2000
G01 F120.00
G01 X24.3591 Y0.7671
G01 X24.4865 Y0.7608
G01 X24.6127 Y0.7421
G01 X24.7364 Y0.7111
G01 X24.8566 Y0.6681
G01 X24.9719 Y0.6136
G01 X25.0813 Y0.5480
G01 X25.1838 Y0.4720
G01 X25.2783 Y0.3863
G01 X25.3640 Y0.2918
G01 X25.4400 Y0.1893
G01 X25.5056 Y0.0799
G01 X25.5601 Y-0.0354
G01 X25.6031 Y-0.1556
G01 X25.6341 Y-0.2793
G01 X25.6528 Y-0.4055
G01 X25.6591 Y-0.5329
G01 X25.6591 Y-8.6220
G00 X25.6591 Y-8.6220
G01 F60.00
G01 Z-1.5000
G01 F120.00
G01 X25.6591 Y-0.5329
G01 X25.6528 Y-0.4055
G01 X25.6341 Y-0.2793
G01 X25.6031 Y-0.1556
G01 X25.5601 Y-0.0354
G01 X25.5056 Y0.0799
G01 X25.4400 Y0.1893
G01 X25.3640 Y0.2918
G01 X25.2783 Y0.3863
G01 X25.1838 Y0.4720
G01 X25.0813 Y0.5480
G01 X24.9719 Y0.6136
G01 X24.8566 Y0.6681
G01 X24.7364 Y0.7111
G01 X24.6127 Y0.7421
G01 X24.4865 Y0.7608
G01 X24.3591 Y0.7671
G01 X14.7460 Y0.7671
G00 X14.7460 Y0.7671
G01 F60.00
G01 Z-1.8000
G01 F120.00
G01 X24.3591 Y0.7671
G01 X24.4865 Y0.7608
G01 X24.6127 Y0.7421
G01 X24.7364 Y0.7111
G01 X24.8566 Y0.6681
G01 X24.9719 Y0.6136
G01 X25.0813 Y0.5480
G01 X25.1838 Y0.4720
G01 X25.2783 Y0.3863
G01 X25.3640 Y0.2918
G01 X25.4400 Y0.1893
G01 X25.5056 Y0.0799
G01 X25.5601 Y-0.0354
G01 X25.6031 Y-0.1556
G01 X25.6341 Y-0.2793
G01 X25.6528 Y-0.4055
G01 X25.6591 Y-0.5329
G01 X25.6591 Y-8.6220
G00 X25.6591 Y-8.6220
G01 F60.00
G01 Z-2.1000
G01 F120.00
G01 X25.6591 Y-0.5329
G01 X25.6528 Y-0.4055
G01 X25.6341 Y-0.2793
G01 X25.6031 Y-0.1556
G01 X25.5601 Y-0.0354
G01 X25.5056 Y0.0799
G01 X25.4400 Y0.1893
G01 X25.3640 Y0.2918
G01 X25.2783 Y0.3863
G01 X25.1838 Y0.4720
G01 X25.0813 Y0.5480
G01 X24.9719 Y0.6136
G01 X24.8566 Y0.6681
G01 X24.7364 Y0.7111
G01 X24.6127 Y0.7421
G01 X24.4865 Y0.7608
G01 X24.3591 Y0.7671
G01 X14.7460 Y0.7671
G00 X14.7460 Y0.7671
G01 F60.00
G01 Z-2.4000
G01 F120.00
G01 X24.3591 Y0.7671
G01 X24.4865 Y0.7608
G01 X24.6127 Y0.7421
G01 X24.7364 Y0.7111
G01 X24.8566 Y0.6681
G01 X24.9719 Y0.6136
G01 X25.0813 Y0.5480
G01 X25.1838 Y0.4720
G01 X25.2783 Y0.3863
G01 X25.3640 Y0.2918
G01 X25.4400 Y0.1893
G01 X25.5056 Y0.0799
G01 X25.5601 Y-0.0354
G01 X25.6031 Y-0.1556
G01 X25.6341 Y-0.2793
G01 X25.6528 Y-0.4055
G01 X25.6591 Y-0.5329
G01 X25.6591 Y-8.6220
G00 X25.6591 Y-8.6220
G01 F60.00
G01 Z-2.7000
G01 F120.00
G01 X25.6591 Y-0.5329
G01 X25.6528 Y-0.4055
G01 X25.6341 Y-0.2793
G01 X25.6031 Y-0.1556
G01 X25.5601 Y-0.0354
G01 X25.5056 Y0.0799
G01 X25.4400 Y0.1893
G01 X25.3640 Y0.2918
G01 X25.2783 Y0.3863
G01 X25.1838 Y0.4720
G01 X25.0813 Y0.5480
G01 X24.9719 Y0.6136
G01 X24.8566 Y0.6681
G01 X24.7364 Y0.7111
G01 X24.6127 Y0.7421
G01 X24.4865 Y0.7608
G01 X24.3591 Y0.7671
G01 X14.7460 Y0.7671
G00 X14.7460 Y0.7671
G01 F60.00
G01 Z-3.0000
G01 F120.00
G01 X24.3591 Y0.7671
G01 X24.4865 Y0.7608
G01 X24.6127 Y0.7421
G01 X24.7364 Y0.7111
G01 X24.8566 Y0.6681
G01 X24.9719 Y0.6136
G01 X25.0813 Y0.5480
G01 X25.1838 Y0.4720
G01 X25.2783 Y0.3863
G01 X25.3640 Y0.2918
G01 X25.4400 Y0.1893
G01 X25.5056 Y0.0799
G01 X25.5601 Y-0.0354
G01 X25.6031 Y-0.1556
G01 X25.6341 Y-0.2793
G01 X25.6528 Y-0.4055
G01 X25.6591 Y-0.5329
G01 X25.6591 Y-8.6220
G00 Z2.0000
M05
G00 Z2.0000
G00 Z15.00

