(G-CODE GENERATED BY FLATCAM v8.993 - www.flatcam.org - Version Date: 2020/06/05)

(Name: lighthouse-B_Cu.gbr_ncc_cnc)
(Type: G-code from Geometry)
(Units: MM)

(Created on Friday, 06 November 2020 at 22:40)

(This preprocessor is the default preprocessor used by FlatCAM.)
(It is made to work with MACH3 compatible motion controllers.)

(TOOL DIAMETER: 0.3 mm)
(Feedrate_XY: 120.0 mm/min)
(Feedrate_Z: 60.0 mm/min)
(Feedrate rapids 1500.0 mm/min)

(Z_Cut: -0.3732 mm)
(Z_Move: 2.0 mm)
(Z Start: None mm)
(Z End: 15.0 mm)
(Steps per circle: 64)
(Preprocessor Geometry: default)

(X range:   -0.3171 ...   25.2091  mm)
(Y range:  -22.1611 ...    0.3171  mm)

(Spindle Speed: None RPM)
G21
G90
G94



G01 F120.00
G00 Z2.0000

M03
G00 X2.4798 Y-2.7293
G01 F60.00
G01 Z-0.3732
G01 F120.00
G01 X2.4462 Y-2.7154
G01 X2.4138 Y-2.6937
G01 X2.3863 Y-2.6662
G01 X2.3646 Y-2.6338
G01 X2.3497 Y-2.5977
G01 X2.3421 Y-2.5595
G01 X2.3421 Y-2.5205
G01 X2.3497 Y-2.4823
G01 X2.3646 Y-2.4462
G01 X2.3863 Y-2.4138
G01 X2.4138 Y-2.3863
G01 X2.4462 Y-2.3646
G01 X2.4823 Y-2.3497
G01 X2.5205 Y-2.3421
G01 X2.5595 Y-2.3421
G01 X2.5977 Y-2.3497
G01 X2.6338 Y-2.3646
G01 X2.6662 Y-2.3863
G01 X2.6937 Y-2.4138
G01 X2.7154 Y-2.4462
G01 X2.7285 Y-2.4779
G01 X2.4798 Y-2.7293
G01 X2.5370 Y-2.9275
G01 X2.4863 Y-2.9151
G01 X2.4298 Y-2.9034
G01 X2.3610 Y-2.8749
G01 X2.2991 Y-2.8336
G01 X2.2464 Y-2.7809
G01 X2.2051 Y-2.7190
G01 X2.1766 Y-2.6502
G01 X2.1621 Y-2.5772
G01 X2.1621 Y-2.5028
G01 X2.1766 Y-2.4298
G01 X2.2051 Y-2.3610
G01 X2.2464 Y-2.2991
G01 X2.2991 Y-2.2464
G01 X2.3610 Y-2.2051
G01 X2.4298 Y-2.1766
G01 X2.5028 Y-2.1621
G01 X2.5772 Y-2.1621
G01 X2.6502 Y-2.1766
G01 X2.7190 Y-2.2051
G01 X2.7809 Y-2.2464
G01 X2.8336 Y-2.2991
G01 X2.8749 Y-2.3610
G01 X2.9101 Y-2.4458
G01 X2.9218 Y-2.4864
G01 X2.9345 Y-2.5256
G01 X2.5370 Y-2.9275
G01 X2.5881 Y-3.1317
G01 X2.5639 Y-3.1232
G01 X2.5399 Y-3.1154
G01 X2.5164 Y-3.1084
G01 X2.4928 Y-3.1020
G01 X2.4411 Y-3.0894
G01 X2.3773 Y-3.0765
G01 X2.2757 Y-3.0344
G01 X2.1843 Y-2.9734
G01 X2.1066 Y-2.8957
G01 X2.0456 Y-2.8043
G01 X2.0035 Y-2.7027
G01 X1.9821 Y-2.5950
G01 X1.9821 Y-2.4850
G01 X2.0035 Y-2.3773
G01 X2.0456 Y-2.2757
G01 X2.1066 Y-2.1843
G01 X2.1843 Y-2.1066
G01 X2.2757 Y-2.0456
G01 X2.3773 Y-2.0035
G01 X2.4850 Y-1.9821
G01 X2.5950 Y-1.9821
G01 X2.7027 Y-2.0035
G01 X2.8043 Y-2.0456
G01 X2.8957 Y-2.1066
G01 X2.9734 Y-2.1843
G01 X3.0344 Y-2.2757
G01 X3.0810 Y-2.3881
G01 X3.0875 Y-2.4120
G01 X3.0938 Y-2.4334
G01 X3.1080 Y-2.4764
G01 X3.1183 Y-2.5049
G01 X3.1269 Y-2.5272
G01 X3.1368 Y-2.5511
G01 X3.1459 Y-2.5716
G01 X2.5881 Y-3.1317
G01 X2.6302 Y-3.3446
G01 X2.5949 Y-3.3281
G01 X2.5629 Y-3.3145
G01 X2.5200 Y-3.2985
G01 X2.4862 Y-3.2873
G01 X2.4530 Y-3.2776
G01 X2.4132 Y-3.2677
G01 X2.3883 Y-3.2622
G01 X2.3248 Y-3.2496
G01 X2.1905 Y-3.1940
G01 X2.0696 Y-3.1132
G01 X1.9668 Y-3.0104
G01 X1.8860 Y-2.8895
G01 X1.8304 Y-2.7552
G01 X1.8021 Y-2.6127
G01 X1.8021 Y-2.4673
G01 X1.8304 Y-2.3248
G01 X1.8860 Y-2.1905
G01 X1.9668 Y-2.0696
G01 X2.0696 Y-1.9668
G01 X2.1905 Y-1.8860
G01 X2.3248 Y-1.8304
G01 X2.4673 Y-1.8021
G01 X2.6127 Y-1.8021
G01 X2.7552 Y-1.8304
G01 X2.8895 Y-1.8860
G01 X3.0104 Y-1.9668
G01 X3.1132 Y-2.0696
G01 X3.1940 Y-2.1905
G01 X3.2523 Y-2.3313
G01 X3.2613 Y-2.3652
G01 X3.2721 Y-2.3999
G01 X3.2868 Y-2.4415
G01 X3.2990 Y-2.4723
G01 X3.3128 Y-2.5037
G01 X3.3318 Y-2.5431
G01 X3.3480 Y-2.5735
G01 X3.3665 Y-2.6051
G01 X2.6302 Y-3.3446
G01 X2.6594 Y-3.5703
G01 X2.6422 Y-3.5585
G01 X2.6226 Y-3.5460
G01 X2.5964 Y-3.5303
G01 X2.5775 Y-3.5198
G01 X2.5558 Y-3.5086
G01 X2.5298 Y-3.4962
G01 X2.5085 Y-3.4868
G01 X2.4901 Y-3.4793
G01 X2.4602 Y-3.4683
G01 X2.4415 Y-3.4619
G01 X2.4209 Y-3.4556
G01 X2.4000 Y-3.4498
G01 X2.3594 Y-3.4401
G01 X2.2722 Y-3.4227
G01 X2.1052 Y-3.3535
G01 X1.9548 Y-3.2530
G01 X1.8270 Y-3.1252
G01 X1.7265 Y-2.9748
G01 X1.6573 Y-2.8078
G01 X1.6221 Y-2.6304
G01 X1.6221 Y-2.4496
G01 X1.6573 Y-2.2722
G01 X1.7265 Y-2.1052
G01 X1.8270 Y-1.9548
G01 X1.9548 Y-1.8270
G01 X2.1052 Y-1.7265
G01 X2.2722 Y-1.6573
G01 X2.4496 Y-1.6221
G01 X2.6304 Y-1.6221
G01 X2.8078 Y-1.6573
G01 X2.9748 Y-1.7265
G01 X3.1252 Y-1.8270
G01 X3.2530 Y-1.9548
G01 X3.3535 Y-2.1052
G01 X3.4238 Y-2.2749
G01 X3.4299 Y-2.2993
G01 X3.4352 Y-2.3187
G01 X3.4412 Y-2.3382
G01 X3.4477 Y-2.3574
G01 X3.4567 Y-2.3819
G01 X3.4647 Y-2.4022
G01 X3.4731 Y-2.4214
G01 X3.4843 Y-2.4454
G01 X3.4958 Y-2.4684
G01 X3.5077 Y-2.4902
G01 X3.5246 Y-2.5187
G01 X3.5382 Y-2.5400
G01 X3.5535 Y-2.5622
G01 X3.5728 Y-2.5882
G01 X3.5886 Y-2.6081
G01 X3.6031 Y-2.6251
G01 X2.6594 Y-3.5703
G01 X2.6674 Y-3.8170
G01 X2.6470 Y-3.7948
G01 X2.6264 Y-3.7748
G01 X2.6009 Y-3.7520
G01 X2.5883 Y-3.7417
G01 X2.5752 Y-3.7317
G01 X2.5580 Y-3.7190
G01 X2.5452 Y-3.7101
G01 X2.5314 Y-3.7012
G01 X2.5129 Y-3.6900
G01 X2.4869 Y-3.6755
G01 X2.4575 Y-3.6611
G01 X2.4358 Y-3.6515
G01 X2.4142 Y-3.6430
G01 X2.3852 Y-3.6329
G01 X2.3613 Y-3.6258
G01 X2.3223 Y-3.6162
G01 X2.2197 Y-3.5957
G01 X2.0199 Y-3.5130
G01 X1.8401 Y-3.3928
G01 X1.6872 Y-3.2399
G01 X1.5670 Y-3.0601
G01 X1.4843 Y-2.8603
G01 X1.4421 Y-2.6481
G01 X1.4421 Y-2.4319
G01 X1.4843 Y-2.2197
G01 X1.5670 Y-2.0199
G01 X1.6872 Y-1.8401
G01 X1.8401 Y-1.6872
G01 X2.0199 Y-1.5670
G01 X2.2197 Y-1.4843
G01 X2.4319 Y-1.4421
G01 X2.6481 Y-1.4421
G01 X2.8603 Y-1.4843
G01 X3.0601 Y-1.5670
G01 X3.2399 Y-1.6872
G01 X3.3928 Y-1.8401
G01 X3.5130 Y-2.0199
G01 X3.5959 Y-2.2200
G01 X3.6037 Y-2.2525
G01 X3.6107 Y-2.2772
G01 X3.6220 Y-2.3100
G01 X3.6311 Y-2.3336
G01 X3.6461 Y-2.3665
G01 X3.6582 Y-2.3905
G01 X3.6761 Y-2.4213
G01 X3.6898 Y-2.4429
G01 X3.6986 Y-2.4557
G01 X3.7113 Y-2.4730
G01 X3.7278 Y-2.4940
G01 X3.7522 Y-2.5217
G01 X3.7703 Y-2.5406
G01 X3.7968 Y-2.5653
G01 X3.8168 Y-2.5824
G01 X3.8448 Y-2.6038
G01 X3.8658 Y-2.6186
G01 X2.6674 Y-3.8170
G01 X4.1942 Y-2.5448
G01 X2.6762 Y-4.0629
G01 X2.6650 Y-4.0746
G01 X2.6300 Y-4.1132
G01 X2.6250 Y-4.0969
G01 X2.6155 Y-4.0705
G01 X2.6091 Y-4.0554
G01 X2.6002 Y-4.0365
G01 X2.5910 Y-4.0187
G01 X2.5795 Y-3.9993
G01 X2.5702 Y-3.9846
G01 X2.5615 Y-3.9724
G01 X2.5502 Y-3.9572
G01 X2.5396 Y-3.9442
G01 X2.5212 Y-3.9238
G01 X2.5098 Y-3.9122
G01 X2.4914 Y-3.8953
G01 X2.4788 Y-3.8846
G01 X2.4564 Y-3.8677
G01 X2.4410 Y-3.8570
G01 X2.4184 Y-3.8433
G01 X2.4009 Y-3.8336
G01 X2.3750 Y-3.8213
G01 X2.3526 Y-3.8122
G01 X2.3332 Y-3.8053
G01 X2.3210 Y-3.8014
G01 X2.2895 Y-3.7933
G01 X2.1672 Y-3.7688
G01 X1.9347 Y-3.6725
G01 X1.7254 Y-3.5326
G01 X1.5474 Y-3.3546
G01 X1.4075 Y-3.1453
G01 X1.3112 Y-2.9128
G01 X1.2621 Y-2.6659
G01 X1.2621 Y-2.4141
G01 X1.3112 Y-2.1672
G01 X1.4075 Y-1.9347
G01 X1.5474 Y-1.7254
G01 X1.7254 Y-1.5474
G01 X1.9347 Y-1.4075
G01 X2.1672 Y-1.3112
G01 X2.4141 Y-1.2621
G01 X2.6659 Y-1.2621
G01 X2.9128 Y-1.3112
G01 X3.1453 Y-1.4075
G01 X3.3546 Y-1.5474
G01 X3.5326 Y-1.7254
G01 X3.6725 Y-1.9347
G01 X3.7688 Y-2.1672
G01 X3.7739 Y-2.1912
G01 X3.7811 Y-2.2187
G01 X3.7849 Y-2.2309
G01 X3.7911 Y-2.2484
G01 X3.7991 Y-2.2685
G01 X3.8088 Y-2.2895
G01 X3.8149 Y-2.3018
G01 X3.8211 Y-2.3129
G01 X3.8318 Y-2.3309
G01 X3.8390 Y-2.3422
G01 X3.8474 Y-2.3542
G01 X3.8594 Y-2.3703
G01 X3.8695 Y-2.3828
G01 X3.8863 Y-2.4016
G01 X3.8976 Y-2.4133
G01 X3.9184 Y-2.4326
G01 X3.9330 Y-2.4449
G01 X3.9539 Y-2.4607
G01 X3.9708 Y-2.4722
G01 X3.9946 Y-2.4866
G01 X4.0128 Y-2.4963
G01 X4.0351 Y-2.5068
G01 X4.0502 Y-2.5132
G01 X4.0766 Y-2.5227
G01 X4.0963 Y-2.5287
G01 X4.1201 Y-2.5347
G01 X4.1404 Y-2.5387
G01 X4.1682 Y-2.5427
G01 X4.1942 Y-2.5448
G00 Z2.0000
G00 X4.8583 Y-4.5120
G01 F60.00
G01 Z-0.3732
G01 F120.00
G01 X5.0458 Y-4.3245
G01 X5.0619 Y-4.3363
G01 X5.0757 Y-4.3454
G01 X5.1432 Y-4.3857
G01 X5.1604 Y-4.3946
G01 X5.2177 Y-4.4217
G01 X5.2311 Y-4.4277
G01 X5.2424 Y-4.4322
G01 X5.3183 Y-4.4591
G01 X5.3342 Y-4.4636
G01 X5.3959 Y-4.4791
G01 X5.4087 Y-4.4820
G01 X5.4215 Y-4.4844
G01 X5.4982 Y-4.4957
G01 X5.5205 Y-4.4976
G01 X5.5818 Y-4.5006
G01 X5.5964 Y-4.5010
G01 X6.4959 Y-4.5010
G01 X6.4841 Y-4.5143
G01 X6.4766 Y-4.5234
G01 X6.4571 Y-4.5496
G01 X6.4447 Y-4.5688
G01 X6.4351 Y-4.5849
G01 X6.4273 Y-4.5994
G01 X6.4177 Y-4.6194
G01 X6.4117 Y-4.6327
G01 X6.4072 Y-4.6440
G01 X6.4004 Y-4.6630
G01 X6.3932 Y-4.6862
G01 X6.3873 Y-4.7095
G01 X6.3847 Y-4.7218
G01 X6.3653 Y-4.7044
G01 X6.3526 Y-4.6941
G01 X6.3067 Y-4.6600
G01 X6.2909 Y-4.6491
G01 X6.2394 Y-4.6180
G01 X6.2264 Y-4.6106
G01 X6.2108 Y-4.6027
G01 X6.1609 Y-4.5792
G01 X6.1418 Y-4.5713
G01 X6.0903 Y-4.5528
G01 X6.0774 Y-4.5485
G01 X6.0652 Y-4.5449
G01 X6.0117 Y-4.5315
G01 X5.9945 Y-4.5277
G01 X5.9800 Y-4.5252
G01 X5.9293 Y-4.5177
G01 X5.9136 Y-4.5158
G01 X5.9015 Y-4.5149
G01 X5.8502 Y-4.5124
G01 X5.8356 Y-4.5120
G01 X4.8583 Y-4.5120
G00 Z2.0000
G00 X4.5244 Y-7.1120
G01 F60.00
G01 Z-0.3732
G01 F120.00
G01 X4.5037 Y-7.1208
G01 X4.4553 Y-7.1436
G01 X4.4416 Y-7.1506
G01 X4.4268 Y-7.1591
G01 X4.2643 Y-6.9966
G01 X4.2643 Y-6.9450
G01 X4.2968 Y-6.9744
G01 X4.3118 Y-6.9871
G01 X4.3613 Y-7.0240
G01 X4.3771 Y-7.0349
G01 X4.4286 Y-7.0660
G01 X4.4455 Y-7.0754
G01 X4.5037 Y-7.1032
G01 X4.5244 Y-7.1120
G00 Z2.0000
G00 X5.9857 Y-6.9735
G01 F60.00
G01 Z-0.3732
G01 F120.00
G01 X7.8857 Y-8.8735
G01 X7.8857 Y-10.0516
G01 X7.8228 Y-10.1088
G01 X7.7467 Y-10.1929
G01 X7.6795 Y-10.2835
G01 X7.6254 Y-10.3735
G01 X7.6203 Y-10.3828
G01 X7.5734 Y-10.4822
G01 X7.5355 Y-10.5884
G01 X7.5082 Y-10.6970
G01 X7.4924 Y-10.8020
G01 X7.4912 Y-10.8128
G01 X7.4860 Y-10.9220
G01 X7.4916 Y-11.0349
G01 X7.5082 Y-11.1470
G01 X7.5336 Y-11.2487
G01 X7.5378 Y-11.2628
G01 X7.5709 Y-11.3552
G01 X7.5765 Y-11.3688
G01 X7.6222 Y-11.4648
G01 X7.6801 Y-11.5614
G01 X7.7473 Y-11.6519
G01 X7.8228 Y-11.7352
G01 X7.9069 Y-11.8113
G01 X7.9966 Y-11.8779
G01 X8.0932 Y-11.9358
G01 X8.1962 Y-11.9846
G01 X8.3024 Y-12.0225
G01 X8.4110 Y-12.0498
G01 X8.5244 Y-12.0666
G01 X8.6360 Y-12.0720
G01 X8.7476 Y-12.0666
G01 X8.8610 Y-12.0498
G01 X8.9696 Y-12.0225
G01 X9.0758 Y-11.9846
G01 X9.1788 Y-11.9358
G01 X9.2754 Y-11.8779
G01 X9.3651 Y-11.8113
G01 X9.4438 Y-11.7402
G01 X9.4542 Y-11.7298
G01 X9.5253 Y-11.6511
G01 X9.5880 Y-11.5669
G01 X9.5961 Y-11.5547
G01 X9.6498 Y-11.4648
G01 X9.6986 Y-11.3618
G01 X9.7342 Y-11.2628
G01 X9.7384 Y-11.2487
G01 X9.7638 Y-11.1470
G01 X9.7796 Y-11.0420
G01 X9.7810 Y-11.0274
G01 X9.7860 Y-10.9220
G01 X9.7806 Y-10.8104
G01 X9.7638 Y-10.6970
G01 X9.7365 Y-10.5884
G01 X9.7011 Y-10.4888
G01 X9.6955 Y-10.4752
G01 X9.6498 Y-10.3792
G01 X9.5961 Y-10.2893
G01 X9.5880 Y-10.2771
G01 X9.5295 Y-10.1983
G01 X9.5202 Y-10.1869
G01 X9.4492 Y-10.1088
G01 X9.3863 Y-10.0516
G01 X9.3863 Y-8.5627
G01 X9.3830 Y-8.4934
G01 X9.3818 Y-8.4818
G01 X9.3717 Y-8.4156
G01 X9.3560 Y-8.3520
G01 X9.3517 Y-8.3379
G01 X9.3293 Y-8.2758
G01 X9.3010 Y-8.2156
G01 X9.2941 Y-8.2026
G01 X9.2595 Y-8.1453
G01 X9.2164 Y-8.0871
G01 X9.1665 Y-8.0321
G01 X6.4840 Y-5.3496
G01 X6.4838 Y-5.3346
G01 X6.4808 Y-5.2781
G01 X6.4728 Y-5.2224
G01 X6.4699 Y-5.2080
G01 X6.4560 Y-5.1531
G01 X6.4372 Y-5.1001
G01 X6.4315 Y-5.0865
G01 X6.4075 Y-5.0360
G01 X6.3741 Y-4.9804
G01 X6.3410 Y-4.9354
G01 X6.3316 Y-4.9241
G01 X6.2936 Y-4.8824
G01 X6.2519 Y-4.8444
G01 X6.2406 Y-4.8350
G01 X6.1984 Y-4.8038
G01 X6.1889 Y-4.7976
G01 X6.1468 Y-4.7724
G01 X6.1338 Y-4.7654
G01 X6.0825 Y-4.7414
G01 X6.0229 Y-4.7200
G01 X5.9680 Y-4.7061
G01 X5.9536 Y-4.7032
G01 X5.8979 Y-4.6952
G01 X5.8340 Y-4.6920
G01 X4.8340 Y-4.6920
G01 X4.7738 Y-4.6948
G01 X4.7630 Y-4.6960
G01 X4.7144 Y-4.7032
G01 X4.7000 Y-4.7061
G01 X4.6451 Y-4.7200
G01 X4.5921 Y-4.7388
G01 X4.5785 Y-4.7445
G01 X4.5280 Y-4.7685
G01 X4.4791 Y-4.7976
G01 X4.4696 Y-4.8038
G01 X4.4214 Y-4.8397
G01 X4.3797 Y-4.8773
G01 X4.3693 Y-4.8877
G01 X4.3364 Y-4.9241
G01 X4.3270 Y-4.9354
G01 X4.2939 Y-4.9804
G01 X4.2644 Y-5.0292
G01 X4.2574 Y-5.0422
G01 X4.2334 Y-5.0935
G01 X4.2120 Y-5.1531
G01 X4.1966 Y-5.2148
G01 X4.1872 Y-5.2781
G01 X4.1840 Y-5.3420
G01 X4.1840 Y-6.3420
G01 X4.1868 Y-6.4022
G01 X4.1880 Y-6.4130
G01 X4.1952 Y-6.4616
G01 X4.1981 Y-6.4760
G01 X4.2120 Y-6.5309
G01 X4.2308 Y-6.5839
G01 X4.2365 Y-6.5975
G01 X4.2605 Y-6.6480
G01 X4.2896 Y-6.6969
G01 X4.2958 Y-6.7064
G01 X4.3317 Y-6.7546
G01 X4.3744 Y-6.8016
G01 X4.4214 Y-6.8443
G01 X4.4724 Y-6.8821
G01 X4.5280 Y-6.9155
G01 X4.5855 Y-6.9426
G01 X4.6451 Y-6.9640
G01 X4.7000 Y-6.9779
G01 X4.7144 Y-6.9808
G01 X4.7701 Y-6.9888
G01 X4.8313 Y-6.9920
G01 X5.8340 Y-6.9920
G01 X5.8904 Y-6.9894
G01 X5.9015 Y-6.9885
G01 X5.9574 Y-6.9801
G01 X5.9646 Y-6.9787
G01 X5.9857 Y-6.9735
G00 Z2.0000
G00 X6.7738 Y-9.2516
G01 F60.00
G01 Z-0.3732
G01 F120.00
G01 X6.7930 Y-9.1979
G01 X6.8000 Y-9.1768
G01 X6.8064 Y-9.1542
G01 X6.8208 Y-9.0963
G01 X6.8251 Y-9.0766
G01 X6.8287 Y-9.0556
G01 X6.8372 Y-8.9981
G01 X6.8400 Y-8.9712
G01 X6.8434 Y-8.9070
G01 X6.8440 Y-8.8844
G01 X6.8440 Y-8.3409
G01 X7.5257 Y-9.0226
G01 X7.5257 Y-9.9003
G01 X7.4827 Y-9.9478
G01 X7.4667 Y-9.9666
G01 X7.4349 Y-9.9237
G01 X7.4187 Y-9.9033
G01 X7.4059 Y-9.8887
G01 X7.3550 Y-9.8329
G01 X7.3491 Y-9.8269
G01 X6.7738 Y-9.2516
G01 X6.9797 Y-9.2029
G01 X6.9951 Y-9.1414
G01 X7.0019 Y-9.1102
G01 X7.0069 Y-9.0808
G01 X7.0148 Y-9.0275
G01 X7.0178 Y-9.0028
G01 X7.0205 Y-8.9700
G01 X7.0238 Y-8.8994
G01 X7.0240 Y-8.7754
G01 X7.3457 Y-9.0971
G01 X7.3457 Y-9.5689
G01 X6.9797 Y-9.2029
G01 X7.4485 Y-10.3248
G01 X7.4286 Y-10.2691
G01 X7.4229 Y-10.2545
G01 X7.4169 Y-10.2412
G01 X7.3917 Y-10.1879
G01 X7.3889 Y-10.1820
G01 X7.3867 Y-10.1777
G01 X7.3827 Y-10.1701
G01 X7.3462 Y-10.1088
G01 X7.3357 Y-10.0924
G01 X7.2927 Y-10.0341
G01 X7.2790 Y-10.0169
G01 X7.2330 Y-9.9659
G01 X7.2218 Y-9.9542
G01 X6.5569 Y-9.2892
G01 X6.5642 Y-9.2766
G01 X6.5704 Y-9.2647
G01 X6.5987 Y-9.2046
G01 X6.6067 Y-9.1845
G01 X6.6277 Y-9.1247
G01 X6.6326 Y-9.1073
G01 X6.6450 Y-9.0578
G01 X6.6482 Y-9.0430
G01 X6.6508 Y-9.0280
G01 X6.6580 Y-8.9794
G01 X6.6605 Y-8.9578
G01 X6.6636 Y-8.8982
G01 X6.6640 Y-8.8820
G01 X6.6640 Y-7.9063
G01 X7.7057 Y-8.9480
G01 X7.7057 Y-9.9718
G01 X7.6971 Y-9.9800
G01 X7.6859 Y-9.9917
G01 X7.6111 Y-10.0744
G01 X7.5991 Y-10.0894
G01 X7.5390 Y-10.1705
G01 X7.5307 Y-10.1822
G01 X7.5243 Y-10.1921
G01 X7.4700 Y-10.2826
G01 X7.4609 Y-10.2992
G01 X7.4485 Y-10.3248
G00 Z2.0000
G00 X9.0023 Y-12.2001
G01 F60.00
G01 Z-0.3732
G01 F120.00
G01 X7.9087 Y-13.2937
G01 X7.4913 Y-13.2937
G01 X7.4939 Y-13.2402
G01 X7.4943 Y-13.2240
G01 X7.4943 Y-11.6019
G01 X7.5227 Y-11.6493
G01 X7.5339 Y-11.6665
G01 X7.5983 Y-11.7535
G01 X7.6121 Y-11.7707
G01 X7.6844 Y-11.8507
G01 X7.6940 Y-11.8609
G01 X7.7073 Y-11.8736
G01 X7.7848 Y-11.9438
G01 X7.8034 Y-11.9589
G01 X7.8838 Y-12.0185
G01 X7.8980 Y-12.0284
G01 X7.9108 Y-12.0365
G01 X7.9949 Y-12.0870
G01 X8.0096 Y-12.0952
G01 X8.0235 Y-12.1022
G01 X8.1122 Y-12.1442
G01 X8.1329 Y-12.1531
G01 X8.2345 Y-12.1896
G01 X8.2482 Y-12.1942
G01 X8.2655 Y-12.1991
G01 X8.3627 Y-12.2234
G01 X8.3774 Y-12.2266
G01 X8.3901 Y-12.2288
G01 X8.4896 Y-12.2436
G01 X8.5056 Y-12.2456
G01 X8.5218 Y-12.2468
G01 X8.6198 Y-12.2516
G01 X8.6382 Y-12.2520
G01 X8.6522 Y-12.2516
G01 X8.7502 Y-12.2468
G01 X8.7664 Y-12.2456
G01 X8.7824 Y-12.2436
G01 X8.8795 Y-12.2292
G01 X8.8946 Y-12.2266
G01 X8.9113 Y-12.2229
G01 X9.0023 Y-12.2001
G01 X7.8543 Y-12.8389
G01 X7.8543 Y-12.4202
G01 X7.9604 Y-12.4706
G01 X7.9934 Y-12.4850
G01 X8.0189 Y-12.4948
G01 X8.1149 Y-12.5292
G01 X8.1330 Y-12.5353
G01 X8.1520 Y-12.5412
G01 X7.8543 Y-12.8389
G01 X7.6743 Y-13.1137
G01 X7.6743 Y-12.0861
G01 X7.6970 Y-12.1040
G01 X7.7774 Y-12.1637
G01 X7.7939 Y-12.1754
G01 X7.8172 Y-12.1903
G01 X7.9024 Y-12.2414
G01 X7.9241 Y-12.2536
G01 X7.9432 Y-12.2634
G01 X8.0384 Y-12.3084
G01 X8.0631 Y-12.3191
G01 X8.0805 Y-12.3257
G01 X8.1739 Y-12.3591
G01 X8.1961 Y-12.3665
G01 X8.2208 Y-12.3734
G01 X8.3241 Y-12.3992
G01 X8.3417 Y-12.4030
G01 X8.3613 Y-12.4065
G01 X8.4669 Y-12.4222
G01 X8.4933 Y-12.4252
G01 X8.5208 Y-12.4270
G01 X7.8341 Y-13.1137
G01 X7.6743 Y-13.1137
G00 Z2.0000
G00 X5.6337 Y-12.6933
G01 F60.00
G01 Z-0.3732
G01 F120.00
G01 X5.6337 Y-12.8386
G01 X5.4353 Y-13.0370
G01 X5.4130 Y-13.0327
G01 X5.3746 Y-13.0273
G01 X5.3542 Y-13.0256
G01 X5.3266 Y-13.0243
G01 X5.3134 Y-13.0240
G01 X2.8113 Y-13.0240
G01 X2.7738 Y-13.0256
G01 X2.7575 Y-13.0268
G01 X2.7416 Y-13.0288
G01 X2.7024 Y-13.0349
G01 X2.6855 Y-13.0387
G01 X2.6485 Y-13.0483
G01 X2.6328 Y-13.0533
G01 X2.5980 Y-13.0659
G01 X2.5995 Y-13.0354
G01 X2.5991 Y-13.0133
G01 X2.5981 Y-12.9948
G01 X2.5970 Y-12.9821
G01 X2.5926 Y-12.9505
G01 X2.5886 Y-12.9302
G01 X2.5806 Y-12.8993
G01 X2.5767 Y-12.8872
G01 X2.5706 Y-12.8697
G01 X2.5626 Y-12.8496
G01 X2.5497 Y-12.8222
G01 X2.5400 Y-12.8040
G01 X2.5237 Y-12.7774
G01 X2.5057 Y-12.7523
G01 X2.4921 Y-12.7351
G01 X2.4728 Y-12.7137
G01 X2.4582 Y-12.6991
G01 X2.4379 Y-12.6808
G01 X2.4153 Y-12.6533
G01 X2.3988 Y-12.6224
G01 X2.3886 Y-12.5889
G01 X2.3876 Y-12.5779
G01 X2.4012 Y-12.5962
G01 X2.4114 Y-12.6087
G01 X2.4509 Y-12.6525
G01 X2.4682 Y-12.6696
G01 X2.5094 Y-12.7067
G01 X2.5265 Y-12.7203
G01 X2.5623 Y-12.7469
G01 X2.5743 Y-12.7553
G01 X2.5877 Y-12.7637
G01 X2.6243 Y-12.7857
G01 X2.6438 Y-12.7965
G01 X2.6935 Y-12.8202
G01 X2.7121 Y-12.8281
G01 X2.7673 Y-12.8480
G01 X2.7794 Y-12.8518
G01 X2.7925 Y-12.8554
G01 X2.8359 Y-12.8662
G01 X2.8509 Y-12.8695
G01 X2.8657 Y-12.8721
G01 X2.9079 Y-12.8783
G01 X2.9196 Y-12.8798
G01 X2.9351 Y-12.8812
G01 X2.9859 Y-12.8837
G01 X2.9990 Y-12.8840
G01 X5.1290 Y-12.8840
G01 X5.1440 Y-12.8837
G01 X5.1965 Y-12.8810
G01 X5.2175 Y-12.8787
G01 X5.2646 Y-12.8717
G01 X5.2812 Y-12.8687
G01 X5.2940 Y-12.8658
G01 X5.3377 Y-12.8548
G01 X5.3535 Y-12.8503
G01 X5.4066 Y-12.8316
G01 X5.4268 Y-12.8236
G01 X5.4869 Y-12.7951
G01 X5.5017 Y-12.7869
G01 X5.5458 Y-12.7604
G01 X5.5629 Y-12.7489
G01 X5.6064 Y-12.7166
G01 X5.6191 Y-12.7063
G01 X5.6337 Y-12.6933
G00 Z2.0000
G00 X4.8463 Y-10.2099
G01 F60.00
G01 Z-0.3732
G01 F120.00
G01 X5.1204 Y-10.4840
G01 X4.7305 Y-10.4840
G01 X4.7399 Y-10.4733
G01 X4.7504 Y-10.4604
G01 X4.7650 Y-10.4406
G01 X4.7742 Y-10.4270
G01 X4.7869 Y-10.4059
G01 X4.7950 Y-10.3914
G01 X4.8063 Y-10.3681
G01 X4.8121 Y-10.3551
G01 X4.8179 Y-10.3402
G01 X4.8261 Y-10.3167
G01 X4.8307 Y-10.3012
G01 X4.8364 Y-10.2783
G01 X4.8396 Y-10.2630
G01 X4.8433 Y-10.2394
G01 X4.8450 Y-10.2262
G01 X4.8463 Y-10.2099
G00 Z2.0000
G00 X2.3876 Y-10.7901
G01 F60.00
G01 Z-0.3732
G01 F120.00
G01 X2.3886 Y-10.7791
G01 X2.3988 Y-10.7456
G01 X2.4153 Y-10.7147
G01 X2.4376 Y-10.6876
G01 X2.4647 Y-10.6653
G01 X2.4956 Y-10.6488
G01 X2.5291 Y-10.6386
G01 X2.5401 Y-10.6376
G01 X2.5185 Y-10.6538
G01 X2.5059 Y-10.6642
G01 X2.4682 Y-10.6984
G01 X2.4565 Y-10.7096
G01 X2.4469 Y-10.7198
G01 X2.4114 Y-10.7593
G01 X2.4012 Y-10.7718
G01 X2.3876 Y-10.7901
G01 X2.2054 Y-11.2799
G01 X2.2031 Y-10.8269
G01 X2.2112 Y-10.7438
G01 X2.2317 Y-10.6764
G01 X2.2649 Y-10.6142
G01 X2.3097 Y-10.5597
G01 X2.3642 Y-10.5149
G01 X2.4264 Y-10.4817
G01 X2.4938 Y-10.4612
G01 X2.5773 Y-10.4530
G01 X3.6599 Y-10.4558
G01 X3.6599 Y-10.6640
G01 X2.9990 Y-10.6640
G01 X2.9459 Y-10.6665
G01 X2.9344 Y-10.6677
G01 X2.8843 Y-10.6753
G01 X2.8294 Y-10.6891
G01 X2.7754 Y-10.7084
G01 X2.7298 Y-10.7298
G01 X2.7201 Y-10.7348
G01 X2.6732 Y-10.7631
G01 X2.6337 Y-10.7923
G01 X2.6223 Y-10.8016
G01 X2.5853 Y-10.8353
G01 X2.5516 Y-10.8723
G01 X2.5423 Y-10.8837
G01 X2.5123 Y-10.9244
G01 X2.4853 Y-10.9693
G01 X2.4798 Y-10.9798
G01 X2.4615 Y-11.0184
G01 X2.4559 Y-11.0320
G01 X2.4391 Y-11.0794
G01 X2.4260 Y-11.1313
G01 X2.4240 Y-11.1421
G01 X2.4177 Y-11.1844
G01 X2.4165 Y-11.1952
G01 X2.4141 Y-11.2450
G01 X2.4140 Y-11.2799
G01 X2.2054 Y-11.2799
G00 Z2.0000
G00 X2.4649 Y-13.4093
G01 F60.00
G01 Z-0.3732
G01 F120.00
G01 X2.4580 Y-13.4223
G01 X2.4444 Y-13.4516
G01 X2.4336 Y-13.4813
G01 X2.4302 Y-13.4919
G01 X2.4225 Y-13.5228
G01 X2.4204 Y-13.5337
G01 X2.4160 Y-13.5651
G01 X2.4141 Y-13.6005
G01 X2.4140 Y-14.8434
G01 X2.4154 Y-14.8754
G01 X2.4168 Y-14.8900
G01 X2.4217 Y-14.9216
G01 X2.4302 Y-14.9561
G01 X2.4336 Y-14.9667
G01 X2.4418 Y-14.9899
G01 X2.4475 Y-15.0035
G01 X2.4620 Y-15.0335
G01 X2.4815 Y-15.0660
G01 X2.5049 Y-15.0975
G01 X2.5262 Y-15.1213
G01 X2.5367 Y-15.1318
G01 X2.5549 Y-15.1483
G01 X2.5634 Y-15.1554
G01 X2.5912 Y-15.1760
G01 X2.6226 Y-15.1950
G01 X2.6323 Y-15.2000
G01 X2.6545 Y-15.2105
G01 X2.6648 Y-15.2149
G01 X2.6985 Y-15.2268
G01 X2.7292 Y-15.2347
G01 X2.7398 Y-15.2369
G01 X2.7722 Y-15.2417
G01 X2.7826 Y-15.2426
G01 X2.8146 Y-15.2440
G01 X5.3134 Y-15.2440
G01 X5.3454 Y-15.2426
G01 X5.3600 Y-15.2412
G01 X5.3843 Y-15.2376
G01 X5.3954 Y-15.2355
G01 X5.4299 Y-15.2267
G01 X5.4632 Y-15.2149
G01 X5.4735 Y-15.2105
G01 X5.4957 Y-15.2000
G01 X5.5087 Y-15.1931
G01 X5.5365 Y-15.1762
G01 X5.5648 Y-15.1553
G01 X5.5731 Y-15.1483
G01 X5.5913 Y-15.1318
G01 X5.6018 Y-15.1213
G01 X5.6235 Y-15.0971
G01 X5.6447 Y-15.0686
G01 X5.6504 Y-15.0598
G01 X5.6631 Y-15.0387
G01 X5.6682 Y-15.0294
G01 X5.6821 Y-15.0000
G01 X5.6917 Y-14.9743
G01 X8.2994 Y-14.9742
G01 X8.3664 Y-14.9708
G01 X8.4411 Y-14.9597
G01 X8.5116 Y-14.9421
G01 X8.5776 Y-14.9186
G01 X8.5879 Y-14.9142
G01 X8.6484 Y-14.8853
G01 X8.7113 Y-14.8475
G01 X8.7695 Y-14.8044
G01 X8.8218 Y-14.7572
G01 X11.1692 Y-12.4098
G01 X11.2164 Y-12.3575
G01 X11.2556 Y-12.3049
G01 X11.2638 Y-12.2926
G01 X11.2973 Y-12.2364
G01 X11.3262 Y-12.1759
G01 X11.3306 Y-12.1656
G01 X11.3541 Y-12.0996
G01 X11.3653 Y-12.0553
G01 X11.3931 Y-12.0512
G01 X11.4043 Y-12.0491
G01 X11.5027 Y-12.0244
G01 X11.5132 Y-12.0214
G01 X11.6158 Y-11.9846
G01 X11.7152 Y-11.9377
G01 X11.7245 Y-11.9326
G01 X11.8154 Y-11.8779
G01 X11.8997 Y-11.8155
G01 X11.9111 Y-11.8062
G01 X11.9838 Y-11.7402
G01 X11.9917 Y-11.7325
G01 X12.0653 Y-11.6511
G01 X12.1319 Y-11.5614
G01 X12.1898 Y-11.4648
G01 X12.2355 Y-11.3688
G01 X12.2411 Y-11.3552
G01 X12.2765 Y-11.2556
G01 X12.3023 Y-11.1535
G01 X12.3052 Y-11.1391
G01 X12.3196 Y-11.0420
G01 X12.3210 Y-11.0274
G01 X12.3260 Y-10.9220
G01 X12.3220 Y-10.8371
G01 X16.3128 Y-6.8463
G01 X19.5246 Y-6.8463
G01 X19.5324 Y-6.8587
G01 X19.5636 Y-6.9007
G01 X19.5696 Y-6.9077
G01 X19.6025 Y-6.9438
G01 X19.6450 Y-6.9825
G01 X19.6860 Y-7.0132
G01 X19.6982 Y-7.0213
G01 X19.7348 Y-7.0433
G01 X19.7478 Y-7.0502
G01 X19.7924 Y-7.0712
G01 X19.8402 Y-7.0885
G01 X19.8543 Y-7.0928
G01 X19.9022 Y-7.1046
G01 X19.9592 Y-7.1131
G01 X20.0170 Y-7.1160
G01 X22.1470 Y-7.1160
G01 X22.2048 Y-7.1131
G01 X22.2539 Y-7.1060
G01 X22.2651 Y-7.1039
G01 X22.3159 Y-7.0911
G01 X22.3640 Y-7.0741
G01 X22.3776 Y-7.0685
G01 X22.4213 Y-7.0477
G01 X22.4658 Y-7.0213
G01 X22.4780 Y-7.0132
G01 X22.5190 Y-6.9825
G01 X22.5553 Y-6.9497
G01 X22.5636 Y-6.9416
G01 X22.5944 Y-6.9077
G01 X22.6037 Y-6.8963
G01 X22.6343 Y-6.8546
G01 X22.6593 Y-6.8132
G01 X22.6662 Y-6.8002
G01 X22.6868 Y-6.7564
G01 X22.7045 Y-6.7078
G01 X22.7088 Y-6.6937
G01 X22.7206 Y-6.6461
G01 X22.7283 Y-6.5956
G01 X22.7297 Y-6.5810
G01 X22.7320 Y-6.5347
G01 X22.7320 Y-5.6573
G01 X22.7290 Y-5.6021
G01 X22.7206 Y-5.5459
G01 X22.7068 Y-5.4910
G01 X22.6890 Y-5.4410
G01 X22.6845 Y-5.4304
G01 X22.6662 Y-5.3917
G01 X22.6593 Y-5.3788
G01 X22.6339 Y-5.3368
G01 X22.6004 Y-5.2913
G01 X22.5657 Y-5.2527
G01 X22.5553 Y-5.2423
G01 X22.5190 Y-5.2095
G01 X22.4725 Y-5.1749
G01 X22.4253 Y-5.1464
G01 X22.4162 Y-5.1418
G01 X22.3776 Y-5.1235
G01 X22.3640 Y-5.1179
G01 X22.3159 Y-5.1009
G01 X22.2618 Y-5.0874
G01 X22.2116 Y-5.0797
G01 X22.1970 Y-5.0783
G01 X22.1470 Y-5.0760
G01 X20.0170 Y-5.0760
G01 X19.9592 Y-5.0789
G01 X19.9022 Y-5.0874
G01 X19.8543 Y-5.0992
G01 X19.8402 Y-5.1035
G01 X19.7924 Y-5.1208
G01 X19.7478 Y-5.1418
G01 X19.7348 Y-5.1487
G01 X19.6982 Y-5.1707
G01 X19.6860 Y-5.1788
G01 X19.6450 Y-5.2095
G01 X19.6025 Y-5.2482
G01 X19.5696 Y-5.2843
G01 X19.5636 Y-5.2913
G01 X19.5348 Y-5.3300
G01 X19.5252 Y-5.3446
G01 X15.9993 Y-5.3457
G01 X15.9282 Y-5.3493
G01 X15.8629 Y-5.3589
G01 X15.8484 Y-5.3617
G01 X15.7844 Y-5.3779
G01 X15.7217 Y-5.4002
G01 X15.7081 Y-5.4058
G01 X15.6512 Y-5.4328
G01 X15.6419 Y-5.4379
G01 X15.5914 Y-5.4682
G01 X15.5791 Y-5.4764
G01 X15.5257 Y-5.5163
G01 X15.4715 Y-5.5655
G01 X11.2609 Y-9.7760
G01 X11.1760 Y-9.7720
G01 X11.0706 Y-9.7770
G01 X11.0560 Y-9.7784
G01 X10.9589 Y-9.7928
G01 X10.9445 Y-9.7957
G01 X10.8424 Y-9.8215
G01 X10.7395 Y-9.8581
G01 X10.7292 Y-9.8625
G01 X10.6332 Y-9.9082
G01 X10.5366 Y-9.9661
G01 X10.4469 Y-10.0327
G01 X10.3682 Y-10.1038
G01 X10.3603 Y-10.1115
G01 X10.2867 Y-10.1929
G01 X10.2240 Y-10.2771
G01 X10.2159 Y-10.2893
G01 X10.1654 Y-10.3735
G01 X10.1603 Y-10.3828
G01 X10.1134 Y-10.4822
G01 X10.0766 Y-10.5848
G01 X10.0736 Y-10.5953
G01 X10.0489 Y-10.6937
G01 X10.0468 Y-10.7049
G01 X10.0396 Y-10.7539
G01 X10.0164 Y-10.7851
G01 X10.0103 Y-10.7940
G01 X9.9779 Y-10.8479
G01 X9.9728 Y-10.8572
G01 X9.9427 Y-10.9212
G01 X9.9191 Y-10.9868
G01 X9.9160 Y-10.9973
G01 X9.9003 Y-11.0609
G01 X9.8902 Y-11.1271
G01 X9.8888 Y-11.1418
G01 X9.8857 Y-11.2080
G01 X9.8857 Y-11.5712
G01 X7.9832 Y-13.4737
G01 X7.2708 Y-13.4737
G01 X7.2797 Y-13.4488
G01 X7.2831 Y-13.4382
G01 X7.2983 Y-13.3775
G01 X7.3005 Y-13.3671
G01 X7.3107 Y-13.2978
G01 X7.3143 Y-13.2267
G01 X7.3143 Y-10.6120
G01 X7.3112 Y-10.5458
G01 X7.3098 Y-10.5312
G01 X7.2998 Y-10.4650
G01 X7.2840 Y-10.4013
G01 X7.2797 Y-10.3872
G01 X7.2573 Y-10.3252
G01 X7.2253 Y-10.2576
G01 X7.1918 Y-10.2014
G01 X7.1836 Y-10.1891
G01 X7.1437 Y-10.1357
G01 X7.0946 Y-10.0815
G01 X6.3228 Y-9.3097
G01 X6.3389 Y-9.2912
G01 X6.3705 Y-9.2487
G01 X6.3766 Y-9.2398
G01 X6.4069 Y-9.1891
G01 X6.4331 Y-9.1340
G01 X6.4372 Y-9.1239
G01 X6.4561 Y-9.0705
G01 X6.4699 Y-9.0160
G01 X6.4728 Y-9.0016
G01 X6.4800 Y-8.9530
G01 X6.4812 Y-8.9422
G01 X6.4840 Y-8.8820
G01 X6.4838 Y-7.8746
G01 X6.4808 Y-7.8181
G01 X6.4714 Y-7.7548
G01 X6.4560 Y-7.6931
G01 X6.4359 Y-7.6368
G01 X6.4315 Y-7.6265
G01 X6.4075 Y-7.5760
G01 X6.3784 Y-7.5271
G01 X6.3702 Y-7.5149
G01 X6.3363 Y-7.4694
G01 X6.2987 Y-7.4277
G01 X6.2883 Y-7.4173
G01 X6.2466 Y-7.3797
G01 X6.1956 Y-7.3419
G01 X6.1468 Y-7.3124
G01 X6.1338 Y-7.3054
G01 X6.0895 Y-7.2845
G01 X6.0759 Y-7.2788
G01 X6.0229 Y-7.2600
G01 X5.9680 Y-7.2461
G01 X5.9536 Y-7.2432
G01 X5.8979 Y-7.2352
G01 X5.8367 Y-7.2320
G01 X4.8340 Y-7.2320
G01 X4.7701 Y-7.2352
G01 X4.7068 Y-7.2446
G01 X4.6524 Y-7.2580
G01 X4.6383 Y-7.2623
G01 X4.5921 Y-7.2788
G01 X4.5820 Y-7.2829
G01 X4.5280 Y-7.3085
G01 X4.4757 Y-7.3397
G01 X4.4669 Y-7.3458
G01 X4.4244 Y-7.3773
G01 X4.4063 Y-7.3932
G01 X4.0843 Y-7.0712
G01 X4.0843 Y-5.0315
G01 X5.0364 Y-4.0793
G01 X5.0526 Y-4.0966
G01 X5.1034 Y-4.1426
G01 X5.1121 Y-4.1496
G01 X5.1642 Y-4.1881
G01 X5.1737 Y-4.1943
G01 X5.2331 Y-4.2297
G01 X5.2982 Y-4.2606
G01 X5.3083 Y-4.2647
G01 X5.3728 Y-4.2876
G01 X5.4464 Y-4.3060
G01 X5.5218 Y-4.3172
G01 X5.5953 Y-4.3210
G01 X6.8480 Y-4.3210
G01 X6.9242 Y-4.3172
G01 X6.9919 Y-4.3074
G01 X7.0064 Y-4.3045
G01 X7.0732 Y-4.2876
G01 X7.1443 Y-4.2621
G01 X7.2068 Y-4.2328
G01 X7.2197 Y-4.2259
G01 X7.2791 Y-4.1901
G01 X7.3399 Y-4.1449
G01 X7.3960 Y-4.0940
G01 X7.4472 Y-4.0375
G01 X7.4918 Y-3.9774
G01 X7.5316 Y-3.9112
G01 X7.5641 Y-3.8423
G01 X7.5897 Y-3.7708
G01 X7.6080 Y-3.6977
G01 X7.6188 Y-3.6258
G01 X7.6198 Y-3.6146
G01 X7.6230 Y-3.5460
G01 X7.6230 Y-2.2960
G01 X7.6192 Y-2.2197
G01 X7.6087 Y-2.1482
G01 X7.6065 Y-2.1376
G01 X7.5916 Y-2.0781
G01 X7.5873 Y-2.0640
G01 X7.5641 Y-1.9997
G01 X7.5316 Y-1.9308
G01 X7.4963 Y-1.8717
G01 X7.4882 Y-1.8594
G01 X7.4469 Y-1.8041
G01 X7.3960 Y-1.7480
G01 X7.3399 Y-1.6971
G01 X7.2846 Y-1.6558
G01 X7.2723 Y-1.6477
G01 X7.2129 Y-1.6123
G01 X7.1510 Y-1.5828
G01 X7.1377 Y-1.5773
G01 X7.0732 Y-1.5544
G01 X7.0064 Y-1.5375
G01 X6.9919 Y-1.5346
G01 X6.9239 Y-1.5247
G01 X6.8480 Y-1.5210
G01 X5.5939 Y-1.5211
G01 X5.5221 Y-1.5247
G01 X5.4470 Y-1.5358
G01 X5.3725 Y-1.5545
G01 X5.3045 Y-1.5787
G01 X5.2947 Y-1.5830
G01 X5.2392 Y-1.6092
G01 X5.2263 Y-1.6161
G01 X5.1674 Y-1.6516
G01 X5.1061 Y-1.6971
G01 X5.0553 Y-1.7429
G01 X5.0449 Y-1.7533
G01 X4.9988 Y-1.8045
G01 X4.9578 Y-1.8594
G01 X4.9497 Y-1.8717
G01 X4.9181 Y-1.9243
G01 X4.9112 Y-1.9372
G01 X4.8819 Y-1.9997
G01 X4.8587 Y-2.0640
G01 X4.8544 Y-2.0781
G01 X4.8380 Y-2.1443
G01 X4.8272 Y-2.2162
G01 X4.8257 Y-2.2375
G01 X4.7866 Y-2.2560
G01 X4.7767 Y-2.2611
G01 X4.7230 Y-2.2932
G01 X4.7140 Y-2.2991
G01 X4.6571 Y-2.3415
G01 X4.6059 Y-2.3878
G01 X2.8034 Y-4.1901
G01 X2.7545 Y-4.2441
G01 X2.7098 Y-4.3043
G01 X2.6724 Y-4.3669
G01 X2.6438 Y-4.4268
G01 X2.6382 Y-4.4404
G01 X2.6161 Y-4.5027
G01 X2.5981 Y-4.5745
G01 X2.5873 Y-4.6469
G01 X2.5837 Y-4.7166
G01 X2.5839 Y-7.3894
G01 X2.5873 Y-7.4558
G01 X2.5981 Y-7.5281
G01 X2.6161 Y-7.6000
G01 X2.6407 Y-7.6688
G01 X2.6724 Y-7.7358
G01 X2.7098 Y-7.7984
G01 X2.7545 Y-7.8586
G01 X2.7984 Y-7.9072
G01 X3.8035 Y-8.9125
G01 X3.8553 Y-8.9597
G01 X3.8638 Y-8.9665
G01 X3.9111 Y-9.0016
G01 X3.9234 Y-9.0098
G01 X3.9807 Y-9.0439
G01 X4.0436 Y-9.0738
G01 X4.0537 Y-9.0778
G01 X4.1092 Y-9.0977
G01 X4.1196 Y-9.1010
G01 X4.1872 Y-9.1178
G01 X4.2311 Y-9.1245
G01 X4.2365 Y-9.1375
G01 X4.2611 Y-9.1891
G01 X4.2939 Y-9.2436
G01 X4.3318 Y-9.2947
G01 X4.3744 Y-9.3416
G01 X4.4214 Y-9.3843
G01 X4.4724 Y-9.4221
G01 X4.5280 Y-9.4555
G01 X4.5785 Y-9.4795
G01 X4.5915 Y-9.4849
G01 X4.5983 Y-9.5291
G01 X4.6150 Y-9.5962
G01 X4.6183 Y-9.6068
G01 X4.6382 Y-9.6623
G01 X4.6422 Y-9.6724
G01 X4.6727 Y-9.7364
G01 X4.7062 Y-9.7926
G01 X4.7144 Y-9.8049
G01 X4.7497 Y-9.8525
G01 X4.7565 Y-9.8610
G01 X4.8035 Y-9.9125
G01 X5.8137 Y-10.9228
G01 X5.8137 Y-12.9132
G01 X5.4843 Y-13.2426
G01 X5.4632 Y-13.2331
G01 X5.4333 Y-13.2224
G01 X5.4226 Y-13.2193
G01 X5.3954 Y-13.2125
G01 X5.3843 Y-13.2104
G01 X5.3516 Y-13.2058
G01 X5.3134 Y-13.2040
G01 X2.8146 Y-13.2040
G01 X2.7826 Y-13.2054
G01 X2.7680 Y-13.2068
G01 X2.7359 Y-13.2118
G01 X2.7054 Y-13.2193
G01 X2.6949 Y-13.2223
G01 X2.6616 Y-13.2344
G01 X2.6323 Y-13.2480
G01 X2.6226 Y-13.2530
G01 X2.5947 Y-13.2698
G01 X2.5860 Y-13.2757
G01 X2.5606 Y-13.2948
G01 X2.5367 Y-13.3162
G01 X2.5287 Y-13.3240
G01 X2.5073 Y-13.3477
G01 X2.5004 Y-13.3562
G01 X2.4812 Y-13.3825
G01 X2.4649 Y-13.4093
G00 Z2.0000
G00 X2.5221 Y-19.3058
G01 F60.00
G01 Z-0.3732
G01 F120.00
G01 X2.5228 Y-19.3092
G01 X2.5241 Y-19.3125
G01 X2.5261 Y-19.3154
G01 X2.5286 Y-19.3179
G01 X2.5315 Y-19.3199
G01 X2.5348 Y-19.3212
G01 X2.5382 Y-19.3219
G01 X2.5418 Y-19.3219
G01 X2.5452 Y-19.3212
G01 X2.5485 Y-19.3199
G01 X2.5514 Y-19.3179
G01 X2.5539 Y-19.3154
G01 X2.5559 Y-19.3125
G01 X2.5572 Y-19.3092
G01 X2.5579 Y-19.3058
G01 X2.5579 Y-19.3022
G01 X2.5572 Y-19.2988
G01 X2.5559 Y-19.2955
G01 X2.5539 Y-19.2926
G01 X2.5514 Y-19.2901
G01 X2.5485 Y-19.2881
G01 X2.5452 Y-19.2868
G01 X2.5418 Y-19.2861
G01 X2.5382 Y-19.2861
G01 X2.5348 Y-19.2868
G01 X2.5315 Y-19.2881
G01 X2.5286 Y-19.2901
G01 X2.5261 Y-19.2926
G01 X2.5241 Y-19.2955
G01 X2.5228 Y-19.2988
G01 X2.5221 Y-19.3022
G01 X2.5221 Y-19.3058
G01 X2.3421 Y-19.3235
G01 X2.3497 Y-19.3617
G01 X2.3646 Y-19.3978
G01 X2.3863 Y-19.4302
G01 X2.4138 Y-19.4577
G01 X2.4462 Y-19.4794
G01 X2.4823 Y-19.4943
G01 X2.5205 Y-19.5019
G01 X2.5595 Y-19.5019
G01 X2.5977 Y-19.4943
G01 X2.6338 Y-19.4794
G01 X2.6662 Y-19.4577
G01 X2.6937 Y-19.4302
G01 X2.7154 Y-19.3978
G01 X2.7303 Y-19.3617
G01 X2.7379 Y-19.3235
G01 X2.7379 Y-19.2845
G01 X2.7303 Y-19.2463
G01 X2.7154 Y-19.2102
G01 X2.6937 Y-19.1778
G01 X2.6662 Y-19.1503
G01 X2.6338 Y-19.1286
G01 X2.5977 Y-19.1137
G01 X2.5595 Y-19.1061
G01 X2.5205 Y-19.1061
G01 X2.4823 Y-19.1137
G01 X2.4462 Y-19.1286
G01 X2.4138 Y-19.1503
G01 X2.3863 Y-19.1778
G01 X2.3646 Y-19.2102
G01 X2.3497 Y-19.2463
G01 X2.3421 Y-19.2845
G01 X2.3421 Y-19.3235
G01 X2.1621 Y-19.3412
G01 X2.1766 Y-19.4142
G01 X2.2051 Y-19.4830
G01 X2.2464 Y-19.5449
G01 X2.2991 Y-19.5976
G01 X2.3610 Y-19.6389
G01 X2.4298 Y-19.6674
G01 X2.5028 Y-19.6819
G01 X2.5772 Y-19.6819
G01 X2.6502 Y-19.6674
G01 X2.7190 Y-19.6389
G01 X2.7809 Y-19.5976
G01 X2.8336 Y-19.5449
G01 X2.8749 Y-19.4830
G01 X2.9034 Y-19.4142
G01 X2.9179 Y-19.3412
G01 X2.9179 Y-19.2668
G01 X2.9034 Y-19.1938
G01 X2.8749 Y-19.1250
G01 X2.8336 Y-19.0631
G01 X2.7809 Y-19.0104
G01 X2.7190 Y-18.9691
G01 X2.6502 Y-18.9406
G01 X2.5772 Y-18.9261
G01 X2.5028 Y-18.9261
G01 X2.4298 Y-18.9406
G01 X2.3610 Y-18.9691
G01 X2.2991 Y-19.0104
G01 X2.2464 Y-19.0631
G01 X2.2051 Y-19.1250
G01 X2.1766 Y-19.1938
G01 X2.1621 Y-19.2668
G01 X2.1621 Y-19.3412
G01 X1.0821 Y-19.4476
G01 X1.1381 Y-19.7293
G01 X1.2480 Y-19.9946
G01 X1.4075 Y-20.2334
G01 X1.6106 Y-20.4365
G01 X1.8494 Y-20.5960
G01 X2.1147 Y-20.7059
G01 X2.3964 Y-20.7619
G01 X2.6836 Y-20.7619
G01 X2.9653 Y-20.7059
G01 X3.2306 Y-20.5960
G01 X3.4694 Y-20.4365
G01 X3.6725 Y-20.2334
G01 X3.8320 Y-19.9946
G01 X3.9419 Y-19.7293
G01 X3.9979 Y-19.4476
G01 X3.9979 Y-19.1604
G01 X3.9419 Y-18.8787
G01 X3.8320 Y-18.6134
G01 X3.6725 Y-18.3746
G01 X3.4694 Y-18.1715
G01 X3.2306 Y-18.0120
G01 X2.9653 Y-17.9021
G01 X2.6836 Y-17.8461
G01 X2.3964 Y-17.8461
G01 X2.1147 Y-17.9021
G01 X1.8494 Y-18.0120
G01 X1.6106 Y-18.1715
G01 X1.4075 Y-18.3746
G01 X1.2480 Y-18.6134
G01 X1.1381 Y-18.8787
G01 X1.0821 Y-19.1604
G01 X1.0821 Y-19.4476
G01 X1.2621 Y-19.4299
G01 X1.3112 Y-19.6768
G01 X1.4075 Y-19.9093
G01 X1.5474 Y-20.1186
G01 X1.7254 Y-20.2966
G01 X1.9347 Y-20.4365
G01 X2.1672 Y-20.5328
G01 X2.4141 Y-20.5819
G01 X2.6659 Y-20.5819
G01 X2.9128 Y-20.5328
G01 X3.1453 Y-20.4365
G01 X3.3546 Y-20.2966
G01 X3.5326 Y-20.1186
G01 X3.6725 Y-19.9093
G01 X3.7688 Y-19.6768
G01 X3.8179 Y-19.4299
G01 X3.8179 Y-19.1781
G01 X3.7688 Y-18.9312
G01 X3.6725 Y-18.6987
G01 X3.5326 Y-18.4894
G01 X3.3546 Y-18.3114
G01 X3.1453 Y-18.1715
G01 X2.9128 Y-18.0752
G01 X2.6659 Y-18.0261
G01 X2.4141 Y-18.0261
G01 X2.1672 Y-18.0752
G01 X1.9347 Y-18.1715
G01 X1.7254 Y-18.3114
G01 X1.5474 Y-18.4894
G01 X1.4075 Y-18.6987
G01 X1.3112 Y-18.9312
G01 X1.2621 Y-19.1781
G01 X1.2621 Y-19.4299
G01 X1.4421 Y-19.4121
G01 X1.4843 Y-19.6243
G01 X1.5670 Y-19.8241
G01 X1.6872 Y-20.0039
G01 X1.8401 Y-20.1568
G01 X2.0199 Y-20.2770
G01 X2.2197 Y-20.3597
G01 X2.4319 Y-20.4019
G01 X2.6481 Y-20.4019
G01 X2.8603 Y-20.3597
G01 X3.0601 Y-20.2770
G01 X3.2399 Y-20.1568
G01 X3.3928 Y-20.0039
G01 X3.5130 Y-19.8241
G01 X3.5957 Y-19.6243
G01 X3.6379 Y-19.4121
G01 X3.6379 Y-19.1959
G01 X3.5957 Y-18.9837
G01 X3.5130 Y-18.7839
G01 X3.3928 Y-18.6041
G01 X3.2399 Y-18.4512
G01 X3.0601 Y-18.3310
G01 X2.8603 Y-18.2483
G01 X2.6481 Y-18.2061
G01 X2.4319 Y-18.2061
G01 X2.2197 Y-18.2483
G01 X2.0199 Y-18.3310
G01 X1.8401 Y-18.4512
G01 X1.6872 Y-18.6041
G01 X1.5670 Y-18.7839
G01 X1.4843 Y-18.9837
G01 X1.4421 Y-19.1959
G01 X1.4421 Y-19.4121
G01 X1.6221 Y-19.3944
G01 X1.6573 Y-19.5718
G01 X1.7265 Y-19.7388
G01 X1.8270 Y-19.8892
G01 X1.9548 Y-20.0170
G01 X2.1052 Y-20.1175
G01 X2.2722 Y-20.1867
G01 X2.4496 Y-20.2219
G01 X2.6304 Y-20.2219
G01 X2.8078 Y-20.1867
G01 X2.9748 Y-20.1175
G01 X3.1252 Y-20.0170
G01 X3.2530 Y-19.8892
G01 X3.3535 Y-19.7388
G01 X3.4227 Y-19.5718
G01 X3.4579 Y-19.3944
G01 X3.4579 Y-19.2136
G01 X3.4227 Y-19.0362
G01 X3.3535 Y-18.8692
G01 X3.2530 Y-18.7188
G01 X3.1252 Y-18.5910
G01 X2.9748 Y-18.4905
G01 X2.8078 Y-18.4213
G01 X2.6304 Y-18.3861
G01 X2.4496 Y-18.3861
G01 X2.2722 Y-18.4213
G01 X2.1052 Y-18.4905
G01 X1.9548 Y-18.5910
G01 X1.8270 Y-18.7188
G01 X1.7265 Y-18.8692
G01 X1.6573 Y-19.0362
G01 X1.6221 Y-19.2136
G01 X1.6221 Y-19.3944
G01 X1.8021 Y-19.3767
G01 X1.8304 Y-19.5192
G01 X1.8860 Y-19.6535
G01 X1.9668 Y-19.7744
G01 X2.0696 Y-19.8772
G01 X2.1905 Y-19.9580
G01 X2.3248 Y-20.0136
G01 X2.4673 Y-20.0419
G01 X2.6127 Y-20.0419
G01 X2.7552 Y-20.0136
G01 X2.8895 Y-19.9580
G01 X3.0104 Y-19.8772
G01 X3.1132 Y-19.7744
G01 X3.1940 Y-19.6535
G01 X3.2496 Y-19.5192
G01 X3.2779 Y-19.3767
G01 X3.2779 Y-19.2313
G01 X3.2496 Y-19.0888
G01 X3.1940 Y-18.9545
G01 X3.1132 Y-18.8336
G01 X3.0104 Y-18.7308
G01 X2.8895 Y-18.6500
G01 X2.7552 Y-18.5944
G01 X2.6127 Y-18.5661
G01 X2.4673 Y-18.5661
G01 X2.3248 Y-18.5944
G01 X2.1905 Y-18.6500
G01 X2.0696 Y-18.7308
G01 X1.9668 Y-18.8336
G01 X1.8860 Y-18.9545
G01 X1.8304 Y-19.0888
G01 X1.8021 Y-19.2313
G01 X1.8021 Y-19.3767
G01 X1.9821 Y-19.3590
G01 X2.0035 Y-19.4667
G01 X2.0456 Y-19.5683
G01 X2.1066 Y-19.6597
G01 X2.1843 Y-19.7374
G01 X2.2757 Y-19.7984
G01 X2.3773 Y-19.8405
G01 X2.4850 Y-19.8619
G01 X2.5950 Y-19.8619
G01 X2.7027 Y-19.8405
G01 X2.8043 Y-19.7984
G01 X2.8957 Y-19.7374
G01 X2.9734 Y-19.6597
G01 X3.0344 Y-19.5683
G01 X3.0765 Y-19.4667
G01 X3.0979 Y-19.3590
G01 X3.0979 Y-19.2490
G01 X3.0765 Y-19.1413
G01 X3.0344 Y-19.0397
G01 X2.9734 Y-18.9483
G01 X2.8957 Y-18.8706
G01 X2.8043 Y-18.8096
G01 X2.7027 Y-18.7675
G01 X2.5950 Y-18.7461
G01 X2.4850 Y-18.7461
G01 X2.3773 Y-18.7675
G01 X2.2757 Y-18.8096
G01 X2.1843 Y-18.8706
G01 X2.1066 Y-18.9483
G01 X2.0456 Y-19.0397
G01 X2.0035 Y-19.1413
G01 X1.9821 Y-19.2490
G01 X1.9821 Y-19.3590
G00 Z2.0000
G00 X0.3829 Y-21.1840
G01 F60.00
G01 Z-0.3732
G01 F120.00
G01 X0.3843 Y-21.2113
G01 X0.3883 Y-21.2384
G01 X0.3948 Y-21.2641
G01 X0.4044 Y-21.2910
G01 X0.4151 Y-21.3136
G01 X0.4296 Y-21.3380
G01 X0.4465 Y-21.3606
G01 X0.4628 Y-21.3786
G01 X0.4835 Y-21.3976
G01 X0.5043 Y-21.4132
G01 X0.5123 Y-21.4183
G01 X0.5299 Y-21.4286
G01 X0.5524 Y-21.4393
G01 X0.5796 Y-21.4491
G01 X0.6049 Y-21.4555
G01 X0.6313 Y-21.4596
G01 X0.6600 Y-21.4611
G01 X24.2320 Y-21.4611
G01 X24.2580 Y-21.4598
G01 X24.2841 Y-21.4561
G01 X24.3115 Y-21.4494
G01 X24.3312 Y-21.4426
G01 X24.3448 Y-21.4370
G01 X24.3586 Y-21.4304
G01 X24.3690 Y-21.4247
G01 X24.3883 Y-21.4128
G01 X24.4045 Y-21.4008
G01 X24.4102 Y-21.3961
G01 X24.4253 Y-21.3825
G01 X24.4305 Y-21.3773
G01 X24.4441 Y-21.3622
G01 X24.4507 Y-21.3540
G01 X24.4608 Y-21.3403
G01 X24.4663 Y-21.3317
G01 X24.4771 Y-21.3131
G01 X24.4850 Y-21.2968
G01 X24.4894 Y-21.2865
G01 X24.4962 Y-21.2675
G01 X24.4991 Y-21.2573
G01 X24.5035 Y-21.2392
G01 X24.5078 Y-21.2100
G01 X24.5091 Y-21.1840
G01 X24.5090 Y-11.0389
G01 X24.5076 Y-11.0138
G01 X24.5035 Y-10.9874
G01 X24.4972 Y-10.9623
G01 X24.4895 Y-10.9404
G01 X24.4850 Y-10.9298
G01 X24.4779 Y-10.9148
G01 X24.4663 Y-10.8948
G01 X24.4581 Y-10.8826
G01 X24.4479 Y-10.8689
G01 X24.4414 Y-10.8612
G01 X24.4266 Y-10.8453
G01 X24.4133 Y-10.8332
G01 X24.4053 Y-10.8264
G01 X24.3864 Y-10.8125
G01 X24.3690 Y-10.8018
G01 X24.3611 Y-10.7974
G01 X24.3387 Y-10.7869
G01 X24.3155 Y-10.7784
G01 X24.2900 Y-10.7717
G01 X24.2665 Y-10.7677
G01 X24.2551 Y-10.7665
G01 X24.2357 Y-10.7655
G01 X24.2246 Y-10.7657
G01 X24.2057 Y-10.7667
G01 X24.1773 Y-10.7709
G01 X24.1587 Y-10.7755
G01 X24.1485 Y-10.7784
G01 X24.1328 Y-10.7839
G01 X24.1223 Y-10.7882
G01 X24.1054 Y-10.7961
G01 X24.0950 Y-10.8018
G01 X24.0809 Y-10.8103
G01 X24.0721 Y-10.8164
G01 X24.0554 Y-10.8291
G01 X24.0414 Y-10.8416
G01 X23.0216 Y-11.8612
G01 X23.0085 Y-11.8757
G01 X23.0014 Y-11.8845
G01 X22.9888 Y-11.9019
G01 X22.9777 Y-11.9203
G01 X22.9724 Y-11.9305
G01 X22.9637 Y-11.9494
G01 X22.9572 Y-11.9671
G01 X22.9539 Y-11.9777
G01 X22.9486 Y-11.9993
G01 X22.9452 Y-12.0200
G01 X22.9441 Y-12.0302
G01 X22.9430 Y-12.0545
G01 X22.9430 Y-13.0518
G01 X22.9299 Y-13.1845
G01 X22.8952 Y-13.2990
G01 X22.8388 Y-13.4045
G01 X22.7629 Y-13.4969
G01 X22.6944 Y-13.5532
G01 X22.6783 Y-13.5679
G01 X22.6718 Y-13.5746
G01 X22.6591 Y-13.5889
G01 X22.6467 Y-13.6052
G01 X22.6400 Y-13.6150
G01 X22.6305 Y-13.6310
G01 X22.6252 Y-13.6411
G01 X22.6165 Y-13.6601
G01 X22.6100 Y-13.6778
G01 X22.6066 Y-13.6884
G01 X22.6020 Y-13.7070
G01 X22.5998 Y-13.7184
G01 X22.5973 Y-13.7365
G01 X22.5959 Y-13.7578
G01 X22.5958 Y-13.7689
G01 X22.5968 Y-13.7895
G01 X22.5998 Y-13.8120
G01 X22.6020 Y-13.8234
G01 X22.6076 Y-13.8454
G01 X22.6142 Y-13.8643
G01 X22.6177 Y-13.8732
G01 X22.6270 Y-13.8929
G01 X22.6321 Y-13.9022
G01 X22.6415 Y-13.9177
G01 X22.6467 Y-13.9251
G01 X22.6591 Y-13.9414
G01 X22.6783 Y-13.9624
G01 X22.6944 Y-13.9772
G01 X22.7089 Y-13.9891
G01 X22.8077 Y-14.1095
G01 X22.8812 Y-14.2469
G01 X22.9264 Y-14.3960
G01 X22.9430 Y-14.5646
G01 X22.9430 Y-15.4074
G01 X22.9264 Y-15.5760
G01 X22.8812 Y-15.7251
G01 X22.8077 Y-15.8625
G01 X22.7089 Y-15.9829
G01 X22.5885 Y-16.0817
G01 X22.4511 Y-16.1552
G01 X22.3020 Y-16.2004
G01 X22.1334 Y-16.2170
G01 X21.3205 Y-16.2170
G01 X21.3007 Y-16.2178
G01 X21.2860 Y-16.2192
G01 X21.2623 Y-16.2232
G01 X21.2410 Y-16.2287
G01 X21.2213 Y-16.2354
G01 X21.2114 Y-16.2394
G01 X21.1914 Y-16.2489
G01 X21.1703 Y-16.2612
G01 X21.1605 Y-16.2679
G01 X21.1423 Y-16.2819
G01 X21.1246 Y-16.2982
G01 X18.0283 Y-19.3945
G01 X18.0122 Y-19.4120
G01 X17.9886 Y-19.4406
G01 X17.8428 Y-19.5603
G01 X17.6764 Y-19.6493
G01 X17.4958 Y-19.7041
G01 X17.3080 Y-19.7226
G01 X17.2705 Y-19.7189
G01 X17.2473 Y-19.7179
G01 X14.7287 Y-19.7179
G01 X14.7051 Y-19.7190
G01 X14.6680 Y-19.7226
G01 X14.4802 Y-19.7041
G01 X14.2996 Y-19.6493
G01 X14.1332 Y-19.5603
G01 X13.9874 Y-19.4406
G01 X13.9638 Y-19.4120
G01 X13.9477 Y-19.3945
G01 X13.0036 Y-18.4506
G01 X12.9866 Y-18.4357
G01 X12.9655 Y-18.4203
G01 X12.9443 Y-18.4076
G01 X12.9210 Y-18.3964
G01 X12.8968 Y-18.3875
G01 X12.8742 Y-18.3814
G01 X12.8598 Y-18.3786
G01 X12.8372 Y-18.3756
G01 X12.8130 Y-18.3745
G01 X12.7931 Y-18.3753
G01 X12.7814 Y-18.3763
G01 X12.7578 Y-18.3800
G01 X12.7362 Y-18.3854
G01 X12.7255 Y-18.3887
G01 X12.7049 Y-18.3964
G01 X12.6858 Y-18.4054
G01 X12.6759 Y-18.4109
G01 X12.6592 Y-18.4211
G01 X12.6430 Y-18.4329
G01 X12.6316 Y-18.4422
G01 X12.6150 Y-18.4577
G01 X12.5995 Y-18.4746
G01 X12.5923 Y-18.4836
G01 X12.5788 Y-18.5025
G01 X12.5658 Y-18.5245
G01 X12.5553 Y-18.5469
G01 X12.5468 Y-18.5701
G01 X12.5401 Y-18.5956
G01 X12.5362 Y-18.6191
G01 X12.5349 Y-18.6305
G01 X12.5340 Y-18.6482
G01 X12.5339 Y-18.6757
G01 X12.4818 Y-18.9381
G01 X12.3794 Y-19.1852
G01 X12.2308 Y-19.4076
G01 X12.0416 Y-19.5968
G01 X11.8192 Y-19.7454
G01 X11.5721 Y-19.8478
G01 X11.3097 Y-19.8999
G01 X11.0423 Y-19.8999
G01 X10.7799 Y-19.8478
G01 X10.5328 Y-19.7454
G01 X10.3104 Y-19.5968
G01 X10.0996 Y-19.3861
G01 X10.0794 Y-19.3681
G01 X10.0608 Y-19.3545
G01 X10.0411 Y-19.3424
G01 X10.0281 Y-19.3356
G01 X10.0099 Y-19.3274
G01 X9.9879 Y-19.3196
G01 X9.9655 Y-19.3137
G01 X9.9550 Y-19.3116
G01 X9.9322 Y-19.3084
G01 X9.9087 Y-19.3072
G01 X9.8850 Y-19.3081
G01 X9.8704 Y-19.3095
G01 X9.8502 Y-19.3128
G01 X9.8246 Y-19.3194
G01 X9.8019 Y-19.3275
G01 X9.7815 Y-19.3368
G01 X9.7686 Y-19.3437
G01 X9.7495 Y-19.3556
G01 X9.7304 Y-19.3699
G01 X9.7129 Y-19.3856
G01 X9.5016 Y-19.5968
G01 X9.2792 Y-19.7454
G01 X9.0321 Y-19.8478
G01 X8.7697 Y-19.8999
G01 X8.5023 Y-19.8999
G01 X8.2399 Y-19.8478
G01 X7.9928 Y-19.7454
G01 X7.7704 Y-19.5968
G01 X7.5812 Y-19.4076
G01 X7.4326 Y-19.1852
G01 X7.3302 Y-18.9381
G01 X7.2781 Y-18.6757
G01 X7.2781 Y-18.4083
G01 X7.3302 Y-18.1459
G01 X7.4326 Y-17.8988
G01 X7.5812 Y-17.6764
G01 X7.7704 Y-17.4872
G01 X7.9928 Y-17.3386
G01 X8.1929 Y-17.2557
G01 X8.2109 Y-17.2474
G01 X8.2239 Y-17.2405
G01 X8.2431 Y-17.2285
G01 X8.2631 Y-17.2135
G01 X8.2797 Y-17.1986
G01 X8.2879 Y-17.1903
G01 X8.3003 Y-17.1764
G01 X8.3130 Y-17.1597
G01 X8.3191 Y-17.1508
G01 X8.3308 Y-17.1311
G01 X8.3757 Y-17.0472
G01 X8.4954 Y-16.9014
G01 X8.5239 Y-16.8779
G01 X8.5415 Y-16.8617
G01 X11.5454 Y-13.8578
G01 X11.5614 Y-13.8399
G01 X11.5729 Y-13.8246
G01 X11.5790 Y-13.8157
G01 X11.5892 Y-13.7988
G01 X11.5927 Y-13.7923
G01 X11.6014 Y-13.7739
G01 X11.6054 Y-13.7638
G01 X11.6120 Y-13.7449
G01 X11.6179 Y-13.7220
G01 X11.6619 Y-13.5010
G01 X11.7831 Y-13.2084
G01 X11.9590 Y-12.9450
G01 X12.1830 Y-12.7210
G01 X12.4464 Y-12.5451
G01 X12.7390 Y-12.4239
G01 X13.0496 Y-12.3621
G01 X13.3664 Y-12.3621
G01 X13.6770 Y-12.4239
G01 X13.7623 Y-12.4590
G01 X13.7846 Y-12.4665
G01 X13.8034 Y-12.4713
G01 X13.8146 Y-12.4733
G01 X13.8354 Y-12.4762
G01 X13.8539 Y-12.4772
G01 X13.8650 Y-12.4774
G01 X13.8874 Y-12.4762
G01 X13.9120 Y-12.4728
G01 X13.9224 Y-12.4705
G01 X13.9416 Y-12.4656
G01 X13.9637 Y-12.4579
G01 X13.9739 Y-12.4535
G01 X13.9915 Y-12.4450
G01 X14.0088 Y-12.4349
G01 X14.0175 Y-12.4293
G01 X14.0345 Y-12.4167
G01 X14.0424 Y-12.4101
G01 X14.0572 Y-12.3964
G01 X14.0705 Y-12.3821
G01 X14.0778 Y-12.3733
G01 X14.0905 Y-12.3563
G01 X14.0954 Y-12.3486
G01 X14.1059 Y-12.3308
G01 X14.1142 Y-12.3138
G01 X14.1182 Y-12.3045
G01 X14.1240 Y-12.2885
G01 X14.1275 Y-12.2777
G01 X14.1322 Y-12.2589
G01 X14.1343 Y-12.2480
G01 X14.1373 Y-12.2268
G01 X14.1384 Y-12.2063
G01 X14.1397 Y-11.8341
G01 X14.3480 Y-11.8341
G01 X14.3482 Y-12.6882
G01 X14.3496 Y-12.7016
G01 X14.3523 Y-12.7157
G01 X14.3558 Y-12.7276
G01 X14.3612 Y-12.7416
G01 X14.3665 Y-12.7521
G01 X14.3740 Y-12.7644
G01 X14.3822 Y-12.7753
G01 X14.3919 Y-12.7861
G01 X14.4027 Y-12.7958
G01 X14.4136 Y-12.8040
G01 X14.4259 Y-12.8115
G01 X14.4364 Y-12.8168
G01 X14.4504 Y-12.8222
G01 X14.4623 Y-12.8257
G01 X14.4764 Y-12.8284
G01 X14.4898 Y-12.8298
G01 X15.3439 Y-12.8300
G01 X15.3439 Y-13.0383
G01 X14.9717 Y-13.0396
G01 X14.9512 Y-13.0407
G01 X14.9263 Y-13.0443
G01 X14.9036 Y-13.0496
G01 X14.8895 Y-13.0540
G01 X14.8693 Y-13.0615
G01 X14.8501 Y-13.0706
G01 X14.8401 Y-13.0761
G01 X14.8217 Y-13.0875
G01 X14.8047 Y-13.1002
G01 X14.7959 Y-13.1075
G01 X14.7816 Y-13.1208
G01 X14.7660 Y-13.1378
G01 X14.7586 Y-13.1470
G01 X14.7462 Y-13.1642
G01 X14.7348 Y-13.1832
G01 X14.7298 Y-13.1929
G01 X14.7215 Y-13.2110
G01 X14.7135 Y-13.2329
G01 X14.7105 Y-13.2435
G01 X14.7052 Y-13.2660
G01 X14.7018 Y-13.2906
G01 X14.7006 Y-13.3166
G01 X14.7018 Y-13.3426
G01 X14.7060 Y-13.3713
G01 X14.7125 Y-13.3968
G01 X14.7190 Y-13.4157
G01 X14.7541 Y-13.5010
G01 X14.8159 Y-13.8116
G01 X14.8159 Y-14.1284
G01 X14.7541 Y-14.4390
G01 X14.6390 Y-14.7170
G01 X14.6309 Y-14.7392
G01 X14.6279 Y-14.7497
G01 X14.6234 Y-14.7683
G01 X14.6191 Y-14.7970
G01 X14.6179 Y-14.8230
G01 X14.6187 Y-14.8428
G01 X14.6196 Y-14.8533
G01 X14.6234 Y-14.8778
G01 X14.6279 Y-14.8964
G01 X14.6309 Y-14.9069
G01 X14.6376 Y-14.9255
G01 X14.6404 Y-14.9323
G01 X14.6491 Y-14.9507
G01 X14.6526 Y-14.9572
G01 X14.6649 Y-14.9774
G01 X14.6763 Y-14.9930
G01 X14.6830 Y-15.0014
G01 X14.6965 Y-15.0163
G01 X14.7017 Y-15.0215
G01 X14.7166 Y-15.0350
G01 X14.7250 Y-15.0417
G01 X14.7439 Y-15.0552
G01 X14.7608 Y-15.0654
G01 X14.7709 Y-15.0707
G01 X14.7892 Y-15.0791
G01 X14.8076 Y-15.0858
G01 X14.8182 Y-15.0892
G01 X14.8337 Y-15.0932
G01 X14.8442 Y-15.0954
G01 X14.8647 Y-15.0984
G01 X14.8913 Y-15.1000
G01 X14.9023 Y-15.0999
G01 X14.9210 Y-15.0989
G01 X14.9457 Y-15.0954
G01 X14.9562 Y-15.0932
G01 X14.9752 Y-15.0882
G01 X14.9993 Y-15.0797
G01 X15.2790 Y-14.9639
G01 X15.5896 Y-14.9021
G01 X15.8864 Y-14.9021
G01 X15.9125 Y-14.9008
G01 X15.9332 Y-14.8980
G01 X15.9444 Y-14.8959
G01 X15.9667 Y-14.8902
G01 X15.9856 Y-14.8836
G01 X15.9957 Y-14.8796
G01 X16.0178 Y-14.8690
G01 X16.0342 Y-14.8593
G01 X16.0437 Y-14.8531
G01 X16.0617 Y-14.8396
G01 X16.0824 Y-14.8209
G01 X17.4378 Y-13.4655
G01 X17.4534 Y-13.4484
G01 X17.4605 Y-13.4396
G01 X17.4731 Y-13.4221
G01 X17.4842 Y-13.4038
G01 X17.4895 Y-13.3936
G01 X17.4982 Y-13.3747
G01 X17.5047 Y-13.3570
G01 X17.5080 Y-13.3464
G01 X17.5134 Y-13.3248
G01 X17.5167 Y-13.3041
G01 X17.5178 Y-13.2939
G01 X17.5189 Y-13.2733
G01 X17.5187 Y-13.2622
G01 X17.5174 Y-13.2409
G01 X17.5148 Y-13.2228
G01 X17.5127 Y-13.2114
G01 X17.5069 Y-13.1889
G01 X17.5296 Y-13.1947
G01 X17.5408 Y-13.1968
G01 X17.5613 Y-13.1997
G01 X17.5839 Y-13.2009
G01 X17.5950 Y-13.2007
G01 X17.6139 Y-13.1997
G01 X17.6384 Y-13.1962
G01 X17.6488 Y-13.1940
G01 X17.6671 Y-13.1893
G01 X17.6906 Y-13.1810
G01 X17.7004 Y-13.1768
G01 X17.7207 Y-13.1668
G01 X17.7387 Y-13.1561
G01 X17.7476 Y-13.1500
G01 X17.7642 Y-13.1373
G01 X17.7808 Y-13.1224
G01 X19.0917 Y-11.8115
G01 X19.1079 Y-11.7938
G01 X19.1314 Y-11.7654
G01 X19.1824 Y-11.7234
G01 X19.1946 Y-11.7125
G01 X19.2029 Y-11.7043
G01 X19.2178 Y-11.6877
G01 X19.2301 Y-11.6714
G01 X19.2368 Y-11.6616
G01 X19.2464 Y-11.6457
G01 X19.2517 Y-11.6355
G01 X19.2591 Y-11.6195
G01 X19.2687 Y-11.5931
G01 X19.3252 Y-11.4875
G01 X19.4011 Y-11.3951
G01 X19.4935 Y-11.3192
G01 X19.5990 Y-11.2628
G01 X19.7135 Y-11.2281
G01 X19.8462 Y-11.2150
G01 X20.8435 Y-11.2150
G01 X20.8666 Y-11.2140
G01 X20.8739 Y-11.2133
G01 X20.8943 Y-11.2103
G01 X20.9168 Y-11.2050
G01 X20.9270 Y-11.2021
G01 X20.9427 Y-11.1966
G01 X20.9563 Y-11.1909
G01 X20.9766 Y-11.1809
G01 X20.9979 Y-11.1680
G01 X21.0202 Y-11.1514
G01 X21.0394 Y-11.1338
G01 X21.8333 Y-10.3400
G01 X21.8467 Y-10.3254
G01 X21.8533 Y-10.3177
G01 X21.8661 Y-10.3004
G01 X21.8781 Y-10.2811
G01 X21.8832 Y-10.2718
G01 X21.8925 Y-10.2521
G01 X21.9002 Y-10.2315
G01 X21.9036 Y-10.2209
G01 X21.9089 Y-10.1992
G01 X21.9122 Y-10.1785
G01 X21.9134 Y-10.1683
G01 X21.9144 Y-10.1441
G01 X21.9136 Y-10.1243
G01 X21.9126 Y-10.1125
G01 X21.9095 Y-10.0920
G01 X21.9045 Y-10.0707
G01 X21.9014 Y-10.0602
G01 X21.8937 Y-10.0390
G01 X21.8850 Y-10.0200
G01 X21.8797 Y-10.0099
G01 X21.8687 Y-9.9915
G01 X21.8561 Y-9.9741
G01 X21.8490 Y-9.9652
G01 X21.8341 Y-9.9490
G01 X21.8164 Y-9.9326
G01 X21.8073 Y-9.9254
G01 X21.7918 Y-9.9140
G01 X21.7705 Y-9.9011
G01 X21.7501 Y-9.8911
G01 X21.7403 Y-9.8869
G01 X21.7169 Y-9.8787
G01 X21.6986 Y-9.8739
G01 X21.6881 Y-9.8717
G01 X21.6637 Y-9.8683
G01 X21.6374 Y-9.8670
G01 X20.0306 Y-9.8670
G01 X19.8620 Y-9.8504
G01 X19.7129 Y-9.8052
G01 X19.5755 Y-9.7317
G01 X19.4551 Y-9.6329
G01 X19.3563 Y-9.5125
G01 X19.2828 Y-9.3751
G01 X19.2376 Y-9.2260
G01 X19.2210 Y-9.0574
G01 X19.2210 Y-8.2146
G01 X19.2376 Y-8.0460
G01 X19.2828 Y-7.8969
G01 X19.3563 Y-7.7595
G01 X19.4551 Y-7.6391
G01 X19.5269 Y-7.5802
G01 X19.5457 Y-7.5632
G01 X19.5645 Y-7.5427
G01 X19.5772 Y-7.5259
G01 X19.5824 Y-7.5185
G01 X19.5942 Y-7.4989
G01 X19.6041 Y-7.4788
G01 X19.6081 Y-7.4694
G01 X19.6162 Y-7.4466
G01 X19.6227 Y-7.4210
G01 X19.6259 Y-7.4005
G01 X19.6274 Y-7.3858
G01 X19.6281 Y-7.3623
G01 X19.6267 Y-7.3373
G01 X19.6233 Y-7.3141
G01 X19.6172 Y-7.2890
G01 X19.6097 Y-7.2668
G01 X19.6041 Y-7.2532
G01 X19.5936 Y-7.2321
G01 X19.5839 Y-7.2159
G01 X19.5797 Y-7.2094
G01 X19.5645 Y-7.1893
G01 X19.5479 Y-7.1709
G01 X19.5295 Y-7.1540
G01 X19.4842 Y-7.1168
G01 X19.4657 Y-7.1029
G01 X19.4562 Y-7.0967
G01 X19.4415 Y-7.0880
G01 X19.4212 Y-7.0780
G01 X19.4076 Y-7.0724
G01 X19.3849 Y-7.0647
G01 X19.3632 Y-7.0594
G01 X19.3429 Y-7.0562
G01 X19.3322 Y-7.0550
G01 X19.3085 Y-7.0539
G01 X16.5109 Y-7.0540
G01 X16.4859 Y-7.0553
G01 X16.4628 Y-7.0586
G01 X16.4402 Y-7.0639
G01 X16.4261 Y-7.0682
G01 X16.4068 Y-7.0753
G01 X16.3845 Y-7.0859
G01 X16.3625 Y-7.0988
G01 X16.3436 Y-7.1123
G01 X16.3345 Y-7.1196
G01 X16.3176 Y-7.1351
G01 X14.0532 Y-9.3998
G01 X14.0396 Y-9.4151
G01 X14.0280 Y-9.4304
G01 X14.0219 Y-9.4393
G01 X14.0102 Y-9.4591
G01 X13.9996 Y-9.4811
G01 X13.9955 Y-9.4912
G01 X13.9890 Y-9.5102
G01 X13.9833 Y-9.5324
G01 X13.9812 Y-9.5436
G01 X13.9783 Y-9.5644
G01 X13.9771 Y-9.5867
G01 X13.9773 Y-9.5978
G01 X13.9783 Y-9.6164
G01 X13.9812 Y-9.6372
G01 X13.9833 Y-9.6484
G01 X13.9891 Y-9.6711
G01 X13.9664 Y-9.6653
G01 X13.9552 Y-9.6632
G01 X13.9344 Y-9.6603
G01 X13.9158 Y-9.6593
G01 X13.9047 Y-9.6591
G01 X13.8824 Y-9.6603
G01 X13.8537 Y-9.6646
G01 X13.8316 Y-9.6700
G01 X13.8210 Y-9.6733
G01 X13.8027 Y-9.6801
G01 X13.7844 Y-9.6885
G01 X13.7742 Y-9.6938
G01 X13.7540 Y-9.7061
G01 X13.7384 Y-9.7175
G01 X13.7300 Y-9.7242
G01 X13.7125 Y-9.7402
G01 X12.6151 Y-10.8376
G01 X12.5990 Y-10.8552
G01 X12.5923 Y-10.8636
G01 X12.5810 Y-10.8791
G01 X12.5670 Y-10.9022
G01 X12.5549 Y-10.9278
G01 X12.5469 Y-10.9497
G01 X12.5439 Y-10.9602
G01 X12.5386 Y-10.9828
G01 X12.5352 Y-11.0075
G01 X12.5340 Y-11.0282
G01 X12.5339 Y-11.0557
G01 X12.4818 Y-11.3181
G01 X12.3794 Y-11.5652
G01 X12.2308 Y-11.7876
G01 X12.0416 Y-11.9768
G01 X11.8192 Y-12.1254
G01 X11.6191 Y-12.2083
G01 X11.6011 Y-12.2166
G01 X11.5881 Y-12.2235
G01 X11.5679 Y-12.2361
G01 X11.5498 Y-12.2497
G01 X11.5319 Y-12.2658
G01 X11.5241 Y-12.2737
G01 X11.5106 Y-12.2890
G01 X11.4990 Y-12.3043
G01 X11.4929 Y-12.3132
G01 X11.4812 Y-12.3329
G01 X11.4363 Y-12.4168
G01 X11.3166 Y-12.5626
G01 X11.2882 Y-12.5861
G01 X11.2705 Y-12.6023
G01 X9.0143 Y-14.8585
G01 X8.9981 Y-14.8761
G01 X8.9746 Y-14.9046
G01 X8.8288 Y-15.0243
G01 X8.6624 Y-15.1133
G01 X8.4818 Y-15.1681
G01 X8.2940 Y-15.1866
G01 X8.2569 Y-15.1830
G01 X8.2333 Y-15.1819
G01 X5.9523 Y-15.1819
G01 X5.9263 Y-15.1832
G01 X5.8978 Y-15.1873
G01 X5.8717 Y-15.1939
G01 X5.8531 Y-15.2004
G01 X5.8430 Y-15.2044
G01 X5.8252 Y-15.2129
G01 X5.8153 Y-15.2183
G01 X5.7979 Y-15.2290
G01 X5.7763 Y-15.2450
G01 X5.7590 Y-15.2605
G01 X5.7468 Y-15.2734
G01 X5.6525 Y-15.3508
G01 X5.5470 Y-15.4072
G01 X5.4325 Y-15.4419
G01 X5.2998 Y-15.4550
G01 X2.8282 Y-15.4550
G01 X2.6955 Y-15.4419
G01 X2.5810 Y-15.4072
G01 X2.4755 Y-15.3508
G01 X2.3831 Y-15.2749
G01 X2.3072 Y-15.1825
G01 X2.2508 Y-15.0770
G01 X2.2161 Y-14.9625
G01 X2.2030 Y-14.8298
G01 X2.2030 Y-13.6182
G01 X2.2161 Y-13.4855
G01 X2.2508 Y-13.3710
G01 X2.3072 Y-13.2655
G01 X2.3566 Y-13.2053
G01 X2.3709 Y-13.1863
G01 X2.3768 Y-13.1772
G01 X2.3864 Y-13.1608
G01 X2.3970 Y-13.1388
G01 X2.4011 Y-13.1287
G01 X2.4076 Y-13.1097
G01 X2.4142 Y-13.0836
G01 X2.4182 Y-13.0569
G01 X2.4195 Y-13.0295
G01 X2.4187 Y-13.0097
G01 X2.4178 Y-12.9986
G01 X2.4149 Y-12.9791
G01 X2.4126 Y-12.9683
G01 X2.4076 Y-12.9493
G01 X2.4011 Y-12.9303
G01 X2.3970 Y-12.9202
G01 X2.3882 Y-12.9015
G01 X2.3832 Y-12.8925
G01 X2.3728 Y-12.8756
G01 X2.3567 Y-12.8538
G01 X2.3434 Y-12.8389
G01 X2.3357 Y-12.8310
G01 X2.3207 Y-12.8174
G01 X2.3097 Y-12.8083
G01 X2.2649 Y-12.7538
G01 X2.2317 Y-12.6916
G01 X2.2112 Y-12.6242
G01 X2.2031 Y-12.5411
G01 X2.2054 Y-12.0881
G01 X2.4140 Y-12.0881
G01 X2.4141 Y-12.1230
G01 X2.4163 Y-12.1690
G01 X2.4172 Y-12.1801
G01 X2.4252 Y-12.2332
G01 X2.4372 Y-12.2817
G01 X2.4403 Y-12.2922
G01 X2.4584 Y-12.3426
G01 X2.4838 Y-12.3960
G01 X2.5126 Y-12.4440
G01 X2.5445 Y-12.4872
G01 X2.5516 Y-12.4957
G01 X2.5853 Y-12.5327
G01 X2.6223 Y-12.5664
G01 X2.6337 Y-12.5757
G01 X2.6706 Y-12.6030
G01 X2.6802 Y-12.6093
G01 X2.7234 Y-12.6350
G01 X2.7754 Y-12.6596
G01 X2.8294 Y-12.6789
G01 X2.8843 Y-12.6927
G01 X2.9427 Y-12.7013
G01 X2.9990 Y-12.7040
G01 X5.1290 Y-12.7040
G01 X5.1790 Y-12.7017
G01 X5.1936 Y-12.7003
G01 X5.2435 Y-12.6927
G01 X5.2917 Y-12.6808
G01 X5.3058 Y-12.6765
G01 X5.3526 Y-12.6596
G01 X5.3982 Y-12.6382
G01 X5.4112 Y-12.6313
G01 X5.4545 Y-12.6051
G01 X5.4943 Y-12.5757
G01 X5.5057 Y-12.5664
G01 X5.5427 Y-12.5327
G01 X5.5764 Y-12.4957
G01 X5.5857 Y-12.4843
G01 X5.6157 Y-12.4436
G01 X5.6413 Y-12.4012
G01 X5.6482 Y-12.3882
G01 X5.6696 Y-12.3426
G01 X5.6865 Y-12.2958
G01 X5.6899 Y-12.2852
G01 X5.7026 Y-12.2338
G01 X5.7103 Y-12.1836
G01 X5.7117 Y-12.1690
G01 X5.7140 Y-12.1217
G01 X5.7140 Y-11.2490
G01 X5.7112 Y-11.1914
G01 X5.7040 Y-11.1421
G01 X5.7011 Y-11.1277
G01 X5.6889 Y-11.0794
G01 X5.6696 Y-11.0254
G01 X5.6482 Y-10.9798
G01 X5.6413 Y-10.9668
G01 X5.6151 Y-10.9235
G01 X5.5857 Y-10.8837
G01 X5.5764 Y-10.8723
G01 X5.5427 Y-10.8353
G01 X5.5057 Y-10.8016
G01 X5.4943 Y-10.7923
G01 X5.4545 Y-10.7629
G01 X5.4112 Y-10.7367
G01 X5.3982 Y-10.7298
G01 X5.3526 Y-10.7084
G01 X5.2990 Y-10.6892
G01 X5.2503 Y-10.6769
G01 X5.2359 Y-10.6740
G01 X5.1936 Y-10.6677
G01 X5.1790 Y-10.6663
G01 X5.1290 Y-10.6640
G01 X4.4681 Y-10.6640
G01 X4.4681 Y-10.4525
G01 X4.4794 Y-10.4411
G01 X4.4991 Y-10.4337
G01 X4.5149 Y-10.4263
G01 X4.5243 Y-10.4214
G01 X4.5437 Y-10.4096
G01 X4.5641 Y-10.3947
G01 X4.5813 Y-10.3796
G01 X4.5916 Y-10.3692
G01 X4.6070 Y-10.3516
G01 X4.6211 Y-10.3322
G01 X4.6350 Y-10.3090
G01 X4.6450 Y-10.2879
G01 X4.6533 Y-10.2660
G01 X4.6575 Y-10.2519
G01 X4.6627 Y-10.2295
G01 X4.6661 Y-10.2062
G01 X4.6674 Y-10.1817
G01 X4.6664 Y-10.1558
G01 X4.6652 Y-10.1443
G01 X4.6627 Y-10.1280
G01 X4.6612 Y-10.1208
G01 X4.6565 Y-10.1020
G01 X4.6531 Y-10.0914
G01 X4.6464 Y-10.0731
G01 X4.6362 Y-10.0511
G01 X4.6327 Y-10.0447
G01 X4.6226 Y-10.0278
G01 X4.6082 Y-10.0078
G01 X4.5337 Y-9.9168
G01 X4.4447 Y-9.7504
G01 X4.4351 Y-9.7189
G01 X4.4286 Y-9.7008
G01 X4.4258 Y-9.6940
G01 X4.4152 Y-9.6719
G01 X4.4055 Y-9.6555
G01 X4.3993 Y-9.6460
G01 X4.3874 Y-9.6300
G01 X4.3806 Y-9.6219
G01 X4.3671 Y-9.6073
G01 X4.3526 Y-9.5939
G01 X4.2261 Y-9.4899
G01 X4.1249 Y-9.3666
G01 X4.1113 Y-9.3515
G01 X4.1060 Y-9.3463
G01 X4.0913 Y-9.3329
G01 X4.0856 Y-9.3283
G01 X4.0640 Y-9.3127
G01 X4.0465 Y-9.3022
G01 X4.0400 Y-9.2987
G01 X4.0220 Y-9.2902
G01 X4.0119 Y-9.2862
G01 X3.9932 Y-9.2797
G01 X3.9656 Y-9.2713
G01 X3.7992 Y-9.1823
G01 X3.6534 Y-9.0626
G01 X3.6293 Y-9.0334
G01 X3.6137 Y-9.0165
G01 X2.6995 Y-8.1023
G01 X2.6818 Y-8.0861
G01 X2.6534 Y-8.0626
G01 X2.5336 Y-7.9168
G01 X2.4447 Y-7.7503
G01 X2.3899 Y-7.5698
G01 X2.3714 Y-7.3820
G01 X2.3750 Y-7.3446
G01 X2.3761 Y-7.3213
G01 X2.3761 Y-4.7813
G01 X2.3750 Y-4.7580
G01 X2.3714 Y-4.7207
G01 X2.3899 Y-4.5329
G01 X2.4466 Y-4.3459
G01 X2.4559 Y-4.3202
G01 X2.4618 Y-4.2971
G01 X2.4638 Y-4.2863
G01 X2.4661 Y-4.2705
G01 X2.4671 Y-4.2594
G01 X2.4679 Y-4.2395
G01 X2.4671 Y-4.2197
G01 X2.4661 Y-4.2086
G01 X2.4633 Y-4.1892
G01 X2.4618 Y-4.1820
G01 X2.4570 Y-4.1626
G01 X2.4548 Y-4.1555
G01 X2.4482 Y-4.1371
G01 X2.4385 Y-4.1155
G01 X2.4334 Y-4.1056
G01 X2.4251 Y-4.0918
G01 X2.4170 Y-4.0796
G01 X2.4045 Y-4.0632
G01 X2.3867 Y-4.0436
G01 X2.3664 Y-4.0253
G01 X2.3456 Y-4.0097
G01 X2.3246 Y-3.9969
G01 X2.3148 Y-3.9919
G01 X2.2966 Y-3.9834
G01 X2.2711 Y-3.9743
G01 X2.2449 Y-3.9678
G01 X2.1147 Y-3.9419
G01 X1.8494 Y-3.8320
G01 X1.6106 Y-3.6725
G01 X1.4075 Y-3.4694
G01 X1.2480 Y-3.2306
G01 X1.1381 Y-2.9653
G01 X1.0821 Y-2.6836
G01 X1.0821 Y-2.3964
G01 X1.1381 Y-2.1147
G01 X1.2480 Y-1.8494
G01 X1.4075 Y-1.6106
G01 X1.6106 Y-1.4075
G01 X1.8494 Y-1.2480
G01 X2.1147 Y-1.1381
G01 X2.3964 Y-1.0821
G01 X2.6836 Y-1.0821
G01 X2.9653 Y-1.1381
G01 X3.2306 Y-1.2480
G01 X3.4694 Y-1.4075
G01 X3.6725 Y-1.6106
G01 X3.8320 Y-1.8494
G01 X3.9419 Y-2.1147
G01 X3.9481 Y-2.1459
G01 X3.9530 Y-2.1653
G01 X3.9564 Y-2.1760
G01 X3.9631 Y-2.1943
G01 X3.9715 Y-2.2126
G01 X3.9766 Y-2.2223
G01 X3.9894 Y-2.2433
G01 X4.0005 Y-2.2585
G01 X4.0073 Y-2.2671
G01 X4.0207 Y-2.2818
G01 X4.0259 Y-2.2870
G01 X4.0403 Y-2.3001
G01 X4.0460 Y-2.3048
G01 X4.0624 Y-2.3170
G01 X4.0686 Y-2.3211
G01 X4.0853 Y-2.3311
G01 X4.0952 Y-2.3362
G01 X4.1135 Y-2.3446
G01 X4.1386 Y-2.3536
G01 X4.1654 Y-2.3603
G01 X4.1918 Y-2.3643
G01 X4.2192 Y-2.3656
G01 X4.2390 Y-2.3648
G01 X4.2537 Y-2.3634
G01 X4.2767 Y-2.3596
G01 X4.2998 Y-2.3536
G01 X4.3249 Y-2.3446
G01 X4.3466 Y-2.3346
G01 X4.3669 Y-2.3229
G01 X4.3759 Y-2.3170
G01 X4.3924 Y-2.3048
G01 X4.3981 Y-2.3001
G01 X4.4125 Y-2.2870
G01 X4.4177 Y-2.2818
G01 X4.4313 Y-2.2668
G01 X4.4530 Y-2.2404
G01 X4.5716 Y-2.1431
G01 X4.5891 Y-2.1274
G01 X4.5968 Y-2.1195
G01 X4.6101 Y-2.1045
G01 X4.6239 Y-2.0862
G01 X4.6301 Y-2.0766
G01 X4.6419 Y-2.0562
G01 X4.6519 Y-2.0346
G01 X4.6601 Y-2.0120
G01 X4.6883 Y-1.9192
G01 X4.7793 Y-1.7489
G01 X4.9017 Y-1.5997
G01 X5.0509 Y-1.4773
G01 X5.2212 Y-1.3863
G01 X5.4059 Y-1.3303
G01 X5.6116 Y-1.3100
G01 X6.8344 Y-1.3100
G01 X7.0401 Y-1.3303
G01 X7.2248 Y-1.3863
G01 X7.3951 Y-1.4773
G01 X7.5443 Y-1.5997
G01 X7.6667 Y-1.7489
G01 X7.7577 Y-1.9192
G01 X7.8137 Y-2.1039
G01 X7.8340 Y-2.3096
G01 X7.8340 Y-3.5324
G01 X7.8137 Y-3.7381
G01 X7.7577 Y-3.9228
G01 X7.6667 Y-4.0931
G01 X7.5443 Y-4.2423
G01 X7.3951 Y-4.3647
G01 X7.2248 Y-4.4557
G01 X7.0401 Y-4.5117
G01 X6.8344 Y-4.5320
G01 X6.8060 Y-4.5334
G01 X6.7866 Y-4.5361
G01 X6.7755 Y-4.5381
G01 X6.7528 Y-4.5440
G01 X6.7276 Y-4.5530
G01 X6.7032 Y-4.5645
G01 X6.6790 Y-4.5790
G01 X6.6574 Y-4.5951
G01 X6.6428 Y-4.6081
G01 X6.6324 Y-4.6185
G01 X6.6170 Y-4.6361
G01 X6.6033 Y-4.6547
G01 X6.5907 Y-4.6754
G01 X6.5804 Y-4.6963
G01 X6.5748 Y-4.7099
G01 X6.5683 Y-4.7285
G01 X6.5617 Y-4.7546
G01 X6.5577 Y-4.7817
G01 X6.5565 Y-4.8017
G01 X6.5565 Y-4.8164
G01 X6.5581 Y-4.8400
G01 X6.5617 Y-4.8635
G01 X6.5672 Y-4.8861
G01 X6.5694 Y-4.8931
G01 X6.5760 Y-4.9115
G01 X6.5857 Y-4.9331
G01 X6.6282 Y-5.0130
G01 X6.6783 Y-5.1782
G01 X6.6804 Y-5.1893
G01 X6.6863 Y-5.2121
G01 X6.6952 Y-5.2372
G01 X6.7068 Y-5.2617
G01 X6.7191 Y-5.2825
G01 X6.7232 Y-5.2887
G01 X6.7349 Y-5.3044
G01 X6.7503 Y-5.3220
G01 X9.2705 Y-7.8424
G01 X9.2882 Y-7.8586
G01 X9.3166 Y-7.8820
G01 X9.4363 Y-8.0279
G01 X9.5253 Y-8.1943
G01 X9.5801 Y-8.3749
G01 X9.5986 Y-8.5627
G01 X9.5950 Y-8.5998
G01 X9.5939 Y-8.6233
G01 X9.5939 Y-9.8448
G01 X9.5947 Y-9.8646
G01 X9.5956 Y-9.8750
G01 X9.5980 Y-9.8916
G01 X9.6001 Y-9.9028
G01 X9.6048 Y-9.9216
G01 X9.6069 Y-9.9286
G01 X9.6136 Y-9.9472
G01 X9.6164 Y-9.9540
G01 X9.6270 Y-9.9761
G01 X9.6367 Y-9.9925
G01 X9.6429 Y-10.0020
G01 X9.6564 Y-10.0201
G01 X9.6724 Y-10.0379
G01 X9.7142 Y-10.0797
G01 X9.7266 Y-10.0908
G01 X9.7356 Y-10.0982
G01 X9.7544 Y-10.1117
G01 X9.7783 Y-10.1256
G01 X9.8035 Y-10.1372
G01 X9.8266 Y-10.1452
G01 X9.8547 Y-10.1520
G01 X9.8804 Y-10.1556
G01 X9.9066 Y-10.1568
G01 X9.9326 Y-10.1555
G01 X9.9538 Y-10.1526
G01 X9.9647 Y-10.1505
G01 X9.9874 Y-10.1446
G01 X10.0058 Y-10.1381
G01 X10.0193 Y-10.1325
G01 X10.0375 Y-10.1236
G01 X10.0540 Y-10.1139
G01 X10.0662 Y-10.1057
G01 X10.0827 Y-10.0932
G01 X10.1019 Y-10.0757
G01 X10.3104 Y-9.8672
G01 X10.5328 Y-9.7186
G01 X10.7799 Y-9.6162
G01 X11.0423 Y-9.5641
G01 X11.0698 Y-9.5640
G01 X11.0905 Y-9.5628
G01 X11.1152 Y-9.5594
G01 X11.1378 Y-9.5541
G01 X11.1483 Y-9.5511
G01 X11.1702 Y-9.5431
G01 X11.1958 Y-9.5310
G01 X11.2189 Y-9.5170
G01 X11.2344 Y-9.5057
G01 X11.2428 Y-9.4990
G01 X11.2604 Y-9.4829
G01 X15.2817 Y-5.4615
G01 X15.2979 Y-5.4439
G01 X15.3214 Y-5.4154
G01 X15.4672 Y-5.2957
G01 X15.6336 Y-5.2067
G01 X15.8142 Y-5.1519
G01 X16.0020 Y-5.1334
G01 X16.0399 Y-5.1371
G01 X16.0627 Y-5.1381
G01 X19.2813 Y-5.1379
G01 X19.3016 Y-5.1367
G01 X19.3207 Y-5.1340
G01 X19.3319 Y-5.1319
G01 X19.3503 Y-5.1273
G01 X19.3613 Y-5.1238
G01 X19.3806 Y-5.1167
G01 X19.3979 Y-5.1087
G01 X19.4070 Y-5.1040
G01 X19.4283 Y-5.0910
G01 X19.4439 Y-5.0797
G01 X19.4529 Y-5.0724
G01 X19.4685 Y-5.0582
G01 X19.4749 Y-5.0516
G01 X19.4893 Y-5.0353
G01 X19.5027 Y-5.0173
G01 X19.5082 Y-5.0087
G01 X19.5188 Y-4.9906
G01 X19.5278 Y-4.9719
G01 X19.5325 Y-4.9602
G01 X19.5390 Y-4.9416
G01 X19.5448 Y-4.9191
G01 X19.5469 Y-4.9078
G01 X19.5499 Y-4.8853
G01 X19.5509 Y-4.8647
G01 X19.5508 Y-4.8536
G01 X19.5495 Y-4.8323
G01 X19.5461 Y-4.8091
G01 X19.5440 Y-4.7998
G01 X19.5390 Y-4.7804
G01 X19.5314 Y-4.7589
G01 X19.5269 Y-4.7482
G01 X19.5182 Y-4.7302
G01 X19.5068 Y-4.7109
G01 X19.5000 Y-4.7011
G01 X19.4873 Y-4.6843
G01 X19.4707 Y-4.6659
G01 X19.4523 Y-4.6490
G01 X19.3992 Y-4.6054
G01 X19.3883 Y-4.5938
G01 X19.3750 Y-4.5816
G01 X19.3670 Y-4.5749
G01 X19.3509 Y-4.5629
G01 X19.3414 Y-4.5567
G01 X19.3228 Y-4.5459
G01 X19.3034 Y-4.5366
G01 X19.2929 Y-4.5324
G01 X19.2732 Y-4.5256
G01 X19.2549 Y-4.5209
G01 X19.2445 Y-4.5186
G01 X19.2214 Y-4.5153
G01 X19.1937 Y-4.5139
G01 X17.1915 Y-4.5139
G01 X17.1657 Y-4.5151
G01 X16.9944 Y-4.5320
G01 X15.7716 Y-4.5320
G01 X15.5659 Y-4.5117
G01 X15.3812 Y-4.4557
G01 X15.2109 Y-4.3647
G01 X15.0617 Y-4.2423
G01 X14.9393 Y-4.0931
G01 X14.8483 Y-3.9228
G01 X14.7923 Y-3.7381
G01 X14.7720 Y-3.5324
G01 X14.7720 Y-2.3096
G01 X14.7923 Y-2.1039
G01 X14.8483 Y-1.9192
G01 X14.9393 Y-1.7489
G01 X15.0617 Y-1.5997
G01 X15.2109 Y-1.4773
G01 X15.3812 Y-1.3863
G01 X15.5659 Y-1.3303
G01 X15.7716 Y-1.3100
G01 X16.9944 Y-1.3100
G01 X17.2001 Y-1.3303
G01 X17.3848 Y-1.3863
G01 X17.5551 Y-1.4773
G01 X17.7043 Y-1.5997
G01 X17.8267 Y-1.7489
G01 X17.9177 Y-1.9192
G01 X17.9737 Y-2.1039
G01 X17.9940 Y-2.3096
G01 X17.9942 Y-2.3284
G01 X17.9951 Y-2.3453
G01 X17.9962 Y-2.3555
G01 X17.9995 Y-2.3761
G01 X18.0059 Y-2.4012
G01 X18.0147 Y-2.4261
G01 X18.0235 Y-2.4452
G01 X18.0285 Y-2.4549
G01 X18.0402 Y-2.4742
G01 X18.0524 Y-2.4910
G01 X18.0596 Y-2.4999
G01 X18.0743 Y-2.5161
G01 X18.0897 Y-2.5304
G01 X18.0975 Y-2.5370
G01 X18.1143 Y-2.5494
G01 X18.1234 Y-2.5553
G01 X18.1414 Y-2.5659
G01 X18.1583 Y-2.5740
G01 X18.1684 Y-2.5783
G01 X18.1916 Y-2.5864
G01 X18.2098 Y-2.5911
G01 X18.2210 Y-2.5935
G01 X18.2404 Y-2.5963
G01 X18.2513 Y-2.5973
G01 X18.2711 Y-2.5981
G01 X19.1937 Y-2.5981
G01 X19.2214 Y-2.5967
G01 X19.2448 Y-2.5933
G01 X19.2549 Y-2.5911
G01 X19.2738 Y-2.5862
G01 X19.2967 Y-2.5782
G01 X19.3065 Y-2.5740
G01 X19.3238 Y-2.5656
G01 X19.3443 Y-2.5535
G01 X19.3536 Y-2.5471
G01 X19.3707 Y-2.5341
G01 X19.3883 Y-2.5182
G01 X19.3992 Y-2.5066
G01 X19.4935 Y-2.4292
G01 X19.5990 Y-2.3728
G01 X19.7135 Y-2.3381
G01 X19.8462 Y-2.3250
G01 X22.3178 Y-2.3250
G01 X22.4505 Y-2.3381
G01 X22.5650 Y-2.3728
G01 X22.6705 Y-2.4292
G01 X22.7629 Y-2.5051
G01 X22.8388 Y-2.5975
G01 X22.8952 Y-2.7030
G01 X22.9299 Y-2.8175
G01 X22.9430 Y-2.9502
G01 X22.9432 Y-2.9655
G01 X22.9445 Y-2.9868
G01 X22.9485 Y-3.0132
G01 X22.9530 Y-3.0314
G01 X22.9560 Y-3.0419
G01 X22.9649 Y-3.0661
G01 X22.9741 Y-3.0856
G01 X22.9794 Y-3.0951
G01 X22.9892 Y-3.1113
G01 X23.0014 Y-3.1281
G01 X23.0086 Y-3.1370
G01 X23.0191 Y-3.1487
G01 X24.0361 Y-4.1659
G01 X24.0530 Y-4.1815
G01 X24.0620 Y-4.1887
G01 X24.0776 Y-4.2001
G01 X24.0989 Y-4.2130
G01 X24.1080 Y-4.2177
G01 X24.1253 Y-4.2257
G01 X24.1525 Y-4.2354
G01 X24.1773 Y-4.2416
G01 X24.2043 Y-4.2457
G01 X24.2320 Y-4.2471
G01 X24.2518 Y-4.2463
G01 X24.2631 Y-4.2453
G01 X24.2867 Y-4.2416
G01 X24.3115 Y-4.2354
G01 X24.3350 Y-4.2272
G01 X24.3560 Y-4.2177
G01 X24.3690 Y-4.2108
G01 X24.3892 Y-4.1982
G01 X24.4086 Y-4.1835
G01 X24.4288 Y-4.1651
G01 X24.4454 Y-4.1467
G01 X24.4608 Y-4.1263
G01 X24.4751 Y-4.1029
G01 X24.4859 Y-4.0809
G01 X24.4890 Y-4.0734
G01 X24.4948 Y-4.0575
G01 X24.4991 Y-4.0434
G01 X24.5041 Y-4.0220
G01 X24.5068 Y-4.0045
G01 X24.5080 Y-3.9943
G01 X24.5091 Y-3.9700
G01 X24.5091 Y-0.6600
G01 X24.5076 Y-0.6313
G01 X24.5035 Y-0.6049
G01 X24.4971 Y-0.5796
G01 X24.4884 Y-0.5549
G01 X24.4762 Y-0.5291
G01 X24.4629 Y-0.5068
G01 X24.4476 Y-0.4859
G01 X24.4299 Y-0.4661
G01 X24.4226 Y-0.4590
G01 X24.4086 Y-0.4465
G01 X24.3860 Y-0.4296
G01 X24.3611 Y-0.4149
G01 X24.3384 Y-0.4042
G01 X24.3117 Y-0.3946
G01 X24.2857 Y-0.3882
G01 X24.2591 Y-0.3843
G01 X24.2357 Y-0.3830
G01 X0.6600 Y-0.3829
G01 X0.6330 Y-0.3843
G01 X0.6095 Y-0.3876
G01 X0.6023 Y-0.3890
G01 X0.5831 Y-0.3939
G01 X0.5608 Y-0.4014
G01 X0.5505 Y-0.4055
G01 X0.5360 Y-0.4123
G01 X0.5230 Y-0.4193
G01 X0.5029 Y-0.4318
G01 X0.4871 Y-0.4435
G01 X0.4814 Y-0.4482
G01 X0.4667 Y-0.4615
G01 X0.4615 Y-0.4667
G01 X0.4481 Y-0.4815
G01 X0.4413 Y-0.4900
G01 X0.4318 Y-0.5030
G01 X0.4257 Y-0.5123
G01 X0.4156 Y-0.5295
G01 X0.4070 Y-0.5472
G01 X0.4026 Y-0.5574
G01 X0.3960 Y-0.5761
G01 X0.3938 Y-0.5831
G01 X0.3890 Y-0.6023
G01 X0.3870 Y-0.6132
G01 X0.3843 Y-0.6330
G01 X0.3829 Y-0.6600
G01 X0.3829 Y-21.1840
G01 X0.2029 Y-21.1840
G01 X0.2030 Y-21.1899
G01 X0.2041 Y-21.2149
G01 X0.2054 Y-21.2313
G01 X0.2090 Y-21.2578
G01 X0.2123 Y-21.2760
G01 X0.2183 Y-21.3011
G01 X0.2231 Y-21.3182
G01 X0.2319 Y-21.3438
G01 X0.2377 Y-21.3587
G01 X0.2443 Y-21.3737
G01 X0.2570 Y-21.3995
G01 X0.2649 Y-21.4136
G01 X0.2788 Y-21.4361
G01 X0.2893 Y-21.4512
G01 X0.3066 Y-21.4739
G01 X0.3173 Y-21.4862
G01 X0.3360 Y-21.5064
G01 X0.3485 Y-21.5184
G01 X0.3700 Y-21.5373
G01 X0.3828 Y-21.5473
G01 X0.4040 Y-21.5627
G01 X0.4129 Y-21.5684
G01 X0.4158 Y-21.5703
G01 X0.4183 Y-21.5718
G01 X0.4198 Y-21.5727
G01 X0.4438 Y-21.5867
G01 X0.4590 Y-21.5944
G01 X0.4841 Y-21.6059
G01 X0.5002 Y-21.6121
G01 X0.5253 Y-21.6208
G01 X0.5408 Y-21.6252
G01 X0.5667 Y-21.6314
G01 X0.5837 Y-21.6346
G01 X0.6097 Y-21.6383
G01 X0.6287 Y-21.6399
G01 X0.6541 Y-21.6410
G01 X24.2320 Y-21.6411
G01 X24.2482 Y-21.6407
G01 X24.2760 Y-21.6389
G01 X24.2929 Y-21.6369
G01 X24.3137 Y-21.6337
G01 X24.3321 Y-21.6299
G01 X24.3577 Y-21.6234
G01 X24.3738 Y-21.6185
G01 X24.3918 Y-21.6121
G01 X24.4083 Y-21.6057
G01 X24.4217 Y-21.5997
G01 X24.4426 Y-21.5896
G01 X24.4592 Y-21.5805
G01 X24.4761 Y-21.5703
G01 X24.4889 Y-21.5620
G01 X24.5107 Y-21.5461
G01 X24.5254 Y-21.5344
G01 X24.5451 Y-21.5169
G01 X24.5593 Y-21.5030
G01 X24.5792 Y-21.4812
G01 X24.5899 Y-21.4683
G01 X24.6069 Y-21.4453
G01 X24.6165 Y-21.4310
G01 X24.6308 Y-21.4073
G01 X24.6424 Y-21.3850
G01 X24.6537 Y-21.3603
G01 X24.6643 Y-21.3321
G01 X24.6714 Y-21.3097
G01 X24.6779 Y-21.2841
G01 X24.6817 Y-21.2657
G01 X24.6860 Y-21.2362
G01 X24.6878 Y-21.2176
G01 X24.6890 Y-21.1899
G01 X24.6890 Y-11.0367
G01 X24.6881 Y-11.0139
G01 X24.6868 Y-10.9970
G01 X24.6831 Y-10.9693
G01 X24.6802 Y-10.9528
G01 X24.6737 Y-10.9255
G01 X24.6688 Y-10.9081
G01 X24.6601 Y-10.8828
G01 X24.6544 Y-10.8679
G01 X24.6477 Y-10.8528
G01 X24.6354 Y-10.8277
G01 X24.6281 Y-10.8147
G01 X24.6150 Y-10.7931
G01 X24.6043 Y-10.7776
G01 X24.5878 Y-10.7557
G01 X24.5783 Y-10.7444
G01 X24.5605 Y-10.7248
G01 X24.5459 Y-10.7104
G01 X24.5253 Y-10.6920
G01 X24.5112 Y-10.6808
G01 X24.4915 Y-10.6663
G01 X24.4777 Y-10.6572
G01 X24.4553 Y-10.6438
G01 X24.4401 Y-10.6357
G01 X24.4169 Y-10.6246
G01 X24.3979 Y-10.6167
G01 X24.3738 Y-10.6081
G01 X24.3577 Y-10.6031
G01 X24.3318 Y-10.5966
G01 X24.3116 Y-10.5925
G01 X24.2904 Y-10.5893
G01 X24.2729 Y-10.5873
G01 X24.2563 Y-10.5863
G01 X24.2919 Y-10.5469
G01 X24.3036 Y-10.5331
G01 X24.3462 Y-10.4761
G01 X24.3585 Y-10.4583
G01 X24.3945 Y-10.3986
G01 X24.4027 Y-10.3840
G01 X24.4097 Y-10.3701
G01 X24.4349 Y-10.3168
G01 X24.4430 Y-10.2982
G01 X24.4672 Y-10.2314
G01 X24.4730 Y-10.2136
G01 X24.4909 Y-10.1433
G01 X24.4943 Y-10.1281
G01 X24.4972 Y-10.1115
G01 X24.5061 Y-10.0515
G01 X24.5077 Y-10.0380
G01 X24.5090 Y-10.0210
G01 X24.5119 Y-9.9622
G01 X24.5123 Y-9.9460
G01 X24.5123 Y-5.0666
G01 X24.5119 Y-5.0504
G01 X24.5089 Y-4.9889
G01 X24.5073 Y-4.9702
G01 X24.4972 Y-4.9011
G01 X24.4936 Y-4.8811
G01 X24.4766 Y-4.8122
G01 X24.4715 Y-4.7941
G01 X24.4473 Y-4.7257
G01 X24.4416 Y-4.7109
G01 X24.4349 Y-4.6958
G01 X24.4096 Y-4.6423
G01 X24.4033 Y-4.6297
G01 X24.3945 Y-4.6140
G01 X24.3578 Y-4.5533
G01 X24.3462 Y-4.5365
G01 X24.3026 Y-4.4782
G01 X24.2918 Y-4.4655
G01 X24.2563 Y-4.4263
G01 X24.2716 Y-4.4254
G01 X24.2874 Y-4.4237
G01 X24.3116 Y-4.4201
G01 X24.3318 Y-4.4160
G01 X24.3540 Y-4.4105
G01 X24.3690 Y-4.4061
G01 X24.3941 Y-4.3973
G01 X24.4133 Y-4.3896
G01 X24.4371 Y-4.3784
G01 X24.4505 Y-4.3715
G01 X24.4722 Y-4.3587
G01 X24.4850 Y-4.3507
G01 X24.4975 Y-4.3419
G01 X24.5186 Y-4.3261
G01 X24.5305 Y-4.3161
G01 X24.5499 Y-4.2984
G01 X24.5630 Y-4.2851
G01 X24.5804 Y-4.2658
G01 X24.5899 Y-4.2542
G01 X24.6027 Y-4.2372
G01 X24.6126 Y-4.2232
G01 X24.6198 Y-4.2117
G01 X24.6313 Y-4.1925
G01 X24.6402 Y-4.1755
G01 X24.6491 Y-4.1568
G01 X24.6556 Y-4.1416
G01 X24.6643 Y-4.1181
G01 X24.6699 Y-4.1009
G01 X24.6767 Y-4.0750
G01 X24.6802 Y-4.0596
G01 X24.6831 Y-4.0432
G01 X24.6863 Y-4.0200
G01 X24.6881 Y-3.9987
G01 X24.6891 Y-3.9700
G01 X24.6891 Y-0.6578
G01 X24.6881 Y-0.6314
G01 X24.6868 Y-0.6144
G01 X24.6831 Y-0.5868
G01 X24.6802 Y-0.5703
G01 X24.6737 Y-0.5429
G01 X24.6688 Y-0.5253
G01 X24.6601 Y-0.5002
G01 X24.6544 Y-0.4855
G01 X24.6477 Y-0.4703
G01 X24.6358 Y-0.4458
G01 X24.6271 Y-0.4304
G01 X24.6118 Y-0.4057
G01 X24.5953 Y-0.3828
G01 X24.5851 Y-0.3698
G01 X24.5747 Y-0.3578
G01 X24.5576 Y-0.3392
G01 X24.5447 Y-0.3268
G01 X24.5253 Y-0.3095
G01 X24.5112 Y-0.2983
G01 X24.4878 Y-0.2812
G01 X24.4741 Y-0.2725
G01 X24.4505 Y-0.2586
G01 X24.4345 Y-0.2504
G01 X24.4098 Y-0.2389
G01 X24.3918 Y-0.2319
G01 X24.3653 Y-0.2228
G01 X24.3491 Y-0.2183
G01 X24.3227 Y-0.2120
G01 X24.3052 Y-0.2089
G01 X24.2790 Y-0.2054
G01 X24.2628 Y-0.2041
G01 X24.2379 Y-0.2030
G01 X0.6600 Y-0.2029
G01 X0.6438 Y-0.2033
G01 X0.6176 Y-0.2049
G01 X0.5991 Y-0.2071
G01 X0.5728 Y-0.2113
G01 X0.5571 Y-0.2148
G01 X0.5328 Y-0.2210
G01 X0.5174 Y-0.2258
G01 X0.4945 Y-0.2340
G01 X0.4756 Y-0.2419
G01 X0.4538 Y-0.2521
G01 X0.4395 Y-0.2596
G01 X0.4198 Y-0.2713
G01 X0.4076 Y-0.2790
G01 X0.3928 Y-0.2893
G01 X0.3747 Y-0.3029
G01 X0.3594 Y-0.3158
G01 X0.3410 Y-0.3327
G01 X0.3256 Y-0.3485
G01 X0.3079 Y-0.3686
G01 X0.2893 Y-0.3928
G01 X0.2768 Y-0.4109
G01 X0.2619 Y-0.4356
G01 X0.2521 Y-0.4538
G01 X0.2418 Y-0.4757
G01 X0.2339 Y-0.4947
G01 X0.2243 Y-0.5218
G01 X0.2198 Y-0.5373
G01 X0.2130 Y-0.5649
G01 X0.2093 Y-0.5846
G01 X0.2053 Y-0.6132
G01 X0.2039 Y-0.6314
G01 X0.2030 Y-0.6578
G01 X0.2029 Y-21.1840
G01 X0.6436 Y-21.9811
G01 X0.5818 Y-21.9780
G01 X0.5043 Y-21.9665
G01 X0.4284 Y-21.9475
G01 X0.3547 Y-21.9211
G01 X0.2839 Y-21.8877
G01 X0.2167 Y-21.8474
G01 X0.1538 Y-21.8008
G01 X0.0958 Y-21.7482
G01 X0.0432 Y-21.6902
G01 X-0.0034 Y-21.6273
G01 X-0.0437 Y-21.5601
G01 X-0.0771 Y-21.4893
G01 X-0.1035 Y-21.4156
G01 X-0.1225 Y-21.3397
G01 X-0.1340 Y-21.2622
G01 X-0.1371 Y-21.2004
G01 X-0.1371 Y-0.6436
G01 X-0.1340 Y-0.5818
G01 X-0.1225 Y-0.5043
G01 X-0.1035 Y-0.4284
G01 X-0.0771 Y-0.3547
G01 X-0.0437 Y-0.2839
G01 X-0.0034 Y-0.2167
G01 X0.0432 Y-0.1538
G01 X0.0958 Y-0.0958
G01 X0.1538 Y-0.0432
G01 X0.2167 Y0.0034
G01 X0.2839 Y0.0437
G01 X0.3547 Y0.0771
G01 X0.4284 Y0.1035
G01 X0.5043 Y0.1225
G01 X0.5818 Y0.1340
G01 X0.6436 Y0.1371
G01 X24.2484 Y0.1371
G01 X24.3102 Y0.1340
G01 X24.3877 Y0.1225
G01 X24.4636 Y0.1035
G01 X24.5373 Y0.0771
G01 X24.6081 Y0.0437
G01 X24.6753 Y0.0034
G01 X24.7382 Y-0.0432
G01 X24.7962 Y-0.0958
G01 X24.8488 Y-0.1538
G01 X24.8954 Y-0.2167
G01 X24.9357 Y-0.2839
G01 X24.9691 Y-0.3547
G01 X24.9955 Y-0.4284
G01 X25.0145 Y-0.5043
G01 X25.0260 Y-0.5818
G01 X25.0291 Y-0.6436
G01 X25.0291 Y-21.2004
G01 X25.0260 Y-21.2622
G01 X25.0145 Y-21.3397
G01 X24.9955 Y-21.4156
G01 X24.9691 Y-21.4893
G01 X24.9357 Y-21.5601
G01 X24.8954 Y-21.6273
G01 X24.8488 Y-21.6902
G01 X24.7962 Y-21.7482
G01 X24.7382 Y-21.8008
G01 X24.6753 Y-21.8474
G01 X24.6081 Y-21.8877
G01 X24.5373 Y-21.9211
G01 X24.4636 Y-21.9475
G01 X24.3877 Y-21.9665
G01 X24.3102 Y-21.9780
G01 X24.2484 Y-21.9811
G01 X0.6436 Y-21.9811
G01 X0.6391 Y-22.1611
G01 X0.5641 Y-22.1574
G01 X0.4692 Y-22.1433
G01 X0.3761 Y-22.1200
G01 X0.2857 Y-22.0876
G01 X0.1989 Y-22.0466
G01 X0.1166 Y-21.9973
G01 X0.0395 Y-21.9401
G01 X-0.0316 Y-21.8756
G01 X-0.0961 Y-21.8045
G01 X-0.1533 Y-21.7274
G01 X-0.2026 Y-21.6451
G01 X-0.2436 Y-21.5583
G01 X-0.2760 Y-21.4679
G01 X-0.2993 Y-21.3748
G01 X-0.3134 Y-21.2799
G01 X-0.3171 Y-21.2049
G01 X-0.3171 Y-0.6391
G01 X-0.3134 Y-0.5641
G01 X-0.2993 Y-0.4692
G01 X-0.2760 Y-0.3761
G01 X-0.2436 Y-0.2857
G01 X-0.2026 Y-0.1989
G01 X-0.1533 Y-0.1166
G01 X-0.0961 Y-0.0395
G01 X-0.0316 Y0.0316
G01 X0.0395 Y0.0961
G01 X0.1166 Y0.1533
G01 X0.1989 Y0.2026
G01 X0.2857 Y0.2436
G01 X0.3761 Y0.2760
G01 X0.4692 Y0.2993
G01 X0.5641 Y0.3134
G01 X0.6391 Y0.3171
G01 X24.2529 Y0.3171
G01 X24.3279 Y0.3134
G01 X24.4228 Y0.2993
G01 X24.5159 Y0.2760
G01 X24.6063 Y0.2436
G01 X24.6931 Y0.2026
G01 X24.7754 Y0.1533
G01 X24.8525 Y0.0961
G01 X24.9236 Y0.0316
G01 X24.9881 Y-0.0395
G01 X25.0453 Y-0.1166
G01 X25.0946 Y-0.1989
G01 X25.1356 Y-0.2857
G01 X25.1680 Y-0.3761
G01 X25.1913 Y-0.4692
G01 X25.2054 Y-0.5641
G01 X25.2091 Y-0.6391
G01 X25.2091 Y-21.2049
G01 X25.2054 Y-21.2799
G01 X25.1913 Y-21.3748
G01 X25.1680 Y-21.4679
G01 X25.1356 Y-21.5583
G01 X25.0946 Y-21.6451
G01 X25.0453 Y-21.7274
G01 X24.9881 Y-21.8045
G01 X24.9236 Y-21.8756
G01 X24.8525 Y-21.9401
G01 X24.7754 Y-21.9973
G01 X24.6931 Y-22.0466
G01 X24.6063 Y-22.0876
G01 X24.5159 Y-22.1200
G01 X24.4228 Y-22.1433
G01 X24.3279 Y-22.1574
G01 X24.2529 Y-22.1611
G01 X0.6391 Y-22.1611
G00 Z2.0000
G00 X8.4467 Y-17.4087
G01 F60.00
G01 Z-0.3732
G01 F120.00
G01 X8.4189 Y-17.4128
G01 X8.4075 Y-17.4150
G01 X8.3058 Y-17.4405
G01 X8.2952 Y-17.4438
G01 X8.1998 Y-17.4780
G01 X8.1892 Y-17.4825
G01 X8.0932 Y-17.5282
G01 X7.9985 Y-17.5849
G01 X7.9911 Y-17.5900
G01 X7.9060 Y-17.6534
G01 X7.8237 Y-17.7280
G01 X7.7478 Y-17.8116
G01 X7.6821 Y-17.8998
G01 X7.6759 Y-17.9093
G01 X7.6254 Y-17.9935
G01 X7.6210 Y-18.0014
G01 X7.5738 Y-18.1012
G01 X7.5352 Y-18.2091
G01 X7.5082 Y-18.3170
G01 X7.4916 Y-18.4288
G01 X7.4860 Y-18.5420
G01 X7.4916 Y-18.6552
G01 X7.5075 Y-18.7631
G01 X7.5097 Y-18.7735
G01 X7.5352 Y-18.8749
G01 X7.5738 Y-18.9828
G01 X7.6210 Y-19.0826
G01 X7.6254 Y-19.0905
G01 X7.6801 Y-19.1814
G01 X7.7478 Y-19.2724
G01 X7.8237 Y-19.3560
G01 X7.9060 Y-19.4306
G01 X7.9911 Y-19.4940
G01 X7.9985 Y-19.4991
G01 X8.0932 Y-19.5558
G01 X8.1968 Y-19.6048
G01 X8.3024 Y-19.6425
G01 X8.4105 Y-19.6697
G01 X8.5217 Y-19.6863
G01 X8.5306 Y-19.6870
G01 X8.6360 Y-19.6920
G01 X8.7414 Y-19.6870
G01 X8.7503 Y-19.6863
G01 X8.8584 Y-19.6703
G01 X8.8675 Y-19.6683
G01 X8.9696 Y-19.6425
G01 X9.0752 Y-19.6048
G01 X9.1788 Y-19.5558
G01 X9.2735 Y-19.4991
G01 X9.2809 Y-19.4940
G01 X9.3660 Y-19.4306
G01 X9.4438 Y-19.3602
G01 X9.4505 Y-19.3538
G01 X9.5242 Y-19.2724
G01 X9.5880 Y-19.1869
G01 X9.5961 Y-19.1747
G01 X9.6466 Y-19.0905
G01 X9.6510 Y-19.0826
G01 X9.6955 Y-18.9888
G01 X9.7011 Y-18.9752
G01 X9.7342 Y-18.8828
G01 X9.7384 Y-18.8687
G01 X9.7638 Y-18.7670
G01 X9.7805 Y-18.6538
G01 X9.7860 Y-18.5420
G01 X9.7814 Y-18.4441
G01 X9.7956 Y-18.4249
G01 X9.8017 Y-18.4160
G01 X9.8341 Y-18.3621
G01 X9.8398 Y-18.3517
G01 X9.8689 Y-18.2898
G01 X9.8917 Y-18.2268
G01 X9.8951 Y-18.2158
G01 X9.9117 Y-18.1491
G01 X9.9228 Y-18.0747
G01 X9.9262 Y-18.0074
G01 X9.9263 Y-17.8928
G01 X12.5930 Y-15.2261
G01 X12.6725 Y-15.2636
G01 X12.7946 Y-15.3074
G01 X12.8052 Y-15.3108
G01 X12.9342 Y-15.3430
G01 X13.0677 Y-15.3629
G01 X13.0781 Y-15.3638
G01 X13.2080 Y-15.3700
G01 X13.3379 Y-15.3638
G01 X13.3525 Y-15.3624
G01 X13.4739 Y-15.3444
G01 X13.4851 Y-15.3423
G01 X13.6142 Y-15.3098
G01 X13.7435 Y-15.2636
G01 X13.8687 Y-15.2043
G01 X13.9796 Y-15.1380
G01 X13.9918 Y-15.1298
G01 X14.0903 Y-15.0567
G01 X14.1017 Y-15.0474
G01 X14.1979 Y-14.9599
G01 X14.2880 Y-14.8607
G01 X14.2947 Y-14.8523
G01 X14.3717 Y-14.7483
G01 X14.4391 Y-14.6364
G01 X14.4460 Y-14.6234
G01 X14.4984 Y-14.5125
G01 X14.5041 Y-14.4989
G01 X14.5478 Y-14.3762
G01 X14.5810 Y-14.2438
G01 X14.6014 Y-14.1061
G01 X14.6078 Y-13.9774
G01 X14.6078 Y-13.9626
G01 X14.6018 Y-13.8401
G01 X14.6004 Y-13.8255
G01 X14.5810 Y-13.6962
G01 X14.5478 Y-13.5638
G01 X14.5016 Y-13.4345
G01 X14.4460 Y-13.3166
G01 X14.4391 Y-13.3036
G01 X14.3760 Y-13.1984
G01 X14.3698 Y-13.1889
G01 X14.2906 Y-13.0823
G01 X14.1979 Y-12.9801
G01 X14.0957 Y-12.8874
G01 X13.9863 Y-12.8063
G01 X13.8687 Y-12.7357
G01 X13.7435 Y-12.6764
G01 X13.6142 Y-12.6302
G01 X13.4818 Y-12.5970
G01 X13.3441 Y-12.5766
G01 X13.2080 Y-12.5700
G01 X13.0719 Y-12.5766
G01 X12.9342 Y-12.5970
G01 X12.8018 Y-12.6302
G01 X12.6725 Y-12.6764
G01 X12.5473 Y-12.7357
G01 X12.4364 Y-12.8020
G01 X12.4269 Y-12.8082
G01 X12.3203 Y-12.8874
G01 X12.2234 Y-12.9750
G01 X12.2130 Y-12.9854
G01 X12.1254 Y-13.0823
G01 X12.0482 Y-13.1862
G01 X12.0400 Y-13.1984
G01 X11.9753 Y-13.3065
G01 X11.9700 Y-13.3166
G01 X11.9144 Y-13.4345
G01 X11.8706 Y-13.5566
G01 X11.8672 Y-13.5672
G01 X11.8365 Y-13.6897
G01 X11.8343 Y-13.7002
G01 X11.8151 Y-13.8297
G01 X11.8142 Y-13.8401
G01 X11.8120 Y-13.8849
G01 X8.6428 Y-17.0542
G01 X8.5967 Y-17.1051
G01 X8.5564 Y-17.1591
G01 X8.5482 Y-17.1714
G01 X8.5157 Y-17.2258
G01 X8.5110 Y-17.2349
G01 X8.4858 Y-17.2881
G01 X8.4816 Y-17.2979
G01 X8.4590 Y-17.3611
G01 X8.4560 Y-17.3713
G01 X8.4467 Y-17.4087
G00 Z2.0000
G00 X9.9862 Y-19.1343
G01 F60.00
G01 Z-0.3732
G01 F120.00
G01 X9.9623 Y-19.1307
G01 X9.9475 Y-19.1291
G01 X9.9322 Y-19.1280
G01 X9.9074 Y-19.1272
G01 X9.8901 Y-19.1275
G01 X9.8638 Y-19.1291
G01 X9.8483 Y-19.1309
G01 X9.8258 Y-19.1343
G01 X9.8582 Y-19.0658
G01 X9.8651 Y-19.0502
G01 X9.8706 Y-19.0359
G01 X9.9060 Y-18.9366
G01 X9.9414 Y-19.0359
G01 X9.9469 Y-19.0502
G01 X9.9538 Y-19.0658
G01 X9.9862 Y-19.1343
G00 Z2.0000
G00 X11.2609 Y-17.3960
G01 F60.00
G01 Z-0.3732
G01 F120.00
G01 X11.1760 Y-17.3920
G01 X11.0706 Y-17.3970
G01 X11.0617 Y-17.3977
G01 X10.9505 Y-17.4143
G01 X10.8424 Y-17.4415
G01 X10.7368 Y-17.4792
G01 X10.6332 Y-17.5282
G01 X10.5385 Y-17.5849
G01 X10.4523 Y-17.6485
G01 X10.4409 Y-17.6578
G01 X10.3637 Y-17.7280
G01 X10.2918 Y-17.8069
G01 X10.2825 Y-17.8183
G01 X10.2240 Y-17.8971
G01 X10.2159 Y-17.9093
G01 X10.1654 Y-17.9935
G01 X10.1610 Y-18.0014
G01 X10.1138 Y-18.1012
G01 X10.0752 Y-18.2091
G01 X10.0497 Y-18.3105
G01 X10.0475 Y-18.3209
G01 X10.0315 Y-18.4302
G01 X10.0260 Y-18.5420
G01 X10.0315 Y-18.6538
G01 X10.0468 Y-18.7591
G01 X10.0497 Y-18.7735
G01 X10.0752 Y-18.8749
G01 X10.1109 Y-18.9752
G01 X10.1165 Y-18.9888
G01 X10.1585 Y-19.0775
G01 X10.1654 Y-19.0905
G01 X10.2201 Y-19.1814
G01 X10.2878 Y-19.2724
G01 X10.3637 Y-19.3560
G01 X10.4460 Y-19.4306
G01 X10.5311 Y-19.4940
G01 X10.5385 Y-19.4991
G01 X10.6332 Y-19.5558
G01 X10.7368 Y-19.6048
G01 X10.8388 Y-19.6414
G01 X10.8493 Y-19.6444
G01 X10.9505 Y-19.6697
G01 X11.0560 Y-19.6856
G01 X11.0706 Y-19.6870
G01 X11.1760 Y-19.6920
G01 X11.2814 Y-19.6870
G01 X11.2960 Y-19.6856
G01 X11.4015 Y-19.6697
G01 X11.5027 Y-19.6444
G01 X11.5168 Y-19.6402
G01 X11.6152 Y-19.6048
G01 X11.7115 Y-19.5595
G01 X11.7245 Y-19.5526
G01 X11.8135 Y-19.4991
G01 X11.8209 Y-19.4940
G01 X11.9060 Y-19.4306
G01 X11.9838 Y-19.3602
G01 X11.9905 Y-19.3538
G01 X12.0602 Y-19.2771
G01 X12.0695 Y-19.2657
G01 X12.1319 Y-19.1814
G01 X12.1866 Y-19.0905
G01 X12.1935 Y-19.0775
G01 X12.2382 Y-18.9828
G01 X12.2768 Y-18.8749
G01 X12.3023 Y-18.7735
G01 X12.3052 Y-18.7591
G01 X12.3196 Y-18.6620
G01 X12.3210 Y-18.6474
G01 X12.3260 Y-18.5420
G01 X12.3220 Y-18.4571
G01 X12.7568 Y-18.0223
G01 X12.8854 Y-18.0223
G01 X12.9187 Y-18.0669
G01 X12.9675 Y-18.1205
G01 X14.1401 Y-19.2931
G01 X14.1864 Y-19.3352
G01 X14.1978 Y-19.3445
G01 X14.2525 Y-19.3848
G01 X14.3079 Y-19.4181
G01 X14.3209 Y-19.4250
G01 X14.3789 Y-19.4523
G01 X14.3877 Y-19.4558
G01 X14.4504 Y-19.4781
G01 X14.5205 Y-19.4957
G01 X14.5871 Y-19.5058
G01 X14.6018 Y-19.5072
G01 X14.6680 Y-19.5103
G01 X17.3080 Y-19.5103
G01 X17.3803 Y-19.5068
G01 X17.4524 Y-19.4963
G01 X17.4616 Y-19.4943
G01 X17.5187 Y-19.4800
G01 X17.5328 Y-19.4757
G01 X17.5949 Y-19.4533
G01 X17.6602 Y-19.4225
G01 X17.7186 Y-19.3878
G01 X17.7309 Y-19.3796
G01 X17.7832 Y-19.3406
G01 X17.8359 Y-19.2931
G01 X21.1231 Y-16.0060
G01 X22.1524 Y-16.0059
G01 X22.2035 Y-16.0033
G01 X22.2539 Y-15.9960
G01 X22.2683 Y-15.9931
G01 X22.3097 Y-15.9828
G01 X22.3199 Y-15.9798
G01 X22.3716 Y-15.9612
G01 X22.4162 Y-15.9402
G01 X22.4292 Y-15.9333
G01 X22.4725 Y-15.9071
G01 X22.5123 Y-15.8777
G01 X22.5237 Y-15.8684
G01 X22.5615 Y-15.8338
G01 X22.5988 Y-15.7926
G01 X22.6318 Y-15.7484
G01 X22.6373 Y-15.7398
G01 X22.6593 Y-15.7032
G01 X22.6662 Y-15.6902
G01 X22.6878 Y-15.6439
G01 X22.7069 Y-15.5906
G01 X22.7191 Y-15.5423
G01 X22.7220 Y-15.5279
G01 X22.7283 Y-15.4856
G01 X22.7294 Y-15.4755
G01 X22.7320 Y-15.4210
G01 X22.7320 Y-14.5510
G01 X22.7297 Y-14.5010
G01 X22.7290 Y-14.4921
G01 X22.7205 Y-14.4358
G01 X22.7069 Y-14.3814
G01 X22.6901 Y-14.3340
G01 X22.6845 Y-14.3204
G01 X22.6662 Y-14.2818
G01 X22.6593 Y-14.2688
G01 X22.6343 Y-14.2274
G01 X22.6037 Y-14.1857
G01 X22.5944 Y-14.1743
G01 X22.5615 Y-14.1382
G01 X22.5190 Y-14.0995
G01 X22.4725 Y-14.0649
G01 X22.4292 Y-14.0387
G01 X22.4213 Y-14.0343
G01 X22.3776 Y-14.0135
G01 X22.3678 Y-14.0093
G01 X22.3238 Y-13.9935
G01 X22.3097 Y-13.9892
G01 X22.2618 Y-13.9774
G01 X22.2116 Y-13.9697
G01 X22.2002 Y-13.9685
G01 X22.1524 Y-13.9661
G01 X20.0170 Y-13.9660
G01 X19.9605 Y-13.9687
G01 X19.9101 Y-13.9760
G01 X19.8957 Y-13.9789
G01 X19.8512 Y-13.9900
G01 X19.8402 Y-13.9935
G01 X19.7924 Y-14.0108
G01 X19.7478 Y-14.0318
G01 X19.7348 Y-14.0387
G01 X19.6915 Y-14.0649
G01 X19.6517 Y-14.0943
G01 X19.6403 Y-14.1036
G01 X19.6025 Y-14.1382
G01 X19.5696 Y-14.1743
G01 X19.5603 Y-14.1857
G01 X19.5297 Y-14.2274
G01 X19.5015 Y-14.2745
G01 X19.4795 Y-14.3204
G01 X19.4739 Y-14.3340
G01 X19.4571 Y-14.3814
G01 X19.4435 Y-14.4358
G01 X19.4357 Y-14.4864
G01 X19.4343 Y-14.5010
G01 X19.4320 Y-14.5510
G01 X19.4320 Y-15.4247
G01 X19.4343 Y-15.4710
G01 X19.4353 Y-15.4828
G01 X19.4429 Y-15.5332
G01 X19.4488 Y-15.5581
G01 X16.9972 Y-18.0097
G01 X14.9788 Y-18.0097
G01 X14.1338 Y-17.1647
G01 X14.1237 Y-17.1480
G01 X14.1196 Y-17.1419
G01 X14.0799 Y-17.0884
G01 X14.0732 Y-17.0804
G01 X14.0312 Y-17.0342
G01 X13.7385 Y-16.7415
G01 X13.6870 Y-16.6946
G01 X13.6782 Y-16.6875
G01 X13.6309 Y-16.6524
G01 X13.6186 Y-16.6442
G01 X13.5624 Y-16.6107
G01 X13.4942 Y-16.5784
G01 X13.4328 Y-16.5563
G01 X13.4187 Y-16.5520
G01 X13.3616 Y-16.5377
G01 X13.3524 Y-16.5357
G01 X13.2831 Y-16.5255
G01 X13.2742 Y-16.5248
G01 X13.2080 Y-16.5217
G01 X12.4386 Y-16.5219
G01 X12.3709 Y-16.5255
G01 X12.2985 Y-16.5363
G01 X12.2284 Y-16.5539
G01 X12.1657 Y-16.5762
G01 X12.1569 Y-16.5797
G01 X12.0916 Y-16.6107
G01 X12.0306 Y-16.6472
G01 X12.0231 Y-16.6524
G01 X11.9695 Y-16.6924
G01 X11.9208 Y-16.7364
G01 X11.2609 Y-17.3960
G01 X12.1164 Y-16.2118
G01 X12.6796 Y-15.6486
G01 X12.6998 Y-15.6550
G01 X12.7181 Y-15.6601
G01 X12.8412 Y-15.6909
G01 X12.8649 Y-15.6962
G01 X12.8881 Y-15.7003
G01 X13.0144 Y-15.7190
G01 X13.0364 Y-15.7216
G01 X13.0605 Y-15.7234
G01 X13.1830 Y-15.7294
G01 X13.1841 Y-15.7294
G01 X13.2102 Y-15.7300
G01 X13.2319 Y-15.7294
G01 X13.3624 Y-15.7230
G01 X13.3818 Y-15.7214
G01 X13.4054 Y-15.7185
G01 X13.5303 Y-15.6999
G01 X13.5489 Y-15.6967
G01 X13.5667 Y-15.6929
G01 X13.6948 Y-15.6609
G01 X13.7162 Y-15.6550
G01 X13.7416 Y-15.6467
G01 X13.8592 Y-15.6047
G01 X13.8787 Y-15.5972
G01 X13.9013 Y-15.5873
G01 X14.0153 Y-15.5334
G01 X14.0358 Y-15.5232
G01 X14.0586 Y-15.5103
G01 X14.1657 Y-15.4462
G01 X14.1835 Y-15.4349
G01 X14.2003 Y-15.4234
G01 X14.3048 Y-15.3459
G01 X14.3215 Y-15.3330
G01 X14.3426 Y-15.3149
G01 X14.4187 Y-15.2460
G01 X14.4342 Y-15.2629
G01 X14.4461 Y-15.2750
G01 X14.4720 Y-15.2993
G01 X14.4031 Y-15.3754
G01 X14.3850 Y-15.3965
G01 X14.3727 Y-15.4124
G01 X14.2984 Y-15.5125
G01 X14.2868 Y-15.5290
G01 X14.2758 Y-15.5459
G01 X14.2067 Y-15.6611
G01 X14.1959 Y-15.6802
G01 X14.1862 Y-15.6994
G01 X14.1321 Y-15.8136
G01 X14.1245 Y-15.8305
G01 X14.1134 Y-15.8587
G01 X14.0704 Y-15.9789
G01 X14.0636 Y-15.9996
G01 X14.0571 Y-16.0232
G01 X14.0264 Y-16.1461
G01 X14.0227 Y-16.1626
G01 X14.0189 Y-16.1826
G01 X13.9995 Y-16.3126
G01 X13.9967 Y-16.3355
G01 X13.9947 Y-16.3615
G01 X13.9887 Y-16.4826
G01 X13.9758 Y-16.4704
G01 X13.9313 Y-16.4301
G01 X13.9156 Y-16.4164
G01 X13.8960 Y-16.4008
G01 X13.8409 Y-16.3600
G01 X13.8284 Y-16.3512
G01 X13.8134 Y-16.3414
G01 X13.7532 Y-16.3051
G01 X13.7315 Y-16.2929
G01 X13.7124 Y-16.2831
G01 X13.6515 Y-16.2544
G01 X13.6280 Y-16.2442
G01 X13.6104 Y-16.2375
G01 X13.5541 Y-16.2174
G01 X13.5319 Y-16.2100
G01 X13.5072 Y-16.2031
G01 X13.4481 Y-16.1883
G01 X13.4302 Y-16.1842
G01 X13.4047 Y-16.1795
G01 X13.3408 Y-16.1700
G01 X13.3190 Y-16.1673
G01 X13.2972 Y-16.1655
G01 X13.2319 Y-16.1623
G01 X13.2113 Y-16.1617
G01 X12.4460 Y-16.1617
G01 X12.4291 Y-16.1620
G01 X12.3608 Y-16.1653
G01 X12.3372 Y-16.1671
G01 X12.3149 Y-16.1697
G01 X12.2493 Y-16.1795
G01 X12.2293 Y-16.1831
G01 X12.2077 Y-16.1878
G01 X12.1437 Y-16.2039
G01 X12.1164 Y-16.2118
G01 X12.6011 Y-15.9817
G01 X12.7333 Y-15.8495
G01 X12.7965 Y-15.8653
G01 X12.8009 Y-15.8664
G01 X12.8023 Y-15.8667
G01 X12.8056 Y-15.8675
G01 X12.8065 Y-15.8677
G01 X12.8422 Y-15.8751
G01 X12.8623 Y-15.8784
G01 X12.9868 Y-15.8969
G01 X13.0074 Y-15.8995
G01 X13.0286 Y-15.9016
G01 X13.0502 Y-15.9031
G01 X13.1747 Y-15.9092
G01 X13.2058 Y-15.9100
G01 X13.2402 Y-15.9092
G01 X13.3815 Y-15.9021
G01 X13.4048 Y-15.9000
G01 X13.4261 Y-15.8973
G01 X13.5555 Y-15.8782
G01 X13.5868 Y-15.8726
G01 X13.6190 Y-15.8654
G01 X13.7427 Y-15.8344
G01 X13.7768 Y-15.8247
G01 X13.8017 Y-15.8164
G01 X13.9203 Y-15.7740
G01 X13.9399 Y-15.7666
G01 X13.9595 Y-15.7585
G01 X13.9513 Y-15.7783
G01 X13.9437 Y-15.7986
G01 X13.9013 Y-15.9170
G01 X13.8911 Y-15.9482
G01 X13.8830 Y-15.9776
G01 X13.8522 Y-16.1004
G01 X13.8469 Y-16.1236
G01 X13.8421 Y-16.1486
G01 X13.8209 Y-16.1366
G01 X13.7963 Y-16.1238
G01 X13.7320 Y-16.0933
G01 X13.7104 Y-16.0836
G01 X13.6931 Y-16.0764
G01 X13.6751 Y-16.0695
G01 X13.5961 Y-16.0415
G01 X13.5765 Y-16.0355
G01 X13.5556 Y-16.0297
G01 X13.4910 Y-16.0135
G01 X13.4694 Y-16.0085
G01 X13.4335 Y-16.0018
G01 X13.3592 Y-15.9908
G01 X13.3348 Y-15.9880
G01 X13.3087 Y-15.9859
G01 X13.2397 Y-15.9824
G01 X13.2146 Y-15.9817
G01 X12.6011 Y-15.9817
G01 X14.4534 Y-14.9406
G01 X14.4569 Y-14.9532
G01 X14.4607 Y-14.9654
G01 X14.4716 Y-14.9953
G01 X14.4767 Y-15.0072
G01 X14.4857 Y-15.0262
G01 X14.4972 Y-15.0481
G01 X14.5143 Y-15.0761
G01 X14.5211 Y-15.0858
G01 X14.5350 Y-15.1045
G01 X14.5506 Y-15.1235
G01 X14.5646 Y-15.1388
G01 X14.5734 Y-15.1478
G01 X14.5975 Y-15.1700
G01 X14.6162 Y-15.1851
G01 X14.6419 Y-15.2037
G01 X14.6699 Y-15.2208
G01 X14.6918 Y-15.2323
G01 X14.7108 Y-15.2413
G01 X14.7227 Y-15.2464
G01 X14.7526 Y-15.2573
G01 X14.7648 Y-15.2611
G01 X14.7774 Y-15.2646
G01 X14.7541 Y-15.2819
G01 X14.7382 Y-15.2950
G01 X14.6409 Y-15.3831
G01 X14.6236 Y-15.4002
G01 X14.5372 Y-15.4954
G01 X14.5273 Y-15.5068
G01 X14.5167 Y-15.5204
G01 X14.4361 Y-15.6294
G01 X14.4256 Y-15.6459
G01 X14.3564 Y-15.7619
G01 X14.3473 Y-15.7797
G01 X14.2948 Y-15.8906
G01 X14.2880 Y-15.9061
G01 X14.2824 Y-15.9205
G01 X14.2411 Y-16.0360
G01 X14.2349 Y-16.0552
G01 X14.2019 Y-16.1860
G01 X14.1982 Y-16.2026
G01 X14.1956 Y-16.2177
G01 X14.1776 Y-16.3391
G01 X14.1757 Y-16.3546
G01 X14.1744 Y-16.3713
G01 X14.1684 Y-16.4938
G01 X14.1681 Y-16.5159
G01 X14.1744 Y-16.6487
G01 X14.1757 Y-16.6654
G01 X14.1776 Y-16.6809
G01 X14.1966 Y-16.8086
G01 X14.2014 Y-16.8321
G01 X14.2330 Y-16.9580
G01 X14.2389 Y-16.9777
G01 X14.2546 Y-17.0216
G01 X14.2256 Y-16.9826
G01 X14.2143 Y-16.9685
G01 X14.1601 Y-16.9086
G01 X13.8643 Y-16.6126
G01 X13.8541 Y-16.6030
G01 X13.8008 Y-16.5551
G01 X13.7854 Y-16.5429
G01 X13.7381 Y-16.5078
G01 X13.7240 Y-16.4980
G01 X13.7112 Y-16.4898
G01 X13.6499 Y-16.4534
G01 X13.6321 Y-16.4443
G01 X13.5667 Y-16.4136
G01 X13.5507 Y-16.4073
G01 X13.4934 Y-16.3868
G01 X13.4798 Y-16.3823
G01 X13.4624 Y-16.3774
G01 X13.4004 Y-16.3620
G01 X13.3767 Y-16.3573
G01 X13.3153 Y-16.3482
G01 X13.3000 Y-16.3463
G01 X13.2830 Y-16.3450
G01 X13.2183 Y-16.3419
G01 X12.4460 Y-16.3417
G01 X12.4298 Y-16.3421
G01 X12.3638 Y-16.3454
G01 X12.3433 Y-16.3475
G01 X12.2805 Y-16.3568
G01 X12.2670 Y-16.3591
G01 X12.2536 Y-16.3620
G01 X12.1784 Y-16.3810
G01 X12.1627 Y-16.3861
G01 X12.1051 Y-16.4067
G01 X12.0903 Y-16.4124
G01 X12.0780 Y-16.4178
G01 X12.0219 Y-16.4443
G01 X12.0080 Y-16.4513
G01 X11.9934 Y-16.4595
G01 X11.9390 Y-16.4922
G01 X11.9262 Y-16.5005
G01 X11.9159 Y-16.5078
G01 X11.8686 Y-16.5429
G01 X11.8563 Y-16.5525
G01 X11.8436 Y-16.5634
G01 X11.7924 Y-16.6101
G01 X11.1901 Y-17.2123
G01 X11.1738 Y-17.2120
G01 X11.1598 Y-17.2124
G01 X11.0591 Y-17.2174
G01 X11.0341 Y-17.2197
G01 X10.9325 Y-17.2348
G01 X10.9159 Y-17.2377
G01 X10.9007 Y-17.2411
G01 X10.8097 Y-17.2639
G01 X12.6329 Y-15.4407
G01 X12.7340 Y-15.4769
G01 X12.7518 Y-15.4827
G01 X12.7650 Y-15.4863
G01 X12.8840 Y-15.5161
G01 X12.9006 Y-15.5198
G01 X12.9157 Y-15.5224
G01 X13.0371 Y-15.5404
G01 X13.0531 Y-15.5424
G01 X13.0693 Y-15.5436
G01 X13.1918 Y-15.5496
G01 X13.2058 Y-15.5500
G01 X13.2242 Y-15.5496
G01 X13.3486 Y-15.5435
G01 X13.3629 Y-15.5424
G01 X13.3764 Y-15.5408
G01 X13.3789 Y-15.5404
G01 X13.5003 Y-15.5224
G01 X13.5154 Y-15.5198
G01 X13.5320 Y-15.5161
G01 X13.6566 Y-15.4848
G01 X13.6799 Y-15.4776
G01 X13.7975 Y-15.4356
G01 X13.8141 Y-15.4291
G01 X13.8274 Y-15.4232
G01 X13.9383 Y-15.3707
G01 X13.9561 Y-15.3616
G01 X14.0721 Y-15.2924
G01 X14.0886 Y-15.2819
G01 X14.1976 Y-15.2013
G01 X14.2112 Y-15.1907
G01 X14.2226 Y-15.1808
G01 X14.3178 Y-15.0944
G01 X14.3349 Y-15.0771
G01 X14.4230 Y-14.9798
G01 X14.4361 Y-14.9639
G01 X14.4534 Y-14.9406
G00 Z2.0000
G00 X14.4596 Y-13.0077
G01 F60.00
G01 Z-0.3732
G01 F120.00
G01 X14.4780 Y-13.0094
G01 X14.4955 Y-13.0100
G01 X14.6388 Y-13.0100
G01 X14.6269 Y-13.0235
G01 X14.6181 Y-13.0344
G01 X14.6024 Y-13.0557
G01 X14.5929 Y-13.0698
G01 X14.5810 Y-13.0895
G01 X14.5730 Y-13.1040
G01 X14.5607 Y-13.1294
G01 X14.5539 Y-13.1452
G01 X14.5291 Y-13.1038
G01 X14.5199 Y-13.0894
G01 X14.4596 Y-13.0077
G01 X14.0328 Y-12.6241
G01 X14.0486 Y-12.6173
G01 X14.0740 Y-12.6050
G01 X14.0885 Y-12.5970
G01 X14.1082 Y-12.5851
G01 X14.1223 Y-12.5756
G01 X14.1436 Y-12.5599
G01 X14.1545 Y-12.5511
G01 X14.1680 Y-12.5392
G01 X14.1680 Y-12.6825
G01 X14.1686 Y-12.7000
G01 X14.1703 Y-12.7184
G01 X14.0886 Y-12.6581
G01 X14.0742 Y-12.6489
G01 X14.0328 Y-12.6241
G00 Z2.0000
G00 X14.1734 Y-9.8554
G01 F60.00
G01 Z-0.3732
G01 F120.00
G01 X14.1994 Y-9.8620
G01 X14.2281 Y-9.8662
G01 X14.2542 Y-9.8675
G01 X14.2740 Y-9.8667
G01 X14.2844 Y-9.8658
G01 X14.3089 Y-9.8620
G01 X14.3300 Y-9.8568
G01 X14.4278 Y-9.8272
G01 X14.5112 Y-9.8190
G01 X15.3439 Y-9.8217
G01 X15.3439 Y-10.0300
G01 X14.4939 Y-10.0301
G01 X14.4831 Y-10.0307
G01 X14.4693 Y-10.0328
G01 X14.4583 Y-10.0354
G01 X14.4465 Y-10.0391
G01 X14.4331 Y-10.0448
G01 X14.4224 Y-10.0504
G01 X14.4136 Y-10.0560
G01 X14.4027 Y-10.0642
G01 X14.3919 Y-10.0739
G01 X14.3822 Y-10.0847
G01 X14.3721 Y-10.0985
G01 X14.3646 Y-10.1115
G01 X14.3584 Y-10.1251
G01 X14.3534 Y-10.1403
G01 X14.3501 Y-10.1548
G01 X14.3482 Y-10.1718
G01 X14.3480 Y-11.0259
G01 X14.1397 Y-11.0259
G01 X14.1370 Y-10.1932
G01 X14.1452 Y-10.1098
G01 X14.1748 Y-10.0120
G01 X14.1800 Y-9.9909
G01 X14.1838 Y-9.9664
G01 X14.1847 Y-9.9560
G01 X14.1855 Y-9.9362
G01 X14.1842 Y-9.9101
G01 X14.1800 Y-9.8814
G01 X14.1734 Y-9.8554
G00 Z2.0000
G00 X16.1521 Y-10.0300
G01 F60.00
G01 Z-0.3732
G01 F120.00
G01 X16.1521 Y-9.8217
G01 X16.9848 Y-9.8190
G01 X17.0682 Y-9.8272
G01 X17.1356 Y-9.8477
G01 X17.1978 Y-9.8809
G01 X17.2523 Y-9.9257
G01 X17.2971 Y-9.9802
G01 X17.3303 Y-10.0424
G01 X17.3508 Y-10.1098
G01 X17.3590 Y-10.1932
G01 X17.3563 Y-11.0259
G01 X17.1480 Y-11.0259
G01 X17.1480 Y-10.1800
G01 X17.1477 Y-10.1705
G01 X17.1459 Y-10.1550
G01 X17.1430 Y-10.1417
G01 X17.1386 Y-10.1277
G01 X17.1347 Y-10.1182
G01 X17.1314 Y-10.1115
G01 X17.1236 Y-10.0980
G01 X17.1150 Y-10.0861
G01 X17.1054 Y-10.0752
G01 X17.0943 Y-10.0650
G01 X17.0823 Y-10.0560
G01 X17.0728 Y-10.0500
G01 X17.0629 Y-10.0448
G01 X17.0495 Y-10.0391
G01 X17.0397 Y-10.0359
G01 X17.0266 Y-10.0327
G01 X17.0130 Y-10.0308
G01 X17.0020 Y-10.0301
G01 X16.1521 Y-10.0300
G00 Z2.0000
G00 X17.3226 Y-13.0046
G01 F60.00
G01 Z-0.3732
G01 F120.00
G01 X17.2966 Y-12.9980
G01 X17.2681 Y-12.9938
G01 X17.2418 Y-12.9925
G01 X17.2220 Y-12.9933
G01 X17.2115 Y-12.9942
G01 X17.1871 Y-12.9980
G01 X17.1650 Y-13.0034
G01 X17.0682 Y-13.0328
G01 X16.9848 Y-13.0410
G01 X16.1521 Y-13.0383
G01 X16.1521 Y-12.8300
G01 X17.0060 Y-12.8298
G01 X17.0200 Y-12.8284
G01 X17.0364 Y-12.8250
G01 X17.0529 Y-12.8196
G01 X17.0662 Y-12.8136
G01 X17.0792 Y-12.8061
G01 X17.0914 Y-12.7974
G01 X17.1026 Y-12.7875
G01 X17.1127 Y-12.7766
G01 X17.1215 Y-12.7651
G01 X17.1276 Y-12.7556
G01 X17.1332 Y-12.7449
G01 X17.1374 Y-12.7355
G01 X17.1409 Y-12.7255
G01 X17.1446 Y-12.7117
G01 X17.1470 Y-12.6976
G01 X17.1479 Y-12.6855
G01 X17.1480 Y-11.8341
G01 X17.3563 Y-11.8341
G01 X17.3590 Y-12.6668
G01 X17.3508 Y-12.7502
G01 X17.3215 Y-12.8467
G01 X17.3155 Y-12.8717
G01 X17.3120 Y-12.8951
G01 X17.3105 Y-12.9238
G01 X17.3120 Y-12.9526
G01 X17.3161 Y-12.9790
G01 X17.3226 Y-13.0046
G00 Z2.0000
G00 X17.6866 Y-16.5563
G01 F60.00
G01 Z-0.3732
G01 F120.00
G01 X17.6878 Y-16.5247
G01 X17.6879 Y-16.4964
G01 X17.6834 Y-16.3994
G01 X18.8920 Y-15.1908
G01 X18.8920 Y-15.3498
G01 X17.6866 Y-16.5563
G01 X17.4083 Y-17.0895
G01 X17.4274 Y-17.0360
G01 X17.4351 Y-17.0110
G01 X17.4716 Y-16.8657
G01 X17.4752 Y-16.8479
G01 X17.4782 Y-16.8303
G01 X17.4984 Y-16.6928
G01 X17.5001 Y-16.6766
G01 X17.5013 Y-16.6585
G01 X17.5074 Y-16.5339
G01 X17.5080 Y-16.5122
G01 X17.5074 Y-16.4861
G01 X17.5014 Y-16.3625
G01 X17.5002 Y-16.3453
G01 X17.4987 Y-16.3295
G01 X19.0720 Y-14.7562
G01 X19.0720 Y-15.4258
G01 X17.4083 Y-17.0895
G01 X16.6165 Y-17.8297
G01 X16.6369 Y-17.8160
G01 X16.7376 Y-17.7413
G01 X16.7506 Y-17.7312
G01 X16.7626 Y-17.7208
G01 X16.8535 Y-17.6384
G01 X16.8668 Y-17.6257
G01 X16.8764 Y-17.6155
G01 X16.9588 Y-17.5246
G01 X16.9692 Y-17.5126
G01 X16.9793 Y-17.4996
G01 X17.0524 Y-17.4010
G01 X17.0623 Y-17.3870
G01 X17.0704 Y-17.3741
G01 X17.1335 Y-17.2689
G01 X17.1419 Y-17.2539
G01 X17.1487 Y-17.2403
G01 X17.2039 Y-17.1235
G01 X17.2128 Y-17.1015
G01 X17.2549 Y-16.9840
G01 X17.2599 Y-16.9690
G01 X17.2638 Y-16.9549
G01 X17.2941 Y-16.8340
G01 X17.2975 Y-16.8188
G01 X17.3004 Y-16.8023
G01 X17.3196 Y-16.6722
G01 X17.3215 Y-16.6506
G01 X17.3276 Y-16.5262
G01 X17.3280 Y-16.5122
G01 X17.3278 Y-16.4997
G01 X17.3208 Y-16.3596
G01 X17.3184 Y-16.3391
G01 X17.3076 Y-16.2661
G01 X19.3068 Y-14.2668
G01 X19.2893 Y-14.3157
G01 X19.2842 Y-14.3314
G01 X19.2702 Y-14.3860
G01 X19.2668 Y-14.4012
G01 X19.2639 Y-14.4177
G01 X19.2562 Y-14.4709
G01 X19.2546 Y-14.4895
G01 X19.2523 Y-14.5370
G01 X19.2520 Y-14.5510
G01 X19.2520 Y-15.4210
G01 X19.2523 Y-15.4350
G01 X19.2545 Y-15.4798
G01 X19.2558 Y-15.4966
G01 X16.9227 Y-17.8297
G01 X16.6165 Y-17.8297
G00 Z2.0000
G00 X20.8941 Y-19.4476
G01 F60.00
G01 Z-0.3732
G01 F120.00
G01 X20.8941 Y-19.1604
G01 X20.9501 Y-18.8787
G01 X21.0600 Y-18.6134
G01 X21.2195 Y-18.3746
G01 X21.4226 Y-18.1715
G01 X21.6614 Y-18.0120
G01 X21.9267 Y-17.9021
G01 X22.2084 Y-17.8461
G01 X22.4956 Y-17.8461
G01 X22.7773 Y-17.9021
G01 X23.0426 Y-18.0120
G01 X23.2814 Y-18.1715
G01 X23.4845 Y-18.3746
G01 X23.6440 Y-18.6134
G01 X23.7539 Y-18.8787
G01 X23.8099 Y-19.1604
G01 X23.8099 Y-19.4476
G01 X23.7539 Y-19.7293
G01 X23.6440 Y-19.9946
G01 X23.4845 Y-20.2334
G01 X23.2814 Y-20.4365
G01 X23.0426 Y-20.5960
G01 X22.7773 Y-20.7059
G01 X22.4956 Y-20.7619
G01 X22.2084 Y-20.7619
G01 X21.9267 Y-20.7059
G01 X21.6614 Y-20.5960
G01 X21.4226 Y-20.4365
G01 X21.2195 Y-20.2334
G01 X21.0600 Y-19.9946
G01 X20.9501 Y-19.7293
G01 X20.8941 Y-19.4476
G01 X21.0741 Y-19.4299
G01 X21.0741 Y-19.1781
G01 X21.1232 Y-18.9312
G01 X21.2195 Y-18.6987
G01 X21.3594 Y-18.4894
G01 X21.5374 Y-18.3114
G01 X21.7467 Y-18.1715
G01 X21.9792 Y-18.0752
G01 X22.2261 Y-18.0261
G01 X22.4779 Y-18.0261
G01 X22.7248 Y-18.0752
G01 X22.9573 Y-18.1715
G01 X23.1666 Y-18.3114
G01 X23.3446 Y-18.4894
G01 X23.4845 Y-18.6987
G01 X23.5808 Y-18.9312
G01 X23.6299 Y-19.1781
G01 X23.6299 Y-19.4299
