(Exported by FreeCAD)
(Post Processor: grbl_post)
(Output Time:2021-05-16 17:10:46.621703)
(Begin preamble)
G17 G90
G21
(Begin operation: Fixture)
(Path: Fixture)
G54
(Finish operation: Fixture)
(Begin operation: 2mm_wood002)
(Path: 2mm_wood002)
(2mm_wood002)
(Begin toolchange)
( M6 T1.0 )
M3 S800.0
(Finish operation: 2mm_wood002)
(Begin operation: DressupTag001)
(Path: DressupTag001)
G0 Z6.000
G0 X38.263 Y-5.686 Z6.000
G1 X38.263 Y-5.686 Z-0.500 F180.000
G2 X45.000 Y-21.919 Z-0.500 I-16.263 J-16.263 K0.000 F180.000
G1 X45.000 Y-101.949 Z-0.500 F180.000
G2 X41.078 Y-105.946 Z-0.500 I-4.002 J0.004 K0.000 F180.000
G1 X3.000 Y-105.949 Z-0.500 F180.000
G2 X-0.997 Y-102.027 Z-0.500 I0.004 J4.002 K0.000 F180.000
G1 X-1.000 Y-21.949 Z-0.500 F180.000
G2 X38.263 Y-5.686 Z-0.500 I23.000 J-0.000 K0.000 F180.000
G1 X38.263 Y-5.686 Z-1.000 F180.000
G2 X45.000 Y-21.919 Z-1.000 I-16.263 J-16.263 K0.000 F180.000
G1 X45.000 Y-101.949 Z-1.000 F180.000
G2 X41.078 Y-105.946 Z-1.000 I-4.002 J0.004 K0.000 F180.000
G1 X3.000 Y-105.949 Z-1.000 F180.000
G2 X-0.997 Y-102.027 Z-1.000 I0.004 J4.002 K0.000 F180.000
G1 X-1.000 Y-21.949 Z-1.000 F180.000
G2 X38.263 Y-5.686 Z-1.000 I23.000 J-0.000 K0.000 F180.000
G1 X38.263 Y-5.686 Z-1.500 F180.000
G2 X45.000 Y-21.919 Z-1.500 I-16.263 J-16.263 K0.000 F180.000
G1 X45.000 Y-101.949 Z-1.500 F180.000
G2 X41.078 Y-105.946 Z-1.500 I-4.002 J0.004 K0.000 F180.000
G1 X3.000 Y-105.949 Z-1.500 F180.000
G2 X-0.997 Y-102.027 Z-1.500 I0.004 J4.002 K0.000 F180.000
G1 X-1.000 Y-21.949 Z-1.500 F180.000
G2 X38.263 Y-5.686 Z-1.500 I23.000 J-0.000 K0.000 F180.000
G1 X38.263 Y-5.686 Z-2.000 F180.000
G2 X45.000 Y-21.919 Z-2.000 I-16.263 J-16.263 K0.000 F180.000
G1 X45.000 Y-101.949 Z-2.000 F180.000
G2 X41.078 Y-105.946 Z-2.000 I-4.002 J0.004 K0.000 F180.000
G1 X3.000 Y-105.949 Z-2.000 F180.000
G2 X-0.997 Y-102.027 Z-2.000 I0.004 J4.002 K0.000 F180.000
G1 X-1.000 Y-21.949 Z-2.000 F180.000
G2 X38.263 Y-5.686 Z-2.000 I23.000 J-0.000 K0.000 F180.000
G1 X38.263 Y-5.686 Z-2.500 F180.000
G2 X45.000 Y-21.919 Z-2.500 I-16.263 J-16.263 K0.000 F180.000
G1 X45.000 Y-101.949 Z-2.500 F180.000
G2 X41.078 Y-105.946 Z-2.500 I-4.002 J0.004 K0.000 F180.000
G1 X3.000 Y-105.949 Z-2.500 F180.000
G2 X-0.997 Y-102.027 Z-2.500 I0.004 J4.002 K0.000 F180.000
G1 X-1.000 Y-21.949 Z-2.500 F180.000
G2 X38.263 Y-5.686 Z-2.500 I23.000 J-0.000 K0.000 F180.000
G1 X38.263 Y-5.686 Z-3.000 F180.000
G2 X45.000 Y-21.919 Z-3.000 I-16.263 J-16.263 K0.000 F180.000
G1 X45.000 Y-101.949 Z-3.000 F180.000
G2 X41.078 Y-105.946 Z-3.000 I-4.002 J0.004 K0.000 F180.000
G1 X3.000 Y-105.949 Z-3.000 F180.000
G2 X-0.997 Y-102.027 Z-3.000 I0.004 J4.002 K0.000 F180.000
G1 X-1.000 Y-21.949 Z-3.000 F180.000
G2 X38.263 Y-5.686 Z-3.000 I23.000 J-0.000 K0.000 F180.000
G1 X38.263 Y-5.686 Z-3.500 F180.000
G2 X45.000 Y-21.919 Z-3.500 I-16.263 J-16.263 K0.000 F180.000
G1 X45.000 Y-101.949 Z-3.500 F180.000
G2 X41.078 Y-105.946 Z-3.500 I-4.002 J0.004 K0.000 F180.000
G1 X3.000 Y-105.949 Z-3.500 F180.000
G2 X-0.997 Y-102.027 Z-3.500 I0.004 J4.002 K0.000 F180.000
G1 X-1.000 Y-21.949 Z-3.500 F180.000
G2 X38.263 Y-5.686 Z-3.500 I23.000 J-0.000 K0.000 F180.000
G1 X38.263 Y-5.686 Z-4.000 F180.000
G2 X45.000 Y-21.919 Z-4.000 I-16.263 J-16.263 K0.000 F180.000
G1 X45.000 Y-101.949 Z-4.000 F180.000
G2 X41.078 Y-105.946 Z-4.000 I-4.002 J0.004 K0.000 F180.000
G1 X3.000 Y-105.949 Z-4.000 F180.000
G2 X-0.997 Y-102.027 Z-4.000 I0.004 J4.002 K0.000 F180.000
G1 X-1.000 Y-21.949 Z-4.000 F180.000
G2 X38.263 Y-5.686 Z-4.000 I23.000 J-0.000 K0.000 F180.000
G1 X38.263 Y-5.686 Z-4.500 F180.000
G2 X45.000 Y-21.919 Z-4.500 I-16.263 J-16.263 K0.000 F180.000
G1 X45.000 Y-101.949 Z-4.500 F180.000
G2 X41.078 Y-105.946 Z-4.500 I-4.002 J0.004 K0.000 F180.000
G1 X3.000 Y-105.949 Z-4.500 F180.000
G2 X-0.997 Y-102.027 Z-4.500 I0.004 J4.002 K0.000 F180.000
G1 X-1.000 Y-21.949 Z-4.500 F180.000
G2 X38.263 Y-5.686 Z-4.500 I23.000 J-0.000 K0.000 F180.000
G1 X38.263 Y-5.686 Z-5.000 F180.000
G2 X45.000 Y-21.919 Z-5.000 I-16.263 J-16.263 K0.000 F180.000
G1 X45.000 Y-101.949 Z-5.000 F180.000
G2 X41.078 Y-105.946 Z-5.000 I-4.002 J0.004 K0.000 F180.000
G1 X3.000 Y-105.949 Z-5.000 F180.000
G2 X-0.997 Y-102.027 Z-5.000 I0.004 J4.002 K0.000 F180.000
G1 X-1.000 Y-21.949 Z-5.000 F180.000
G2 X38.263 Y-5.686 Z-5.000 I23.000 J-0.000 K0.000 F180.000
G1 X38.263 Y-5.686 Z-5.500 F180.000
G2 X45.000 Y-21.919 Z-5.500 I-16.263 J-16.263 K0.000 F180.000
G1 X45.000 Y-101.949 Z-5.500 F180.000
G2 X41.078 Y-105.946 Z-5.500 I-4.002 J0.004 K0.000 F180.000
G1 X3.000 Y-105.949 Z-5.500 F180.000
G2 X-0.997 Y-102.027 Z-5.500 I0.004 J4.002 K0.000 F180.000
G1 X-1.000 Y-21.949 Z-5.500 F180.000
G2 X38.263 Y-5.686 Z-5.500 I23.000 J-0.000 K0.000 F180.000
G1 X38.263 Y-5.686 Z-6.000 F180.000
G2 X43.241 Y-13.129 Z-6.000 I-16.263 J-16.263 K0.000 F180.000
G1 X43.243 Y-13.134 Z-5.995
G1 X43.245 Y-13.138 Z-6.000
G2 X45.000 Y-21.919 Z-6.000 I-21.245 J-8.811 K0.000 F180.000
G1 X45.000 Y-61.929 Z-6.000 F180.000
G1 X45.000 Y-61.934 Z-5.995 F180.000
G1 X45.000 Y-61.938 Z-6.000 F180.000
G1 X45.000 Y-101.949 Z-6.000 F180.000
G2 X41.078 Y-105.946 Z-6.000 I-4.002 J0.004 K0.000 F180.000
G1 X3.000 Y-105.949 Z-6.000 F180.000
G2 X-0.997 Y-102.027 Z-6.000 I0.004 J4.002 K0.000 F180.000
G1 X-0.998 Y-82.012 Z-6.000 F180.000
G1 X-0.998 Y-82.008 Z-5.995 F180.000
G1 X-0.998 Y-82.003 Z-6.000 F180.000
G1 X-0.999 Y-41.973 Z-6.000 F180.000
G1 X-0.999 Y-41.968 Z-5.995 F180.000
G1 X-0.999 Y-41.964 Z-6.000 F180.000
G1 X-1.000 Y-21.949 Z-6.000 F180.000
G2 X38.263 Y-5.686 Z-6.000 I23.000 J-0.000 K0.000 F180.000
G1 X38.263 Y-5.686 Z-6.500 F180.000
G2 X43.047 Y-12.674 Z-6.500 I-16.263 J-16.263 K0.000 F180.000
G1 X43.243 Y-13.134 Z-5.995
G1 X43.430 Y-13.597 Z-6.500
G2 X45.000 Y-21.919 Z-6.500 I-21.430 J-8.352 K0.000 F180.000
G1 X45.000 Y-61.434 Z-6.500 F180.000
G1 X45.000 Y-61.934 Z-5.995 F180.000
G1 X45.000 Y-62.433 Z-6.500 F180.000
G1 X45.000 Y-101.949 Z-6.500 F180.000
G2 X41.078 Y-105.946 Z-6.500 I-4.002 J0.004 K0.000 F180.000
G1 X3.000 Y-105.949 Z-6.500 F180.000
G2 X-0.997 Y-102.027 Z-6.500 I0.004 J4.002 K0.000 F180.000
G1 X-0.998 Y-82.507 Z-6.500 F180.000
G1 X-0.998 Y-82.008 Z-5.995 F180.000
G1 X-0.998 Y-81.508 Z-6.500 F180.000
G1 X-0.999 Y-42.468 Z-6.500 F180.000
G1 X-0.999 Y-41.968 Z-5.995 F180.000
G1 X-0.999 Y-41.469 Z-6.500 F180.000
G1 X-1.000 Y-21.949 Z-6.500 F180.000
G2 X38.263 Y-5.686 Z-6.500 I23.000 J-0.000 K0.000 F180.000
G1 X38.263 Y-5.686 Z-7.000 F180.000
G2 X42.842 Y-12.223 Z-7.000 I-16.263 J-16.263 K0.000 F180.000
G1 X43.243 Y-13.134 Z-5.995
G1 X43.604 Y-14.060 Z-7.000
G2 X45.000 Y-21.919 Z-7.000 I-21.605 J-7.889 K0.000 F180.000
G1 X45.000 Y-60.939 Z-7.000 F180.000
G1 X45.000 Y-61.934 Z-5.995 F180.000
G1 X45.000 Y-62.928 Z-7.000 F180.000
G1 X45.000 Y-101.949 Z-7.000 F180.000
G2 X41.078 Y-105.946 Z-7.000 I-4.002 J0.004 K0.000 F180.000
G1 X3.000 Y-105.949 Z-7.000 F180.000
G2 X-0.997 Y-102.027 Z-7.000 I0.004 J4.002 K0.000 F180.000
G1 X-0.998 Y-83.002 Z-7.000 F180.000
G1 X-0.998 Y-82.008 Z-5.995 F180.000
G1 X-0.998 Y-81.013 Z-7.000 F180.000
G1 X-0.999 Y-42.963 Z-7.000 F180.000
G1 X-0.999 Y-41.968 Z-5.995 F180.000
G1 X-0.999 Y-40.974 Z-7.000 F180.000
G1 X-1.000 Y-21.949 Z-7.000 F180.000
G2 X38.263 Y-5.686 Z-7.000 I23.000 J-0.000 K0.000 F180.000
G1 X38.263 Y-5.686 Z-7.500 F180.000
G2 X42.628 Y-11.777 Z-7.500 I-16.263 J-16.263 K0.000 F180.000
G1 X43.243 Y-13.134 Z-5.995
G1 X43.769 Y-14.527 Z-7.500
G2 X45.000 Y-21.919 Z-7.500 I-21.769 J-7.422 K0.000 F180.000
G1 X45.000 Y-60.444 Z-7.500 F180.000
G1 X45.000 Y-61.934 Z-5.995 F180.000
G1 X45.000 Y-63.424 Z-7.500 F180.000
G1 X45.000 Y-101.949 Z-7.500 F180.000
G2 X41.078 Y-105.946 Z-7.500 I-4.002 J0.004 K0.000 F180.000
G1 X3.000 Y-105.949 Z-7.500 F180.000
G2 X-0.997 Y-102.027 Z-7.500 I0.004 J4.002 K0.000 F180.000
G1 X-0.998 Y-83.497 Z-7.500 F180.000
G1 X-0.998 Y-82.008 Z-5.995 F180.000
G1 X-0.998 Y-80.518 Z-7.500 F180.000
G1 X-0.999 Y-43.458 Z-7.500 F180.000
G1 X-0.999 Y-41.968 Z-5.995 F180.000
G1 X-0.999 Y-40.479 Z-7.500 F180.000
G1 X-1.000 Y-21.949 Z-7.500 F180.000
G2 X38.263 Y-5.686 Z-7.500 I23.000 J-0.000 K0.000 F180.000
G1 X38.263 Y-5.686 Z-8.000 F180.000
G2 X42.404 Y-11.335 Z-8.000 I-16.263 J-16.263 K0.000 F180.000
G1 X43.243 Y-13.134 Z-5.995
G1 X43.924 Y-14.998 Z-8.000
G2 X45.000 Y-21.919 Z-8.000 I-21.924 J-6.951 K0.000 F180.000
G1 X45.000 Y-59.949 Z-8.000 F180.000
G1 X45.000 Y-61.934 Z-5.995 F180.000
G1 X45.000 Y-63.919 Z-8.000 F180.000
G1 X45.000 Y-101.949 Z-8.000 F180.000
G2 X41.078 Y-105.946 Z-8.000 I-4.002 J0.004 K0.000 F180.000
G1 X3.000 Y-105.949 Z-8.000 F180.000
G2 X-0.997 Y-102.027 Z-8.000 I0.004 J4.002 K0.000 F180.000
G1 X-0.998 Y-83.992 Z-8.000 F180.000
G1 X-0.998 Y-82.008 Z-5.995 F180.000
G1 X-0.998 Y-80.023 Z-8.000 F180.000
G1 X-0.999 Y-43.953 Z-8.000 F180.000
G1 X-0.999 Y-41.968 Z-5.995 F180.000
G1 X-0.999 Y-39.984 Z-8.000 F180.000
G1 X-1.000 Y-21.949 Z-8.000 F180.000
G2 X38.263 Y-5.686 Z-8.000 I23.000 J-0.000 K0.000 F180.000
G1 X38.263 Y-5.686 Z-8.500 F180.000
G2 X42.171 Y-10.898 Z-8.500 I-16.263 J-16.263 K0.000 F180.000
G1 X43.243 Y-13.134 Z-5.995
G1 X44.069 Y-15.472 Z-8.500
G2 X45.000 Y-21.919 Z-8.500 I-22.069 J-6.477 K0.000 F180.000
G1 X45.000 Y-59.454 Z-8.500 F180.000
G1 X45.000 Y-61.934 Z-5.995 F180.000
G1 X45.000 Y-64.414 Z-8.500 F180.000
G1 X45.000 Y-101.949 Z-8.500 F180.000
G2 X41.078 Y-105.946 Z-8.500 I-4.002 J0.004 K0.000 F180.000
G1 X3.000 Y-105.949 Z-8.500 F180.000
G2 X-0.997 Y-102.027 Z-8.500 I0.004 J4.002 K0.000 F180.000
G1 X-0.998 Y-84.487 Z-8.500 F180.000
G1 X-0.998 Y-82.008 Z-5.995 F180.000
G1 X-0.998 Y-79.528 Z-8.500 F180.000
G1 X-0.999 Y-44.448 Z-8.500 F180.000
G1 X-0.999 Y-41.968 Z-5.995 F180.000
G1 X-0.999 Y-39.489 Z-8.500 F180.000
G1 X-1.000 Y-21.949 Z-8.500 F180.000
G2 X38.263 Y-5.686 Z-8.500 I23.000 J-0.000 K0.000 F180.000
G1 X38.263 Y-5.686 Z-9.000 F180.000
G2 X41.928 Y-10.466 Z-9.000 I-16.263 J-16.263 K0.000 F180.000
G1 X43.243 Y-13.134 Z-5.995
G1 X44.203 Y-15.949 Z-9.000
G2 X45.000 Y-21.919 Z-9.000 I-22.203 J-6.000 K0.000 F180.000
G1 X45.000 Y-58.959 Z-9.000 F180.000
G1 X45.000 Y-61.934 Z-5.995 F180.000
G1 X45.000 Y-64.909 Z-9.000 F180.000
G1 X45.000 Y-101.949 Z-9.000 F180.000
G2 X41.078 Y-105.946 Z-9.000 I-4.002 J0.004 K0.000 F180.000
G1 X3.000 Y-105.949 Z-9.000 F180.000
G2 X-0.997 Y-102.027 Z-9.000 I0.004 J4.002 K0.000 F180.000
G1 X-0.998 Y-84.982 Z-9.000 F180.000
G1 X-0.998 Y-82.008 Z-5.995 F180.000
G1 X-0.998 Y-79.033 Z-9.000 F180.000
G1 X-0.999 Y-44.943 Z-9.000 F180.000
G1 X-0.999 Y-41.968 Z-5.995 F180.000
G1 X-0.999 Y-38.994 Z-9.000 F180.000
G1 X-1.000 Y-21.949 Z-9.000 F180.000
G2 X38.263 Y-5.686 Z-9.000 I23.000 J-0.000 K0.000 F180.000
G1 X38.263 Y-5.686 Z-9.500 F180.000
G2 X41.675 Y-10.038 Z-9.500 I-16.263 J-16.263 K0.000 F180.000
G1 X43.243 Y-13.134 Z-5.995
G1 X44.328 Y-16.430 Z-9.500
G2 X45.000 Y-21.919 Z-9.500 I-22.328 J-5.519 K0.000 F180.000
G1 X45.000 Y-58.464 Z-9.500 F180.000
G1 X45.000 Y-61.934 Z-5.995 F180.000
G1 X45.000 Y-65.404 Z-9.500 F180.000
G1 X45.000 Y-101.949 Z-9.500 F180.000
G2 X41.078 Y-105.946 Z-9.500 I-4.002 J0.004 K0.000 F180.000
G1 X3.000 Y-105.949 Z-9.500 F180.000
G2 X-0.997 Y-102.027 Z-9.500 I0.004 J4.002 K0.000 F180.000
G1 X-0.998 Y-85.477 Z-9.500 F180.000
G1 X-0.998 Y-82.008 Z-5.995 F180.000
G1 X-0.998 Y-78.538 Z-9.500 F180.000
G1 X-0.999 Y-45.438 Z-9.500 F180.000
G1 X-0.999 Y-41.968 Z-5.995 F180.000
G1 X-0.999 Y-38.499 Z-9.500 F180.000
G1 X-1.000 Y-21.949 Z-9.500 F180.000
G2 X38.263 Y-5.686 Z-9.500 I23.000 J-0.000 K0.000 F180.000
G1 X38.263 Y-5.686 Z-10.000 F180.000
G2 X41.414 Y-9.616 Z-10.000 I-16.263 J-16.263 K0.000 F180.000
G1 X43.243 Y-13.134 Z-5.995
G1 X44.441 Y-16.913 Z-10.000
G2 X45.000 Y-21.919 Z-10.000 I-22.442 J-5.036 K0.000 F180.000
G1 X45.000 Y-57.969 Z-10.000 F180.000
G1 X45.000 Y-61.934 Z-5.995 F180.000
G1 X45.000 Y-65.899 Z-10.000 F180.000
G1 X45.000 Y-101.949 Z-10.000 F180.000
G2 X41.078 Y-105.946 Z-10.000 I-4.002 J0.004 K0.000 F180.000
G1 X3.000 Y-105.949 Z-10.000 F180.000
G2 X-0.997 Y-102.027 Z-10.000 I0.004 J4.002 K0.000 F180.000
G1 X-0.998 Y-85.972 Z-10.000 F180.000
G1 X-0.998 Y-82.008 Z-5.995 F180.000
G1 X-0.998 Y-78.043 Z-10.000 F180.000
G1 X-0.999 Y-45.933 Z-10.000 F180.000
G1 X-0.999 Y-41.968 Z-5.995 F180.000
G1 X-0.999 Y-38.003 Z-10.000 F180.000
G1 X-1.000 Y-21.949 Z-10.000 F180.000
G2 X38.263 Y-5.686 Z-10.000 I23.000 J-0.000 K0.000 F180.000
G1 X38.263 Y-5.686 Z-10.500 F180.000
G2 X41.142 Y-9.199 Z-10.500 I-16.263 J-16.263 K0.000 F180.000
G1 X43.243 Y-13.134 Z-5.995
G1 X44.545 Y-17.399 Z-10.500
G2 X45.000 Y-21.919 Z-10.500 I-22.545 J-4.550 K0.000 F180.000
G1 X45.000 Y-57.474 Z-10.500 F180.000
G1 X45.000 Y-61.934 Z-5.995 F180.000
G1 X45.000 Y-66.394 Z-10.500 F180.000
G1 X45.000 Y-101.949 Z-10.500 F180.000
G2 X41.078 Y-105.946 Z-10.500 I-4.002 J0.004 K0.000 F180.000
G1 X3.000 Y-105.949 Z-10.500 F180.000
G2 X-0.997 Y-102.027 Z-10.500 I0.004 J4.002 K0.000 F180.000
G1 X-0.998 Y-86.467 Z-10.500 F180.000
G1 X-0.998 Y-82.008 Z-5.995 F180.000
G1 X-0.998 Y-77.548 Z-10.500 F180.000
G1 X-0.999 Y-46.428 Z-10.500 F180.000
G1 X-0.999 Y-41.968 Z-5.995 F180.000
G1 X-0.999 Y-37.508 Z-10.500 F180.000
G1 X-1.000 Y-21.949 Z-10.500 F180.000
G2 X38.263 Y-5.686 Z-10.500 I23.000 J-0.000 K0.000 F180.000
G1 X38.263 Y-5.686 Z-11.000 F180.000
G2 X40.862 Y-8.788 Z-11.000 I-16.263 J-16.263 K0.000 F180.000
G1 X43.243 Y-13.134 Z-5.995
G1 X44.638 Y-17.888 Z-11.000
G2 X45.000 Y-21.919 Z-11.000 I-22.638 J-4.061 K0.000 F180.000
G1 X45.000 Y-56.979 Z-11.000 F180.000
G1 X45.000 Y-61.934 Z-5.995 F180.000
G1 X45.000 Y-66.889 Z-11.000 F180.000
G1 X45.000 Y-101.949 Z-11.000 F180.000
G2 X41.078 Y-105.946 Z-11.000 I-4.002 J0.004 K0.000 F180.000
G1 X3.000 Y-105.949 Z-11.000 F180.000
G2 X-0.997 Y-102.027 Z-11.000 I0.004 J4.002 K0.000 F180.000
G1 X-0.997 Y-86.963 Z-11.000 F180.000
G1 X-0.998 Y-82.008 Z-5.995 F180.000
G1 X-0.998 Y-77.053 Z-11.000 F180.000
G1 X-0.999 Y-46.923 Z-11.000 F180.000
G1 X-0.999 Y-41.968 Z-5.995 F180.000
G1 X-0.999 Y-37.013 Z-11.000 F180.000
G1 X-1.000 Y-21.949 Z-11.000 F180.000
G2 X38.263 Y-5.686 Z-11.000 I23.000 J-0.000 K0.000 F180.000
G0 X38.263 Y-5.686 Z6.000
(Finish operation: DressupTag001)
(Begin operation: Pocket_Shape)
(Path: Pocket_Shape)
(Pocket_Shape)
G0 Z6.000
G0 X32.252 Y-11.695
G1 X32.252 Y-11.695 Z-0.500 F180.000
G2 X22.000 Y-36.448 Z-0.500 I-10.252 J-10.253 K0.000 F180.000
G2 X7.501 Y-21.949 Z-0.500 I-0.000 J14.499 K0.000 F180.000
G2 X22.000 Y-7.449 Z-0.500 I14.499 J-0.000 K0.000 F180.000
G2 X32.252 Y-11.695 Z-0.500 I0.000 J-14.499 K0.000 F180.000
G0 Z6.000
G0 X32.253 Y-32.201 Z6.000
G0 X32.253 Y-32.201 Z6.000
G1 X32.253 Y-32.201 Z-0.500 F180.000
G3 X36.022 Y-25.604 Z-0.500 I-10.140 J10.169 K0.000 F180.000
G1 X25.655 Y-35.970 Z-0.500 F180.000
G2 X22.362 Y-36.435 Z-0.500 I-3.488 J12.820 K0.000 F180.000
G1 X36.486 Y-22.311 Z-0.500 F180.000
G3 X36.311 Y-19.658 Z-0.500 I-12.929 J0.476 K0.000 F180.000
G1 X19.709 Y-36.259 Z-0.500 F180.000
G2 X17.438 Y-35.702 Z-0.500 I1.571 J11.306 K0.000 F180.000
G1 X35.753 Y-17.387 Z-0.500 F180.000
G3 X34.921 Y-15.390 Z-0.500 I-10.820 J-3.338 K0.000 F180.000
G1 X15.442 Y-34.870 Z-0.500 F180.000
G2 X13.675 Y-33.809 Z-0.500 I4.832 J10.047 K0.000 F180.000
G1 X33.860 Y-13.623 Z-0.500 F180.000
G3 X32.593 Y-12.062 Z-0.500 I-9.024 J-6.026 K0.000 F180.000
G1 X12.113 Y-32.542 Z-0.500 F180.000
G2 X10.748 Y-31.079 Z-0.500 I7.024 J7.923 K0.000 F180.000
G1 X31.130 Y-10.697 Z-0.500 F180.000
G3 X29.467 Y-9.531 Z-0.500 I-6.845 J-7.992 K0.000 F180.000
G1 X9.582 Y-29.416 Z-0.500 F180.000
G2 X8.631 Y-27.538 Z-0.500 I9.106 J5.789 K0.000 F180.000
G1 X27.590 Y-8.580 Z-0.500 F180.000
G3 X25.463 Y-7.878 Z-0.500 I-4.685 J-10.618 K0.000 F180.000
G1 X7.929 Y-25.412 Z-0.500 F180.000
G2 X7.537 Y-22.975 Z-0.500 I13.069 J3.352 K0.000 F180.000
G1 X23.027 Y-7.486 Z-0.500 F180.000
G3 X20.106 Y-7.579 Z-0.500 I-1.029 J-13.649 K0.000 F180.000
G1 X7.630 Y-20.054 Z-0.500 F180.000
G2 X8.726 Y-16.130 Z-0.500 I13.833 J-1.749 K0.000 F180.000
G2 X16.181 Y-8.675 Z-0.500 I13.210 J-5.755 K0.000 F180.000
G1 X8.726 Y-16.130 Z-0.500 F180.000
G1 X8.726 Y-16.130 Z-1.000 F180.000
G1 X16.181 Y-8.675 Z-1.000 F180.000
G3 X8.726 Y-16.130 Z-1.000 I5.755 J-13.210 K0.000 F180.000
G3 X7.630 Y-20.054 Z-1.000 I12.737 J-5.673 K0.000 F180.000
G1 X20.106 Y-7.579 Z-1.000 F180.000
G2 X23.027 Y-7.486 Z-1.000 I1.892 J-13.556 K0.000 F180.000
G1 X7.537 Y-22.975 Z-1.000 F180.000
G3 X7.929 Y-25.412 Z-1.000 I13.461 J0.916 K0.000 F180.000
G1 X25.463 Y-7.878 Z-1.000 F180.000
G2 X27.590 Y-8.580 Z-1.000 I-2.558 J-11.320 K0.000 F180.000
G1 X8.631 Y-27.538 Z-1.000 F180.000
G3 X9.582 Y-29.416 Z-1.000 I10.057 J3.912 K0.000 F180.000
G1 X29.467 Y-9.531 Z-1.000 F180.000
G2 X31.130 Y-10.697 Z-1.000 I-5.182 J-9.158 K0.000 F180.000
G1 X10.748 Y-31.079 Z-1.000 F180.000
G3 X12.113 Y-32.542 Z-1.000 I8.390 J6.460 K0.000 F180.000
G1 X32.593 Y-12.062 Z-1.000 F180.000
G2 X33.860 Y-13.623 Z-1.000 I-7.757 J-7.588 K0.000 F180.000
G1 X13.675 Y-33.809 Z-1.000 F180.000
G3 X15.442 Y-34.870 Z-1.000 I6.599 J8.985 K0.000 F180.000
G1 X34.921 Y-15.390 Z-1.000 F180.000
G2 X35.753 Y-17.387 Z-1.000 I-9.988 J-5.334 K0.000 F180.000
G1 X17.438 Y-35.702 Z-1.000 F180.000
G3 X19.709 Y-36.259 Z-1.000 I3.842 J10.748 K0.000 F180.000
G1 X36.311 Y-19.658 Z-1.000 F180.000
G2 X36.486 Y-22.311 Z-1.000 I-12.754 J-2.177 K0.000 F180.000
G1 X22.362 Y-36.435 Z-1.000 F180.000
G3 X25.655 Y-35.970 Z-1.000 I-0.195 J13.285 K0.000 F180.000
G1 X36.022 Y-25.604 Z-1.000 F180.000
G2 X32.253 Y-32.201 Z-1.000 I-13.910 J3.571 K0.000 F180.000
G1 X32.253 Y-32.201 Z-1.000 F180.000
G2 X22.000 Y-36.448 Z-1.000 I-10.253 J10.253 K0.000 F180.000
G2 X7.501 Y-21.949 Z-1.000 I-0.000 J14.499 K0.000 F180.000
G2 X22.000 Y-7.449 Z-1.000 I14.499 J-0.000 K0.000 F180.000
G2 X32.253 Y-32.201 Z-1.000 I0.000 J-14.499 K0.000 F180.000
G1 X32.253 Y-32.201 Z-1.500 F180.000
G2 X22.000 Y-36.448 Z-1.500 I-10.253 J10.253 K0.000 F180.000
G2 X7.501 Y-21.949 Z-1.500 I-0.000 J14.499 K0.000 F180.000
G2 X22.000 Y-7.449 Z-1.500 I14.499 J-0.000 K0.000 F180.000
G2 X32.253 Y-32.201 Z-1.500 I0.000 J-14.499 K0.000 F180.000
G1 X32.253 Y-32.201 Z-1.500 F180.000
G3 X36.022 Y-25.604 Z-1.500 I-10.140 J10.169 K0.000 F180.000
G1 X25.655 Y-35.970 Z-1.500 F180.000
G2 X22.362 Y-36.435 Z-1.500 I-3.488 J12.820 K0.000 F180.000
G1 X36.486 Y-22.311 Z-1.500 F180.000
G3 X36.311 Y-19.658 Z-1.500 I-12.929 J0.476 K0.000 F180.000
G1 X19.709 Y-36.259 Z-1.500 F180.000
G2 X17.438 Y-35.702 Z-1.500 I1.571 J11.306 K0.000 F180.000
G1 X35.753 Y-17.387 Z-1.500 F180.000
G3 X34.921 Y-15.390 Z-1.500 I-10.820 J-3.338 K0.000 F180.000
G1 X15.442 Y-34.870 Z-1.500 F180.000
G2 X13.675 Y-33.809 Z-1.500 I4.832 J10.047 K0.000 F180.000
G1 X33.860 Y-13.623 Z-1.500 F180.000
G3 X32.593 Y-12.062 Z-1.500 I-9.024 J-6.026 K0.000 F180.000
G1 X12.113 Y-32.542 Z-1.500 F180.000
G2 X10.748 Y-31.079 Z-1.500 I7.024 J7.923 K0.000 F180.000
G1 X31.130 Y-10.697 Z-1.500 F180.000
G3 X29.467 Y-9.531 Z-1.500 I-6.845 J-7.992 K0.000 F180.000
G1 X9.582 Y-29.416 Z-1.500 F180.000
G2 X8.631 Y-27.538 Z-1.500 I9.106 J5.789 K0.000 F180.000
G1 X27.590 Y-8.580 Z-1.500 F180.000
G3 X25.463 Y-7.878 Z-1.500 I-4.685 J-10.618 K0.000 F180.000
G1 X7.929 Y-25.412 Z-1.500 F180.000
G2 X7.537 Y-22.975 Z-1.500 I13.069 J3.352 K0.000 F180.000
G1 X23.027 Y-7.486 Z-1.500 F180.000
G3 X20.106 Y-7.579 Z-1.500 I-1.029 J-13.649 K0.000 F180.000
G1 X7.630 Y-20.054 Z-1.500 F180.000
G2 X8.726 Y-16.130 Z-1.500 I13.833 J-1.749 K0.000 F180.000
G2 X16.181 Y-8.675 Z-1.500 I13.210 J-5.755 K0.000 F180.000
G1 X8.726 Y-16.130 Z-1.500 F180.000
G1 X8.726 Y-16.130 Z-2.000 F180.000
G1 X16.181 Y-8.675 Z-2.000 F180.000
G3 X8.726 Y-16.130 Z-2.000 I5.755 J-13.210 K0.000 F180.000
G3 X7.630 Y-20.054 Z-2.000 I12.737 J-5.673 K0.000 F180.000
G1 X20.106 Y-7.579 Z-2.000 F180.000
G2 X23.027 Y-7.486 Z-2.000 I1.892 J-13.556 K0.000 F180.000
G1 X7.537 Y-22.975 Z-2.000 F180.000
G3 X7.929 Y-25.412 Z-2.000 I13.461 J0.916 K0.000 F180.000
G1 X25.463 Y-7.878 Z-2.000 F180.000
G2 X27.590 Y-8.580 Z-2.000 I-2.558 J-11.320 K0.000 F180.000
G1 X8.631 Y-27.538 Z-2.000 F180.000
G3 X9.582 Y-29.416 Z-2.000 I10.057 J3.912 K0.000 F180.000
G1 X29.467 Y-9.531 Z-2.000 F180.000
G2 X31.130 Y-10.697 Z-2.000 I-5.182 J-9.158 K0.000 F180.000
G1 X10.748 Y-31.079 Z-2.000 F180.000
G3 X12.113 Y-32.542 Z-2.000 I8.390 J6.460 K0.000 F180.000
G1 X32.593 Y-12.062 Z-2.000 F180.000
G2 X33.860 Y-13.623 Z-2.000 I-7.757 J-7.588 K0.000 F180.000
G1 X13.675 Y-33.809 Z-2.000 F180.000
G3 X15.442 Y-34.870 Z-2.000 I6.599 J8.985 K0.000 F180.000
G1 X34.921 Y-15.390 Z-2.000 F180.000
G2 X35.753 Y-17.387 Z-2.000 I-9.988 J-5.334 K0.000 F180.000
G1 X17.438 Y-35.702 Z-2.000 F180.000
G3 X19.709 Y-36.259 Z-2.000 I3.842 J10.748 K0.000 F180.000
G1 X36.311 Y-19.658 Z-2.000 F180.000
G2 X36.486 Y-22.311 Z-2.000 I-12.754 J-2.177 K0.000 F180.000
G1 X22.362 Y-36.435 Z-2.000 F180.000
G3 X25.655 Y-35.970 Z-2.000 I-0.195 J13.285 K0.000 F180.000
G1 X36.022 Y-25.604 Z-2.000 F180.000
G2 X32.253 Y-32.201 Z-2.000 I-13.910 J3.571 K0.000 F180.000
G1 X32.253 Y-32.201 Z-2.000 F180.000
G2 X22.000 Y-36.448 Z-2.000 I-10.253 J10.253 K0.000 F180.000
G2 X7.501 Y-21.949 Z-2.000 I-0.000 J14.499 K0.000 F180.000
G2 X22.000 Y-7.449 Z-2.000 I14.499 J-0.000 K0.000 F180.000
G2 X32.253 Y-32.201 Z-2.000 I0.000 J-14.499 K0.000 F180.000
G1 X32.253 Y-32.201 Z-2.500 F180.000
G2 X22.000 Y-36.448 Z-2.500 I-10.253 J10.253 K0.000 F180.000
G2 X7.501 Y-21.949 Z-2.500 I-0.000 J14.499 K0.000 F180.000
G2 X22.000 Y-7.449 Z-2.500 I14.499 J-0.000 K0.000 F180.000
G2 X32.253 Y-32.201 Z-2.500 I0.000 J-14.499 K0.000 F180.000
G1 X32.253 Y-32.201 Z-2.500 F180.000
G3 X36.022 Y-25.604 Z-2.500 I-10.140 J10.169 K0.000 F180.000
G1 X25.655 Y-35.970 Z-2.500 F180.000
G2 X22.362 Y-36.435 Z-2.500 I-3.488 J12.820 K0.000 F180.000
G1 X36.486 Y-22.311 Z-2.500 F180.000
G3 X36.311 Y-19.658 Z-2.500 I-12.929 J0.476 K0.000 F180.000
G1 X19.709 Y-36.259 Z-2.500 F180.000
G2 X17.438 Y-35.702 Z-2.500 I1.571 J11.306 K0.000 F180.000
G1 X35.753 Y-17.387 Z-2.500 F180.000
G3 X34.921 Y-15.390 Z-2.500 I-10.820 J-3.338 K0.000 F180.000
G1 X15.442 Y-34.870 Z-2.500 F180.000
G2 X13.675 Y-33.809 Z-2.500 I4.832 J10.047 K0.000 F180.000
G1 X33.860 Y-13.623 Z-2.500 F180.000
G3 X32.593 Y-12.062 Z-2.500 I-9.024 J-6.026 K0.000 F180.000
G1 X12.113 Y-32.542 Z-2.500 F180.000
G2 X10.748 Y-31.079 Z-2.500 I7.024 J7.923 K0.000 F180.000
G1 X31.130 Y-10.697 Z-2.500 F180.000
G3 X29.467 Y-9.531 Z-2.500 I-6.845 J-7.992 K0.000 F180.000
G1 X9.582 Y-29.416 Z-2.500 F180.000
G2 X8.631 Y-27.538 Z-2.500 I9.106 J5.789 K0.000 F180.000
G1 X27.590 Y-8.580 Z-2.500 F180.000
G3 X25.463 Y-7.878 Z-2.500 I-4.685 J-10.618 K0.000 F180.000
G1 X7.929 Y-25.412 Z-2.500 F180.000
G2 X7.537 Y-22.975 Z-2.500 I13.069 J3.352 K0.000 F180.000
G1 X23.027 Y-7.486 Z-2.500 F180.000
G3 X20.106 Y-7.579 Z-2.500 I-1.029 J-13.649 K0.000 F180.000
G1 X7.630 Y-20.054 Z-2.500 F180.000
G2 X8.726 Y-16.130 Z-2.500 I13.833 J-1.749 K0.000 F180.000
G2 X16.181 Y-8.675 Z-2.500 I13.210 J-5.755 K0.000 F180.000
G1 X8.726 Y-16.130 Z-2.500 F180.000
G1 X8.726 Y-16.130 Z-3.000 F180.000
G1 X16.181 Y-8.675 Z-3.000 F180.000
G3 X8.726 Y-16.130 Z-3.000 I5.755 J-13.210 K0.000 F180.000
G3 X7.630 Y-20.054 Z-3.000 I12.737 J-5.673 K0.000 F180.000
G1 X20.106 Y-7.579 Z-3.000 F180.000
G2 X23.027 Y-7.486 Z-3.000 I1.892 J-13.556 K0.000 F180.000
G1 X7.537 Y-22.975 Z-3.000 F180.000
G3 X7.929 Y-25.412 Z-3.000 I13.461 J0.916 K0.000 F180.000
G1 X25.463 Y-7.878 Z-3.000 F180.000
G2 X27.590 Y-8.580 Z-3.000 I-2.558 J-11.320 K0.000 F180.000
G1 X8.631 Y-27.538 Z-3.000 F180.000
G3 X9.582 Y-29.416 Z-3.000 I10.057 J3.912 K0.000 F180.000
G1 X29.467 Y-9.531 Z-3.000 F180.000
G2 X31.130 Y-10.697 Z-3.000 I-5.182 J-9.158 K0.000 F180.000
G1 X10.748 Y-31.079 Z-3.000 F180.000
G3 X12.113 Y-32.542 Z-3.000 I8.390 J6.460 K0.000 F180.000
G1 X32.593 Y-12.062 Z-3.000 F180.000
G2 X33.860 Y-13.623 Z-3.000 I-7.757 J-7.588 K0.000 F180.000
G1 X13.675 Y-33.809 Z-3.000 F180.000
G3 X15.442 Y-34.870 Z-3.000 I6.599 J8.985 K0.000 F180.000
G1 X34.921 Y-15.390 Z-3.000 F180.000
G2 X35.753 Y-17.387 Z-3.000 I-9.988 J-5.334 K0.000 F180.000
G1 X17.438 Y-35.702 Z-3.000 F180.000
G3 X19.709 Y-36.259 Z-3.000 I3.842 J10.748 K0.000 F180.000
G1 X36.311 Y-19.658 Z-3.000 F180.000
G2 X36.486 Y-22.311 Z-3.000 I-12.754 J-2.177 K0.000 F180.000
G1 X22.362 Y-36.435 Z-3.000 F180.000
G3 X25.655 Y-35.970 Z-3.000 I-0.195 J13.285 K0.000 F180.000
G1 X36.022 Y-25.604 Z-3.000 F180.000
G2 X32.253 Y-32.201 Z-3.000 I-13.910 J3.571 K0.000 F180.000
G1 X32.253 Y-32.201 Z-3.000 F180.000
G2 X22.000 Y-36.448 Z-3.000 I-10.253 J10.253 K0.000 F180.000
G2 X7.501 Y-21.949 Z-3.000 I-0.000 J14.499 K0.000 F180.000
G2 X22.000 Y-7.449 Z-3.000 I14.499 J-0.000 K0.000 F180.000
G2 X32.253 Y-32.201 Z-3.000 I0.000 J-14.499 K0.000 F180.000
G1 X32.253 Y-32.201 Z-3.500 F180.000
G2 X22.000 Y-36.448 Z-3.500 I-10.253 J10.253 K0.000 F180.000
G2 X7.501 Y-21.949 Z-3.500 I-0.000 J14.499 K0.000 F180.000
G2 X22.000 Y-7.449 Z-3.500 I14.499 J-0.000 K0.000 F180.000
G2 X32.253 Y-32.201 Z-3.500 I0.000 J-14.499 K0.000 F180.000
G1 X32.253 Y-32.201 Z-3.500 F180.000
G3 X36.022 Y-25.604 Z-3.500 I-10.140 J10.169 K0.000 F180.000
G1 X25.655 Y-35.970 Z-3.500 F180.000
G2 X22.362 Y-36.435 Z-3.500 I-3.488 J12.820 K0.000 F180.000
G1 X36.486 Y-22.311 Z-3.500 F180.000
G3 X36.311 Y-19.658 Z-3.500 I-12.929 J0.476 K0.000 F180.000
G1 X19.709 Y-36.259 Z-3.500 F180.000
G2 X17.438 Y-35.702 Z-3.500 I1.571 J11.306 K0.000 F180.000
G1 X35.753 Y-17.387 Z-3.500 F180.000
G3 X34.921 Y-15.390 Z-3.500 I-10.820 J-3.338 K0.000 F180.000
G1 X15.442 Y-34.870 Z-3.500 F180.000
G2 X13.675 Y-33.809 Z-3.500 I4.832 J10.047 K0.000 F180.000
G1 X33.860 Y-13.623 Z-3.500 F180.000
G3 X32.593 Y-12.062 Z-3.500 I-9.024 J-6.026 K0.000 F180.000
G1 X12.113 Y-32.542 Z-3.500 F180.000
G2 X10.748 Y-31.079 Z-3.500 I7.024 J7.923 K0.000 F180.000
G1 X31.130 Y-10.697 Z-3.500 F180.000
G3 X29.467 Y-9.531 Z-3.500 I-6.845 J-7.992 K0.000 F180.000
G1 X9.582 Y-29.416 Z-3.500 F180.000
G2 X8.631 Y-27.538 Z-3.500 I9.106 J5.789 K0.000 F180.000
G1 X27.590 Y-8.580 Z-3.500 F180.000
G3 X25.463 Y-7.878 Z-3.500 I-4.685 J-10.618 K0.000 F180.000
G1 X7.929 Y-25.412 Z-3.500 F180.000
G2 X7.537 Y-22.975 Z-3.500 I13.069 J3.352 K0.000 F180.000
G1 X23.027 Y-7.486 Z-3.500 F180.000
G3 X20.106 Y-7.579 Z-3.500 I-1.029 J-13.649 K0.000 F180.000
G1 X7.630 Y-20.054 Z-3.500 F180.000
G2 X8.726 Y-16.130 Z-3.500 I13.833 J-1.749 K0.000 F180.000
G2 X16.181 Y-8.675 Z-3.500 I13.210 J-5.755 K0.000 F180.000
G1 X8.726 Y-16.130 Z-3.500 F180.000
G1 X8.726 Y-16.130 Z-4.000 F180.000
G1 X16.181 Y-8.675 Z-4.000 F180.000
G3 X8.726 Y-16.130 Z-4.000 I5.755 J-13.210 K0.000 F180.000
G3 X7.630 Y-20.054 Z-4.000 I12.737 J-5.673 K0.000 F180.000
G1 X20.106 Y-7.579 Z-4.000 F180.000
G2 X23.027 Y-7.486 Z-4.000 I1.892 J-13.556 K0.000 F180.000
G1 X7.537 Y-22.975 Z-4.000 F180.000
G3 X7.929 Y-25.412 Z-4.000 I13.461 J0.916 K0.000 F180.000
G1 X25.463 Y-7.878 Z-4.000 F180.000
G2 X27.590 Y-8.580 Z-4.000 I-2.558 J-11.320 K0.000 F180.000
G1 X8.631 Y-27.538 Z-4.000 F180.000
G3 X9.582 Y-29.416 Z-4.000 I10.057 J3.912 K0.000 F180.000
G1 X29.467 Y-9.531 Z-4.000 F180.000
G2 X31.130 Y-10.697 Z-4.000 I-5.182 J-9.158 K0.000 F180.000
G1 X10.748 Y-31.079 Z-4.000 F180.000
G3 X12.113 Y-32.542 Z-4.000 I8.390 J6.460 K0.000 F180.000
G1 X32.593 Y-12.062 Z-4.000 F180.000
G2 X33.860 Y-13.623 Z-4.000 I-7.757 J-7.588 K0.000 F180.000
G1 X13.675 Y-33.809 Z-4.000 F180.000
G3 X15.442 Y-34.870 Z-4.000 I6.599 J8.985 K0.000 F180.000
G1 X34.921 Y-15.390 Z-4.000 F180.000
G2 X35.753 Y-17.387 Z-4.000 I-9.988 J-5.334 K0.000 F180.000
G1 X17.438 Y-35.702 Z-4.000 F180.000
G3 X19.709 Y-36.259 Z-4.000 I3.842 J10.748 K0.000 F180.000
G1 X36.311 Y-19.658 Z-4.000 F180.000
G2 X36.486 Y-22.311 Z-4.000 I-12.754 J-2.177 K0.000 F180.000
G1 X22.362 Y-36.435 Z-4.000 F180.000
G3 X25.655 Y-35.970 Z-4.000 I-0.195 J13.285 K0.000 F180.000
G1 X36.022 Y-25.604 Z-4.000 F180.000
G2 X32.253 Y-32.201 Z-4.000 I-13.910 J3.571 K0.000 F180.000
G1 X32.253 Y-32.201 Z-4.000 F180.000
G2 X22.000 Y-36.448 Z-4.000 I-10.253 J10.253 K0.000 F180.000
G2 X7.501 Y-21.949 Z-4.000 I-0.000 J14.499 K0.000 F180.000
G2 X22.000 Y-7.449 Z-4.000 I14.499 J-0.000 K0.000 F180.000
G2 X32.253 Y-32.201 Z-4.000 I0.000 J-14.499 K0.000 F180.000
G1 X32.253 Y-32.201 Z-4.500 F180.000
G2 X22.000 Y-36.448 Z-4.500 I-10.253 J10.253 K0.000 F180.000
G2 X7.501 Y-21.949 Z-4.500 I-0.000 J14.499 K0.000 F180.000
G2 X22.000 Y-7.449 Z-4.500 I14.499 J-0.000 K0.000 F180.000
G2 X32.253 Y-32.201 Z-4.500 I0.000 J-14.499 K0.000 F180.000
G1 X32.253 Y-32.201 Z-4.500 F180.000
G3 X36.022 Y-25.604 Z-4.500 I-10.140 J10.169 K0.000 F180.000
G1 X25.655 Y-35.970 Z-4.500 F180.000
G2 X22.362 Y-36.435 Z-4.500 I-3.488 J12.820 K0.000 F180.000
G1 X36.486 Y-22.311 Z-4.500 F180.000
G3 X36.311 Y-19.658 Z-4.500 I-12.929 J0.476 K0.000 F180.000
G1 X19.709 Y-36.259 Z-4.500 F180.000
G2 X17.438 Y-35.702 Z-4.500 I1.571 J11.306 K0.000 F180.000
G1 X35.753 Y-17.387 Z-4.500 F180.000
G3 X34.921 Y-15.390 Z-4.500 I-10.820 J-3.338 K0.000 F180.000
G1 X15.442 Y-34.870 Z-4.500 F180.000
G2 X13.675 Y-33.809 Z-4.500 I4.832 J10.047 K0.000 F180.000
G1 X33.860 Y-13.623 Z-4.500 F180.000
G3 X32.593 Y-12.062 Z-4.500 I-9.024 J-6.026 K0.000 F180.000
G1 X12.113 Y-32.542 Z-4.500 F180.000
G2 X10.748 Y-31.079 Z-4.500 I7.024 J7.923 K0.000 F180.000
G1 X31.130 Y-10.697 Z-4.500 F180.000
G3 X29.467 Y-9.531 Z-4.500 I-6.845 J-7.992 K0.000 F180.000
G1 X9.582 Y-29.416 Z-4.500 F180.000
G2 X8.631 Y-27.538 Z-4.500 I9.106 J5.789 K0.000 F180.000
G1 X27.590 Y-8.580 Z-4.500 F180.000
G3 X25.463 Y-7.878 Z-4.500 I-4.685 J-10.618 K0.000 F180.000
G1 X7.929 Y-25.412 Z-4.500 F180.000
G2 X7.537 Y-22.975 Z-4.500 I13.069 J3.352 K0.000 F180.000
G1 X23.027 Y-7.486 Z-4.500 F180.000
G3 X20.106 Y-7.579 Z-4.500 I-1.029 J-13.649 K0.000 F180.000
G1 X7.630 Y-20.054 Z-4.500 F180.000
G2 X8.726 Y-16.130 Z-4.500 I13.833 J-1.749 K0.000 F180.000
G2 X16.181 Y-8.675 Z-4.500 I13.210 J-5.755 K0.000 F180.000
G1 X8.726 Y-16.130 Z-4.500 F180.000
G1 X8.726 Y-16.130 Z-5.000 F180.000
G1 X16.181 Y-8.675 Z-5.000 F180.000
G3 X8.726 Y-16.130 Z-5.000 I5.755 J-13.210 K0.000 F180.000
G3 X7.630 Y-20.054 Z-5.000 I12.737 J-5.673 K0.000 F180.000
G1 X20.106 Y-7.579 Z-5.000 F180.000
G2 X23.027 Y-7.486 Z-5.000 I1.892 J-13.556 K0.000 F180.000
G1 X7.537 Y-22.975 Z-5.000 F180.000
G3 X7.929 Y-25.412 Z-5.000 I13.461 J0.916 K0.000 F180.000
G1 X25.463 Y-7.878 Z-5.000 F180.000
G2 X27.590 Y-8.580 Z-5.000 I-2.558 J-11.320 K0.000 F180.000
G1 X8.631 Y-27.538 Z-5.000 F180.000
G3 X9.582 Y-29.416 Z-5.000 I10.057 J3.912 K0.000 F180.000
G1 X29.467 Y-9.531 Z-5.000 F180.000
G2 X31.130 Y-10.697 Z-5.000 I-5.182 J-9.158 K0.000 F180.000
G1 X10.748 Y-31.079 Z-5.000 F180.000
G3 X12.113 Y-32.542 Z-5.000 I8.390 J6.460 K0.000 F180.000
G1 X32.593 Y-12.062 Z-5.000 F180.000
G2 X33.860 Y-13.623 Z-5.000 I-7.757 J-7.588 K0.000 F180.000
G1 X13.675 Y-33.809 Z-5.000 F180.000
G3 X15.442 Y-34.870 Z-5.000 I6.599 J8.985 K0.000 F180.000
G1 X34.921 Y-15.390 Z-5.000 F180.000
G2 X35.753 Y-17.387 Z-5.000 I-9.988 J-5.334 K0.000 F180.000
G1 X17.438 Y-35.702 Z-5.000 F180.000
G3 X19.709 Y-36.259 Z-5.000 I3.842 J10.748 K0.000 F180.000
G1 X36.311 Y-19.658 Z-5.000 F180.000
G2 X36.486 Y-22.311 Z-5.000 I-12.754 J-2.177 K0.000 F180.000
G1 X22.362 Y-36.435 Z-5.000 F180.000
G3 X25.655 Y-35.970 Z-5.000 I-0.195 J13.285 K0.000 F180.000
G1 X36.022 Y-25.604 Z-5.000 F180.000
G2 X32.253 Y-32.201 Z-5.000 I-13.910 J3.571 K0.000 F180.000
G1 X32.253 Y-32.201 Z-5.000 F180.000
G2 X22.000 Y-36.448 Z-5.000 I-10.253 J10.253 K0.000 F180.000
G2 X7.501 Y-21.949 Z-5.000 I-0.000 J14.499 K0.000 F180.000
G2 X22.000 Y-7.449 Z-5.000 I14.499 J-0.000 K0.000 F180.000
G2 X32.253 Y-32.201 Z-5.000 I0.000 J-14.499 K0.000 F180.000
G1 X32.253 Y-32.201 Z-5.500 F180.000
G2 X22.000 Y-36.448 Z-5.500 I-10.253 J10.253 K0.000 F180.000
G2 X7.501 Y-21.949 Z-5.500 I-0.000 J14.499 K0.000 F180.000
G2 X22.000 Y-7.449 Z-5.500 I14.499 J-0.000 K0.000 F180.000
G2 X32.253 Y-32.201 Z-5.500 I0.000 J-14.499 K0.000 F180.000
G1 X32.253 Y-32.201 Z-5.500 F180.000
G3 X36.022 Y-25.604 Z-5.500 I-10.140 J10.169 K0.000 F180.000
G1 X25.655 Y-35.970 Z-5.500 F180.000
G2 X22.362 Y-36.435 Z-5.500 I-3.488 J12.820 K0.000 F180.000
G1 X36.486 Y-22.311 Z-5.500 F180.000
G3 X36.311 Y-19.658 Z-5.500 I-12.929 J0.476 K0.000 F180.000
G1 X19.709 Y-36.259 Z-5.500 F180.000
G2 X17.438 Y-35.702 Z-5.500 I1.571 J11.306 K0.000 F180.000
G1 X35.753 Y-17.387 Z-5.500 F180.000
G3 X34.921 Y-15.390 Z-5.500 I-10.820 J-3.338 K0.000 F180.000
G1 X15.442 Y-34.870 Z-5.500 F180.000
G2 X13.675 Y-33.809 Z-5.500 I4.832 J10.047 K0.000 F180.000
G1 X33.860 Y-13.623 Z-5.500 F180.000
G3 X32.593 Y-12.062 Z-5.500 I-9.024 J-6.026 K0.000 F180.000
G1 X12.113 Y-32.542 Z-5.500 F180.000
G2 X10.748 Y-31.079 Z-5.500 I7.024 J7.923 K0.000 F180.000
G1 X31.130 Y-10.697 Z-5.500 F180.000
G3 X29.467 Y-9.531 Z-5.500 I-6.845 J-7.992 K0.000 F180.000
G1 X9.582 Y-29.416 Z-5.500 F180.000
G2 X8.631 Y-27.538 Z-5.500 I9.106 J5.789 K0.000 F180.000
G1 X27.590 Y-8.580 Z-5.500 F180.000
G3 X25.463 Y-7.878 Z-5.500 I-4.685 J-10.618 K0.000 F180.000
G1 X7.929 Y-25.412 Z-5.500 F180.000
G2 X7.537 Y-22.975 Z-5.500 I13.069 J3.352 K0.000 F180.000
G1 X23.027 Y-7.486 Z-5.500 F180.000
G3 X20.106 Y-7.579 Z-5.500 I-1.029 J-13.649 K0.000 F180.000
G1 X7.630 Y-20.054 Z-5.500 F180.000
G2 X8.726 Y-16.130 Z-5.500 I13.833 J-1.749 K0.000 F180.000
G2 X16.181 Y-8.675 Z-5.500 I13.210 J-5.755 K0.000 F180.000
G1 X8.726 Y-16.130 Z-5.500 F180.000
G1 X8.726 Y-16.130 Z-6.000 F180.000
G1 X16.181 Y-8.675 Z-6.000 F180.000
G3 X8.726 Y-16.130 Z-6.000 I5.755 J-13.210 K0.000 F180.000
G3 X7.630 Y-20.054 Z-6.000 I12.737 J-5.673 K0.000 F180.000
G1 X20.106 Y-7.579 Z-6.000 F180.000
G2 X23.027 Y-7.486 Z-6.000 I1.892 J-13.556 K0.000 F180.000
G1 X7.537 Y-22.975 Z-6.000 F180.000
G3 X7.929 Y-25.412 Z-6.000 I13.461 J0.916 K0.000 F180.000
G1 X25.463 Y-7.878 Z-6.000 F180.000
G2 X27.590 Y-8.580 Z-6.000 I-2.558 J-11.320 K0.000 F180.000
G1 X8.631 Y-27.538 Z-6.000 F180.000
G3 X9.582 Y-29.416 Z-6.000 I10.057 J3.912 K0.000 F180.000
G1 X29.467 Y-9.531 Z-6.000 F180.000
G2 X31.130 Y-10.697 Z-6.000 I-5.182 J-9.158 K0.000 F180.000
G1 X10.748 Y-31.079 Z-6.000 F180.000
G3 X12.113 Y-32.542 Z-6.000 I8.390 J6.460 K0.000 F180.000
G1 X32.593 Y-12.062 Z-6.000 F180.000
G2 X33.860 Y-13.623 Z-6.000 I-7.757 J-7.588 K0.000 F180.000
G1 X13.675 Y-33.809 Z-6.000 F180.000
G3 X15.442 Y-34.870 Z-6.000 I6.599 J8.985 K0.000 F180.000
G1 X34.921 Y-15.390 Z-6.000 F180.000
G2 X35.753 Y-17.387 Z-6.000 I-9.988 J-5.334 K0.000 F180.000
G1 X17.438 Y-35.702 Z-6.000 F180.000
G3 X19.709 Y-36.259 Z-6.000 I3.842 J10.748 K0.000 F180.000
G1 X36.311 Y-19.658 Z-6.000 F180.000
G2 X36.486 Y-22.311 Z-6.000 I-12.754 J-2.177 K0.000 F180.000
G1 X22.362 Y-36.435 Z-6.000 F180.000
G3 X25.655 Y-35.970 Z-6.000 I-0.195 J13.285 K0.000 F180.000
G1 X36.022 Y-25.604 Z-6.000 F180.000
G2 X32.253 Y-32.201 Z-6.000 I-13.910 J3.571 K0.000 F180.000
G1 X32.253 Y-32.201 Z-6.000 F180.000
G2 X22.000 Y-36.448 Z-6.000 I-10.253 J10.253 K0.000 F180.000
G2 X7.501 Y-21.949 Z-6.000 I-0.000 J14.499 K0.000 F180.000
G2 X22.000 Y-7.449 Z-6.000 I14.499 J-0.000 K0.000 F180.000
G2 X32.253 Y-32.201 Z-6.000 I0.000 J-14.499 K0.000 F180.000
G0 Z6.000
G0 Z6.000
(Finish operation: Pocket_Shape)
(Begin operation: Pocket_Shape001)
(Path: Pocket_Shape001)
(Pocket_Shape001)
G0 Z6.000
G0 X10.881 Y-96.068
G1 X10.881 Y-96.068 Z-0.500 F180.000
G2 X10.115 Y-98.189 Z-0.500 I-0.881 J-0.881 K0.000 F180.000
G2 X8.760 Y-97.064 Z-0.500 I-0.115 J1.240 K0.000 F180.000
G2 X9.885 Y-95.708 Z-0.500 I1.240 J0.115 K0.000 F180.000
G2 X10.881 Y-96.068 Z-0.500 I0.115 J-1.240 K0.000 F180.000
G0 Z6.000
G0 X10.163 Y-95.717 Z6.000
G0 X10.163 Y-95.717 Z6.000
G1 X10.163 Y-95.717 Z-0.500 F180.000
G3 X8.769 Y-97.111 Z-0.500 I-0.170 J-1.224 K0.000 F180.000
G1 X10.163 Y-95.717 Z-0.500 F180.000
G2 X10.921 Y-97.788 Z-0.500 I-0.159 J-1.232 K0.000 F180.000
G1 X10.921 Y-97.788 Z-1.000 F180.000
G3 X10.163 Y-95.717 Z-1.000 I-0.917 J0.839 K0.000 F180.000
G1 X8.769 Y-97.111 Z-1.000 F180.000
G2 X10.163 Y-95.717 Z-1.000 I1.224 J0.170 K0.000 F180.000
G0 Z6.000
G0 X10.163 Y-95.714 Z6.000
G0 X10.163 Y-95.714 Z6.000
G1 X10.163 Y-95.714 Z-1.000 F180.000
G2 X10.115 Y-98.189 Z-1.000 I-0.163 J-1.235 K0.000 F180.000
G2 X8.760 Y-97.064 Z-1.000 I-0.115 J1.240 K0.000 F180.000
G2 X9.885 Y-95.708 Z-1.000 I1.240 J0.115 K0.000 F180.000
G2 X10.163 Y-95.714 Z-1.000 I0.115 J-1.240 K0.000 F180.000
G1 X10.163 Y-95.714 Z-1.500 F180.000
G2 X10.115 Y-98.189 Z-1.500 I-0.163 J-1.235 K0.000 F180.000
G2 X8.760 Y-97.064 Z-1.500 I-0.115 J1.240 K0.000 F180.000
G2 X9.885 Y-95.708 Z-1.500 I1.240 J0.115 K0.000 F180.000
G2 X10.163 Y-95.714 Z-1.500 I0.115 J-1.240 K0.000 F180.000
G0 Z6.000
G0 X10.163 Y-95.717 Z6.000
G0 X10.163 Y-95.717 Z6.000
G1 X10.163 Y-95.717 Z-1.500 F180.000
G3 X8.769 Y-97.111 Z-1.500 I-0.170 J-1.224 K0.000 F180.000
G1 X10.163 Y-95.717 Z-1.500 F180.000
G2 X10.921 Y-97.788 Z-1.500 I-0.159 J-1.232 K0.000 F180.000
G1 X10.921 Y-97.788 Z-2.000 F180.000
G3 X10.163 Y-95.717 Z-2.000 I-0.917 J0.839 K0.000 F180.000
G1 X8.769 Y-97.111 Z-2.000 F180.000
G2 X10.163 Y-95.717 Z-2.000 I1.224 J0.170 K0.000 F180.000
G0 Z6.000
G0 X10.163 Y-95.714 Z6.000
G0 X10.163 Y-95.714 Z6.000
G1 X10.163 Y-95.714 Z-2.000 F180.000
G2 X10.115 Y-98.189 Z-2.000 I-0.163 J-1.235 K0.000 F180.000
G2 X8.760 Y-97.064 Z-2.000 I-0.115 J1.240 K0.000 F180.000
G2 X9.885 Y-95.708 Z-2.000 I1.240 J0.115 K0.000 F180.000
G2 X10.163 Y-95.714 Z-2.000 I0.115 J-1.240 K0.000 F180.000
G1 X10.163 Y-95.714 Z-2.500 F180.000
G2 X10.115 Y-98.189 Z-2.500 I-0.163 J-1.235 K0.000 F180.000
G2 X8.760 Y-97.064 Z-2.500 I-0.115 J1.240 K0.000 F180.000
G2 X9.885 Y-95.708 Z-2.500 I1.240 J0.115 K0.000 F180.000
G2 X10.163 Y-95.714 Z-2.500 I0.115 J-1.240 K0.000 F180.000
G0 Z6.000
G0 X10.163 Y-95.717 Z6.000
G0 X10.163 Y-95.717 Z6.000
G1 X10.163 Y-95.717 Z-2.500 F180.000
G3 X8.769 Y-97.111 Z-2.500 I-0.170 J-1.224 K0.000 F180.000
G1 X10.163 Y-95.717 Z-2.500 F180.000
G2 X10.921 Y-97.788 Z-2.500 I-0.159 J-1.232 K0.000 F180.000
G1 X10.921 Y-97.788 Z-3.000 F180.000
G3 X10.163 Y-95.717 Z-3.000 I-0.917 J0.839 K0.000 F180.000
G1 X8.769 Y-97.111 Z-3.000 F180.000
G2 X10.163 Y-95.717 Z-3.000 I1.224 J0.170 K0.000 F180.000
G0 Z6.000
G0 X10.163 Y-95.714 Z6.000
G0 X10.163 Y-95.714 Z6.000
G1 X10.163 Y-95.714 Z-3.000 F180.000
G2 X10.115 Y-98.189 Z-3.000 I-0.163 J-1.235 K0.000 F180.000
G2 X8.760 Y-97.064 Z-3.000 I-0.115 J1.240 K0.000 F180.000
G2 X9.885 Y-95.708 Z-3.000 I1.240 J0.115 K0.000 F180.000
G2 X10.163 Y-95.714 Z-3.000 I0.115 J-1.240 K0.000 F180.000
G1 X10.163 Y-95.714 Z-3.500 F180.000
G2 X10.115 Y-98.189 Z-3.500 I-0.163 J-1.235 K0.000 F180.000
G2 X8.760 Y-97.064 Z-3.500 I-0.115 J1.240 K0.000 F180.000
G2 X9.885 Y-95.708 Z-3.500 I1.240 J0.115 K0.000 F180.000
G2 X10.163 Y-95.714 Z-3.500 I0.115 J-1.240 K0.000 F180.000
G0 Z6.000
G0 X10.163 Y-95.717 Z6.000
G0 X10.163 Y-95.717 Z6.000
G1 X10.163 Y-95.717 Z-3.500 F180.000
G3 X8.769 Y-97.111 Z-3.500 I-0.170 J-1.224 K0.000 F180.000
G1 X10.163 Y-95.717 Z-3.500 F180.000
G2 X10.921 Y-97.788 Z-3.500 I-0.159 J-1.232 K0.000 F180.000
G1 X10.921 Y-97.788 Z-4.000 F180.000
G3 X10.163 Y-95.717 Z-4.000 I-0.917 J0.839 K0.000 F180.000
G1 X8.769 Y-97.111 Z-4.000 F180.000
G2 X10.163 Y-95.717 Z-4.000 I1.224 J0.170 K0.000 F180.000
G0 Z6.000
G0 X10.163 Y-95.714 Z6.000
G0 X10.163 Y-95.714 Z6.000
G1 X10.163 Y-95.714 Z-4.000 F180.000
G2 X10.115 Y-98.189 Z-4.000 I-0.163 J-1.235 K0.000 F180.000
G2 X8.760 Y-97.064 Z-4.000 I-0.115 J1.240 K0.000 F180.000
G2 X9.885 Y-95.708 Z-4.000 I1.240 J0.115 K0.000 F180.000
G2 X10.163 Y-95.714 Z-4.000 I0.115 J-1.240 K0.000 F180.000
G1 X10.163 Y-95.714 Z-4.500 F180.000
G2 X10.115 Y-98.189 Z-4.500 I-0.163 J-1.235 K0.000 F180.000
G2 X8.760 Y-97.064 Z-4.500 I-0.115 J1.240 K0.000 F180.000
G2 X9.885 Y-95.708 Z-4.500 I1.240 J0.115 K0.000 F180.000
G2 X10.163 Y-95.714 Z-4.500 I0.115 J-1.240 K0.000 F180.000
G0 Z6.000
G0 X10.163 Y-95.717 Z6.000
G0 X10.163 Y-95.717 Z6.000
G1 X10.163 Y-95.717 Z-4.500 F180.000
G3 X8.769 Y-97.111 Z-4.500 I-0.170 J-1.224 K0.000 F180.000
G1 X10.163 Y-95.717 Z-4.500 F180.000
G2 X10.921 Y-97.788 Z-4.500 I-0.159 J-1.232 K0.000 F180.000
G1 X10.921 Y-97.788 Z-5.000 F180.000
G3 X10.163 Y-95.717 Z-5.000 I-0.917 J0.839 K0.000 F180.000
G1 X8.769 Y-97.111 Z-5.000 F180.000
G2 X10.163 Y-95.717 Z-5.000 I1.224 J0.170 K0.000 F180.000
G0 Z6.000
G0 X10.163 Y-95.714 Z6.000
G0 X10.163 Y-95.714 Z6.000
G1 X10.163 Y-95.714 Z-5.000 F180.000
G2 X10.115 Y-98.189 Z-5.000 I-0.163 J-1.235 K0.000 F180.000
G2 X8.760 Y-97.064 Z-5.000 I-0.115 J1.240 K0.000 F180.000
G2 X9.885 Y-95.708 Z-5.000 I1.240 J0.115 K0.000 F180.000
G2 X10.163 Y-95.714 Z-5.000 I0.115 J-1.240 K0.000 F180.000
G1 X10.163 Y-95.714 Z-5.500 F180.000
G2 X10.115 Y-98.189 Z-5.500 I-0.163 J-1.235 K0.000 F180.000
G2 X8.760 Y-97.064 Z-5.500 I-0.115 J1.240 K0.000 F180.000
G2 X9.885 Y-95.708 Z-5.500 I1.240 J0.115 K0.000 F180.000
G2 X10.163 Y-95.714 Z-5.500 I0.115 J-1.240 K0.000 F180.000
G0 Z6.000
G0 X10.163 Y-95.717 Z6.000
G0 X10.163 Y-95.717 Z6.000
G1 X10.163 Y-95.717 Z-5.500 F180.000
G3 X8.769 Y-97.111 Z-5.500 I-0.170 J-1.224 K0.000 F180.000
G1 X10.163 Y-95.717 Z-5.500 F180.000
G2 X10.921 Y-97.788 Z-5.500 I-0.159 J-1.232 K0.000 F180.000
G1 X10.921 Y-97.788 Z-6.000 F180.000
G3 X10.163 Y-95.717 Z-6.000 I-0.917 J0.839 K0.000 F180.000
G1 X8.769 Y-97.111 Z-6.000 F180.000
G2 X10.163 Y-95.717 Z-6.000 I1.224 J0.170 K0.000 F180.000
G0 Z6.000
G0 X10.163 Y-95.714 Z6.000
G0 X10.163 Y-95.714 Z6.000
G1 X10.163 Y-95.714 Z-6.000 F180.000
G2 X10.115 Y-98.189 Z-6.000 I-0.163 J-1.235 K0.000 F180.000
G2 X8.760 Y-97.064 Z-6.000 I-0.115 J1.240 K0.000 F180.000
G2 X9.885 Y-95.708 Z-6.000 I1.240 J0.115 K0.000 F180.000
G2 X10.163 Y-95.714 Z-6.000 I0.115 J-1.240 K0.000 F180.000
G1 X10.163 Y-95.714 Z-6.500 F180.000
G2 X10.115 Y-98.189 Z-6.500 I-0.163 J-1.235 K0.000 F180.000
G2 X8.760 Y-97.064 Z-6.500 I-0.115 J1.240 K0.000 F180.000
G2 X9.885 Y-95.708 Z-6.500 I1.240 J0.115 K0.000 F180.000
G2 X10.163 Y-95.714 Z-6.500 I0.115 J-1.240 K0.000 F180.000
G0 Z6.000
G0 X10.163 Y-95.717 Z6.000
G0 X10.163 Y-95.717 Z6.000
G1 X10.163 Y-95.717 Z-6.500 F180.000
G3 X8.769 Y-97.111 Z-6.500 I-0.170 J-1.224 K0.000 F180.000
G1 X10.163 Y-95.717 Z-6.500 F180.000
G2 X10.921 Y-97.788 Z-6.500 I-0.159 J-1.232 K0.000 F180.000
G1 X10.921 Y-97.788 Z-7.000 F180.000
G3 X10.163 Y-95.717 Z-7.000 I-0.917 J0.839 K0.000 F180.000
G1 X8.769 Y-97.111 Z-7.000 F180.000
G2 X10.163 Y-95.717 Z-7.000 I1.224 J0.170 K0.000 F180.000
G0 Z6.000
G0 X10.163 Y-95.714 Z6.000
G0 X10.163 Y-95.714 Z6.000
G1 X10.163 Y-95.714 Z-7.000 F180.000
G2 X10.115 Y-98.189 Z-7.000 I-0.163 J-1.235 K0.000 F180.000
G2 X8.760 Y-97.064 Z-7.000 I-0.115 J1.240 K0.000 F180.000
G2 X9.885 Y-95.708 Z-7.000 I1.240 J0.115 K0.000 F180.000
G2 X10.163 Y-95.714 Z-7.000 I0.115 J-1.240 K0.000 F180.000
G1 X10.163 Y-95.714 Z-7.500 F180.000
G2 X10.115 Y-98.189 Z-7.500 I-0.163 J-1.235 K0.000 F180.000
G2 X8.760 Y-97.064 Z-7.500 I-0.115 J1.240 K0.000 F180.000
G2 X9.885 Y-95.708 Z-7.500 I1.240 J0.115 K0.000 F180.000
G2 X10.163 Y-95.714 Z-7.500 I0.115 J-1.240 K0.000 F180.000
G0 Z6.000
G0 X10.163 Y-95.717 Z6.000
G0 X10.163 Y-95.717 Z6.000
G1 X10.163 Y-95.717 Z-7.500 F180.000
G3 X8.769 Y-97.111 Z-7.500 I-0.170 J-1.224 K0.000 F180.000
G1 X10.163 Y-95.717 Z-7.500 F180.000
G2 X10.921 Y-97.788 Z-7.500 I-0.159 J-1.232 K0.000 F180.000
G1 X10.921 Y-97.788 Z-8.000 F180.000
G3 X10.163 Y-95.717 Z-8.000 I-0.917 J0.839 K0.000 F180.000
G1 X8.769 Y-97.111 Z-8.000 F180.000
G2 X10.163 Y-95.717 Z-8.000 I1.224 J0.170 K0.000 F180.000
G0 Z6.000
G0 X10.163 Y-95.714 Z6.000
G0 X10.163 Y-95.714 Z6.000
G1 X10.163 Y-95.714 Z-8.000 F180.000
G2 X10.115 Y-98.189 Z-8.000 I-0.163 J-1.235 K0.000 F180.000
G2 X8.760 Y-97.064 Z-8.000 I-0.115 J1.240 K0.000 F180.000
G2 X9.885 Y-95.708 Z-8.000 I1.240 J0.115 K0.000 F180.000
G2 X10.163 Y-95.714 Z-8.000 I0.115 J-1.240 K0.000 F180.000
G1 X10.163 Y-95.714 Z-8.500 F180.000
G2 X10.115 Y-98.189 Z-8.500 I-0.163 J-1.235 K0.000 F180.000
G2 X8.760 Y-97.064 Z-8.500 I-0.115 J1.240 K0.000 F180.000
G2 X9.885 Y-95.708 Z-8.500 I1.240 J0.115 K0.000 F180.000
G2 X10.163 Y-95.714 Z-8.500 I0.115 J-1.240 K0.000 F180.000
G0 Z6.000
G0 X10.163 Y-95.717 Z6.000
G0 X10.163 Y-95.717 Z6.000
G1 X10.163 Y-95.717 Z-8.500 F180.000
G3 X8.769 Y-97.111 Z-8.500 I-0.170 J-1.224 K0.000 F180.000
G1 X10.163 Y-95.717 Z-8.500 F180.000
G2 X10.921 Y-97.788 Z-8.500 I-0.159 J-1.232 K0.000 F180.000
G1 X10.921 Y-97.788 Z-9.000 F180.000
G3 X10.163 Y-95.717 Z-9.000 I-0.917 J0.839 K0.000 F180.000
G1 X8.769 Y-97.111 Z-9.000 F180.000
G2 X10.163 Y-95.717 Z-9.000 I1.224 J0.170 K0.000 F180.000
G0 Z6.000
G0 X10.163 Y-95.714 Z6.000
G0 X10.163 Y-95.714 Z6.000
G1 X10.163 Y-95.714 Z-9.000 F180.000
G2 X10.115 Y-98.189 Z-9.000 I-0.163 J-1.235 K0.000 F180.000
G2 X8.760 Y-97.064 Z-9.000 I-0.115 J1.240 K0.000 F180.000
G2 X9.885 Y-95.708 Z-9.000 I1.240 J0.115 K0.000 F180.000
G2 X10.163 Y-95.714 Z-9.000 I0.115 J-1.240 K0.000 F180.000
G1 X10.163 Y-95.714 Z-9.500 F180.000
G2 X10.115 Y-98.189 Z-9.500 I-0.163 J-1.235 K0.000 F180.000
G2 X8.760 Y-97.064 Z-9.500 I-0.115 J1.240 K0.000 F180.000
G2 X9.885 Y-95.708 Z-9.500 I1.240 J0.115 K0.000 F180.000
G2 X10.163 Y-95.714 Z-9.500 I0.115 J-1.240 K0.000 F180.000
G0 Z6.000
G0 X10.163 Y-95.717 Z6.000
G0 X10.163 Y-95.717 Z6.000
G1 X10.163 Y-95.717 Z-9.500 F180.000
G3 X8.769 Y-97.111 Z-9.500 I-0.170 J-1.224 K0.000 F180.000
G1 X10.163 Y-95.717 Z-9.500 F180.000
G2 X10.921 Y-97.788 Z-9.500 I-0.159 J-1.232 K0.000 F180.000
G1 X10.921 Y-97.788 Z-10.000 F180.000
G3 X10.163 Y-95.717 Z-10.000 I-0.917 J0.839 K0.000 F180.000
G1 X8.769 Y-97.111 Z-10.000 F180.000
G2 X10.163 Y-95.717 Z-10.000 I1.224 J0.170 K0.000 F180.000
G0 Z6.000
G0 X10.163 Y-95.714 Z6.000
G0 X10.163 Y-95.714 Z6.000
G1 X10.163 Y-95.714 Z-10.000 F180.000
G2 X10.115 Y-98.189 Z-10.000 I-0.163 J-1.235 K0.000 F180.000
G2 X8.760 Y-97.064 Z-10.000 I-0.115 J1.240 K0.000 F180.000
G2 X9.885 Y-95.708 Z-10.000 I1.240 J0.115 K0.000 F180.000
G2 X10.163 Y-95.714 Z-10.000 I0.115 J-1.240 K0.000 F180.000
G1 X10.163 Y-95.714 Z-10.500 F180.000
G2 X10.115 Y-98.189 Z-10.500 I-0.163 J-1.235 K0.000 F180.000
G2 X8.760 Y-97.064 Z-10.500 I-0.115 J1.240 K0.000 F180.000
G2 X9.885 Y-95.708 Z-10.500 I1.240 J0.115 K0.000 F180.000
G2 X10.163 Y-95.714 Z-10.500 I0.115 J-1.240 K0.000 F180.000
G0 Z6.000
G0 X10.163 Y-95.717 Z6.000
G0 X10.163 Y-95.717 Z6.000
G1 X10.163 Y-95.717 Z-10.500 F180.000
G3 X8.769 Y-97.111 Z-10.500 I-0.170 J-1.224 K0.000 F180.000
G1 X10.163 Y-95.717 Z-10.500 F180.000
G2 X10.921 Y-97.788 Z-10.500 I-0.159 J-1.232 K0.000 F180.000
G1 X10.921 Y-97.788 Z-11.000 F180.000
G3 X10.163 Y-95.717 Z-11.000 I-0.917 J0.839 K0.000 F180.000
G1 X8.769 Y-97.111 Z-11.000 F180.000
G2 X10.163 Y-95.717 Z-11.000 I1.224 J0.170 K0.000 F180.000
G0 Z6.000
G0 X10.163 Y-95.714 Z6.000
G0 X10.163 Y-95.714 Z6.000
G1 X10.163 Y-95.714 Z-11.000 F180.000
G2 X10.115 Y-98.189 Z-11.000 I-0.163 J-1.235 K0.000 F180.000
G2 X8.760 Y-97.064 Z-11.000 I-0.115 J1.240 K0.000 F180.000
G2 X9.885 Y-95.708 Z-11.000 I1.240 J0.115 K0.000 F180.000
G2 X10.163 Y-95.714 Z-11.000 I0.115 J-1.240 K0.000 F180.000
G0 Z6.000
G0 Z6.000
G0 X10.163 Y-95.714
G0 X32.756 Y-96.884
G0 X32.756 Y-96.884
G1 X32.756 Y-96.884 Z-0.500 F180.000
G2 X33.885 Y-95.708 Z-0.500 I1.244 J-0.064 K0.000 F180.000
G2 X35.240 Y-96.834 Z-0.500 I0.115 J-1.240 K0.000 F180.000
G2 X34.115 Y-98.189 Z-0.500 I-1.240 J-0.115 K0.000 F180.000
G2 X32.756 Y-96.884 Z-0.500 I-0.115 J1.240 K0.000 F180.000
G0 Z6.000
G0 X34.163 Y-95.717 Z6.000
G0 X34.163 Y-95.717 Z6.000
G1 X34.163 Y-95.717 Z-0.500 F180.000
G3 X32.769 Y-97.111 Z-0.500 I-0.170 J-1.224 K0.000 F180.000
G1 X34.163 Y-95.717 Z-0.500 F180.000
G2 X34.921 Y-97.788 Z-0.500 I-0.159 J-1.232 K0.000 F180.000
G1 X34.921 Y-97.788 Z-1.000 F180.000
G3 X34.163 Y-95.717 Z-1.000 I-0.917 J0.839 K0.000 F180.000
G1 X32.769 Y-97.111 Z-1.000 F180.000
G2 X34.163 Y-95.717 Z-1.000 I1.224 J0.170 K0.000 F180.000
G0 Z6.000
G0 X34.163 Y-95.714 Z6.000
G0 X34.163 Y-95.714 Z6.000
G1 X34.163 Y-95.714 Z-1.000 F180.000
G2 X34.115 Y-98.189 Z-1.000 I-0.163 J-1.235 K0.000 F180.000
G2 X32.760 Y-97.064 Z-1.000 I-0.115 J1.240 K0.000 F180.000
G2 X33.885 Y-95.708 Z-1.000 I1.240 J0.115 K0.000 F180.000
G2 X34.163 Y-95.714 Z-1.000 I0.115 J-1.240 K0.000 F180.000
G1 X34.163 Y-95.714 Z-1.500 F180.000
G2 X34.115 Y-98.189 Z-1.500 I-0.163 J-1.235 K0.000 F180.000
G2 X32.760 Y-97.064 Z-1.500 I-0.115 J1.240 K0.000 F180.000
G2 X33.885 Y-95.708 Z-1.500 I1.240 J0.115 K0.000 F180.000
G2 X34.163 Y-95.714 Z-1.500 I0.115 J-1.240 K0.000 F180.000
G0 Z6.000
G0 X34.163 Y-95.717 Z6.000
G0 X34.163 Y-95.717 Z6.000
G1 X34.163 Y-95.717 Z-1.500 F180.000
G3 X32.769 Y-97.111 Z-1.500 I-0.170 J-1.224 K0.000 F180.000
G1 X34.163 Y-95.717 Z-1.500 F180.000
G2 X34.921 Y-97.788 Z-1.500 I-0.159 J-1.232 K0.000 F180.000
G1 X34.921 Y-97.788 Z-2.000 F180.000
G3 X34.163 Y-95.717 Z-2.000 I-0.917 J0.839 K0.000 F180.000
G1 X32.769 Y-97.111 Z-2.000 F180.000
G2 X34.163 Y-95.717 Z-2.000 I1.224 J0.170 K0.000 F180.000
G0 Z6.000
G0 X34.163 Y-95.714 Z6.000
G0 X34.163 Y-95.714 Z6.000
G1 X34.163 Y-95.714 Z-2.000 F180.000
G2 X34.115 Y-98.189 Z-2.000 I-0.163 J-1.235 K0.000 F180.000
G2 X32.760 Y-97.064 Z-2.000 I-0.115 J1.240 K0.000 F180.000
G2 X33.885 Y-95.708 Z-2.000 I1.240 J0.115 K0.000 F180.000
G2 X34.163 Y-95.714 Z-2.000 I0.115 J-1.240 K0.000 F180.000
G1 X34.163 Y-95.714 Z-2.500 F180.000
G2 X34.115 Y-98.189 Z-2.500 I-0.163 J-1.235 K0.000 F180.000
G2 X32.760 Y-97.064 Z-2.500 I-0.115 J1.240 K0.000 F180.000
G2 X33.885 Y-95.708 Z-2.500 I1.240 J0.115 K0.000 F180.000
G2 X34.163 Y-95.714 Z-2.500 I0.115 J-1.240 K0.000 F180.000
G0 Z6.000
G0 X34.163 Y-95.717 Z6.000
G0 X34.163 Y-95.717 Z6.000
G1 X34.163 Y-95.717 Z-2.500 F180.000
G3 X32.769 Y-97.111 Z-2.500 I-0.170 J-1.224 K0.000 F180.000
G1 X34.163 Y-95.717 Z-2.500 F180.000
G2 X34.921 Y-97.788 Z-2.500 I-0.159 J-1.232 K0.000 F180.000
G1 X34.921 Y-97.788 Z-3.000 F180.000
G3 X34.163 Y-95.717 Z-3.000 I-0.917 J0.839 K0.000 F180.000
G1 X32.769 Y-97.111 Z-3.000 F180.000
G2 X34.163 Y-95.717 Z-3.000 I1.224 J0.170 K0.000 F180.000
G0 Z6.000
G0 X34.163 Y-95.714 Z6.000
G0 X34.163 Y-95.714 Z6.000
G1 X34.163 Y-95.714 Z-3.000 F180.000
G2 X34.115 Y-98.189 Z-3.000 I-0.163 J-1.235 K0.000 F180.000
G2 X32.760 Y-97.064 Z-3.000 I-0.115 J1.240 K0.000 F180.000
G2 X33.885 Y-95.708 Z-3.000 I1.240 J0.115 K0.000 F180.000
G2 X34.163 Y-95.714 Z-3.000 I0.115 J-1.240 K0.000 F180.000
G1 X34.163 Y-95.714 Z-3.500 F180.000
G2 X34.115 Y-98.189 Z-3.500 I-0.163 J-1.235 K0.000 F180.000
G2 X32.760 Y-97.064 Z-3.500 I-0.115 J1.240 K0.000 F180.000
G2 X33.885 Y-95.708 Z-3.500 I1.240 J0.115 K0.000 F180.000
G2 X34.163 Y-95.714 Z-3.500 I0.115 J-1.240 K0.000 F180.000
G0 Z6.000
G0 X34.163 Y-95.717 Z6.000
G0 X34.163 Y-95.717 Z6.000
G1 X34.163 Y-95.717 Z-3.500 F180.000
G3 X32.769 Y-97.111 Z-3.500 I-0.170 J-1.224 K0.000 F180.000
G1 X34.163 Y-95.717 Z-3.500 F180.000
G2 X34.921 Y-97.788 Z-3.500 I-0.159 J-1.232 K0.000 F180.000
G1 X34.921 Y-97.788 Z-4.000 F180.000
G3 X34.163 Y-95.717 Z-4.000 I-0.917 J0.839 K0.000 F180.000
G1 X32.769 Y-97.111 Z-4.000 F180.000
G2 X34.163 Y-95.717 Z-4.000 I1.224 J0.170 K0.000 F180.000
G0 Z6.000
G0 X34.163 Y-95.714 Z6.000
G0 X34.163 Y-95.714 Z6.000
G1 X34.163 Y-95.714 Z-4.000 F180.000
G2 X34.115 Y-98.189 Z-4.000 I-0.163 J-1.235 K0.000 F180.000
G2 X32.760 Y-97.064 Z-4.000 I-0.115 J1.240 K0.000 F180.000
G2 X33.885 Y-95.708 Z-4.000 I1.240 J0.115 K0.000 F180.000
G2 X34.163 Y-95.714 Z-4.000 I0.115 J-1.240 K0.000 F180.000
G1 X34.163 Y-95.714 Z-4.500 F180.000
G2 X34.115 Y-98.189 Z-4.500 I-0.163 J-1.235 K0.000 F180.000
G2 X32.760 Y-97.064 Z-4.500 I-0.115 J1.240 K0.000 F180.000
G2 X33.885 Y-95.708 Z-4.500 I1.240 J0.115 K0.000 F180.000
G2 X34.163 Y-95.714 Z-4.500 I0.115 J-1.240 K0.000 F180.000
G0 Z6.000
G0 X34.163 Y-95.717 Z6.000
G0 X34.163 Y-95.717 Z6.000
G1 X34.163 Y-95.717 Z-4.500 F180.000
G3 X32.769 Y-97.111 Z-4.500 I-0.170 J-1.224 K0.000 F180.000
G1 X34.163 Y-95.717 Z-4.500 F180.000
G2 X34.921 Y-97.788 Z-4.500 I-0.159 J-1.232 K0.000 F180.000
G1 X34.921 Y-97.788 Z-5.000 F180.000
G3 X34.163 Y-95.717 Z-5.000 I-0.917 J0.839 K0.000 F180.000
G1 X32.769 Y-97.111 Z-5.000 F180.000
G2 X34.163 Y-95.717 Z-5.000 I1.224 J0.170 K0.000 F180.000
G0 Z6.000
G0 X34.163 Y-95.714 Z6.000
G0 X34.163 Y-95.714 Z6.000
G1 X34.163 Y-95.714 Z-5.000 F180.000
G2 X34.115 Y-98.189 Z-5.000 I-0.163 J-1.235 K0.000 F180.000
G2 X32.760 Y-97.064 Z-5.000 I-0.115 J1.240 K0.000 F180.000
G2 X33.885 Y-95.708 Z-5.000 I1.240 J0.115 K0.000 F180.000
G2 X34.163 Y-95.714 Z-5.000 I0.115 J-1.240 K0.000 F180.000
G1 X34.163 Y-95.714 Z-5.500 F180.000
G2 X34.115 Y-98.189 Z-5.500 I-0.163 J-1.235 K0.000 F180.000
G2 X32.760 Y-97.064 Z-5.500 I-0.115 J1.240 K0.000 F180.000
G2 X33.885 Y-95.708 Z-5.500 I1.240 J0.115 K0.000 F180.000
G2 X34.163 Y-95.714 Z-5.500 I0.115 J-1.240 K0.000 F180.000
G0 Z6.000
G0 X34.163 Y-95.717 Z6.000
G0 X34.163 Y-95.717 Z6.000
G1 X34.163 Y-95.717 Z-5.500 F180.000
G3 X32.769 Y-97.111 Z-5.500 I-0.170 J-1.224 K0.000 F180.000
G1 X34.163 Y-95.717 Z-5.500 F180.000
G2 X34.921 Y-97.788 Z-5.500 I-0.159 J-1.232 K0.000 F180.000
G1 X34.921 Y-97.788 Z-6.000 F180.000
G3 X34.163 Y-95.717 Z-6.000 I-0.917 J0.839 K0.000 F180.000
G1 X32.769 Y-97.111 Z-6.000 F180.000
G2 X34.163 Y-95.717 Z-6.000 I1.224 J0.170 K0.000 F180.000
G0 Z6.000
G0 X34.163 Y-95.714 Z6.000
G0 X34.163 Y-95.714 Z6.000
G1 X34.163 Y-95.714 Z-6.000 F180.000
G2 X34.115 Y-98.189 Z-6.000 I-0.163 J-1.235 K0.000 F180.000
G2 X32.760 Y-97.064 Z-6.000 I-0.115 J1.240 K0.000 F180.000
G2 X33.885 Y-95.708 Z-6.000 I1.240 J0.115 K0.000 F180.000
G2 X34.163 Y-95.714 Z-6.000 I0.115 J-1.240 K0.000 F180.000
G1 X34.163 Y-95.714 Z-6.500 F180.000
G2 X34.115 Y-98.189 Z-6.500 I-0.163 J-1.235 K0.000 F180.000
G2 X32.760 Y-97.064 Z-6.500 I-0.115 J1.240 K0.000 F180.000
G2 X33.885 Y-95.708 Z-6.500 I1.240 J0.115 K0.000 F180.000
G2 X34.163 Y-95.714 Z-6.500 I0.115 J-1.240 K0.000 F180.000
G0 Z6.000
G0 X34.163 Y-95.717 Z6.000
G0 X34.163 Y-95.717 Z6.000
G1 X34.163 Y-95.717 Z-6.500 F180.000
G3 X32.769 Y-97.111 Z-6.500 I-0.170 J-1.224 K0.000 F180.000
G1 X34.163 Y-95.717 Z-6.500 F180.000
G2 X34.921 Y-97.788 Z-6.500 I-0.159 J-1.232 K0.000 F180.000
G1 X34.921 Y-97.788 Z-7.000 F180.000
G3 X34.163 Y-95.717 Z-7.000 I-0.917 J0.839 K0.000 F180.000
G1 X32.769 Y-97.111 Z-7.000 F180.000
G2 X34.163 Y-95.717 Z-7.000 I1.224 J0.170 K0.000 F180.000
G0 Z6.000
G0 X34.163 Y-95.714 Z6.000
G0 X34.163 Y-95.714 Z6.000
G1 X34.163 Y-95.714 Z-7.000 F180.000
G2 X34.115 Y-98.189 Z-7.000 I-0.163 J-1.235 K0.000 F180.000
G2 X32.760 Y-97.064 Z-7.000 I-0.115 J1.240 K0.000 F180.000
G2 X33.885 Y-95.708 Z-7.000 I1.240 J0.115 K0.000 F180.000
G2 X34.163 Y-95.714 Z-7.000 I0.115 J-1.240 K0.000 F180.000
G1 X34.163 Y-95.714 Z-7.500 F180.000
G2 X34.115 Y-98.189 Z-7.500 I-0.163 J-1.235 K0.000 F180.000
G2 X32.760 Y-97.064 Z-7.500 I-0.115 J1.240 K0.000 F180.000
G2 X33.885 Y-95.708 Z-7.500 I1.240 J0.115 K0.000 F180.000
G2 X34.163 Y-95.714 Z-7.500 I0.115 J-1.240 K0.000 F180.000
G0 Z6.000
G0 X34.163 Y-95.717 Z6.000
G0 X34.163 Y-95.717 Z6.000
G1 X34.163 Y-95.717 Z-7.500 F180.000
G3 X32.769 Y-97.111 Z-7.500 I-0.170 J-1.224 K0.000 F180.000
G1 X34.163 Y-95.717 Z-7.500 F180.000
G2 X34.921 Y-97.788 Z-7.500 I-0.159 J-1.232 K0.000 F180.000
G1 X34.921 Y-97.788 Z-8.000 F180.000
G3 X34.163 Y-95.717 Z-8.000 I-0.917 J0.839 K0.000 F180.000
G1 X32.769 Y-97.111 Z-8.000 F180.000
G2 X34.163 Y-95.717 Z-8.000 I1.224 J0.170 K0.000 F180.000
G0 Z6.000
G0 X34.163 Y-95.714 Z6.000
G0 X34.163 Y-95.714 Z6.000
G1 X34.163 Y-95.714 Z-8.000 F180.000
G2 X34.115 Y-98.189 Z-8.000 I-0.163 J-1.235 K0.000 F180.000
G2 X32.760 Y-97.064 Z-8.000 I-0.115 J1.240 K0.000 F180.000
G2 X33.885 Y-95.708 Z-8.000 I1.240 J0.115 K0.000 F180.000
G2 X34.163 Y-95.714 Z-8.000 I0.115 J-1.240 K0.000 F180.000
G1 X34.163 Y-95.714 Z-8.500 F180.000
G2 X34.115 Y-98.189 Z-8.500 I-0.163 J-1.235 K0.000 F180.000
G2 X32.760 Y-97.064 Z-8.500 I-0.115 J1.240 K0.000 F180.000
G2 X33.885 Y-95.708 Z-8.500 I1.240 J0.115 K0.000 F180.000
G2 X34.163 Y-95.714 Z-8.500 I0.115 J-1.240 K0.000 F180.000
G0 Z6.000
G0 X34.163 Y-95.717 Z6.000
G0 X34.163 Y-95.717 Z6.000
G1 X34.163 Y-95.717 Z-8.500 F180.000
G3 X32.769 Y-97.111 Z-8.500 I-0.170 J-1.224 K0.000 F180.000
G1 X34.163 Y-95.717 Z-8.500 F180.000
G2 X34.921 Y-97.788 Z-8.500 I-0.159 J-1.232 K0.000 F180.000
G1 X34.921 Y-97.788 Z-9.000 F180.000
G3 X34.163 Y-95.717 Z-9.000 I-0.917 J0.839 K0.000 F180.000
G1 X32.769 Y-97.111 Z-9.000 F180.000
G2 X34.163 Y-95.717 Z-9.000 I1.224 J0.170 K0.000 F180.000
G0 Z6.000
G0 X34.163 Y-95.714 Z6.000
G0 X34.163 Y-95.714 Z6.000
G1 X34.163 Y-95.714 Z-9.000 F180.000
G2 X34.115 Y-98.189 Z-9.000 I-0.163 J-1.235 K0.000 F180.000
G2 X32.760 Y-97.064 Z-9.000 I-0.115 J1.240 K0.000 F180.000
G2 X33.885 Y-95.708 Z-9.000 I1.240 J0.115 K0.000 F180.000
G2 X34.163 Y-95.714 Z-9.000 I0.115 J-1.240 K0.000 F180.000
G1 X34.163 Y-95.714 Z-9.500 F180.000
G2 X34.115 Y-98.189 Z-9.500 I-0.163 J-1.235 K0.000 F180.000
G2 X32.760 Y-97.064 Z-9.500 I-0.115 J1.240 K0.000 F180.000
G2 X33.885 Y-95.708 Z-9.500 I1.240 J0.115 K0.000 F180.000
G2 X34.163 Y-95.714 Z-9.500 I0.115 J-1.240 K0.000 F180.000
G0 Z6.000
G0 X34.163 Y-95.717 Z6.000
G0 X34.163 Y-95.717 Z6.000
G1 X34.163 Y-95.717 Z-9.500 F180.000
G3 X32.769 Y-97.111 Z-9.500 I-0.170 J-1.224 K0.000 F180.000
G1 X34.163 Y-95.717 Z-9.500 F180.000
G2 X34.921 Y-97.788 Z-9.500 I-0.159 J-1.232 K0.000 F180.000
G1 X34.921 Y-97.788 Z-10.000 F180.000
G3 X34.163 Y-95.717 Z-10.000 I-0.917 J0.839 K0.000 F180.000
G1 X32.769 Y-97.111 Z-10.000 F180.000
G2 X34.163 Y-95.717 Z-10.000 I1.224 J0.170 K0.000 F180.000
G0 Z6.000
G0 X34.163 Y-95.714 Z6.000
G0 X34.163 Y-95.714 Z6.000
G1 X34.163 Y-95.714 Z-10.000 F180.000
G2 X34.115 Y-98.189 Z-10.000 I-0.163 J-1.235 K0.000 F180.000
G2 X32.760 Y-97.064 Z-10.000 I-0.115 J1.240 K0.000 F180.000
G2 X33.885 Y-95.708 Z-10.000 I1.240 J0.115 K0.000 F180.000
G2 X34.163 Y-95.714 Z-10.000 I0.115 J-1.240 K0.000 F180.000
G1 X34.163 Y-95.714 Z-10.500 F180.000
G2 X34.115 Y-98.189 Z-10.500 I-0.163 J-1.235 K0.000 F180.000
G2 X32.760 Y-97.064 Z-10.500 I-0.115 J1.240 K0.000 F180.000
G2 X33.885 Y-95.708 Z-10.500 I1.240 J0.115 K0.000 F180.000
G2 X34.163 Y-95.714 Z-10.500 I0.115 J-1.240 K0.000 F180.000
G0 Z6.000
G0 X34.163 Y-95.717 Z6.000
G0 X34.163 Y-95.717 Z6.000
G1 X34.163 Y-95.717 Z-10.500 F180.000
G3 X32.769 Y-97.111 Z-10.500 I-0.170 J-1.224 K0.000 F180.000
G1 X34.163 Y-95.717 Z-10.500 F180.000
G2 X34.921 Y-97.788 Z-10.500 I-0.159 J-1.232 K0.000 F180.000
G1 X34.921 Y-97.788 Z-11.000 F180.000
G3 X34.163 Y-95.717 Z-11.000 I-0.917 J0.839 K0.000 F180.000
G1 X32.769 Y-97.111 Z-11.000 F180.000
G2 X34.163 Y-95.717 Z-11.000 I1.224 J0.170 K0.000 F180.000
G0 Z6.000
G0 X34.163 Y-95.714 Z6.000
G0 X34.163 Y-95.714 Z6.000
G1 X34.163 Y-95.714 Z-11.000 F180.000
G2 X34.115 Y-98.189 Z-11.000 I-0.163 J-1.235 K0.000 F180.000
G2 X32.760 Y-97.064 Z-11.000 I-0.115 J1.240 K0.000 F180.000
G2 X33.885 Y-95.708 Z-11.000 I1.240 J0.115 K0.000 F180.000
G2 X34.163 Y-95.714 Z-11.000 I0.115 J-1.240 K0.000 F180.000
G0 Z6.000
G0 Z6.000
(Finish operation: Pocket_Shape001)
(Begin operation: Pocket_Shape002)
(Path: Pocket_Shape002)
(Pocket_Shape002)
G0 Z6.000
G0 X16.241 Y-10.632
G1 X16.241 Y-10.632 Z-5.500 F180.000
G2 X16.312 Y-11.532 Z-5.500 I-0.491 J-0.491 K0.000 F180.000
G2 X15.188 Y-10.715 Z-5.500 I-0.562 J0.408 K0.000 F180.000
G2 X16.241 Y-10.632 Z-5.500 I0.562 J-0.408 K0.000 F180.000
G1 X16.241 Y-10.632 Z-6.000 F180.000
G2 X16.312 Y-11.532 Z-6.000 I-0.491 J-0.491 K0.000 F180.000
G2 X15.188 Y-10.715 Z-6.000 I-0.562 J0.408 K0.000 F180.000
G2 X16.241 Y-10.632 Z-6.000 I0.562 J-0.408 K0.000 F180.000
G1 X16.241 Y-10.632 Z-6.500 F180.000
G2 X16.312 Y-11.532 Z-6.500 I-0.491 J-0.491 K0.000 F180.000
G2 X15.188 Y-10.715 Z-6.500 I-0.562 J0.408 K0.000 F180.000
G2 X16.241 Y-10.632 Z-6.500 I0.562 J-0.408 K0.000 F180.000
G1 X16.241 Y-10.632 Z-7.000 F180.000
G2 X16.312 Y-11.532 Z-7.000 I-0.491 J-0.491 K0.000 F180.000
G2 X15.188 Y-10.715 Z-7.000 I-0.562 J0.408 K0.000 F180.000
G2 X16.241 Y-10.632 Z-7.000 I0.562 J-0.408 K0.000 F180.000
G1 X16.241 Y-10.632 Z-7.500 F180.000
G2 X16.312 Y-11.532 Z-7.500 I-0.491 J-0.491 K0.000 F180.000
G2 X15.188 Y-10.715 Z-7.500 I-0.562 J0.408 K0.000 F180.000
G2 X16.241 Y-10.632 Z-7.500 I0.562 J-0.408 K0.000 F180.000
G1 X16.241 Y-10.632 Z-8.000 F180.000
G2 X16.312 Y-11.532 Z-8.000 I-0.491 J-0.491 K0.000 F180.000
G2 X15.188 Y-10.715 Z-8.000 I-0.562 J0.408 K0.000 F180.000
G2 X16.241 Y-10.632 Z-8.000 I0.562 J-0.408 K0.000 F180.000
G1 X16.241 Y-10.632 Z-8.500 F180.000
G2 X16.312 Y-11.532 Z-8.500 I-0.491 J-0.491 K0.000 F180.000
G2 X15.188 Y-10.715 Z-8.500 I-0.562 J0.408 K0.000 F180.000
G2 X16.241 Y-10.632 Z-8.500 I0.562 J-0.408 K0.000 F180.000
G1 X16.241 Y-10.632 Z-9.000 F180.000
G2 X16.312 Y-11.532 Z-9.000 I-0.491 J-0.491 K0.000 F180.000
G2 X15.188 Y-10.715 Z-9.000 I-0.562 J0.408 K0.000 F180.000
G2 X16.241 Y-10.632 Z-9.000 I0.562 J-0.408 K0.000 F180.000
G1 X16.241 Y-10.632 Z-9.500 F180.000
G2 X16.312 Y-11.532 Z-9.500 I-0.491 J-0.491 K0.000 F180.000
G2 X15.188 Y-10.715 Z-9.500 I-0.562 J0.408 K0.000 F180.000
G2 X16.241 Y-10.632 Z-9.500 I0.562 J-0.408 K0.000 F180.000
G1 X16.241 Y-10.632 Z-10.000 F180.000
G2 X16.312 Y-11.532 Z-10.000 I-0.491 J-0.491 K0.000 F180.000
G2 X15.188 Y-10.715 Z-10.000 I-0.562 J0.408 K0.000 F180.000
G2 X16.241 Y-10.632 Z-10.000 I0.562 J-0.408 K0.000 F180.000
G1 X16.241 Y-10.632 Z-10.500 F180.000
G2 X16.312 Y-11.532 Z-10.500 I-0.491 J-0.491 K0.000 F180.000
G2 X15.188 Y-10.715 Z-10.500 I-0.562 J0.408 K0.000 F180.000
G2 X16.241 Y-10.632 Z-10.500 I0.562 J-0.408 K0.000 F180.000
G1 X16.241 Y-10.632 Z-11.000 F180.000
G2 X16.312 Y-11.532 Z-11.000 I-0.491 J-0.491 K0.000 F180.000
G2 X15.188 Y-10.715 Z-11.000 I-0.562 J0.408 K0.000 F180.000
G2 X16.241 Y-10.632 Z-11.000 I0.562 J-0.408 K0.000 F180.000
G0 Z6.000
G0 Z6.000
G0 X16.241 Y-10.632
G0 X18.138 Y-15.421
G0 X18.138 Y-15.421
G1 X18.138 Y-15.421 Z-5.500 F180.000
G1 X23.023 Y-20.306 Z-5.500 F180.000
G2 X18.138 Y-15.421 Z-5.500 I-1.032 J3.852 K0.000 F180.000
G2 X19.174 Y-13.629 Z-5.500 I3.764 J-0.980 K0.000 F180.000
G1 X24.820 Y-19.274 Z-5.500 F180.000
G3 X25.859 Y-17.485 Z-5.500 I-2.673 J2.748 K0.000 F180.000
G1 X20.968 Y-12.594 Z-5.500 F180.000
G2 X24.914 Y-13.712 Z-5.500 I1.048 J-3.825 K0.000 F180.000
G1 X24.914 Y-13.712 Z-6.000 F180.000
G3 X20.968 Y-12.594 Z-6.000 I-2.898 J-2.708 K0.000 F180.000
G1 X25.859 Y-17.485 Z-6.000 F180.000
G2 X24.820 Y-19.274 Z-6.000 I-3.712 J0.958 K0.000 F180.000
G1 X19.174 Y-13.629 Z-6.000 F180.000
G3 X18.138 Y-15.421 Z-6.000 I2.728 J-2.772 K0.000 F180.000
G3 X23.023 Y-20.306 Z-6.000 I3.852 J-1.032 K0.000 F180.000
G1 X18.138 Y-15.421 Z-6.000 F180.000
G1 X18.138 Y-15.421 Z-6.500 F180.000
G1 X23.023 Y-20.306 Z-6.500 F180.000
G2 X18.138 Y-15.421 Z-6.500 I-1.032 J3.852 K0.000 F180.000
G2 X19.174 Y-13.629 Z-6.500 I3.764 J-0.980 K0.000 F180.000
G1 X24.820 Y-19.274 Z-6.500 F180.000
G3 X25.859 Y-17.485 Z-6.500 I-2.673 J2.748 K0.000 F180.000
G1 X20.968 Y-12.594 Z-6.500 F180.000
G2 X24.914 Y-13.712 Z-6.500 I1.048 J-3.825 K0.000 F180.000
G1 X24.914 Y-13.712 Z-7.000 F180.000
G3 X20.968 Y-12.594 Z-7.000 I-2.898 J-2.708 K0.000 F180.000
G1 X25.859 Y-17.485 Z-7.000 F180.000
G2 X24.820 Y-19.274 Z-7.000 I-3.712 J0.958 K0.000 F180.000
G1 X19.174 Y-13.629 Z-7.000 F180.000
G3 X18.138 Y-15.421 Z-7.000 I2.728 J-2.772 K0.000 F180.000
G3 X23.023 Y-20.306 Z-7.000 I3.852 J-1.032 K0.000 F180.000
G1 X18.138 Y-15.421 Z-7.000 F180.000
G1 X18.138 Y-15.421 Z-7.500 F180.000
G1 X23.023 Y-20.306 Z-7.500 F180.000
G2 X18.138 Y-15.421 Z-7.500 I-1.032 J3.852 K0.000 F180.000
G2 X19.174 Y-13.629 Z-7.500 I3.764 J-0.980 K0.000 F180.000
G1 X24.820 Y-19.274 Z-7.500 F180.000
G3 X25.859 Y-17.485 Z-7.500 I-2.673 J2.748 K0.000 F180.000
G1 X20.968 Y-12.594 Z-7.500 F180.000
G2 X24.914 Y-13.712 Z-7.500 I1.048 J-3.825 K0.000 F180.000
G1 X24.914 Y-13.712 Z-8.000 F180.000
G3 X20.968 Y-12.594 Z-8.000 I-2.898 J-2.708 K0.000 F180.000
G1 X25.859 Y-17.485 Z-8.000 F180.000
G2 X24.820 Y-19.274 Z-8.000 I-3.712 J0.958 K0.000 F180.000
G1 X19.174 Y-13.629 Z-8.000 F180.000
G3 X18.138 Y-15.421 Z-8.000 I2.728 J-2.772 K0.000 F180.000
G3 X23.023 Y-20.306 Z-8.000 I3.852 J-1.032 K0.000 F180.000
G1 X18.138 Y-15.421 Z-8.000 F180.000
G1 X18.138 Y-15.421 Z-8.500 F180.000
G1 X23.023 Y-20.306 Z-8.500 F180.000
G2 X18.138 Y-15.421 Z-8.500 I-1.032 J3.852 K0.000 F180.000
G2 X19.174 Y-13.629 Z-8.500 I3.764 J-0.980 K0.000 F180.000
G1 X24.820 Y-19.274 Z-8.500 F180.000
G3 X25.859 Y-17.485 Z-8.500 I-2.673 J2.748 K0.000 F180.000
G1 X20.968 Y-12.594 Z-8.500 F180.000
G2 X24.914 Y-13.712 Z-8.500 I1.048 J-3.825 K0.000 F180.000
G1 X24.914 Y-13.712 Z-9.000 F180.000
G3 X20.968 Y-12.594 Z-9.000 I-2.898 J-2.708 K0.000 F180.000
G1 X25.859 Y-17.485 Z-9.000 F180.000
G2 X24.820 Y-19.274 Z-9.000 I-3.712 J0.958 K0.000 F180.000
G1 X19.174 Y-13.629 Z-9.000 F180.000
G3 X18.138 Y-15.421 Z-9.000 I2.728 J-2.772 K0.000 F180.000
G3 X23.023 Y-20.306 Z-9.000 I3.852 J-1.032 K0.000 F180.000
G1 X18.138 Y-15.421 Z-9.000 F180.000
G1 X18.138 Y-15.421 Z-9.500 F180.000
G1 X23.023 Y-20.306 Z-9.500 F180.000
G2 X18.138 Y-15.421 Z-9.500 I-1.032 J3.852 K0.000 F180.000
G2 X19.174 Y-13.629 Z-9.500 I3.764 J-0.980 K0.000 F180.000
G1 X24.820 Y-19.274 Z-9.500 F180.000
G3 X25.859 Y-17.485 Z-9.500 I-2.673 J2.748 K0.000 F180.000
G1 X20.968 Y-12.594 Z-9.500 F180.000
G2 X24.914 Y-13.712 Z-9.500 I1.048 J-3.825 K0.000 F180.000
G1 X24.914 Y-13.712 Z-10.000 F180.000
G3 X20.968 Y-12.594 Z-10.000 I-2.898 J-2.708 K0.000 F180.000
G1 X25.859 Y-17.485 Z-10.000 F180.000
G2 X24.820 Y-19.274 Z-10.000 I-3.712 J0.958 K0.000 F180.000
G1 X19.174 Y-13.629 Z-10.000 F180.000
G3 X18.138 Y-15.421 Z-10.000 I2.728 J-2.772 K0.000 F180.000
G3 X23.023 Y-20.306 Z-10.000 I3.852 J-1.032 K0.000 F180.000
G1 X18.138 Y-15.421 Z-10.000 F180.000
G1 X18.138 Y-15.421 Z-10.500 F180.000
G1 X23.023 Y-20.306 Z-10.500 F180.000
G2 X18.138 Y-15.421 Z-10.500 I-1.032 J3.852 K0.000 F180.000
G2 X19.174 Y-13.629 Z-10.500 I3.764 J-0.980 K0.000 F180.000
G1 X24.820 Y-19.274 Z-10.500 F180.000
G3 X25.859 Y-17.485 Z-10.500 I-2.673 J2.748 K0.000 F180.000
G1 X20.968 Y-12.594 Z-10.500 F180.000
G2 X24.914 Y-13.712 Z-10.500 I1.048 J-3.825 K0.000 F180.000
G1 X24.914 Y-13.712 Z-11.000 F180.000
G3 X20.968 Y-12.594 Z-11.000 I-2.898 J-2.708 K0.000 F180.000
G1 X25.859 Y-17.485 Z-11.000 F180.000
G2 X24.820 Y-19.274 Z-11.000 I-3.712 J0.958 K0.000 F180.000
G1 X19.174 Y-13.629 Z-11.000 F180.000
G3 X18.138 Y-15.421 Z-11.000 I2.728 J-2.772 K0.000 F180.000
G3 X23.023 Y-20.306 Z-11.000 I3.852 J-1.032 K0.000 F180.000
G1 X18.138 Y-15.421 Z-11.000 F180.000
G0 Z6.000
G0 Z6.000
G0 X18.138 Y-15.421
G0 X32.131 Y-15.686
G0 X32.131 Y-15.686
G1 X32.131 Y-15.686 Z-5.500 F180.000
G2 X33.173 Y-15.097 Z-5.500 I0.694 J-0.013 K0.000 F180.000
G2 X33.427 Y-16.046 Z-5.500 I-0.347 J-0.601 K0.000 F180.000
G2 X32.478 Y-16.300 Z-5.500 I-0.601 J0.347 K0.000 F180.000
G2 X32.131 Y-15.686 Z-5.500 I0.347 J0.601 K0.000 F180.000
G1 X32.131 Y-15.686 Z-6.000 F180.000
G2 X33.173 Y-15.097 Z-6.000 I0.694 J-0.013 K0.000 F180.000
G2 X33.427 Y-16.046 Z-6.000 I-0.347 J-0.601 K0.000 F180.000
G2 X32.478 Y-16.300 Z-6.000 I-0.601 J0.347 K0.000 F180.000
G2 X32.131 Y-15.686 Z-6.000 I0.347 J0.601 K0.000 F180.000
G1 X32.131 Y-15.686 Z-6.500 F180.000
G2 X33.173 Y-15.097 Z-6.500 I0.694 J-0.013 K0.000 F180.000
G2 X33.427 Y-16.046 Z-6.500 I-0.347 J-0.601 K0.000 F180.000
G2 X32.478 Y-16.300 Z-6.500 I-0.601 J0.347 K0.000 F180.000
G2 X32.131 Y-15.686 Z-6.500 I0.347 J0.601 K0.000 F180.000
G1 X32.131 Y-15.686 Z-7.000 F180.000
G2 X33.173 Y-15.097 Z-7.000 I0.694 J-0.013 K0.000 F180.000
G2 X33.427 Y-16.046 Z-7.000 I-0.347 J-0.601 K0.000 F180.000
G2 X32.478 Y-16.300 Z-7.000 I-0.601 J0.347 K0.000 F180.000
G2 X32.131 Y-15.686 Z-7.000 I0.347 J0.601 K0.000 F180.000
G1 X32.131 Y-15.686 Z-7.500 F180.000
G2 X33.173 Y-15.097 Z-7.500 I0.694 J-0.013 K0.000 F180.000
G2 X33.427 Y-16.046 Z-7.500 I-0.347 J-0.601 K0.000 F180.000
G2 X32.478 Y-16.300 Z-7.500 I-0.601 J0.347 K0.000 F180.000
G2 X32.131 Y-15.686 Z-7.500 I0.347 J0.601 K0.000 F180.000
G1 X32.131 Y-15.686 Z-8.000 F180.000
G2 X33.173 Y-15.097 Z-8.000 I0.694 J-0.013 K0.000 F180.000
G2 X33.427 Y-16.046 Z-8.000 I-0.347 J-0.601 K0.000 F180.000
G2 X32.478 Y-16.300 Z-8.000 I-0.601 J0.347 K0.000 F180.000
G2 X32.131 Y-15.686 Z-8.000 I0.347 J0.601 K0.000 F180.000
G1 X32.131 Y-15.686 Z-8.500 F180.000
G2 X33.173 Y-15.097 Z-8.500 I0.694 J-0.013 K0.000 F180.000
G2 X33.427 Y-16.046 Z-8.500 I-0.347 J-0.601 K0.000 F180.000
G2 X32.478 Y-16.300 Z-8.500 I-0.601 J0.347 K0.000 F180.000
G2 X32.131 Y-15.686 Z-8.500 I0.347 J0.601 K0.000 F180.000
G1 X32.131 Y-15.686 Z-9.000 F180.000
G2 X33.173 Y-15.097 Z-9.000 I0.694 J-0.013 K0.000 F180.000
G2 X33.427 Y-16.046 Z-9.000 I-0.347 J-0.601 K0.000 F180.000
G2 X32.478 Y-16.300 Z-9.000 I-0.601 J0.347 K0.000 F180.000
G2 X32.131 Y-15.686 Z-9.000 I0.347 J0.601 K0.000 F180.000
G1 X32.131 Y-15.686 Z-9.500 F180.000
G2 X33.173 Y-15.097 Z-9.500 I0.694 J-0.013 K0.000 F180.000
G2 X33.427 Y-16.046 Z-9.500 I-0.347 J-0.601 K0.000 F180.000
G2 X32.478 Y-16.300 Z-9.500 I-0.601 J0.347 K0.000 F180.000
G2 X32.131 Y-15.686 Z-9.500 I0.347 J0.601 K0.000 F180.000
G1 X32.131 Y-15.686 Z-10.000 F180.000
G2 X33.173 Y-15.097 Z-10.000 I0.694 J-0.013 K0.000 F180.000
G2 X33.427 Y-16.046 Z-10.000 I-0.347 J-0.601 K0.000 F180.000
G2 X32.478 Y-16.300 Z-10.000 I-0.601 J0.347 K0.000 F180.000
G2 X32.131 Y-15.686 Z-10.000 I0.347 J0.601 K0.000 F180.000
G1 X32.131 Y-15.686 Z-10.500 F180.000
G2 X33.173 Y-15.097 Z-10.500 I0.694 J-0.013 K0.000 F180.000
G2 X33.427 Y-16.046 Z-10.500 I-0.347 J-0.601 K0.000 F180.000
G2 X32.478 Y-16.300 Z-10.500 I-0.601 J0.347 K0.000 F180.000
G2 X32.131 Y-15.686 Z-10.500 I0.347 J0.601 K0.000 F180.000
G1 X32.131 Y-15.686 Z-11.000 F180.000
G2 X33.173 Y-15.097 Z-11.000 I0.694 J-0.013 K0.000 F180.000
G2 X33.427 Y-16.046 Z-11.000 I-0.347 J-0.601 K0.000 F180.000
G2 X32.478 Y-16.300 Z-11.000 I-0.601 J0.347 K0.000 F180.000
G2 X32.131 Y-15.686 Z-11.000 I0.347 J0.601 K0.000 F180.000
G0 Z6.000
G0 Z6.000
G0 X32.131 Y-15.686
G0 X34.254 Y-21.299
G0 X34.254 Y-21.299
G1 X34.254 Y-21.299 Z-5.500 F180.000
G2 X34.847 Y-21.347 Z-5.500 I0.246 J-0.650 K0.000 F180.000
G2 X35.101 Y-22.296 Z-5.500 I-0.347 J-0.601 K0.000 F180.000
G2 X34.153 Y-22.550 Z-5.500 I-0.601 J0.347 K0.000 F180.000
G2 X34.254 Y-21.299 Z-5.500 I0.347 J0.601 K0.000 F180.000
G1 X34.254 Y-21.299 Z-6.000 F180.000
G2 X34.847 Y-21.347 Z-6.000 I0.246 J-0.650 K0.000 F180.000
G2 X35.101 Y-22.296 Z-6.000 I-0.347 J-0.601 K0.000 F180.000
G2 X34.153 Y-22.550 Z-6.000 I-0.601 J0.347 K0.000 F180.000
G2 X34.254 Y-21.299 Z-6.000 I0.347 J0.601 K0.000 F180.000
G1 X34.254 Y-21.299 Z-6.500 F180.000
G2 X34.847 Y-21.347 Z-6.500 I0.246 J-0.650 K0.000 F180.000
G2 X35.101 Y-22.296 Z-6.500 I-0.347 J-0.601 K0.000 F180.000
G2 X34.153 Y-22.550 Z-6.500 I-0.601 J0.347 K0.000 F180.000
G2 X34.254 Y-21.299 Z-6.500 I0.347 J0.601 K0.000 F180.000
G1 X34.254 Y-21.299 Z-7.000 F180.000
G2 X34.847 Y-21.347 Z-7.000 I0.246 J-0.650 K0.000 F180.000
G2 X35.101 Y-22.296 Z-7.000 I-0.347 J-0.601 K0.000 F180.000
G2 X34.153 Y-22.550 Z-7.000 I-0.601 J0.347 K0.000 F180.000
G2 X34.254 Y-21.299 Z-7.000 I0.347 J0.601 K0.000 F180.000
G1 X34.254 Y-21.299 Z-7.500 F180.000
G2 X34.847 Y-21.347 Z-7.500 I0.246 J-0.650 K0.000 F180.000
G2 X35.101 Y-22.296 Z-7.500 I-0.347 J-0.601 K0.000 F180.000
G2 X34.153 Y-22.550 Z-7.500 I-0.601 J0.347 K0.000 F180.000
G2 X34.254 Y-21.299 Z-7.500 I0.347 J0.601 K0.000 F180.000
G1 X34.254 Y-21.299 Z-8.000 F180.000
G2 X34.847 Y-21.347 Z-8.000 I0.246 J-0.650 K0.000 F180.000
G2 X35.101 Y-22.296 Z-8.000 I-0.347 J-0.601 K0.000 F180.000
G2 X34.153 Y-22.550 Z-8.000 I-0.601 J0.347 K0.000 F180.000
G2 X34.254 Y-21.299 Z-8.000 I0.347 J0.601 K0.000 F180.000
G1 X34.254 Y-21.299 Z-8.500 F180.000
G2 X34.847 Y-21.347 Z-8.500 I0.246 J-0.650 K0.000 F180.000
G2 X35.101 Y-22.296 Z-8.500 I-0.347 J-0.601 K0.000 F180.000
G2 X34.153 Y-22.550 Z-8.500 I-0.601 J0.347 K0.000 F180.000
G2 X34.254 Y-21.299 Z-8.500 I0.347 J0.601 K0.000 F180.000
G1 X34.254 Y-21.299 Z-9.000 F180.000
G2 X34.847 Y-21.347 Z-9.000 I0.246 J-0.650 K0.000 F180.000
G2 X35.101 Y-22.296 Z-9.000 I-0.347 J-0.601 K0.000 F180.000
G2 X34.153 Y-22.550 Z-9.000 I-0.601 J0.347 K0.000 F180.000
G2 X34.254 Y-21.299 Z-9.000 I0.347 J0.601 K0.000 F180.000
G1 X34.254 Y-21.299 Z-9.500 F180.000
G2 X34.847 Y-21.347 Z-9.500 I0.246 J-0.650 K0.000 F180.000
G2 X35.101 Y-22.296 Z-9.500 I-0.347 J-0.601 K0.000 F180.000
G2 X34.153 Y-22.550 Z-9.500 I-0.601 J0.347 K0.000 F180.000
G2 X34.254 Y-21.299 Z-9.500 I0.347 J0.601 K0.000 F180.000
G1 X34.254 Y-21.299 Z-10.000 F180.000
G2 X34.847 Y-21.347 Z-10.000 I0.246 J-0.650 K0.000 F180.000
G2 X35.101 Y-22.296 Z-10.000 I-0.347 J-0.601 K0.000 F180.000
G2 X34.153 Y-22.550 Z-10.000 I-0.601 J0.347 K0.000 F180.000
G2 X34.254 Y-21.299 Z-10.000 I0.347 J0.601 K0.000 F180.000
G1 X34.254 Y-21.299 Z-10.500 F180.000
G2 X34.847 Y-21.347 Z-10.500 I0.246 J-0.650 K0.000 F180.000
G2 X35.101 Y-22.296 Z-10.500 I-0.347 J-0.601 K0.000 F180.000
G2 X34.153 Y-22.550 Z-10.500 I-0.601 J0.347 K0.000 F180.000
G2 X34.254 Y-21.299 Z-10.500 I0.347 J0.601 K0.000 F180.000
G1 X34.254 Y-21.299 Z-11.000 F180.000
G2 X34.847 Y-21.347 Z-11.000 I0.246 J-0.650 K0.000 F180.000
G2 X35.101 Y-22.296 Z-11.000 I-0.347 J-0.601 K0.000 F180.000
G2 X34.153 Y-22.550 Z-11.000 I-0.601 J0.347 K0.000 F180.000
G2 X34.254 Y-21.299 Z-11.000 I0.347 J0.601 K0.000 F180.000
G0 Z6.000
G0 Z6.000
G0 X34.254 Y-21.299
G0 X16.340 Y-32.408
G0 X16.340 Y-32.408
G1 X16.340 Y-32.408 Z-5.500 F180.000
G2 X15.403 Y-33.375 Z-5.500 I-0.590 J-0.366 K0.000 F180.000
G2 X16.097 Y-32.173 Z-5.500 I0.347 J0.601 K0.000 F180.000
G2 X16.340 Y-32.408 Z-5.500 I-0.347 J-0.601 K0.000 F180.000
G1 X16.340 Y-32.408 Z-6.000 F180.000
G2 X15.403 Y-33.375 Z-6.000 I-0.590 J-0.366 K0.000 F180.000
G2 X16.097 Y-32.173 Z-6.000 I0.347 J0.601 K0.000 F180.000
G2 X16.340 Y-32.408 Z-6.000 I-0.347 J-0.601 K0.000 F180.000
G1 X16.340 Y-32.408 Z-6.500 F180.000
G2 X15.403 Y-33.375 Z-6.500 I-0.590 J-0.366 K0.000 F180.000
G2 X16.097 Y-32.173 Z-6.500 I0.347 J0.601 K0.000 F180.000
G2 X16.340 Y-32.408 Z-6.500 I-0.347 J-0.601 K0.000 F180.000
G1 X16.340 Y-32.408 Z-7.000 F180.000
G2 X15.403 Y-33.375 Z-7.000 I-0.590 J-0.366 K0.000 F180.000
G2 X16.097 Y-32.173 Z-7.000 I0.347 J0.601 K0.000 F180.000
G2 X16.340 Y-32.408 Z-7.000 I-0.347 J-0.601 K0.000 F180.000
G1 X16.340 Y-32.408 Z-7.500 F180.000
G2 X15.403 Y-33.375 Z-7.500 I-0.590 J-0.366 K0.000 F180.000
G2 X16.097 Y-32.173 Z-7.500 I0.347 J0.601 K0.000 F180.000
G2 X16.340 Y-32.408 Z-7.500 I-0.347 J-0.601 K0.000 F180.000
G1 X16.340 Y-32.408 Z-8.000 F180.000
G2 X15.403 Y-33.375 Z-8.000 I-0.590 J-0.366 K0.000 F180.000
G2 X16.097 Y-32.173 Z-8.000 I0.347 J0.601 K0.000 F180.000
G2 X16.340 Y-32.408 Z-8.000 I-0.347 J-0.601 K0.000 F180.000
G1 X16.340 Y-32.408 Z-8.500 F180.000
G2 X15.403 Y-33.375 Z-8.500 I-0.590 J-0.366 K0.000 F180.000
G2 X16.097 Y-32.173 Z-8.500 I0.347 J0.601 K0.000 F180.000
G2 X16.340 Y-32.408 Z-8.500 I-0.347 J-0.601 K0.000 F180.000
G1 X16.340 Y-32.408 Z-9.000 F180.000
G2 X15.403 Y-33.375 Z-9.000 I-0.590 J-0.366 K0.000 F180.000
G2 X16.097 Y-32.173 Z-9.000 I0.347 J0.601 K0.000 F180.000
G2 X16.340 Y-32.408 Z-9.000 I-0.347 J-0.601 K0.000 F180.000
G1 X16.340 Y-32.408 Z-9.500 F180.000
G2 X15.403 Y-33.375 Z-9.500 I-0.590 J-0.366 K0.000 F180.000
G2 X16.097 Y-32.173 Z-9.500 I0.347 J0.601 K0.000 F180.000
G2 X16.340 Y-32.408 Z-9.500 I-0.347 J-0.601 K0.000 F180.000
G1 X16.340 Y-32.408 Z-10.000 F180.000
G2 X15.403 Y-33.375 Z-10.000 I-0.590 J-0.366 K0.000 F180.000
G2 X16.097 Y-32.173 Z-10.000 I0.347 J0.601 K0.000 F180.000
G2 X16.340 Y-32.408 Z-10.000 I-0.347 J-0.601 K0.000 F180.000
G1 X16.340 Y-32.408 Z-10.500 F180.000
G2 X15.403 Y-33.375 Z-10.500 I-0.590 J-0.366 K0.000 F180.000
G2 X16.097 Y-32.173 Z-10.500 I0.347 J0.601 K0.000 F180.000
G2 X16.340 Y-32.408 Z-10.500 I-0.347 J-0.601 K0.000 F180.000
G1 X16.340 Y-32.408 Z-11.000 F180.000
G2 X15.403 Y-33.375 Z-11.000 I-0.590 J-0.366 K0.000 F180.000
G2 X16.097 Y-32.173 Z-11.000 I0.347 J0.601 K0.000 F180.000
G2 X16.340 Y-32.408 Z-11.000 I-0.347 J-0.601 K0.000 F180.000
G0 Z6.000
G0 Z6.000
G0 X16.340 Y-32.408
G0 X11.713 Y-28.637
G0 X11.713 Y-28.637
G1 X11.713 Y-28.637 Z-5.500 F180.000
G2 X10.827 Y-28.800 Z-5.500 I-0.538 J0.439 K0.000 F180.000
G2 X10.573 Y-27.851 Z-5.500 I0.347 J0.601 K0.000 F180.000
G2 X11.522 Y-27.597 Z-5.500 I0.601 J-0.347 K0.000 F180.000
G2 X11.713 Y-28.637 Z-5.500 I-0.347 J-0.601 K0.000 F180.000
G1 X11.713 Y-28.637 Z-6.000 F180.000
G2 X10.827 Y-28.800 Z-6.000 I-0.538 J0.439 K0.000 F180.000
G2 X10.573 Y-27.851 Z-6.000 I0.347 J0.601 K0.000 F180.000
G2 X11.522 Y-27.597 Z-6.000 I0.601 J-0.347 K0.000 F180.000
G2 X11.713 Y-28.637 Z-6.000 I-0.347 J-0.601 K0.000 F180.000
G1 X11.713 Y-28.637 Z-6.500 F180.000
G2 X10.827 Y-28.800 Z-6.500 I-0.538 J0.439 K0.000 F180.000
G2 X10.573 Y-27.851 Z-6.500 I0.347 J0.601 K0.000 F180.000
G2 X11.522 Y-27.597 Z-6.500 I0.601 J-0.347 K0.000 F180.000
G2 X11.713 Y-28.637 Z-6.500 I-0.347 J-0.601 K0.000 F180.000
G1 X11.713 Y-28.637 Z-7.000 F180.000
G2 X10.827 Y-28.800 Z-7.000 I-0.538 J0.439 K0.000 F180.000
G2 X10.573 Y-27.851 Z-7.000 I0.347 J0.601 K0.000 F180.000
G2 X11.522 Y-27.597 Z-7.000 I0.601 J-0.347 K0.000 F180.000
G2 X11.713 Y-28.637 Z-7.000 I-0.347 J-0.601 K0.000 F180.000
G1 X11.713 Y-28.637 Z-7.500 F180.000
G2 X10.827 Y-28.800 Z-7.500 I-0.538 J0.439 K0.000 F180.000
G2 X10.573 Y-27.851 Z-7.500 I0.347 J0.601 K0.000 F180.000
G2 X11.522 Y-27.597 Z-7.500 I0.601 J-0.347 K0.000 F180.000
G2 X11.713 Y-28.637 Z-7.500 I-0.347 J-0.601 K0.000 F180.000
G1 X11.713 Y-28.637 Z-8.000 F180.000
G2 X10.827 Y-28.800 Z-8.000 I-0.538 J0.439 K0.000 F180.000
G2 X10.573 Y-27.851 Z-8.000 I0.347 J0.601 K0.000 F180.000
G2 X11.522 Y-27.597 Z-8.000 I0.601 J-0.347 K0.000 F180.000
G2 X11.713 Y-28.637 Z-8.000 I-0.347 J-0.601 K0.000 F180.000
G1 X11.713 Y-28.637 Z-8.500 F180.000
G2 X10.827 Y-28.800 Z-8.500 I-0.538 J0.439 K0.000 F180.000
G2 X10.573 Y-27.851 Z-8.500 I0.347 J0.601 K0.000 F180.000
G2 X11.522 Y-27.597 Z-8.500 I0.601 J-0.347 K0.000 F180.000
G2 X11.713 Y-28.637 Z-8.500 I-0.347 J-0.601 K0.000 F180.000
G1 X11.713 Y-28.637 Z-9.000 F180.000
G2 X10.827 Y-28.800 Z-9.000 I-0.538 J0.439 K0.000 F180.000
G2 X10.573 Y-27.851 Z-9.000 I0.347 J0.601 K0.000 F180.000
G2 X11.522 Y-27.597 Z-9.000 I0.601 J-0.347 K0.000 F180.000
G2 X11.713 Y-28.637 Z-9.000 I-0.347 J-0.601 K0.000 F180.000
G1 X11.713 Y-28.637 Z-9.500 F180.000
G2 X10.827 Y-28.800 Z-9.500 I-0.538 J0.439 K0.000 F180.000
G2 X10.573 Y-27.851 Z-9.500 I0.347 J0.601 K0.000 F180.000
G2 X11.522 Y-27.597 Z-9.500 I0.601 J-0.347 K0.000 F180.000
G2 X11.713 Y-28.637 Z-9.500 I-0.347 J-0.601 K0.000 F180.000
G1 X11.713 Y-28.637 Z-10.000 F180.000
G2 X10.827 Y-28.800 Z-10.000 I-0.538 J0.439 K0.000 F180.000
G2 X10.573 Y-27.851 Z-10.000 I0.347 J0.601 K0.000 F180.000
G2 X11.522 Y-27.597 Z-10.000 I0.601 J-0.347 K0.000 F180.000
G2 X11.713 Y-28.637 Z-10.000 I-0.347 J-0.601 K0.000 F180.000
G1 X11.713 Y-28.637 Z-10.500 F180.000
G2 X10.827 Y-28.800 Z-10.500 I-0.538 J0.439 K0.000 F180.000
G2 X10.573 Y-27.851 Z-10.500 I0.347 J0.601 K0.000 F180.000
G2 X11.522 Y-27.597 Z-10.500 I0.601 J-0.347 K0.000 F180.000
G2 X11.713 Y-28.637 Z-10.500 I-0.347 J-0.601 K0.000 F180.000
G1 X11.713 Y-28.637 Z-11.000 F180.000
G2 X10.827 Y-28.800 Z-11.000 I-0.538 J0.439 K0.000 F180.000
G2 X10.573 Y-27.851 Z-11.000 I0.347 J0.601 K0.000 F180.000
G2 X11.522 Y-27.597 Z-11.000 I0.601 J-0.347 K0.000 F180.000
G2 X11.713 Y-28.637 Z-11.000 I-0.347 J-0.601 K0.000 F180.000
G0 Z6.000
G0 Z6.000
G0 X11.713 Y-28.637
G0 X9.718 Y-22.608
G0 X9.718 Y-22.608
G1 X9.718 Y-22.608 Z-5.500 F180.000
G2 X8.938 Y-21.541 Z-5.500 I-0.218 J0.659 K0.000 F180.000
G2 X10.062 Y-22.357 Z-5.500 I0.562 J-0.408 K0.000 F180.000
G2 X9.718 Y-22.608 Z-5.500 I-0.562 J0.408 K0.000 F180.000
G1 X9.718 Y-22.608 Z-6.000 F180.000
G2 X8.938 Y-21.541 Z-6.000 I-0.218 J0.659 K0.000 F180.000
G2 X10.062 Y-22.357 Z-6.000 I0.562 J-0.408 K0.000 F180.000
G2 X9.718 Y-22.608 Z-6.000 I-0.562 J0.408 K0.000 F180.000
G1 X9.718 Y-22.608 Z-6.500 F180.000
G2 X8.938 Y-21.541 Z-6.500 I-0.218 J0.659 K0.000 F180.000
G2 X10.062 Y-22.357 Z-6.500 I0.562 J-0.408 K0.000 F180.000
G2 X9.718 Y-22.608 Z-6.500 I-0.562 J0.408 K0.000 F180.000
G1 X9.718 Y-22.608 Z-7.000 F180.000
G2 X8.938 Y-21.541 Z-7.000 I-0.218 J0.659 K0.000 F180.000
G2 X10.062 Y-22.357 Z-7.000 I0.562 J-0.408 K0.000 F180.000
G2 X9.718 Y-22.608 Z-7.000 I-0.562 J0.408 K0.000 F180.000
G1 X9.718 Y-22.608 Z-7.500 F180.000
G2 X8.938 Y-21.541 Z-7.500 I-0.218 J0.659 K0.000 F180.000
G2 X10.062 Y-22.357 Z-7.500 I0.562 J-0.408 K0.000 F180.000
G2 X9.718 Y-22.608 Z-7.500 I-0.562 J0.408 K0.000 F180.000
G1 X9.718 Y-22.608 Z-8.000 F180.000
G2 X8.938 Y-21.541 Z-8.000 I-0.218 J0.659 K0.000 F180.000
G2 X10.062 Y-22.357 Z-8.000 I0.562 J-0.408 K0.000 F180.000
G2 X9.718 Y-22.608 Z-8.000 I-0.562 J0.408 K0.000 F180.000
G1 X9.718 Y-22.608 Z-8.500 F180.000
G2 X8.938 Y-21.541 Z-8.500 I-0.218 J0.659 K0.000 F180.000
G2 X10.062 Y-22.357 Z-8.500 I0.562 J-0.408 K0.000 F180.000
G2 X9.718 Y-22.608 Z-8.500 I-0.562 J0.408 K0.000 F180.000
G1 X9.718 Y-22.608 Z-9.000 F180.000
G2 X8.938 Y-21.541 Z-9.000 I-0.218 J0.659 K0.000 F180.000
G2 X10.062 Y-22.357 Z-9.000 I0.562 J-0.408 K0.000 F180.000
G2 X9.718 Y-22.608 Z-9.000 I-0.562 J0.408 K0.000 F180.000
G1 X9.718 Y-22.608 Z-9.500 F180.000
G2 X8.938 Y-21.541 Z-9.500 I-0.218 J0.659 K0.000 F180.000
G2 X10.062 Y-22.357 Z-9.500 I0.562 J-0.408 K0.000 F180.000
G2 X9.718 Y-22.608 Z-9.500 I-0.562 J0.408 K0.000 F180.000
G1 X9.718 Y-22.608 Z-10.000 F180.000
G2 X8.938 Y-21.541 Z-10.000 I-0.218 J0.659 K0.000 F180.000
G2 X10.062 Y-22.357 Z-10.000 I0.562 J-0.408 K0.000 F180.000
G2 X9.718 Y-22.608 Z-10.000 I-0.562 J0.408 K0.000 F180.000
G1 X9.718 Y-22.608 Z-10.500 F180.000
G2 X8.938 Y-21.541 Z-10.500 I-0.218 J0.659 K0.000 F180.000
G2 X10.062 Y-22.357 Z-10.500 I0.562 J-0.408 K0.000 F180.000
G2 X9.718 Y-22.608 Z-10.500 I-0.562 J0.408 K0.000 F180.000
G1 X9.718 Y-22.608 Z-11.000 F180.000
G2 X8.938 Y-21.541 Z-11.000 I-0.218 J0.659 K0.000 F180.000
G2 X10.062 Y-22.357 Z-11.000 I0.562 J-0.408 K0.000 F180.000
G2 X9.718 Y-22.608 Z-11.000 I-0.562 J0.408 K0.000 F180.000
G0 Z6.000
G0 Z6.000
(Finish operation: Pocket_Shape002)
(Begin postamble)
M5
G17 G90
M2
