(Exported by FreeCAD)
(Post Processor: grbl_post)
(Output Time:2020-11-24 20:02:05.679726)
(begin preamble)
G17 G90
G21
(begin operation: Default Tool)
(Path: Default Tool)
(Default Tool)
(begin toolchange)
; M6 T1
M3 S800.0000
(finish operation: Default Tool)
(begin operation: Pocket_Shape)
(Path: Pocket_Shape)
(Pocket_Shape)
G0 Z5.0000
G0 X29.2519 Y42.7533
G0 Z3.0000
G1 X29.2519 Y42.7533 Z-0.5000 F60.00
G2 X19.0000 Y18.0006 Z-0.5000 I-10.2519 J-10.2533 F120.00
G2 X19.0000 Y46.9994 Z-0.5000 I0.0000 J14.4994 F120.00
G2 X29.2519 Y42.7533 Z-0.5000 I0.0000 J-14.4994 F120.00
G0 X29.2519 Y42.7533 Z5.0000
G0 X29.2526 Y22.2474 Z5.0000
G0 X29.2526 Y22.2474 Z2.5000
G1 X29.2526 Y22.2474 Z-0.5000 F60.00
G3 X33.0218 Y28.8450 Z-0.5000 I-10.1404 J10.1686 F120.00
G1 X22.6550 Y18.4782 Z-0.5000 F120.00
G2 X19.3619 Y18.0136 Z-0.5000 I-3.4883 J12.8204 F120.00
G1 X33.4864 Y32.1381 Z-0.5000 F120.00
G3 X33.3108 Y34.7908 Z-0.5000 I-12.9292 J0.4759 F120.00
G1 X16.7092 Y18.1892 Z-0.5000 F120.00
G2 X14.4382 Y18.7467 Z-0.5000 I1.5712 J11.3056 F120.00
G1 X32.7533 Y37.0618 Z-0.5000 F120.00
G3 X31.9213 Y39.0582 Z-0.5000 I-10.8204 J-3.3379 F120.00
G1 X12.4418 Y19.5787 Z-0.5000 F120.00
G2 X10.6747 Y20.6401 Z-0.5000 I4.8319 J10.0466 F120.00
G1 X30.8599 Y40.8253 Z-0.5000 F120.00
G3 X29.5931 Y42.3869 Z-0.5000 I-9.0236 J-6.0259 F120.00
G1 X9.1131 Y21.9069 Z-0.5000 F120.00
G2 X7.7479 Y23.3701 Z-0.5000 I7.0243 J7.9228 F120.00
G1 X28.1299 Y43.7521 Z-0.5000 F120.00
G3 X26.4674 Y44.9181 Z-0.5000 I-6.8449 J-7.9918 F120.00
G1 X6.5819 Y25.0326 Z-0.5000 F120.00
G2 X5.6313 Y26.9104 Z-0.5000 I9.1060 J5.7894 F120.00
G1 X24.5896 Y45.8687 Z-0.5000 F120.00
G3 X22.4632 Y46.5707 Z-0.5000 I-4.6845 J-10.6178 F120.00
G1 X4.9293 Y29.0368 Z-0.5000 F120.00
G2 X4.5373 Y31.4732 Z-0.5000 I13.0694 J3.3523 F120.00
G1 X20.0268 Y46.9627 Z-0.5000 F120.00
G3 X17.1056 Y46.8700 Z-0.5000 I-1.0288 J-13.6486 F120.00
G1 X4.6300 Y34.3944 Z-0.5000 F120.00
G2 X5.7264 Y38.3192 Z-0.5000 I13.8330 J-1.7486 F120.00
G2 X13.1808 Y45.7736 Z-0.5000 I13.2100 J-5.7555 F120.00
G1 X5.7264 Y38.3192 Z-0.5000 F120.00
G1 X5.7264 Y38.3192 Z-1.0000 F60.00
G1 X13.1808 Y45.7736 Z-1.0000 F120.00
G3 X5.7264 Y38.3192 Z-1.0000 I5.7555 J-13.2100 F120.00
G3 X4.6300 Y34.3944 Z-1.0000 I12.7366 J-5.6733 F120.00
G1 X17.1056 Y46.8700 Z-1.0000 F120.00
G2 X20.0268 Y46.9627 Z-1.0000 I1.8924 J-13.5559 F120.00
G1 X4.5373 Y31.4732 Z-1.0000 F120.00
G3 X4.9293 Y29.0368 Z-1.0000 I13.4613 J0.9159 F120.00
G1 X22.4632 Y46.5707 Z-1.0000 F120.00
G2 X24.5896 Y45.8687 Z-1.0000 I-2.5581 J-11.3198 F120.00
G1 X5.6313 Y26.9104 Z-1.0000 F120.00
G3 X6.5819 Y25.0326 Z-1.0000 I10.0566 J3.9116 F120.00
G1 X26.4674 Y44.9181 Z-1.0000 F120.00
G2 X28.1299 Y43.7521 Z-1.0000 I-5.1824 J-9.1577 F120.00
G1 X7.7479 Y23.3701 Z-1.0000 F120.00
G3 X9.1131 Y21.9069 Z-1.0000 I8.3896 J6.4596 F120.00
G1 X29.5931 Y42.3869 Z-1.0000 F120.00
G2 X30.8599 Y40.8253 Z-1.0000 I-7.7567 J-7.5875 F120.00
G1 X10.6747 Y20.6401 Z-1.0000 F120.00
G3 X12.4418 Y19.5787 Z-1.0000 I6.5990 J8.9853 F120.00
G1 X31.9213 Y39.0582 Z-1.0000 F120.00
G2 X32.7533 Y37.0618 Z-1.0000 I-9.9883 J-5.3343 F120.00
G1 X14.4382 Y18.7467 Z-1.0000 F120.00
G3 X16.7092 Y18.1892 Z-1.0000 I3.8422 J10.7482 F120.00
G1 X33.3108 Y34.7908 Z-1.0000 F120.00
G2 X33.4864 Y32.1381 Z-1.0000 I-12.7535 J-2.1768 F120.00
G1 X19.3619 Y18.0136 Z-1.0000 F120.00
G3 X22.6550 Y18.4782 Z-1.0000 I-0.1952 J13.2851 F120.00
G1 X33.0218 Y28.8450 Z-1.0000 F120.00
G2 X29.2526 Y22.2474 Z-1.0000 I-13.9096 J3.5710 F120.00
G0 X29.2526 Y22.2474 Z5.0000
G0 X29.2526 Y22.2474 Z5.0000
G0 X29.2526 Y22.2474 Z2.0000
G1 X29.2526 Y22.2474 Z-1.0000 F60.00
G2 X19.0000 Y18.0006 Z-1.0000 I-10.2526 J10.2526 F120.00
G2 X19.0000 Y46.9994 Z-1.0000 I0.0000 J14.4994 F120.00
G2 X29.2526 Y22.2474 Z-1.0000 I0.0000 J-14.4994 F120.00
G1 X29.2526 Y22.2474 Z-1.5000 F60.00
G2 X19.0000 Y18.0006 Z-1.5000 I-10.2526 J10.2526 F120.00
G2 X19.0000 Y46.9994 Z-1.5000 I0.0000 J14.4994 F120.00
G2 X29.2526 Y22.2474 Z-1.5000 I0.0000 J-14.4994 F120.00
G0 X29.2526 Y22.2474 Z5.0000
G0 X29.2526 Y22.2474 Z5.0000
G0 X29.2526 Y22.2474 Z1.5000
G1 X29.2526 Y22.2474 Z-1.5000 F60.00
G3 X33.0218 Y28.8450 Z-1.5000 I-10.1404 J10.1686 F120.00
G1 X22.6550 Y18.4782 Z-1.5000 F120.00
G2 X19.3619 Y18.0136 Z-1.5000 I-3.4883 J12.8204 F120.00
G1 X33.4864 Y32.1381 Z-1.5000 F120.00
G3 X33.3108 Y34.7908 Z-1.5000 I-12.9292 J0.4759 F120.00
G1 X16.7092 Y18.1892 Z-1.5000 F120.00
G2 X14.4382 Y18.7467 Z-1.5000 I1.5712 J11.3056 F120.00
G1 X32.7533 Y37.0618 Z-1.5000 F120.00
G3 X31.9213 Y39.0582 Z-1.5000 I-10.8204 J-3.3379 F120.00
G1 X12.4418 Y19.5787 Z-1.5000 F120.00
G2 X10.6747 Y20.6401 Z-1.5000 I4.8319 J10.0466 F120.00
G1 X30.8599 Y40.8253 Z-1.5000 F120.00
G3 X29.5931 Y42.3869 Z-1.5000 I-9.0236 J-6.0259 F120.00
G1 X9.1131 Y21.9069 Z-1.5000 F120.00
G2 X7.7479 Y23.3701 Z-1.5000 I7.0243 J7.9228 F120.00
G1 X28.1299 Y43.7521 Z-1.5000 F120.00
G3 X26.4674 Y44.9181 Z-1.5000 I-6.8449 J-7.9918 F120.00
G1 X6.5819 Y25.0326 Z-1.5000 F120.00
G2 X5.6313 Y26.9104 Z-1.5000 I9.1060 J5.7894 F120.00
G1 X24.5896 Y45.8687 Z-1.5000 F120.00
G3 X22.4632 Y46.5707 Z-1.5000 I-4.6845 J-10.6178 F120.00
G1 X4.9293 Y29.0368 Z-1.5000 F120.00
G2 X4.5373 Y31.4732 Z-1.5000 I13.0694 J3.3523 F120.00
G1 X20.0268 Y46.9627 Z-1.5000 F120.00
G3 X17.1056 Y46.8700 Z-1.5000 I-1.0288 J-13.6486 F120.00
G1 X4.6300 Y34.3944 Z-1.5000 F120.00
G2 X5.7264 Y38.3192 Z-1.5000 I13.8330 J-1.7486 F120.00
G2 X13.1808 Y45.7736 Z-1.5000 I13.2100 J-5.7555 F120.00
G1 X5.7264 Y38.3192 Z-1.5000 F120.00
G1 X5.7264 Y38.3192 Z-2.0000 F60.00
G1 X13.1808 Y45.7736 Z-2.0000 F120.00
G3 X5.7264 Y38.3192 Z-2.0000 I5.7555 J-13.2100 F120.00
G3 X4.6300 Y34.3944 Z-2.0000 I12.7366 J-5.6733 F120.00
G1 X17.1056 Y46.8700 Z-2.0000 F120.00
G2 X20.0268 Y46.9627 Z-2.0000 I1.8924 J-13.5559 F120.00
G1 X4.5373 Y31.4732 Z-2.0000 F120.00
G3 X4.9293 Y29.0368 Z-2.0000 I13.4613 J0.9159 F120.00
G1 X22.4632 Y46.5707 Z-2.0000 F120.00
G2 X24.5896 Y45.8687 Z-2.0000 I-2.5581 J-11.3198 F120.00
G1 X5.6313 Y26.9104 Z-2.0000 F120.00
G3 X6.5819 Y25.0326 Z-2.0000 I10.0566 J3.9116 F120.00
G1 X26.4674 Y44.9181 Z-2.0000 F120.00
G2 X28.1299 Y43.7521 Z-2.0000 I-5.1824 J-9.1577 F120.00
G1 X7.7479 Y23.3701 Z-2.0000 F120.00
G3 X9.1131 Y21.9069 Z-2.0000 I8.3896 J6.4596 F120.00
G1 X29.5931 Y42.3869 Z-2.0000 F120.00
G2 X30.8599 Y40.8253 Z-2.0000 I-7.7567 J-7.5875 F120.00
G1 X10.6747 Y20.6401 Z-2.0000 F120.00
G3 X12.4418 Y19.5787 Z-2.0000 I6.5990 J8.9853 F120.00
G1 X31.9213 Y39.0582 Z-2.0000 F120.00
G2 X32.7533 Y37.0618 Z-2.0000 I-9.9883 J-5.3343 F120.00
G1 X14.4382 Y18.7467 Z-2.0000 F120.00
G3 X16.7092 Y18.1892 Z-2.0000 I3.8422 J10.7482 F120.00
G1 X33.3108 Y34.7908 Z-2.0000 F120.00
G2 X33.4864 Y32.1381 Z-2.0000 I-12.7535 J-2.1768 F120.00
G1 X19.3619 Y18.0136 Z-2.0000 F120.00
G3 X22.6550 Y18.4782 Z-2.0000 I-0.1952 J13.2851 F120.00
G1 X33.0218 Y28.8450 Z-2.0000 F120.00
G2 X29.2526 Y22.2474 Z-2.0000 I-13.9096 J3.5710 F120.00
G0 X29.2526 Y22.2474 Z5.0000
G0 X29.2526 Y22.2474 Z5.0000
G0 X29.2526 Y22.2474 Z1.0000
G1 X29.2526 Y22.2474 Z-2.0000 F60.00
G2 X19.0000 Y18.0006 Z-2.0000 I-10.2526 J10.2526 F120.00
G2 X19.0000 Y46.9994 Z-2.0000 I0.0000 J14.4994 F120.00
G2 X29.2526 Y22.2474 Z-2.0000 I0.0000 J-14.4994 F120.00
G1 X29.2526 Y22.2474 Z-2.5000 F60.00
G2 X19.0000 Y18.0006 Z-2.5000 I-10.2526 J10.2526 F120.00
G2 X19.0000 Y46.9994 Z-2.5000 I0.0000 J14.4994 F120.00
G2 X29.2526 Y22.2474 Z-2.5000 I0.0000 J-14.4994 F120.00
G0 X29.2526 Y22.2474 Z5.0000
G0 X29.2526 Y22.2474 Z5.0000
G0 X29.2526 Y22.2474 Z0.5000
G1 X29.2526 Y22.2474 Z-2.5000 F60.00
G3 X33.0218 Y28.8450 Z-2.5000 I-10.1404 J10.1686 F120.00
G1 X22.6550 Y18.4782 Z-2.5000 F120.00
G2 X19.3619 Y18.0136 Z-2.5000 I-3.4883 J12.8204 F120.00
G1 X33.4864 Y32.1381 Z-2.5000 F120.00
G3 X33.3108 Y34.7908 Z-2.5000 I-12.9292 J0.4759 F120.00
G1 X16.7092 Y18.1892 Z-2.5000 F120.00
G2 X14.4382 Y18.7467 Z-2.5000 I1.5712 J11.3056 F120.00
G1 X32.7533 Y37.0618 Z-2.5000 F120.00
G3 X31.9213 Y39.0582 Z-2.5000 I-10.8204 J-3.3379 F120.00
G1 X12.4418 Y19.5787 Z-2.5000 F120.00
G2 X10.6747 Y20.6401 Z-2.5000 I4.8319 J10.0466 F120.00
G1 X30.8599 Y40.8253 Z-2.5000 F120.00
G3 X29.5931 Y42.3869 Z-2.5000 I-9.0236 J-6.0259 F120.00
G1 X9.1131 Y21.9069 Z-2.5000 F120.00
G2 X7.7479 Y23.3701 Z-2.5000 I7.0243 J7.9228 F120.00
G1 X28.1299 Y43.7521 Z-2.5000 F120.00
G3 X26.4674 Y44.9181 Z-2.5000 I-6.8449 J-7.9918 F120.00
G1 X6.5819 Y25.0326 Z-2.5000 F120.00
G2 X5.6313 Y26.9104 Z-2.5000 I9.1060 J5.7894 F120.00
G1 X24.5896 Y45.8687 Z-2.5000 F120.00
G3 X22.4632 Y46.5707 Z-2.5000 I-4.6845 J-10.6178 F120.00
G1 X4.9293 Y29.0368 Z-2.5000 F120.00
G2 X4.5373 Y31.4732 Z-2.5000 I13.0694 J3.3523 F120.00
G1 X20.0268 Y46.9627 Z-2.5000 F120.00
G3 X17.1056 Y46.8700 Z-2.5000 I-1.0288 J-13.6486 F120.00
G1 X4.6300 Y34.3944 Z-2.5000 F120.00
G2 X5.7264 Y38.3192 Z-2.5000 I13.8330 J-1.7486 F120.00
G2 X13.1808 Y45.7736 Z-2.5000 I13.2100 J-5.7555 F120.00
G1 X5.7264 Y38.3192 Z-2.5000 F120.00
G1 X5.7264 Y38.3192 Z-3.0000 F60.00
G1 X13.1808 Y45.7736 Z-3.0000 F120.00
G3 X5.7264 Y38.3192 Z-3.0000 I5.7555 J-13.2100 F120.00
G3 X4.6300 Y34.3944 Z-3.0000 I12.7366 J-5.6733 F120.00
G1 X17.1056 Y46.8700 Z-3.0000 F120.00
G2 X20.0268 Y46.9627 Z-3.0000 I1.8924 J-13.5559 F120.00
G1 X4.5373 Y31.4732 Z-3.0000 F120.00
G3 X4.9293 Y29.0368 Z-3.0000 I13.4613 J0.9159 F120.00
G1 X22.4632 Y46.5707 Z-3.0000 F120.00
G2 X24.5896 Y45.8687 Z-3.0000 I-2.5581 J-11.3198 F120.00
G1 X5.6313 Y26.9104 Z-3.0000 F120.00
G3 X6.5819 Y25.0326 Z-3.0000 I10.0566 J3.9116 F120.00
G1 X26.4674 Y44.9181 Z-3.0000 F120.00
G2 X28.1299 Y43.7521 Z-3.0000 I-5.1824 J-9.1577 F120.00
G1 X7.7479 Y23.3701 Z-3.0000 F120.00
G3 X9.1131 Y21.9069 Z-3.0000 I8.3896 J6.4596 F120.00
G1 X29.5931 Y42.3869 Z-3.0000 F120.00
G2 X30.8599 Y40.8253 Z-3.0000 I-7.7567 J-7.5875 F120.00
G1 X10.6747 Y20.6401 Z-3.0000 F120.00
G3 X12.4418 Y19.5787 Z-3.0000 I6.5990 J8.9853 F120.00
G1 X31.9213 Y39.0582 Z-3.0000 F120.00
G2 X32.7533 Y37.0618 Z-3.0000 I-9.9883 J-5.3343 F120.00
G1 X14.4382 Y18.7467 Z-3.0000 F120.00
G3 X16.7092 Y18.1892 Z-3.0000 I3.8422 J10.7482 F120.00
G1 X33.3108 Y34.7908 Z-3.0000 F120.00
G2 X33.4864 Y32.1381 Z-3.0000 I-12.7535 J-2.1768 F120.00
G1 X19.3619 Y18.0136 Z-3.0000 F120.00
G3 X22.6550 Y18.4782 Z-3.0000 I-0.1952 J13.2851 F120.00
G1 X33.0218 Y28.8450 Z-3.0000 F120.00
G2 X29.2526 Y22.2474 Z-3.0000 I-13.9096 J3.5710 F120.00
G0 X29.2526 Y22.2474 Z5.0000
G0 X29.2526 Y22.2474 Z5.0000
G0 X29.2526 Y22.2474 Z0.0000
G1 X29.2526 Y22.2474 Z-3.0000 F60.00
G2 X19.0000 Y18.0006 Z-3.0000 I-10.2526 J10.2526 F120.00
G2 X19.0000 Y46.9994 Z-3.0000 I0.0000 J14.4994 F120.00
G2 X29.2526 Y22.2474 Z-3.0000 I0.0000 J-14.4994 F120.00
G1 X29.2526 Y22.2474 Z-3.5000 F60.00
G2 X19.0000 Y18.0006 Z-3.5000 I-10.2526 J10.2526 F120.00
G2 X19.0000 Y46.9994 Z-3.5000 I0.0000 J14.4994 F120.00
G2 X29.2526 Y22.2474 Z-3.5000 I0.0000 J-14.4994 F120.00
G0 X29.2526 Y22.2474 Z5.0000
G0 X29.2526 Y22.2474 Z5.0000
G0 X29.2526 Y22.2474 Z-0.5000
G1 X29.2526 Y22.2474 Z-3.5000 F60.00
G3 X33.0218 Y28.8450 Z-3.5000 I-10.1404 J10.1686 F120.00
G1 X22.6550 Y18.4782 Z-3.5000 F120.00
G2 X19.3619 Y18.0136 Z-3.5000 I-3.4883 J12.8204 F120.00
G1 X33.4864 Y32.1381 Z-3.5000 F120.00
G3 X33.3108 Y34.7908 Z-3.5000 I-12.9292 J0.4759 F120.00
G1 X16.7092 Y18.1892 Z-3.5000 F120.00
G2 X14.4382 Y18.7467 Z-3.5000 I1.5712 J11.3056 F120.00
G1 X32.7533 Y37.0618 Z-3.5000 F120.00
G3 X31.9213 Y39.0582 Z-3.5000 I-10.8204 J-3.3379 F120.00
G1 X12.4418 Y19.5787 Z-3.5000 F120.00
G2 X10.6747 Y20.6401 Z-3.5000 I4.8319 J10.0466 F120.00
G1 X30.8599 Y40.8253 Z-3.5000 F120.00
G3 X29.5931 Y42.3869 Z-3.5000 I-9.0236 J-6.0259 F120.00
G1 X9.1131 Y21.9069 Z-3.5000 F120.00
G2 X7.7479 Y23.3701 Z-3.5000 I7.0243 J7.9228 F120.00
G1 X28.1299 Y43.7521 Z-3.5000 F120.00
G3 X26.4674 Y44.9181 Z-3.5000 I-6.8449 J-7.9918 F120.00
G1 X6.5819 Y25.0326 Z-3.5000 F120.00
G2 X5.6313 Y26.9104 Z-3.5000 I9.1060 J5.7894 F120.00
G1 X24.5896 Y45.8687 Z-3.5000 F120.00
G3 X22.4632 Y46.5707 Z-3.5000 I-4.6845 J-10.6178 F120.00
G1 X4.9293 Y29.0368 Z-3.5000 F120.00
G2 X4.5373 Y31.4732 Z-3.5000 I13.0694 J3.3523 F120.00
G1 X20.0268 Y46.9627 Z-3.5000 F120.00
G3 X17.1056 Y46.8700 Z-3.5000 I-1.0288 J-13.6486 F120.00
G1 X4.6300 Y34.3944 Z-3.5000 F120.00
G2 X5.7264 Y38.3192 Z-3.5000 I13.8330 J-1.7486 F120.00
G2 X13.1808 Y45.7736 Z-3.5000 I13.2100 J-5.7555 F120.00
G1 X5.7264 Y38.3192 Z-3.5000 F120.00
G1 X5.7264 Y38.3192 Z-4.0000 F60.00
G1 X13.1808 Y45.7736 Z-4.0000 F120.00
G3 X5.7264 Y38.3192 Z-4.0000 I5.7555 J-13.2100 F120.00
G3 X4.6300 Y34.3944 Z-4.0000 I12.7366 J-5.6733 F120.00
G1 X17.1056 Y46.8700 Z-4.0000 F120.00
G2 X20.0268 Y46.9627 Z-4.0000 I1.8924 J-13.5559 F120.00
G1 X4.5373 Y31.4732 Z-4.0000 F120.00
G3 X4.9293 Y29.0368 Z-4.0000 I13.4613 J0.9159 F120.00
G1 X22.4632 Y46.5707 Z-4.0000 F120.00
G2 X24.5896 Y45.8687 Z-4.0000 I-2.5581 J-11.3198 F120.00
G1 X5.6313 Y26.9104 Z-4.0000 F120.00
G3 X6.5819 Y25.0326 Z-4.0000 I10.0566 J3.9116 F120.00
G1 X26.4674 Y44.9181 Z-4.0000 F120.00
G2 X28.1299 Y43.7521 Z-4.0000 I-5.1824 J-9.1577 F120.00
G1 X7.7479 Y23.3701 Z-4.0000 F120.00
G3 X9.1131 Y21.9069 Z-4.0000 I8.3896 J6.4596 F120.00
G1 X29.5931 Y42.3869 Z-4.0000 F120.00
G2 X30.8599 Y40.8253 Z-4.0000 I-7.7567 J-7.5875 F120.00
G1 X10.6747 Y20.6401 Z-4.0000 F120.00
G3 X12.4418 Y19.5787 Z-4.0000 I6.5990 J8.9853 F120.00
G1 X31.9213 Y39.0582 Z-4.0000 F120.00
G2 X32.7533 Y37.0618 Z-4.0000 I-9.9883 J-5.3343 F120.00
G1 X14.4382 Y18.7467 Z-4.0000 F120.00
G3 X16.7092 Y18.1892 Z-4.0000 I3.8422 J10.7482 F120.00
G1 X33.3108 Y34.7908 Z-4.0000 F120.00
G2 X33.4864 Y32.1381 Z-4.0000 I-12.7535 J-2.1768 F120.00
G1 X19.3619 Y18.0136 Z-4.0000 F120.00
G3 X22.6550 Y18.4782 Z-4.0000 I-0.1952 J13.2851 F120.00
G1 X33.0218 Y28.8450 Z-4.0000 F120.00
G2 X29.2526 Y22.2474 Z-4.0000 I-13.9096 J3.5710 F120.00
G0 X29.2526 Y22.2474 Z5.0000
G0 X29.2526 Y22.2474 Z5.0000
G0 X29.2526 Y22.2474 Z-1.0000
G1 X29.2526 Y22.2474 Z-4.0000 F60.00
G2 X19.0000 Y18.0006 Z-4.0000 I-10.2526 J10.2526 F120.00
G2 X19.0000 Y46.9994 Z-4.0000 I0.0000 J14.4994 F120.00
G2 X29.2526 Y22.2474 Z-4.0000 I0.0000 J-14.4994 F120.00
G1 X29.2526 Y22.2474 Z-4.5000 F60.00
G2 X19.0000 Y18.0006 Z-4.5000 I-10.2526 J10.2526 F120.00
G2 X19.0000 Y46.9994 Z-4.5000 I0.0000 J14.4994 F120.00
G2 X29.2526 Y22.2474 Z-4.5000 I0.0000 J-14.4994 F120.00
G0 X29.2526 Y22.2474 Z5.0000
G0 X29.2526 Y22.2474 Z5.0000
G0 X29.2526 Y22.2474 Z-1.5000
G1 X29.2526 Y22.2474 Z-4.5000 F60.00
G3 X33.0218 Y28.8450 Z-4.5000 I-10.1404 J10.1686 F120.00
G1 X22.6550 Y18.4782 Z-4.5000 F120.00
G2 X19.3619 Y18.0136 Z-4.5000 I-3.4883 J12.8204 F120.00
G1 X33.4864 Y32.1381 Z-4.5000 F120.00
G3 X33.3108 Y34.7908 Z-4.5000 I-12.9292 J0.4759 F120.00
G1 X16.7092 Y18.1892 Z-4.5000 F120.00
G2 X14.4382 Y18.7467 Z-4.5000 I1.5712 J11.3056 F120.00
G1 X32.7533 Y37.0618 Z-4.5000 F120.00
G3 X31.9213 Y39.0582 Z-4.5000 I-10.8204 J-3.3379 F120.00
G1 X12.4418 Y19.5787 Z-4.5000 F120.00
G2 X10.6747 Y20.6401 Z-4.5000 I4.8319 J10.0466 F120.00
G1 X30.8599 Y40.8253 Z-4.5000 F120.00
G3 X29.5931 Y42.3869 Z-4.5000 I-9.0236 J-6.0259 F120.00
G1 X9.1131 Y21.9069 Z-4.5000 F120.00
G2 X7.7479 Y23.3701 Z-4.5000 I7.0243 J7.9228 F120.00
G1 X28.1299 Y43.7521 Z-4.5000 F120.00
G3 X26.4674 Y44.9181 Z-4.5000 I-6.8449 J-7.9918 F120.00
G1 X6.5819 Y25.0326 Z-4.5000 F120.00
G2 X5.6313 Y26.9104 Z-4.5000 I9.1060 J5.7894 F120.00
G1 X24.5896 Y45.8687 Z-4.5000 F120.00
G3 X22.4632 Y46.5707 Z-4.5000 I-4.6845 J-10.6178 F120.00
G1 X4.9293 Y29.0368 Z-4.5000 F120.00
G2 X4.5373 Y31.4732 Z-4.5000 I13.0694 J3.3523 F120.00
G1 X20.0268 Y46.9627 Z-4.5000 F120.00
G3 X17.1056 Y46.8700 Z-4.5000 I-1.0288 J-13.6486 F120.00
G1 X4.6300 Y34.3944 Z-4.5000 F120.00
G2 X5.7264 Y38.3192 Z-4.5000 I13.8330 J-1.7486 F120.00
G2 X13.1808 Y45.7736 Z-4.5000 I13.2100 J-5.7555 F120.00
G1 X5.7264 Y38.3192 Z-4.5000 F120.00
G1 X5.7264 Y38.3192 Z-5.0000 F60.00
G1 X13.1808 Y45.7736 Z-5.0000 F120.00
G3 X5.7264 Y38.3192 Z-5.0000 I5.7555 J-13.2100 F120.00
G3 X4.6300 Y34.3944 Z-5.0000 I12.7366 J-5.6733 F120.00
G1 X17.1056 Y46.8700 Z-5.0000 F120.00
G2 X20.0268 Y46.9627 Z-5.0000 I1.8924 J-13.5559 F120.00
G1 X4.5373 Y31.4732 Z-5.0000 F120.00
G3 X4.9293 Y29.0368 Z-5.0000 I13.4613 J0.9159 F120.00
G1 X22.4632 Y46.5707 Z-5.0000 F120.00
G2 X24.5896 Y45.8687 Z-5.0000 I-2.5581 J-11.3198 F120.00
G1 X5.6313 Y26.9104 Z-5.0000 F120.00
G3 X6.5819 Y25.0326 Z-5.0000 I10.0566 J3.9116 F120.00
G1 X26.4674 Y44.9181 Z-5.0000 F120.00
G2 X28.1299 Y43.7521 Z-5.0000 I-5.1824 J-9.1577 F120.00
G1 X7.7479 Y23.3701 Z-5.0000 F120.00
G3 X9.1131 Y21.9069 Z-5.0000 I8.3896 J6.4596 F120.00
G1 X29.5931 Y42.3869 Z-5.0000 F120.00
G2 X30.8599 Y40.8253 Z-5.0000 I-7.7567 J-7.5875 F120.00
G1 X10.6747 Y20.6401 Z-5.0000 F120.00
G3 X12.4418 Y19.5787 Z-5.0000 I6.5990 J8.9853 F120.00
G1 X31.9213 Y39.0582 Z-5.0000 F120.00
G2 X32.7533 Y37.0618 Z-5.0000 I-9.9883 J-5.3343 F120.00
G1 X14.4382 Y18.7467 Z-5.0000 F120.00
G3 X16.7092 Y18.1892 Z-5.0000 I3.8422 J10.7482 F120.00
G1 X33.3108 Y34.7908 Z-5.0000 F120.00
G2 X33.4864 Y32.1381 Z-5.0000 I-12.7535 J-2.1768 F120.00
G1 X19.3619 Y18.0136 Z-5.0000 F120.00
G3 X22.6550 Y18.4782 Z-5.0000 I-0.1952 J13.2851 F120.00
G1 X33.0218 Y28.8450 Z-5.0000 F120.00
G2 X29.2526 Y22.2474 Z-5.0000 I-13.9096 J3.5710 F120.00
G0 X29.2526 Y22.2474 Z5.0000
G0 X29.2526 Y22.2474 Z5.0000
G0 X29.2526 Y22.2474 Z-2.0000
G1 X29.2526 Y22.2474 Z-5.0000 F60.00
G2 X19.0000 Y18.0006 Z-5.0000 I-10.2526 J10.2526 F120.00
G2 X19.0000 Y46.9994 Z-5.0000 I0.0000 J14.4994 F120.00
G2 X29.2526 Y22.2474 Z-5.0000 I0.0000 J-14.4994 F120.00
G1 X29.2526 Y22.2474 Z-5.5000 F60.00
G2 X19.0000 Y18.0006 Z-5.5000 I-10.2526 J10.2526 F120.00
G2 X19.0000 Y46.9994 Z-5.5000 I0.0000 J14.4994 F120.00
G2 X29.2526 Y22.2474 Z-5.5000 I0.0000 J-14.4994 F120.00
G0 X29.2526 Y22.2474 Z5.0000
G0 X29.2526 Y22.2474 Z5.0000
G0 X29.2526 Y22.2474 Z-2.5000
G1 X29.2526 Y22.2474 Z-5.5000 F60.00
G3 X33.0218 Y28.8450 Z-5.5000 I-10.1404 J10.1686 F120.00
G1 X22.6550 Y18.4782 Z-5.5000 F120.00
G2 X19.3619 Y18.0136 Z-5.5000 I-3.4883 J12.8204 F120.00
G1 X33.4864 Y32.1381 Z-5.5000 F120.00
G3 X33.3108 Y34.7908 Z-5.5000 I-12.9292 J0.4759 F120.00
G1 X16.7092 Y18.1892 Z-5.5000 F120.00
G2 X14.4382 Y18.7467 Z-5.5000 I1.5712 J11.3056 F120.00
G1 X32.7533 Y37.0618 Z-5.5000 F120.00
G3 X31.9213 Y39.0582 Z-5.5000 I-10.8204 J-3.3379 F120.00
G1 X12.4418 Y19.5787 Z-5.5000 F120.00
G2 X10.6747 Y20.6401 Z-5.5000 I4.8319 J10.0466 F120.00
G1 X30.8599 Y40.8253 Z-5.5000 F120.00
G3 X29.5931 Y42.3869 Z-5.5000 I-9.0236 J-6.0259 F120.00
G1 X9.1131 Y21.9069 Z-5.5000 F120.00
G2 X7.7479 Y23.3701 Z-5.5000 I7.0243 J7.9228 F120.00
G1 X28.1299 Y43.7521 Z-5.5000 F120.00
G3 X26.4674 Y44.9181 Z-5.5000 I-6.8449 J-7.9918 F120.00
G1 X6.5819 Y25.0326 Z-5.5000 F120.00
G2 X5.6313 Y26.9104 Z-5.5000 I9.1060 J5.7894 F120.00
G1 X24.5896 Y45.8687 Z-5.5000 F120.00
G3 X22.4632 Y46.5707 Z-5.5000 I-4.6845 J-10.6178 F120.00
G1 X4.9293 Y29.0368 Z-5.5000 F120.00
G2 X4.5373 Y31.4732 Z-5.5000 I13.0694 J3.3523 F120.00
G1 X20.0268 Y46.9627 Z-5.5000 F120.00
G3 X17.1056 Y46.8700 Z-5.5000 I-1.0288 J-13.6486 F120.00
G1 X4.6300 Y34.3944 Z-5.5000 F120.00
G2 X5.7264 Y38.3192 Z-5.5000 I13.8330 J-1.7486 F120.00
G2 X13.1808 Y45.7736 Z-5.5000 I13.2100 J-5.7555 F120.00
G1 X5.7264 Y38.3192 Z-5.5000 F120.00
G1 X5.7264 Y38.3192 Z-6.0000 F60.00
G1 X13.1808 Y45.7736 Z-6.0000 F120.00
G3 X5.7264 Y38.3192 Z-6.0000 I5.7555 J-13.2100 F120.00
G3 X4.6300 Y34.3944 Z-6.0000 I12.7366 J-5.6733 F120.00
G1 X17.1056 Y46.8700 Z-6.0000 F120.00
G2 X20.0268 Y46.9627 Z-6.0000 I1.8924 J-13.5559 F120.00
G1 X4.5373 Y31.4732 Z-6.0000 F120.00
G3 X4.9293 Y29.0368 Z-6.0000 I13.4613 J0.9159 F120.00
G1 X22.4632 Y46.5707 Z-6.0000 F120.00
G2 X24.5896 Y45.8687 Z-6.0000 I-2.5581 J-11.3198 F120.00
G1 X5.6313 Y26.9104 Z-6.0000 F120.00
G3 X6.5819 Y25.0326 Z-6.0000 I10.0566 J3.9116 F120.00
G1 X26.4674 Y44.9181 Z-6.0000 F120.00
G2 X28.1299 Y43.7521 Z-6.0000 I-5.1824 J-9.1577 F120.00
G1 X7.7479 Y23.3701 Z-6.0000 F120.00
G3 X9.1131 Y21.9069 Z-6.0000 I8.3896 J6.4596 F120.00
G1 X29.5931 Y42.3869 Z-6.0000 F120.00
G2 X30.8599 Y40.8253 Z-6.0000 I-7.7567 J-7.5875 F120.00
G1 X10.6747 Y20.6401 Z-6.0000 F120.00
G3 X12.4418 Y19.5787 Z-6.0000 I6.5990 J8.9853 F120.00
G1 X31.9213 Y39.0582 Z-6.0000 F120.00
G2 X32.7533 Y37.0618 Z-6.0000 I-9.9883 J-5.3343 F120.00
G1 X14.4382 Y18.7467 Z-6.0000 F120.00
G3 X16.7092 Y18.1892 Z-6.0000 I3.8422 J10.7482 F120.00
G1 X33.3108 Y34.7908 Z-6.0000 F120.00
G2 X33.4864 Y32.1381 Z-6.0000 I-12.7535 J-2.1768 F120.00
G1 X19.3619 Y18.0136 Z-6.0000 F120.00
G3 X22.6550 Y18.4782 Z-6.0000 I-0.1952 J13.2851 F120.00
G1 X33.0218 Y28.8450 Z-6.0000 F120.00
G2 X29.2526 Y22.2474 Z-6.0000 I-13.9096 J3.5710 F120.00
G0 X29.2526 Y22.2474 Z5.0000
G0 X29.2526 Y22.2474 Z5.0000
G0 X29.2526 Y22.2474 Z-3.0000
G1 X29.2526 Y22.2474 Z-6.0000 F60.00
G2 X19.0000 Y18.0006 Z-6.0000 I-10.2526 J10.2526 F120.00
G2 X19.0000 Y46.9994 Z-6.0000 I0.0000 J14.4994 F120.00
G2 X29.2526 Y22.2474 Z-6.0000 I0.0000 J-14.4994 F120.00
G0 Z5.0000
(finish operation: Pocket_Shape)
(begin operation: Pocket_Shape001)
(Path: Pocket_Shape001)
(Pocket_Shape001)
G0 Z5.0000
G0 X13.2411 Y43.8164
G0 Z3.0000
G1 X13.2411 Y43.8164 Z-5.5000 F60.00
G3 X12.6774 Y44.0160 Z-5.5000 I-0.4911 J-0.4911 F120.00
G3 X12.0593 Y43.2527 Z-5.5000 I0.0726 J-0.6907 F120.00
G3 X12.8226 Y42.6346 Z-5.5000 I0.6907 J0.0726 F120.00
G3 X13.2411 Y43.8164 Z-5.5000 I-0.0726 J0.6907 F120.00
G1 X13.2411 Y43.8164 Z-6.0000 F60.00
G3 X12.6774 Y44.0160 Z-6.0000 I-0.4911 J-0.4911 F120.00
G3 X12.0593 Y43.2527 Z-6.0000 I0.0726 J-0.6907 F120.00
G3 X12.8226 Y42.6346 Z-6.0000 I0.6907 J0.0726 F120.00
G3 X13.2411 Y43.8164 Z-6.0000 I-0.0726 J0.6907 F120.00
G1 X13.2411 Y43.8164 Z-6.5000 F60.00
G3 X12.6774 Y44.0160 Z-6.5000 I-0.4911 J-0.4911 F120.00
G3 X12.0593 Y43.2527 Z-6.5000 I0.0726 J-0.6907 F120.00
G3 X12.8226 Y42.6346 Z-6.5000 I0.6907 J0.0726 F120.00
G3 X13.2411 Y43.8164 Z-6.5000 I-0.0726 J0.6907 F120.00
G1 X13.2411 Y43.8164 Z-7.0000 F60.00
G3 X12.6774 Y44.0160 Z-7.0000 I-0.4911 J-0.4911 F120.00
G3 X12.0593 Y43.2527 Z-7.0000 I0.0726 J-0.6907 F120.00
G3 X12.8226 Y42.6346 Z-7.0000 I0.6907 J0.0726 F120.00
G3 X13.2411 Y43.8164 Z-7.0000 I-0.0726 J0.6907 F120.00
G1 X13.2411 Y43.8164 Z-7.5000 F60.00
G3 X12.6774 Y44.0160 Z-7.5000 I-0.4911 J-0.4911 F120.00
G3 X12.0593 Y43.2527 Z-7.5000 I0.0726 J-0.6907 F120.00
G3 X12.8226 Y42.6346 Z-7.5000 I0.6907 J0.0726 F120.00
G3 X13.2411 Y43.8164 Z-7.5000 I-0.0726 J0.6907 F120.00
G1 X13.2411 Y43.8164 Z-8.0000 F60.00
G3 X12.6774 Y44.0160 Z-8.0000 I-0.4911 J-0.4911 F120.00
G3 X12.0593 Y43.2527 Z-8.0000 I0.0726 J-0.6907 F120.00
G3 X12.8226 Y42.6346 Z-8.0000 I0.6907 J0.0726 F120.00
G3 X13.2411 Y43.8164 Z-8.0000 I-0.0726 J0.6907 F120.00
G1 X13.2411 Y43.8164 Z-8.5000 F60.00
G3 X12.6774 Y44.0160 Z-8.5000 I-0.4911 J-0.4911 F120.00
G3 X12.0593 Y43.2527 Z-8.5000 I0.0726 J-0.6907 F120.00
G3 X12.8226 Y42.6346 Z-8.5000 I0.6907 J0.0726 F120.00
G3 X13.2411 Y43.8164 Z-8.5000 I-0.0726 J0.6907 F120.00
G1 X13.2411 Y43.8164 Z-9.0000 F60.00
G3 X12.6774 Y44.0160 Z-9.0000 I-0.4911 J-0.4911 F120.00
G3 X12.0593 Y43.2527 Z-9.0000 I0.0726 J-0.6907 F120.00
G3 X12.8226 Y42.6346 Z-9.0000 I0.6907 J0.0726 F120.00
G3 X13.2411 Y43.8164 Z-9.0000 I-0.0726 J0.6907 F120.00
G1 X13.2411 Y43.8164 Z-9.5000 F60.00
G3 X12.6774 Y44.0160 Z-9.5000 I-0.4911 J-0.4911 F120.00
G3 X12.0593 Y43.2527 Z-9.5000 I0.0726 J-0.6907 F120.00
G3 X12.8226 Y42.6346 Z-9.5000 I0.6907 J0.0726 F120.00
G3 X13.2411 Y43.8164 Z-9.5000 I-0.0726 J0.6907 F120.00
G1 X13.2411 Y43.8164 Z-10.0000 F60.00
G3 X12.6774 Y44.0160 Z-10.0000 I-0.4911 J-0.4911 F120.00
G3 X12.0593 Y43.2527 Z-10.0000 I0.0726 J-0.6907 F120.00
G3 X12.8226 Y42.6346 Z-10.0000 I0.6907 J0.0726 F120.00
G3 X13.2411 Y43.8164 Z-10.0000 I-0.0726 J0.6907 F120.00
G1 X13.2411 Y43.8164 Z-10.5000 F60.00
G3 X12.6774 Y44.0160 Z-10.5000 I-0.4911 J-0.4911 F120.00
G3 X12.0593 Y43.2527 Z-10.5000 I0.0726 J-0.6907 F120.00
G3 X12.8226 Y42.6346 Z-10.5000 I0.6907 J0.0726 F120.00
G3 X13.2411 Y43.8164 Z-10.5000 I-0.0726 J0.6907 F120.00
G1 X13.2411 Y43.8164 Z-11.0000 F60.00
G3 X12.6774 Y44.0160 Z-11.0000 I-0.4911 J-0.4911 F120.00
G3 X12.0593 Y43.2527 Z-11.0000 I0.0726 J-0.6907 F120.00
G3 X12.8226 Y42.6346 Z-11.0000 I0.6907 J0.0726 F120.00
G3 X13.2411 Y43.8164 Z-11.0000 I-0.0726 J0.6907 F120.00
G1 X13.2411 Y43.8164 Z-11.5000 F60.00
G3 X12.6774 Y44.0160 Z-11.5000 I-0.4911 J-0.4911 F120.00
G3 X12.0593 Y43.2527 Z-11.5000 I0.0726 J-0.6907 F120.00
G3 X12.8226 Y42.6346 Z-11.5000 I0.6907 J0.0726 F120.00
G3 X13.2411 Y43.8164 Z-11.5000 I-0.0726 J0.6907 F120.00
G1 X13.2411 Y43.8164 Z-12.0000 F60.00
G3 X12.6774 Y44.0160 Z-12.0000 I-0.4911 J-0.4911 F120.00
G3 X12.0593 Y43.2527 Z-12.0000 I0.0726 J-0.6907 F120.00
G3 X12.8226 Y42.6346 Z-12.0000 I0.6907 J0.0726 F120.00
G3 X13.2411 Y43.8164 Z-12.0000 I-0.0726 J0.6907 F120.00
G0 Z5.0000
G0 X21.8278 Y40.8278
G0 Z3.0000
G1 X21.8278 Y40.8278 Z-5.5000 F60.00
G2 X18.8748 Y34.0099 Z-5.5000 I-2.8248 J-2.8250 F120.00
G1 X18.8748 Y36.0099 Z-5.5000 F120.00
G1 X18.8748 Y34.0099 Z-5.5000 F120.00
G1 X18.7490 Y34.0099 Z-5.5000 F120.00
G2 X15.0099 Y38.2510 Z-5.5000 I0.2510 J3.9901 F120.00
G2 X19.2510 Y41.9901 Z-5.5000 I3.9901 J-0.2510 F120.00
G2 X21.8278 Y40.8278 Z-5.5000 I-0.2480 J-3.9873 F120.00
G0 X21.8278 Y40.8278 Z5.0000
G0 X20.4100 Y39.4100 Z5.0000
G0 X20.4100 Y39.4100 Z-2.5000
G1 X20.4100 Y39.4100 Z-5.5000 F60.00
G3 X19.1252 Y39.9901 Z-5.5000 I-1.4100 J-1.4100 F120.00
G3 X17.0099 Y38.1252 Z-5.5000 I-0.1252 J-1.9901 F120.00
G3 X18.8748 Y36.0099 Z-5.5000 I1.9901 J-0.1252 F120.00
G3 X20.9901 Y37.8748 Z-5.5000 I0.1252 J1.9901 F120.00
G3 X19.1252 Y39.9901 Z-5.5000 I-1.9901 J0.1252 F120.00
G3 X17.0099 Y38.1252 Z-5.5000 I-0.1252 J-1.9901 F120.00
G3 X18.8748 Y36.0099 Z-5.5000 I1.9901 J-0.1252 F120.00
G3 X20.4100 Y39.4100 Z-5.5000 I0.1252 J1.9901 F120.00
G1 X20.4100 Y39.4100 Z-6.0000 F60.00
G3 X19.1252 Y39.9901 Z-6.0000 I-1.4100 J-1.4100 F120.00
G3 X17.0099 Y38.1252 Z-6.0000 I-0.1252 J-1.9901 F120.00
G3 X18.8748 Y36.0099 Z-6.0000 I1.9901 J-0.1252 F120.00
G3 X20.9901 Y37.8748 Z-6.0000 I0.1252 J1.9901 F120.00
G3 X19.1252 Y39.9901 Z-6.0000 I-1.9901 J0.1252 F120.00
G3 X17.0099 Y38.1252 Z-6.0000 I-0.1252 J-1.9901 F120.00
G3 X18.8748 Y36.0099 Z-6.0000 I1.9901 J-0.1252 F120.00
G3 X20.4100 Y39.4100 Z-6.0000 I0.1252 J1.9901 F120.00
G0 X20.4100 Y39.4100 Z5.0000
G0 X21.8278 Y40.8279 Z5.0000
G0 X21.8278 Y40.8279 Z-3.0000
G1 X21.8278 Y40.8279 Z-6.0000 F60.00
G2 X18.8748 Y34.0099 Z-6.0000 I-2.8247 J-2.8251 F120.00
G1 X18.8748 Y36.0099 Z-6.0000 F120.00
G1 X18.8748 Y34.0099 Z-6.0000 F120.00
G1 X18.7490 Y34.0099 Z-6.0000 F120.00
G2 X15.0099 Y38.2510 Z-6.0000 I0.2510 J3.9901 F120.00
G2 X19.2510 Y41.9901 Z-6.0000 I3.9901 J-0.2510 F120.00
G2 X21.8278 Y40.8279 Z-6.0000 I-0.2480 J-3.9873 F120.00
G1 X21.8278 Y40.8279 Z-6.5000 F60.00
G2 X18.8748 Y34.0099 Z-6.5000 I-2.8247 J-2.8251 F120.00
G1 X18.8748 Y36.0099 Z-6.5000 F120.00
G1 X18.8748 Y34.0099 Z-6.5000 F120.00
G1 X18.7490 Y34.0099 Z-6.5000 F120.00
G2 X15.0099 Y38.2510 Z-6.5000 I0.2510 J3.9901 F120.00
G2 X19.2510 Y41.9901 Z-6.5000 I3.9901 J-0.2510 F120.00
G2 X21.8278 Y40.8279 Z-6.5000 I-0.2480 J-3.9873 F120.00
G0 X21.8278 Y40.8279 Z5.0000
G0 X20.4100 Y39.4101 Z5.0000
G0 X20.4100 Y39.4101 Z-3.5000
G1 X20.4100 Y39.4101 Z-6.5000 F60.00
G3 X19.1252 Y39.9901 Z-6.5000 I-1.4100 J-1.4101 F120.00
G3 X17.0099 Y38.1252 Z-6.5000 I-0.1252 J-1.9901 F120.00
G3 X18.8748 Y36.0099 Z-6.5000 I1.9901 J-0.1252 F120.00
G3 X20.9901 Y37.8748 Z-6.5000 I0.1252 J1.9901 F120.00
G3 X19.1252 Y39.9901 Z-6.5000 I-1.9901 J0.1252 F120.00
G3 X17.0099 Y38.1252 Z-6.5000 I-0.1252 J-1.9901 F120.00
G3 X18.8748 Y36.0099 Z-6.5000 I1.9901 J-0.1252 F120.00
G3 X20.4100 Y39.4101 Z-6.5000 I0.1252 J1.9901 F120.00
G1 X20.4100 Y39.4101 Z-7.0000 F60.00
G3 X19.1252 Y39.9901 Z-7.0000 I-1.4100 J-1.4101 F120.00
G3 X17.0099 Y38.1252 Z-7.0000 I-0.1252 J-1.9901 F120.00
G3 X18.8748 Y36.0099 Z-7.0000 I1.9901 J-0.1252 F120.00
G3 X20.9901 Y37.8748 Z-7.0000 I0.1252 J1.9901 F120.00
G3 X19.1252 Y39.9901 Z-7.0000 I-1.9901 J0.1252 F120.00
G3 X17.0099 Y38.1252 Z-7.0000 I-0.1252 J-1.9901 F120.00
G3 X18.8748 Y36.0099 Z-7.0000 I1.9901 J-0.1252 F120.00
G3 X20.4100 Y39.4101 Z-7.0000 I0.1252 J1.9901 F120.00
G0 X20.4100 Y39.4101 Z5.0000
G0 X21.8277 Y40.8280 Z5.0000
G0 X21.8277 Y40.8280 Z-4.0000
G1 X21.8277 Y40.8280 Z-7.0000 F60.00
G2 X18.8748 Y34.0099 Z-7.0000 I-2.8247 J-2.8252 F120.00
G1 X18.8748 Y36.0099 Z-7.0000 F120.00
G1 X18.8748 Y34.0099 Z-7.0000 F120.00
G1 X18.7490 Y34.0099 Z-7.0000 F120.00
G2 X15.0099 Y38.2510 Z-7.0000 I0.2510 J3.9901 F120.00
G2 X19.2510 Y41.9901 Z-7.0000 I3.9901 J-0.2510 F120.00
G2 X21.8277 Y40.8280 Z-7.0000 I-0.2480 J-3.9873 F120.00
G1 X21.8277 Y40.8280 Z-7.5000 F60.00
G2 X18.8748 Y34.0099 Z-7.5000 I-2.8247 J-2.8252 F120.00
G1 X18.8748 Y36.0099 Z-7.5000 F120.00
G1 X18.8748 Y34.0099 Z-7.5000 F120.00
G1 X18.7490 Y34.0099 Z-7.5000 F120.00
G2 X15.0099 Y38.2510 Z-7.5000 I0.2510 J3.9901 F120.00
G2 X19.2510 Y41.9901 Z-7.5000 I3.9901 J-0.2510 F120.00
G2 X21.8277 Y40.8280 Z-7.5000 I-0.2480 J-3.9873 F120.00
G0 X21.8277 Y40.8280 Z5.0000
G0 X20.4099 Y39.4101 Z5.0000
G0 X20.4099 Y39.4101 Z-4.5000
G1 X20.4099 Y39.4101 Z-7.5000 F60.00
G3 X19.1252 Y39.9901 Z-7.5000 I-1.4099 J-1.4101 F120.00
G3 X17.0099 Y38.1252 Z-7.5000 I-0.1252 J-1.9901 F120.00
G3 X18.8748 Y36.0099 Z-7.5000 I1.9901 J-0.1252 F120.00
G3 X20.9901 Y37.8748 Z-7.5000 I0.1252 J1.9901 F120.00
G3 X19.1252 Y39.9901 Z-7.5000 I-1.9901 J0.1252 F120.00
G3 X17.0099 Y38.1252 Z-7.5000 I-0.1252 J-1.9901 F120.00
G3 X18.8748 Y36.0099 Z-7.5000 I1.9901 J-0.1252 F120.00
G3 X20.4099 Y39.4101 Z-7.5000 I0.1252 J1.9901 F120.00
G1 X20.4099 Y39.4101 Z-8.0000 F60.00
G3 X19.1252 Y39.9901 Z-8.0000 I-1.4099 J-1.4101 F120.00
G3 X17.0099 Y38.1252 Z-8.0000 I-0.1252 J-1.9901 F120.00
G3 X18.8748 Y36.0099 Z-8.0000 I1.9901 J-0.1252 F120.00
G3 X20.9901 Y37.8748 Z-8.0000 I0.1252 J1.9901 F120.00
G3 X19.1252 Y39.9901 Z-8.0000 I-1.9901 J0.1252 F120.00
G3 X17.0099 Y38.1252 Z-8.0000 I-0.1252 J-1.9901 F120.00
G3 X18.8748 Y36.0099 Z-8.0000 I1.9901 J-0.1252 F120.00
G3 X20.4099 Y39.4101 Z-8.0000 I0.1252 J1.9901 F120.00
G0 X20.4099 Y39.4101 Z5.0000
G0 X21.8276 Y40.8281 Z5.0000
G0 X21.8276 Y40.8281 Z-5.0000
G1 X21.8276 Y40.8281 Z-8.0000 F60.00
G2 X18.8748 Y34.0099 Z-8.0000 I-2.8246 J-2.8252 F120.00
G1 X18.8748 Y36.0099 Z-8.0000 F120.00
G1 X18.8748 Y34.0099 Z-8.0000 F120.00
G1 X18.7490 Y34.0099 Z-8.0000 F120.00
G2 X15.0099 Y38.2510 Z-8.0000 I0.2510 J3.9901 F120.00
G2 X19.2510 Y41.9901 Z-8.0000 I3.9901 J-0.2510 F120.00
G2 X21.8276 Y40.8281 Z-8.0000 I-0.2480 J-3.9873 F120.00
G1 X21.8276 Y40.8281 Z-8.5000 F60.00
G2 X18.8748 Y34.0099 Z-8.5000 I-2.8246 J-2.8252 F120.00
G1 X18.8748 Y36.0099 Z-8.5000 F120.00
G1 X18.8748 Y34.0099 Z-8.5000 F120.00
G1 X18.7490 Y34.0099 Z-8.5000 F120.00
G2 X15.0099 Y38.2510 Z-8.5000 I0.2510 J3.9901 F120.00
G2 X19.2510 Y41.9901 Z-8.5000 I3.9901 J-0.2510 F120.00
G2 X21.8276 Y40.8281 Z-8.5000 I-0.2480 J-3.9873 F120.00
G0 X21.8276 Y40.8281 Z5.0000
G0 X20.4099 Y39.4101 Z5.0000
G0 X20.4099 Y39.4101 Z-5.5000
G1 X20.4099 Y39.4101 Z-8.5000 F60.00
G3 X19.1252 Y39.9901 Z-8.5000 I-1.4099 J-1.4101 F120.00
G3 X17.0099 Y38.1252 Z-8.5000 I-0.1252 J-1.9901 F120.00
G3 X18.8748 Y36.0099 Z-8.5000 I1.9901 J-0.1252 F120.00
G3 X20.9901 Y37.8748 Z-8.5000 I0.1252 J1.9901 F120.00
G3 X19.1252 Y39.9901 Z-8.5000 I-1.9901 J0.1252 F120.00
G3 X17.0099 Y38.1252 Z-8.5000 I-0.1252 J-1.9901 F120.00
G3 X18.8748 Y36.0099 Z-8.5000 I1.9901 J-0.1252 F120.00
G3 X20.4099 Y39.4101 Z-8.5000 I0.1252 J1.9901 F120.00
G1 X20.4099 Y39.4101 Z-9.0000 F60.00
G3 X19.1252 Y39.9901 Z-9.0000 I-1.4099 J-1.4101 F120.00
G3 X17.0099 Y38.1252 Z-9.0000 I-0.1252 J-1.9901 F120.00
G3 X18.8748 Y36.0099 Z-9.0000 I1.9901 J-0.1252 F120.00
G3 X20.9901 Y37.8748 Z-9.0000 I0.1252 J1.9901 F120.00
G3 X19.1252 Y39.9901 Z-9.0000 I-1.9901 J0.1252 F120.00
G3 X17.0099 Y38.1252 Z-9.0000 I-0.1252 J-1.9901 F120.00
G3 X18.8748 Y36.0099 Z-9.0000 I1.9901 J-0.1252 F120.00
G3 X20.4099 Y39.4101 Z-9.0000 I0.1252 J1.9901 F120.00
G0 X20.4099 Y39.4101 Z5.0000
G0 X21.8275 Y40.8282 Z5.0000
G0 X21.8275 Y40.8282 Z-6.0000
G1 X21.8275 Y40.8282 Z-9.0000 F60.00
G2 X18.8748 Y34.0099 Z-9.0000 I-2.8245 J-2.8253 F120.00
G1 X18.8748 Y36.0099 Z-9.0000 F120.00
G1 X18.8748 Y34.0099 Z-9.0000 F120.00
G1 X18.7490 Y34.0099 Z-9.0000 F120.00
G2 X15.0099 Y38.2510 Z-9.0000 I0.2510 J3.9901 F120.00
G2 X19.2510 Y41.9901 Z-9.0000 I3.9901 J-0.2510 F120.00
G2 X21.8275 Y40.8282 Z-9.0000 I-0.2480 J-3.9873 F120.00
G1 X21.8275 Y40.8282 Z-9.5000 F60.00
G2 X18.8748 Y34.0099 Z-9.5000 I-2.8245 J-2.8253 F120.00
G1 X18.8748 Y36.0099 Z-9.5000 F120.00
G1 X18.8748 Y34.0099 Z-9.5000 F120.00
G1 X18.7490 Y34.0099 Z-9.5000 F120.00
G2 X15.0099 Y38.2510 Z-9.5000 I0.2510 J3.9901 F120.00
G2 X19.2510 Y41.9901 Z-9.5000 I3.9901 J-0.2510 F120.00
G2 X21.8275 Y40.8282 Z-9.5000 I-0.2480 J-3.9873 F120.00
G0 X21.8275 Y40.8282 Z5.0000
G0 X20.4098 Y39.4102 Z5.0000
G0 X20.4098 Y39.4102 Z-6.5000
G1 X20.4098 Y39.4102 Z-9.5000 F60.00
G3 X19.1252 Y39.9901 Z-9.5000 I-1.4098 J-1.4102 F120.00
G3 X17.0099 Y38.1252 Z-9.5000 I-0.1252 J-1.9901 F120.00
G3 X18.8748 Y36.0099 Z-9.5000 I1.9901 J-0.1252 F120.00
G3 X20.9901 Y37.8748 Z-9.5000 I0.1252 J1.9901 F120.00
G3 X19.1252 Y39.9901 Z-9.5000 I-1.9901 J0.1252 F120.00
G3 X17.0099 Y38.1252 Z-9.5000 I-0.1252 J-1.9901 F120.00
G3 X18.8748 Y36.0099 Z-9.5000 I1.9901 J-0.1252 F120.00
G3 X20.4098 Y39.4102 Z-9.5000 I0.1252 J1.9901 F120.00
G1 X20.4098 Y39.4102 Z-10.0000 F60.00
G3 X19.1252 Y39.9901 Z-10.0000 I-1.4098 J-1.4102 F120.00
G3 X17.0099 Y38.1252 Z-10.0000 I-0.1252 J-1.9901 F120.00
G3 X18.8748 Y36.0099 Z-10.0000 I1.9901 J-0.1252 F120.00
G3 X20.9901 Y37.8748 Z-10.0000 I0.1252 J1.9901 F120.00
G3 X19.1252 Y39.9901 Z-10.0000 I-1.9901 J0.1252 F120.00
G3 X17.0099 Y38.1252 Z-10.0000 I-0.1252 J-1.9901 F120.00
G3 X18.8748 Y36.0099 Z-10.0000 I1.9901 J-0.1252 F120.00
G3 X20.4098 Y39.4102 Z-10.0000 I0.1252 J1.9901 F120.00
G0 X20.4098 Y39.4102 Z5.0000
G0 X21.8274 Y40.8283 Z5.0000
G0 X21.8274 Y40.8283 Z-7.0000
G1 X21.8274 Y40.8283 Z-10.0000 F60.00
G2 X18.8748 Y34.0099 Z-10.0000 I-2.8244 J-2.8254 F120.00
G1 X18.8748 Y36.0099 Z-10.0000 F120.00
G1 X18.8748 Y34.0099 Z-10.0000 F120.00
G1 X18.7490 Y34.0099 Z-10.0000 F120.00
G2 X15.0099 Y38.2510 Z-10.0000 I0.2510 J3.9901 F120.00
G2 X19.2510 Y41.9901 Z-10.0000 I3.9901 J-0.2510 F120.00
G2 X21.8274 Y40.8283 Z-10.0000 I-0.2480 J-3.9873 F120.00
G1 X21.8274 Y40.8283 Z-10.5000 F60.00
G2 X18.8748 Y34.0099 Z-10.5000 I-2.8244 J-2.8254 F120.00
G1 X18.8748 Y36.0099 Z-10.5000 F120.00
G1 X18.8748 Y34.0099 Z-10.5000 F120.00
G1 X18.7490 Y34.0099 Z-10.5000 F120.00
G2 X15.0099 Y38.2510 Z-10.5000 I0.2510 J3.9901 F120.00
G2 X19.2510 Y41.9901 Z-10.5000 I3.9901 J-0.2510 F120.00
G2 X21.8274 Y40.8283 Z-10.5000 I-0.2480 J-3.9873 F120.00
G0 X21.8274 Y40.8283 Z5.0000
G0 X20.4098 Y39.4102 Z5.0000
G0 X20.4098 Y39.4102 Z-7.5000
G1 X20.4098 Y39.4102 Z-10.5000 F60.00
G3 X19.1252 Y39.9901 Z-10.5000 I-1.4098 J-1.4102 F120.00
G3 X17.0099 Y38.1252 Z-10.5000 I-0.1252 J-1.9901 F120.00
G3 X18.8748 Y36.0099 Z-10.5000 I1.9901 J-0.1252 F120.00
G3 X20.9901 Y37.8748 Z-10.5000 I0.1252 J1.9901 F120.00
G3 X19.1252 Y39.9901 Z-10.5000 I-1.9901 J0.1252 F120.00
G3 X17.0099 Y38.1252 Z-10.5000 I-0.1252 J-1.9901 F120.00
G3 X18.8748 Y36.0099 Z-10.5000 I1.9901 J-0.1252 F120.00
G3 X20.4098 Y39.4102 Z-10.5000 I0.1252 J1.9901 F120.00
G1 X20.4098 Y39.4102 Z-11.0000 F60.00
G3 X19.1252 Y39.9901 Z-11.0000 I-1.4098 J-1.4102 F120.00
G3 X17.0099 Y38.1252 Z-11.0000 I-0.1252 J-1.9901 F120.00
G3 X18.8748 Y36.0099 Z-11.0000 I1.9901 J-0.1252 F120.00
G3 X20.9901 Y37.8748 Z-11.0000 I0.1252 J1.9901 F120.00
G3 X19.1252 Y39.9901 Z-11.0000 I-1.9901 J0.1252 F120.00
G3 X17.0099 Y38.1252 Z-11.0000 I-0.1252 J-1.9901 F120.00
G3 X18.8748 Y36.0099 Z-11.0000 I1.9901 J-0.1252 F120.00
G3 X20.4098 Y39.4102 Z-11.0000 I0.1252 J1.9901 F120.00
G0 X20.4098 Y39.4102 Z5.0000
G0 X21.8273 Y40.8283 Z5.0000
G0 X21.8273 Y40.8283 Z-8.0000
G1 X21.8273 Y40.8283 Z-11.0000 F60.00
G2 X18.8748 Y34.0099 Z-11.0000 I-2.8243 J-2.8255 F120.00
G1 X18.8748 Y36.0099 Z-11.0000 F120.00
G1 X18.8748 Y34.0099 Z-11.0000 F120.00
G1 X18.7490 Y34.0099 Z-11.0000 F120.00
G2 X15.0099 Y38.2510 Z-11.0000 I0.2510 J3.9901 F120.00
G2 X19.2510 Y41.9901 Z-11.0000 I3.9901 J-0.2510 F120.00
G2 X21.8273 Y40.8283 Z-11.0000 I-0.2480 J-3.9873 F120.00
G1 X21.8273 Y40.8283 Z-11.5000 F60.00
G2 X18.8748 Y34.0099 Z-11.5000 I-2.8243 J-2.8255 F120.00
G1 X18.8748 Y36.0099 Z-11.5000 F120.00
G1 X18.8748 Y34.0099 Z-11.5000 F120.00
G1 X18.7490 Y34.0099 Z-11.5000 F120.00
G2 X15.0099 Y38.2510 Z-11.5000 I0.2510 J3.9901 F120.00
G2 X19.2510 Y41.9901 Z-11.5000 I3.9901 J-0.2510 F120.00
G2 X21.8273 Y40.8283 Z-11.5000 I-0.2480 J-3.9873 F120.00
G0 X21.8273 Y40.8283 Z5.0000
G0 X20.4098 Y39.4103 Z5.0000
G0 X20.4098 Y39.4103 Z-8.5000
G1 X20.4098 Y39.4103 Z-11.5000 F60.00
G3 X19.1252 Y39.9901 Z-11.5000 I-1.4098 J-1.4103 F120.00
G3 X17.0099 Y38.1252 Z-11.5000 I-0.1252 J-1.9901 F120.00
G3 X18.8748 Y36.0099 Z-11.5000 I1.9901 J-0.1252 F120.00
G3 X20.9901 Y37.8748 Z-11.5000 I0.1252 J1.9901 F120.00
G3 X19.1252 Y39.9901 Z-11.5000 I-1.9901 J0.1252 F120.00
G3 X17.0099 Y38.1252 Z-11.5000 I-0.1252 J-1.9901 F120.00
G3 X18.8748 Y36.0099 Z-11.5000 I1.9901 J-0.1252 F120.00
G3 X20.4098 Y39.4103 Z-11.5000 I0.1252 J1.9901 F120.00
G1 X20.4098 Y39.4103 Z-12.0000 F60.00
G3 X19.1252 Y39.9901 Z-12.0000 I-1.4098 J-1.4103 F120.00
G3 X17.0099 Y38.1252 Z-12.0000 I-0.1252 J-1.9901 F120.00
G3 X18.8748 Y36.0099 Z-12.0000 I1.9901 J-0.1252 F120.00
G3 X20.9901 Y37.8748 Z-12.0000 I0.1252 J1.9901 F120.00
G3 X19.1252 Y39.9901 Z-12.0000 I-1.9901 J0.1252 F120.00
G3 X17.0099 Y38.1252 Z-12.0000 I-0.1252 J-1.9901 F120.00
G3 X18.8748 Y36.0099 Z-12.0000 I1.9901 J-0.1252 F120.00
G3 X20.4098 Y39.4103 Z-12.0000 I0.1252 J1.9901 F120.00
G0 X20.4098 Y39.4103 Z5.0000
G0 X21.8272 Y40.8284 Z5.0000
G0 X21.8272 Y40.8284 Z-9.0000
G1 X21.8272 Y40.8284 Z-12.0000 F60.00
G2 X18.8748 Y34.0099 Z-12.0000 I-2.8242 J-2.8256 F120.00
G1 X18.8748 Y36.0099 Z-12.0000 F120.00
G1 X18.8748 Y34.0099 Z-12.0000 F120.00
G1 X18.7490 Y34.0099 Z-12.0000 F120.00
G2 X15.0099 Y38.2510 Z-12.0000 I0.2510 J3.9901 F120.00
G2 X19.2510 Y41.9901 Z-12.0000 I3.9901 J-0.2510 F120.00
G2 X21.8272 Y40.8284 Z-12.0000 I-0.2480 J-3.9873 F120.00
G0 Z5.0000
G0 X30.3164 Y39.2411
G0 Z3.0000
G1 X30.3164 Y39.2411 Z-5.5000 F60.00
G3 X29.7527 Y39.4407 Z-5.5000 I-0.4911 J-0.4911 F120.00
G3 X29.1346 Y38.6774 Z-5.5000 I0.0726 J-0.6907 F120.00
G3 X29.8979 Y38.0593 Z-5.5000 I0.6907 J0.0726 F120.00
G3 X30.3164 Y39.2411 Z-5.5000 I-0.0726 J0.6907 F120.00
G1 X30.3164 Y39.2411 Z-6.0000 F60.00
G3 X29.7527 Y39.4407 Z-6.0000 I-0.4911 J-0.4911 F120.00
G3 X29.1346 Y38.6774 Z-6.0000 I0.0726 J-0.6907 F120.00
G3 X29.8979 Y38.0593 Z-6.0000 I0.6907 J0.0726 F120.00
G3 X30.3164 Y39.2411 Z-6.0000 I-0.0726 J0.6907 F120.00
G1 X30.3164 Y39.2411 Z-6.5000 F60.00
G3 X29.7527 Y39.4407 Z-6.5000 I-0.4911 J-0.4911 F120.00
G3 X29.1346 Y38.6774 Z-6.5000 I0.0726 J-0.6907 F120.00
G3 X29.8979 Y38.0593 Z-6.5000 I0.6907 J0.0726 F120.00
G3 X30.3164 Y39.2411 Z-6.5000 I-0.0726 J0.6907 F120.00
G1 X30.3164 Y39.2411 Z-7.0000 F60.00
G3 X29.7527 Y39.4407 Z-7.0000 I-0.4911 J-0.4911 F120.00
G3 X29.1346 Y38.6774 Z-7.0000 I0.0726 J-0.6907 F120.00
G3 X29.8979 Y38.0593 Z-7.0000 I0.6907 J0.0726 F120.00
G3 X30.3164 Y39.2411 Z-7.0000 I-0.0726 J0.6907 F120.00
G1 X30.3164 Y39.2411 Z-7.5000 F60.00
G3 X29.7527 Y39.4407 Z-7.5000 I-0.4911 J-0.4911 F120.00
G3 X29.1346 Y38.6774 Z-7.5000 I0.0726 J-0.6907 F120.00
G3 X29.8979 Y38.0593 Z-7.5000 I0.6907 J0.0726 F120.00
G3 X30.3164 Y39.2411 Z-7.5000 I-0.0726 J0.6907 F120.00
G1 X30.3164 Y39.2411 Z-8.0000 F60.00
G3 X29.7527 Y39.4407 Z-8.0000 I-0.4911 J-0.4911 F120.00
G3 X29.1346 Y38.6774 Z-8.0000 I0.0726 J-0.6907 F120.00
G3 X29.8979 Y38.0593 Z-8.0000 I0.6907 J0.0726 F120.00
G3 X30.3164 Y39.2411 Z-8.0000 I-0.0726 J0.6907 F120.00
G1 X30.3164 Y39.2411 Z-8.5000 F60.00
G3 X29.7527 Y39.4407 Z-8.5000 I-0.4911 J-0.4911 F120.00
G3 X29.1346 Y38.6774 Z-8.5000 I0.0726 J-0.6907 F120.00
G3 X29.8979 Y38.0593 Z-8.5000 I0.6907 J0.0726 F120.00
G3 X30.3164 Y39.2411 Z-8.5000 I-0.0726 J0.6907 F120.00
G1 X30.3164 Y39.2411 Z-9.0000 F60.00
G3 X29.7527 Y39.4407 Z-9.0000 I-0.4911 J-0.4911 F120.00
G3 X29.1346 Y38.6774 Z-9.0000 I0.0726 J-0.6907 F120.00
G3 X29.8979 Y38.0593 Z-9.0000 I0.6907 J0.0726 F120.00
G3 X30.3164 Y39.2411 Z-9.0000 I-0.0726 J0.6907 F120.00
G1 X30.3164 Y39.2411 Z-9.5000 F60.00
G3 X29.7527 Y39.4407 Z-9.5000 I-0.4911 J-0.4911 F120.00
G3 X29.1346 Y38.6774 Z-9.5000 I0.0726 J-0.6907 F120.00
G3 X29.8979 Y38.0593 Z-9.5000 I0.6907 J0.0726 F120.00
G3 X30.3164 Y39.2411 Z-9.5000 I-0.0726 J0.6907 F120.00
G1 X30.3164 Y39.2411 Z-10.0000 F60.00
G3 X29.7527 Y39.4407 Z-10.0000 I-0.4911 J-0.4911 F120.00
G3 X29.1346 Y38.6774 Z-10.0000 I0.0726 J-0.6907 F120.00
G3 X29.8979 Y38.0593 Z-10.0000 I0.6907 J0.0726 F120.00
G3 X30.3164 Y39.2411 Z-10.0000 I-0.0726 J0.6907 F120.00
G1 X30.3164 Y39.2411 Z-10.5000 F60.00
G3 X29.7527 Y39.4407 Z-10.5000 I-0.4911 J-0.4911 F120.00
G3 X29.1346 Y38.6774 Z-10.5000 I0.0726 J-0.6907 F120.00
G3 X29.8979 Y38.0593 Z-10.5000 I0.6907 J0.0726 F120.00
G3 X30.3164 Y39.2411 Z-10.5000 I-0.0726 J0.6907 F120.00
G1 X30.3164 Y39.2411 Z-11.0000 F60.00
G3 X29.7527 Y39.4407 Z-11.0000 I-0.4911 J-0.4911 F120.00
G3 X29.1346 Y38.6774 Z-11.0000 I0.0726 J-0.6907 F120.00
G3 X29.8979 Y38.0593 Z-11.0000 I0.6907 J0.0726 F120.00
G3 X30.3164 Y39.2411 Z-11.0000 I-0.0726 J0.6907 F120.00
G1 X30.3164 Y39.2411 Z-11.5000 F60.00
G3 X29.7527 Y39.4407 Z-11.5000 I-0.4911 J-0.4911 F120.00
G3 X29.1346 Y38.6774 Z-11.5000 I0.0726 J-0.6907 F120.00
G3 X29.8979 Y38.0593 Z-11.5000 I0.6907 J0.0726 F120.00
G3 X30.3164 Y39.2411 Z-11.5000 I-0.0726 J0.6907 F120.00
G1 X30.3164 Y39.2411 Z-12.0000 F60.00
G3 X29.7527 Y39.4407 Z-12.0000 I-0.4911 J-0.4911 F120.00
G3 X29.1346 Y38.6774 Z-12.0000 I0.0726 J-0.6907 F120.00
G3 X29.8979 Y38.0593 Z-12.0000 I0.6907 J0.0726 F120.00
G3 X30.3164 Y39.2411 Z-12.0000 I-0.0726 J0.6907 F120.00
G0 Z5.0000
G0 X31.9911 Y32.9911
G0 Z3.0000
G1 X31.9911 Y32.9911 Z-5.5000 F60.00
G3 X31.4274 Y33.1907 Z-5.5000 I-0.4911 J-0.4911 F120.00
G3 X30.8093 Y32.4274 Z-5.5000 I0.0726 J-0.6907 F120.00
G3 X31.5726 Y31.8093 Z-5.5000 I0.6907 J0.0726 F120.00
G3 X31.9911 Y32.9911 Z-5.5000 I-0.0726 J0.6907 F120.00
G1 X31.9911 Y32.9911 Z-6.0000 F60.00
G3 X31.4274 Y33.1907 Z-6.0000 I-0.4911 J-0.4911 F120.00
G3 X30.8093 Y32.4274 Z-6.0000 I0.0726 J-0.6907 F120.00
G3 X31.5726 Y31.8093 Z-6.0000 I0.6907 J0.0726 F120.00
G3 X31.9911 Y32.9911 Z-6.0000 I-0.0726 J0.6907 F120.00
G1 X31.9911 Y32.9911 Z-6.5000 F60.00
G3 X31.4274 Y33.1907 Z-6.5000 I-0.4911 J-0.4911 F120.00
G3 X30.8093 Y32.4274 Z-6.5000 I0.0726 J-0.6907 F120.00
G3 X31.5726 Y31.8093 Z-6.5000 I0.6907 J0.0726 F120.00
G3 X31.9911 Y32.9911 Z-6.5000 I-0.0726 J0.6907 F120.00
G1 X31.9911 Y32.9911 Z-7.0000 F60.00
G3 X31.4274 Y33.1907 Z-7.0000 I-0.4911 J-0.4911 F120.00
G3 X30.8093 Y32.4274 Z-7.0000 I0.0726 J-0.6907 F120.00
G3 X31.5726 Y31.8093 Z-7.0000 I0.6907 J0.0726 F120.00
G3 X31.9911 Y32.9911 Z-7.0000 I-0.0726 J0.6907 F120.00
G1 X31.9911 Y32.9911 Z-7.5000 F60.00
G3 X31.4274 Y33.1907 Z-7.5000 I-0.4911 J-0.4911 F120.00
G3 X30.8093 Y32.4274 Z-7.5000 I0.0726 J-0.6907 F120.00
G3 X31.5726 Y31.8093 Z-7.5000 I0.6907 J0.0726 F120.00
G3 X31.9911 Y32.9911 Z-7.5000 I-0.0726 J0.6907 F120.00
G1 X31.9911 Y32.9911 Z-8.0000 F60.00
G3 X31.4274 Y33.1907 Z-8.0000 I-0.4911 J-0.4911 F120.00
G3 X30.8093 Y32.4274 Z-8.0000 I0.0726 J-0.6907 F120.00
G3 X31.5726 Y31.8093 Z-8.0000 I0.6907 J0.0726 F120.00
G3 X31.9911 Y32.9911 Z-8.0000 I-0.0726 J0.6907 F120.00
G1 X31.9911 Y32.9911 Z-8.5000 F60.00
G3 X31.4274 Y33.1907 Z-8.5000 I-0.4911 J-0.4911 F120.00
G3 X30.8093 Y32.4274 Z-8.5000 I0.0726 J-0.6907 F120.00
G3 X31.5726 Y31.8093 Z-8.5000 I0.6907 J0.0726 F120.00
G3 X31.9911 Y32.9911 Z-8.5000 I-0.0726 J0.6907 F120.00
G1 X31.9911 Y32.9911 Z-9.0000 F60.00
G3 X31.4274 Y33.1907 Z-9.0000 I-0.4911 J-0.4911 F120.00
G3 X30.8093 Y32.4274 Z-9.0000 I0.0726 J-0.6907 F120.00
G3 X31.5726 Y31.8093 Z-9.0000 I0.6907 J0.0726 F120.00
G3 X31.9911 Y32.9911 Z-9.0000 I-0.0726 J0.6907 F120.00
G1 X31.9911 Y32.9911 Z-9.5000 F60.00
G3 X31.4274 Y33.1907 Z-9.5000 I-0.4911 J-0.4911 F120.00
G3 X30.8093 Y32.4274 Z-9.5000 I0.0726 J-0.6907 F120.00
G3 X31.5726 Y31.8093 Z-9.5000 I0.6907 J0.0726 F120.00
G3 X31.9911 Y32.9911 Z-9.5000 I-0.0726 J0.6907 F120.00
G1 X31.9911 Y32.9911 Z-10.0000 F60.00
G3 X31.4274 Y33.1907 Z-10.0000 I-0.4911 J-0.4911 F120.00
G3 X30.8093 Y32.4274 Z-10.0000 I0.0726 J-0.6907 F120.00
G3 X31.5726 Y31.8093 Z-10.0000 I0.6907 J0.0726 F120.00
G3 X31.9911 Y32.9911 Z-10.0000 I-0.0726 J0.6907 F120.00
G1 X31.9911 Y32.9911 Z-10.5000 F60.00
G3 X31.4274 Y33.1907 Z-10.5000 I-0.4911 J-0.4911 F120.00
G3 X30.8093 Y32.4274 Z-10.5000 I0.0726 J-0.6907 F120.00
G3 X31.5726 Y31.8093 Z-10.5000 I0.6907 J0.0726 F120.00
G3 X31.9911 Y32.9911 Z-10.5000 I-0.0726 J0.6907 F120.00
G1 X31.9911 Y32.9911 Z-11.0000 F60.00
G3 X31.4274 Y33.1907 Z-11.0000 I-0.4911 J-0.4911 F120.00
G3 X30.8093 Y32.4274 Z-11.0000 I0.0726 J-0.6907 F120.00
G3 X31.5726 Y31.8093 Z-11.0000 I0.6907 J0.0726 F120.00
G3 X31.9911 Y32.9911 Z-11.0000 I-0.0726 J0.6907 F120.00
G1 X31.9911 Y32.9911 Z-11.5000 F60.00
G3 X31.4274 Y33.1907 Z-11.5000 I-0.4911 J-0.4911 F120.00
G3 X30.8093 Y32.4274 Z-11.5000 I0.0726 J-0.6907 F120.00
G3 X31.5726 Y31.8093 Z-11.5000 I0.6907 J0.0726 F120.00
G3 X31.9911 Y32.9911 Z-11.5000 I-0.0726 J0.6907 F120.00
G1 X31.9911 Y32.9911 Z-12.0000 F60.00
G3 X31.4274 Y33.1907 Z-12.0000 I-0.4911 J-0.4911 F120.00
G3 X30.8093 Y32.4274 Z-12.0000 I0.0726 J-0.6907 F120.00
G3 X31.5726 Y31.8093 Z-12.0000 I0.6907 J0.0726 F120.00
G3 X31.9911 Y32.9911 Z-12.0000 I-0.0726 J0.6907 F120.00
G0 Z5.0000
G0 X7.8809 Y8.8809
G0 Z3.0000
G1 X7.8809 Y8.8809 Z-5.5000 F60.00
G3 X6.8851 Y9.2404 Z-5.5000 I-0.8809 J-0.8809 F120.00
G3 X5.7596 Y7.8851 Z-5.5000 I0.1149 J-1.2404 F120.00
G3 X7.1149 Y6.7596 Z-5.5000 I1.2404 J0.1149 F120.00
G3 X7.8809 Y8.8809 Z-5.5000 I-0.1149 J1.2404 F120.00
G1 X7.8809 Y8.8809 Z-6.0000 F60.00
G3 X6.8851 Y9.2404 Z-6.0000 I-0.8809 J-0.8809 F120.00
G3 X5.7596 Y7.8851 Z-6.0000 I0.1149 J-1.2404 F120.00
G3 X7.1149 Y6.7596 Z-6.0000 I1.2404 J0.1149 F120.00
G3 X7.8809 Y8.8809 Z-6.0000 I-0.1149 J1.2404 F120.00
G1 X7.8809 Y8.8809 Z-6.5000 F60.00
G3 X6.8851 Y9.2404 Z-6.5000 I-0.8809 J-0.8809 F120.00
G3 X5.7596 Y7.8851 Z-6.5000 I0.1149 J-1.2404 F120.00
G3 X7.1149 Y6.7596 Z-6.5000 I1.2404 J0.1149 F120.00
G3 X7.8809 Y8.8809 Z-6.5000 I-0.1149 J1.2404 F120.00
G1 X7.8809 Y8.8809 Z-7.0000 F60.00
G3 X6.8851 Y9.2404 Z-7.0000 I-0.8809 J-0.8809 F120.00
G3 X5.7596 Y7.8851 Z-7.0000 I0.1149 J-1.2404 F120.00
G3 X7.1149 Y6.7596 Z-7.0000 I1.2404 J0.1149 F120.00
G3 X7.8809 Y8.8809 Z-7.0000 I-0.1149 J1.2404 F120.00
G1 X7.8809 Y8.8809 Z-7.5000 F60.00
G3 X6.8851 Y9.2404 Z-7.5000 I-0.8809 J-0.8809 F120.00
G3 X5.7596 Y7.8851 Z-7.5000 I0.1149 J-1.2404 F120.00
G3 X7.1149 Y6.7596 Z-7.5000 I1.2404 J0.1149 F120.00
G3 X7.8809 Y8.8809 Z-7.5000 I-0.1149 J1.2404 F120.00
G1 X7.8809 Y8.8809 Z-8.0000 F60.00
G3 X6.8851 Y9.2404 Z-8.0000 I-0.8809 J-0.8809 F120.00
G3 X5.7596 Y7.8851 Z-8.0000 I0.1149 J-1.2404 F120.00
G3 X7.1149 Y6.7596 Z-8.0000 I1.2404 J0.1149 F120.00
G3 X7.8809 Y8.8809 Z-8.0000 I-0.1149 J1.2404 F120.00
G1 X7.8809 Y8.8809 Z-8.5000 F60.00
G3 X6.8851 Y9.2404 Z-8.5000 I-0.8809 J-0.8809 F120.00
G3 X5.7596 Y7.8851 Z-8.5000 I0.1149 J-1.2404 F120.00
G3 X7.1149 Y6.7596 Z-8.5000 I1.2404 J0.1149 F120.00
G3 X7.8809 Y8.8809 Z-8.5000 I-0.1149 J1.2404 F120.00
G1 X7.8809 Y8.8809 Z-9.0000 F60.00
G3 X6.8851 Y9.2404 Z-9.0000 I-0.8809 J-0.8809 F120.00
G3 X5.7596 Y7.8851 Z-9.0000 I0.1149 J-1.2404 F120.00
G3 X7.1149 Y6.7596 Z-9.0000 I1.2404 J0.1149 F120.00
G3 X7.8809 Y8.8809 Z-9.0000 I-0.1149 J1.2404 F120.00
G1 X7.8809 Y8.8809 Z-9.5000 F60.00
G3 X6.8851 Y9.2404 Z-9.5000 I-0.8809 J-0.8809 F120.00
G3 X5.7596 Y7.8851 Z-9.5000 I0.1149 J-1.2404 F120.00
G3 X7.1149 Y6.7596 Z-9.5000 I1.2404 J0.1149 F120.00
G3 X7.8809 Y8.8809 Z-9.5000 I-0.1149 J1.2404 F120.00
G1 X7.8809 Y8.8809 Z-10.0000 F60.00
G3 X6.8851 Y9.2404 Z-10.0000 I-0.8809 J-0.8809 F120.00
G3 X5.7596 Y7.8851 Z-10.0000 I0.1149 J-1.2404 F120.00
G3 X7.1149 Y6.7596 Z-10.0000 I1.2404 J0.1149 F120.00
G3 X7.8809 Y8.8809 Z-10.0000 I-0.1149 J1.2404 F120.00
G1 X7.8809 Y8.8809 Z-10.5000 F60.00
G3 X6.8851 Y9.2404 Z-10.5000 I-0.8809 J-0.8809 F120.00
G3 X5.7596 Y7.8851 Z-10.5000 I0.1149 J-1.2404 F120.00
G3 X7.1149 Y6.7596 Z-10.5000 I1.2404 J0.1149 F120.00
G3 X7.8809 Y8.8809 Z-10.5000 I-0.1149 J1.2404 F120.00
G1 X7.8809 Y8.8809 Z-11.0000 F60.00
G3 X6.8851 Y9.2404 Z-11.0000 I-0.8809 J-0.8809 F120.00
G3 X5.7596 Y7.8851 Z-11.0000 I0.1149 J-1.2404 F120.00
G3 X7.1149 Y6.7596 Z-11.0000 I1.2404 J0.1149 F120.00
G3 X7.8809 Y8.8809 Z-11.0000 I-0.1149 J1.2404 F120.00
G1 X7.8809 Y8.8809 Z-11.5000 F60.00
G3 X6.8851 Y9.2404 Z-11.5000 I-0.8809 J-0.8809 F120.00
G3 X5.7596 Y7.8851 Z-11.5000 I0.1149 J-1.2404 F120.00
G3 X7.1149 Y6.7596 Z-11.5000 I1.2404 J0.1149 F120.00
G3 X7.8809 Y8.8809 Z-11.5000 I-0.1149 J1.2404 F120.00
G1 X7.8809 Y8.8809 Z-12.0000 F60.00
G3 X6.8851 Y9.2404 Z-12.0000 I-0.8809 J-0.8809 F120.00
G3 X5.7596 Y7.8851 Z-12.0000 I0.1149 J-1.2404 F120.00
G3 X7.1149 Y6.7596 Z-12.0000 I1.2404 J0.1149 F120.00
G3 X7.8809 Y8.8809 Z-12.0000 I-0.1149 J1.2404 F120.00
G0 Z5.0000
G0 X8.6658 Y26.7411
G0 Z3.0000
G1 X8.6658 Y26.7411 Z-5.5000 F60.00
G3 X8.1021 Y26.9407 Z-5.5000 I-0.4911 J-0.4911 F120.00
G3 X7.4840 Y26.1774 Z-5.5000 I0.0726 J-0.6907 F120.00
G3 X8.2473 Y25.5593 Z-5.5000 I0.6907 J0.0726 F120.00
G3 X8.6658 Y26.7411 Z-5.5000 I-0.0726 J0.6907 F120.00
G1 X8.6658 Y26.7411 Z-6.0000 F60.00
G3 X8.1021 Y26.9407 Z-6.0000 I-0.4911 J-0.4911 F120.00
G3 X7.4840 Y26.1774 Z-6.0000 I0.0726 J-0.6907 F120.00
G3 X8.2473 Y25.5593 Z-6.0000 I0.6907 J0.0726 F120.00
G3 X8.6658 Y26.7411 Z-6.0000 I-0.0726 J0.6907 F120.00
G1 X8.6658 Y26.7411 Z-6.5000 F60.00
G3 X8.1021 Y26.9407 Z-6.5000 I-0.4911 J-0.4911 F120.00
G3 X7.4840 Y26.1774 Z-6.5000 I0.0726 J-0.6907 F120.00
G3 X8.2473 Y25.5593 Z-6.5000 I0.6907 J0.0726 F120.00
G3 X8.6658 Y26.7411 Z-6.5000 I-0.0726 J0.6907 F120.00
G1 X8.6658 Y26.7411 Z-7.0000 F60.00
G3 X8.1021 Y26.9407 Z-7.0000 I-0.4911 J-0.4911 F120.00
G3 X7.4840 Y26.1774 Z-7.0000 I0.0726 J-0.6907 F120.00
G3 X8.2473 Y25.5593 Z-7.0000 I0.6907 J0.0726 F120.00
G3 X8.6658 Y26.7411 Z-7.0000 I-0.0726 J0.6907 F120.00
G1 X8.6658 Y26.7411 Z-7.5000 F60.00
G3 X8.1021 Y26.9407 Z-7.5000 I-0.4911 J-0.4911 F120.00
G3 X7.4840 Y26.1774 Z-7.5000 I0.0726 J-0.6907 F120.00
G3 X8.2473 Y25.5593 Z-7.5000 I0.6907 J0.0726 F120.00
G3 X8.6658 Y26.7411 Z-7.5000 I-0.0726 J0.6907 F120.00
G1 X8.6658 Y26.7411 Z-8.0000 F60.00
G3 X8.1021 Y26.9407 Z-8.0000 I-0.4911 J-0.4911 F120.00
G3 X7.4840 Y26.1774 Z-8.0000 I0.0726 J-0.6907 F120.00
G3 X8.2473 Y25.5593 Z-8.0000 I0.6907 J0.0726 F120.00
G3 X8.6658 Y26.7411 Z-8.0000 I-0.0726 J0.6907 F120.00
G1 X8.6658 Y26.7411 Z-8.5000 F60.00
G3 X8.1021 Y26.9407 Z-8.5000 I-0.4911 J-0.4911 F120.00
G3 X7.4840 Y26.1774 Z-8.5000 I0.0726 J-0.6907 F120.00
G3 X8.2473 Y25.5593 Z-8.5000 I0.6907 J0.0726 F120.00
G3 X8.6658 Y26.7411 Z-8.5000 I-0.0726 J0.6907 F120.00
G1 X8.6658 Y26.7411 Z-9.0000 F60.00
G3 X8.1021 Y26.9407 Z-9.0000 I-0.4911 J-0.4911 F120.00
G3 X7.4840 Y26.1774 Z-9.0000 I0.0726 J-0.6907 F120.00
G3 X8.2473 Y25.5593 Z-9.0000 I0.6907 J0.0726 F120.00
G3 X8.6658 Y26.7411 Z-9.0000 I-0.0726 J0.6907 F120.00
G1 X8.6658 Y26.7411 Z-9.5000 F60.00
G3 X8.1021 Y26.9407 Z-9.5000 I-0.4911 J-0.4911 F120.00
G3 X7.4840 Y26.1774 Z-9.5000 I0.0726 J-0.6907 F120.00
G3 X8.2473 Y25.5593 Z-9.5000 I0.6907 J0.0726 F120.00
G3 X8.6658 Y26.7411 Z-9.5000 I-0.0726 J0.6907 F120.00
G1 X8.6658 Y26.7411 Z-10.0000 F60.00
G3 X8.1021 Y26.9407 Z-10.0000 I-0.4911 J-0.4911 F120.00
G3 X7.4840 Y26.1774 Z-10.0000 I0.0726 J-0.6907 F120.00
G3 X8.2473 Y25.5593 Z-10.0000 I0.6907 J0.0726 F120.00
G3 X8.6658 Y26.7411 Z-10.0000 I-0.0726 J0.6907 F120.00
G1 X8.6658 Y26.7411 Z-10.5000 F60.00
G3 X8.1021 Y26.9407 Z-10.5000 I-0.4911 J-0.4911 F120.00
G3 X7.4840 Y26.1774 Z-10.5000 I0.0726 J-0.6907 F120.00
G3 X8.2473 Y25.5593 Z-10.5000 I0.6907 J0.0726 F120.00
G3 X8.6658 Y26.7411 Z-10.5000 I-0.0726 J0.6907 F120.00
G1 X8.6658 Y26.7411 Z-11.0000 F60.00
G3 X8.1021 Y26.9407 Z-11.0000 I-0.4911 J-0.4911 F120.00
G3 X7.4840 Y26.1774 Z-11.0000 I0.0726 J-0.6907 F120.00
G3 X8.2473 Y25.5593 Z-11.0000 I0.6907 J0.0726 F120.00
G3 X8.6658 Y26.7411 Z-11.0000 I-0.0726 J0.6907 F120.00
G1 X8.6658 Y26.7411 Z-11.5000 F60.00
G3 X8.1021 Y26.9407 Z-11.5000 I-0.4911 J-0.4911 F120.00
G3 X7.4840 Y26.1774 Z-11.5000 I0.0726 J-0.6907 F120.00
G3 X8.2473 Y25.5593 Z-11.5000 I0.6907 J0.0726 F120.00
G3 X8.6658 Y26.7411 Z-11.5000 I-0.0726 J0.6907 F120.00
G1 X8.6658 Y26.7411 Z-12.0000 F60.00
G3 X8.1021 Y26.9407 Z-12.0000 I-0.4911 J-0.4911 F120.00
G3 X7.4840 Y26.1774 Z-12.0000 I0.0726 J-0.6907 F120.00
G3 X8.2473 Y25.5593 Z-12.0000 I0.6907 J0.0726 F120.00
G3 X8.6658 Y26.7411 Z-12.0000 I-0.0726 J0.6907 F120.00
G0 Z5.0000
G0 X6.9911 Y32.9911
G0 Z3.0000
G1 X6.9911 Y32.9911 Z-5.5000 F60.00
G3 X6.4274 Y33.1907 Z-5.5000 I-0.4911 J-0.4911 F120.00
G3 X5.8093 Y32.4274 Z-5.5000 I0.0726 J-0.6907 F120.00
G3 X6.5726 Y31.8093 Z-5.5000 I0.6907 J0.0726 F120.00
G3 X6.9911 Y32.9911 Z-5.5000 I-0.0726 J0.6907 F120.00
G1 X6.9911 Y32.9911 Z-6.0000 F60.00
G3 X6.4274 Y33.1907 Z-6.0000 I-0.4911 J-0.4911 F120.00
G3 X5.8093 Y32.4274 Z-6.0000 I0.0726 J-0.6907 F120.00
G3 X6.5726 Y31.8093 Z-6.0000 I0.6907 J0.0726 F120.00
G3 X6.9911 Y32.9911 Z-6.0000 I-0.0726 J0.6907 F120.00
G1 X6.9911 Y32.9911 Z-6.5000 F60.00
G3 X6.4274 Y33.1907 Z-6.5000 I-0.4911 J-0.4911 F120.00
G3 X5.8093 Y32.4274 Z-6.5000 I0.0726 J-0.6907 F120.00
G3 X6.5726 Y31.8093 Z-6.5000 I0.6907 J0.0726 F120.00
G3 X6.9911 Y32.9911 Z-6.5000 I-0.0726 J0.6907 F120.00
G1 X6.9911 Y32.9911 Z-7.0000 F60.00
G3 X6.4274 Y33.1907 Z-7.0000 I-0.4911 J-0.4911 F120.00
G3 X5.8093 Y32.4274 Z-7.0000 I0.0726 J-0.6907 F120.00
G3 X6.5726 Y31.8093 Z-7.0000 I0.6907 J0.0726 F120.00
G3 X6.9911 Y32.9911 Z-7.0000 I-0.0726 J0.6907 F120.00
G1 X6.9911 Y32.9911 Z-7.5000 F60.00
G3 X6.4274 Y33.1907 Z-7.5000 I-0.4911 J-0.4911 F120.00
G3 X5.8093 Y32.4274 Z-7.5000 I0.0726 J-0.6907 F120.00
G3 X6.5726 Y31.8093 Z-7.5000 I0.6907 J0.0726 F120.00
G3 X6.9911 Y32.9911 Z-7.5000 I-0.0726 J0.6907 F120.00
G1 X6.9911 Y32.9911 Z-8.0000 F60.00
G3 X6.4274 Y33.1907 Z-8.0000 I-0.4911 J-0.4911 F120.00
G3 X5.8093 Y32.4274 Z-8.0000 I0.0726 J-0.6907 F120.00
G3 X6.5726 Y31.8093 Z-8.0000 I0.6907 J0.0726 F120.00
G3 X6.9911 Y32.9911 Z-8.0000 I-0.0726 J0.6907 F120.00
G1 X6.9911 Y32.9911 Z-8.5000 F60.00
G3 X6.4274 Y33.1907 Z-8.5000 I-0.4911 J-0.4911 F120.00
G3 X5.8093 Y32.4274 Z-8.5000 I0.0726 J-0.6907 F120.00
G3 X6.5726 Y31.8093 Z-8.5000 I0.6907 J0.0726 F120.00
G3 X6.9911 Y32.9911 Z-8.5000 I-0.0726 J0.6907 F120.00
G1 X6.9911 Y32.9911 Z-9.0000 F60.00
G3 X6.4274 Y33.1907 Z-9.0000 I-0.4911 J-0.4911 F120.00
G3 X5.8093 Y32.4274 Z-9.0000 I0.0726 J-0.6907 F120.00
G3 X6.5726 Y31.8093 Z-9.0000 I0.6907 J0.0726 F120.00
G3 X6.9911 Y32.9911 Z-9.0000 I-0.0726 J0.6907 F120.00
G1 X6.9911 Y32.9911 Z-9.5000 F60.00
G3 X6.4274 Y33.1907 Z-9.5000 I-0.4911 J-0.4911 F120.00
G3 X5.8093 Y32.4274 Z-9.5000 I0.0726 J-0.6907 F120.00
G3 X6.5726 Y31.8093 Z-9.5000 I0.6907 J0.0726 F120.00
G3 X6.9911 Y32.9911 Z-9.5000 I-0.0726 J0.6907 F120.00
G1 X6.9911 Y32.9911 Z-10.0000 F60.00
G3 X6.4274 Y33.1907 Z-10.0000 I-0.4911 J-0.4911 F120.00
G3 X5.8093 Y32.4274 Z-10.0000 I0.0726 J-0.6907 F120.00
G3 X6.5726 Y31.8093 Z-10.0000 I0.6907 J0.0726 F120.00
G3 X6.9911 Y32.9911 Z-10.0000 I-0.0726 J0.6907 F120.00
G1 X6.9911 Y32.9911 Z-10.5000 F60.00
G3 X6.4274 Y33.1907 Z-10.5000 I-0.4911 J-0.4911 F120.00
G3 X5.8093 Y32.4274 Z-10.5000 I0.0726 J-0.6907 F120.00
G3 X6.5726 Y31.8093 Z-10.5000 I0.6907 J0.0726 F120.00
G3 X6.9911 Y32.9911 Z-10.5000 I-0.0726 J0.6907 F120.00
G1 X6.9911 Y32.9911 Z-11.0000 F60.00
G3 X6.4274 Y33.1907 Z-11.0000 I-0.4911 J-0.4911 F120.00
G3 X5.8093 Y32.4274 Z-11.0000 I0.0726 J-0.6907 F120.00
G3 X6.5726 Y31.8093 Z-11.0000 I0.6907 J0.0726 F120.00
G3 X6.9911 Y32.9911 Z-11.0000 I-0.0726 J0.6907 F120.00
G1 X6.9911 Y32.9911 Z-11.5000 F60.00
G3 X6.4274 Y33.1907 Z-11.5000 I-0.4911 J-0.4911 F120.00
G3 X5.8093 Y32.4274 Z-11.5000 I0.0726 J-0.6907 F120.00
G3 X6.5726 Y31.8093 Z-11.5000 I0.6907 J0.0726 F120.00
G3 X6.9911 Y32.9911 Z-11.5000 I-0.0726 J0.6907 F120.00
G1 X6.9911 Y32.9911 Z-12.0000 F60.00
G3 X6.4274 Y33.1907 Z-12.0000 I-0.4911 J-0.4911 F120.00
G3 X5.8093 Y32.4274 Z-12.0000 I0.0726 J-0.6907 F120.00
G3 X6.5726 Y31.8093 Z-12.0000 I0.6907 J0.0726 F120.00
G3 X6.9911 Y32.9911 Z-12.0000 I-0.0726 J0.6907 F120.00
G0 Z5.0000
(finish operation: Pocket_Shape001)
(begin operation: Pocket_Shape002)
(Path: Pocket_Shape002)
(Pocket_Shape002)
G0 Z5.0000
G0 X13.2411 Y22.1658
G0 Z3.0000
G1 X13.2411 Y22.1658 Z-0.5000 F60.00
G2 X12.8226 Y20.9840 Z-0.5000 I-0.4911 J-0.4911 F120.00
G2 X12.0593 Y21.6021 Z-0.5000 I-0.0726 J0.6907 F120.00
G2 X12.6774 Y22.3654 Z-0.5000 I0.6907 J0.0726 F120.00
G2 X13.2411 Y22.1658 Z-0.5000 I0.0726 J-0.6907 F120.00
G1 X13.2411 Y22.1658 Z-1.0000 F60.00
G2 X12.8226 Y20.9840 Z-1.0000 I-0.4911 J-0.4911 F120.00
G2 X12.0593 Y21.6021 Z-1.0000 I-0.0726 J0.6907 F120.00
G2 X12.6774 Y22.3654 Z-1.0000 I0.6907 J0.0726 F120.00
G2 X13.2411 Y22.1658 Z-1.0000 I0.0726 J-0.6907 F120.00
G1 X13.2411 Y22.1658 Z-1.5000 F60.00
G2 X12.8226 Y20.9840 Z-1.5000 I-0.4911 J-0.4911 F120.00
G2 X12.0593 Y21.6021 Z-1.5000 I-0.0726 J0.6907 F120.00
G2 X12.6774 Y22.3654 Z-1.5000 I0.6907 J0.0726 F120.00
G2 X13.2411 Y22.1658 Z-1.5000 I0.0726 J-0.6907 F120.00
G1 X13.2411 Y22.1658 Z-2.0000 F60.00
G2 X12.8226 Y20.9840 Z-2.0000 I-0.4911 J-0.4911 F120.00
G2 X12.0593 Y21.6021 Z-2.0000 I-0.0726 J0.6907 F120.00
G2 X12.6774 Y22.3654 Z-2.0000 I0.6907 J0.0726 F120.00
G2 X13.2411 Y22.1658 Z-2.0000 I0.0726 J-0.6907 F120.00
G1 X13.2411 Y22.1658 Z-2.5000 F60.00
G2 X12.8226 Y20.9840 Z-2.5000 I-0.4911 J-0.4911 F120.00
G2 X12.0593 Y21.6021 Z-2.5000 I-0.0726 J0.6907 F120.00
G2 X12.6774 Y22.3654 Z-2.5000 I0.6907 J0.0726 F120.00
G2 X13.2411 Y22.1658 Z-2.5000 I0.0726 J-0.6907 F120.00
G1 X13.2411 Y22.1658 Z-3.0000 F60.00
G2 X12.8226 Y20.9840 Z-3.0000 I-0.4911 J-0.4911 F120.00
G2 X12.0593 Y21.6021 Z-3.0000 I-0.0726 J0.6907 F120.00
G2 X12.6774 Y22.3654 Z-3.0000 I0.6907 J0.0726 F120.00
G2 X13.2411 Y22.1658 Z-3.0000 I0.0726 J-0.6907 F120.00
G1 X13.2411 Y22.1658 Z-3.5000 F60.00
G2 X12.8226 Y20.9840 Z-3.5000 I-0.4911 J-0.4911 F120.00
G2 X12.0593 Y21.6021 Z-3.5000 I-0.0726 J0.6907 F120.00
G2 X12.6774 Y22.3654 Z-3.5000 I0.6907 J0.0726 F120.00
G2 X13.2411 Y22.1658 Z-3.5000 I0.0726 J-0.6907 F120.00
G1 X13.2411 Y22.1658 Z-4.0000 F60.00
G2 X12.8226 Y20.9840 Z-4.0000 I-0.4911 J-0.4911 F120.00
G2 X12.0593 Y21.6021 Z-4.0000 I-0.0726 J0.6907 F120.00
G2 X12.6774 Y22.3654 Z-4.0000 I0.6907 J0.0726 F120.00
G2 X13.2411 Y22.1658 Z-4.0000 I0.0726 J-0.6907 F120.00
G1 X13.2411 Y22.1658 Z-4.5000 F60.00
G2 X12.8226 Y20.9840 Z-4.5000 I-0.4911 J-0.4911 F120.00
G2 X12.0593 Y21.6021 Z-4.5000 I-0.0726 J0.6907 F120.00
G2 X12.6774 Y22.3654 Z-4.5000 I0.6907 J0.0726 F120.00
G2 X13.2411 Y22.1658 Z-4.5000 I0.0726 J-0.6907 F120.00
G1 X13.2411 Y22.1658 Z-5.0000 F60.00
G2 X12.8226 Y20.9840 Z-5.0000 I-0.4911 J-0.4911 F120.00
G2 X12.0593 Y21.6021 Z-5.0000 I-0.0726 J0.6907 F120.00
G2 X12.6774 Y22.3654 Z-5.0000 I0.6907 J0.0726 F120.00
G2 X13.2411 Y22.1658 Z-5.0000 I0.0726 J-0.6907 F120.00
G1 X13.2411 Y22.1658 Z-5.5000 F60.00
G2 X12.8226 Y20.9840 Z-5.5000 I-0.4911 J-0.4911 F120.00
G2 X12.0593 Y21.6021 Z-5.5000 I-0.0726 J0.6907 F120.00
G2 X12.6774 Y22.3654 Z-5.5000 I0.6907 J0.0726 F120.00
G2 X13.2411 Y22.1658 Z-5.5000 I0.0726 J-0.6907 F120.00
G1 X13.2411 Y22.1658 Z-6.0000 F60.00
G2 X12.8226 Y20.9840 Z-6.0000 I-0.4911 J-0.4911 F120.00
G2 X12.0593 Y21.6021 Z-6.0000 I-0.0726 J0.6907 F120.00
G2 X12.6774 Y22.3654 Z-6.0000 I0.6907 J0.0726 F120.00
G2 X13.2411 Y22.1658 Z-6.0000 I0.0726 J-0.6907 F120.00
G1 X13.2411 Y22.1658 Z-6.5000 F60.00
G2 X12.8226 Y20.9840 Z-6.5000 I-0.4911 J-0.4911 F120.00
G2 X12.0593 Y21.6021 Z-6.5000 I-0.0726 J0.6907 F120.00
G2 X12.6774 Y22.3654 Z-6.5000 I0.6907 J0.0726 F120.00
G2 X13.2411 Y22.1658 Z-6.5000 I0.0726 J-0.6907 F120.00
G1 X13.2411 Y22.1658 Z-7.0000 F60.00
G2 X12.8226 Y20.9840 Z-7.0000 I-0.4911 J-0.4911 F120.00
G2 X12.0593 Y21.6021 Z-7.0000 I-0.0726 J0.6907 F120.00
G2 X12.6774 Y22.3654 Z-7.0000 I0.6907 J0.0726 F120.00
G2 X13.2411 Y22.1658 Z-7.0000 I0.0726 J-0.6907 F120.00
G1 X13.2411 Y22.1658 Z-7.5000 F60.00
G2 X12.8226 Y20.9840 Z-7.5000 I-0.4911 J-0.4911 F120.00
G2 X12.0593 Y21.6021 Z-7.5000 I-0.0726 J0.6907 F120.00
G2 X12.6774 Y22.3654 Z-7.5000 I0.6907 J0.0726 F120.00
G2 X13.2411 Y22.1658 Z-7.5000 I0.0726 J-0.6907 F120.00
G1 X13.2411 Y22.1658 Z-8.0000 F60.00
G2 X12.8226 Y20.9840 Z-8.0000 I-0.4911 J-0.4911 F120.00
G2 X12.0593 Y21.6021 Z-8.0000 I-0.0726 J0.6907 F120.00
G2 X12.6774 Y22.3654 Z-8.0000 I0.6907 J0.0726 F120.00
G2 X13.2411 Y22.1658 Z-8.0000 I0.0726 J-0.6907 F120.00
G1 X13.2411 Y22.1658 Z-8.5000 F60.00
G2 X12.8226 Y20.9840 Z-8.5000 I-0.4911 J-0.4911 F120.00
G2 X12.0593 Y21.6021 Z-8.5000 I-0.0726 J0.6907 F120.00
G2 X12.6774 Y22.3654 Z-8.5000 I0.6907 J0.0726 F120.00
G2 X13.2411 Y22.1658 Z-8.5000 I0.0726 J-0.6907 F120.00
G1 X13.2411 Y22.1658 Z-9.0000 F60.00
G2 X12.8226 Y20.9840 Z-9.0000 I-0.4911 J-0.4911 F120.00
G2 X12.0593 Y21.6021 Z-9.0000 I-0.0726 J0.6907 F120.00
G2 X12.6774 Y22.3654 Z-9.0000 I0.6907 J0.0726 F120.00
G2 X13.2411 Y22.1658 Z-9.0000 I0.0726 J-0.6907 F120.00
G1 X13.2411 Y22.1658 Z-9.5000 F60.00
G2 X12.8226 Y20.9840 Z-9.5000 I-0.4911 J-0.4911 F120.00
G2 X12.0593 Y21.6021 Z-9.5000 I-0.0726 J0.6907 F120.00
G2 X12.6774 Y22.3654 Z-9.5000 I0.6907 J0.0726 F120.00
G2 X13.2411 Y22.1658 Z-9.5000 I0.0726 J-0.6907 F120.00
G1 X13.2411 Y22.1658 Z-10.0000 F60.00
G2 X12.8226 Y20.9840 Z-10.0000 I-0.4911 J-0.4911 F120.00
G2 X12.0593 Y21.6021 Z-10.0000 I-0.0726 J0.6907 F120.00
G2 X12.6774 Y22.3654 Z-10.0000 I0.6907 J0.0726 F120.00
G2 X13.2411 Y22.1658 Z-10.0000 I0.0726 J-0.6907 F120.00
G1 X13.2411 Y22.1658 Z-10.5000 F60.00
G2 X12.8226 Y20.9840 Z-10.5000 I-0.4911 J-0.4911 F120.00
G2 X12.0593 Y21.6021 Z-10.5000 I-0.0726 J0.6907 F120.00
G2 X12.6774 Y22.3654 Z-10.5000 I0.6907 J0.0726 F120.00
G2 X13.2411 Y22.1658 Z-10.5000 I0.0726 J-0.6907 F120.00
G1 X13.2411 Y22.1658 Z-11.0000 F60.00
G2 X12.8226 Y20.9840 Z-11.0000 I-0.4911 J-0.4911 F120.00
G2 X12.0593 Y21.6021 Z-11.0000 I-0.0726 J0.6907 F120.00
G2 X12.6774 Y22.3654 Z-11.0000 I0.6907 J0.0726 F120.00
G2 X13.2411 Y22.1658 Z-11.0000 I0.0726 J-0.6907 F120.00
G1 X13.2411 Y22.1658 Z-11.5000 F60.00
G2 X12.8226 Y20.9840 Z-11.5000 I-0.4911 J-0.4911 F120.00
G2 X12.0593 Y21.6021 Z-11.5000 I-0.0726 J0.6907 F120.00
G2 X12.6774 Y22.3654 Z-11.5000 I0.6907 J0.0726 F120.00
G2 X13.2411 Y22.1658 Z-11.5000 I0.0726 J-0.6907 F120.00
G1 X13.2411 Y22.1658 Z-12.0000 F60.00
G2 X12.8226 Y20.9840 Z-12.0000 I-0.4911 J-0.4911 F120.00
G2 X12.0593 Y21.6021 Z-12.0000 I-0.0726 J0.6907 F120.00
G2 X12.6774 Y22.3654 Z-12.0000 I0.6907 J0.0726 F120.00
G2 X13.2411 Y22.1658 Z-12.0000 I0.0726 J-0.6907 F120.00
G0 Z5.0000
G0 X31.8809 Y8.8809
G0 Z3.0000
G1 X31.8809 Y8.8809 Z-0.5000 F60.00
G2 X31.1149 Y6.7596 Z-0.5000 I-0.8809 J-0.8809 F120.00
G2 X29.7596 Y7.8851 Z-0.5000 I-0.1149 J1.2404 F120.00
G2 X30.8851 Y9.2404 Z-0.5000 I1.2404 J0.1149 F120.00
G2 X31.8809 Y8.8809 Z-0.5000 I0.1149 J-1.2404 F120.00
G1 X31.8809 Y8.8809 Z-1.0000 F60.00
G2 X31.1149 Y6.7596 Z-1.0000 I-0.8809 J-0.8809 F120.00
G2 X29.7596 Y7.8851 Z-1.0000 I-0.1149 J1.2404 F120.00
G2 X30.8851 Y9.2404 Z-1.0000 I1.2404 J0.1149 F120.00
G2 X31.8809 Y8.8809 Z-1.0000 I0.1149 J-1.2404 F120.00
G1 X31.8809 Y8.8809 Z-1.5000 F60.00
G2 X31.1149 Y6.7596 Z-1.5000 I-0.8809 J-0.8809 F120.00
G2 X29.7596 Y7.8851 Z-1.5000 I-0.1149 J1.2404 F120.00
G2 X30.8851 Y9.2404 Z-1.5000 I1.2404 J0.1149 F120.00
G2 X31.8809 Y8.8809 Z-1.5000 I0.1149 J-1.2404 F120.00
G1 X31.8809 Y8.8809 Z-2.0000 F60.00
G2 X31.1149 Y6.7596 Z-2.0000 I-0.8809 J-0.8809 F120.00
G2 X29.7596 Y7.8851 Z-2.0000 I-0.1149 J1.2404 F120.00
G2 X30.8851 Y9.2404 Z-2.0000 I1.2404 J0.1149 F120.00
G2 X31.8809 Y8.8809 Z-2.0000 I0.1149 J-1.2404 F120.00
G1 X31.8809 Y8.8809 Z-2.5000 F60.00
G2 X31.1149 Y6.7596 Z-2.5000 I-0.8809 J-0.8809 F120.00
G2 X29.7596 Y7.8851 Z-2.5000 I-0.1149 J1.2404 F120.00
G2 X30.8851 Y9.2404 Z-2.5000 I1.2404 J0.1149 F120.00
G2 X31.8809 Y8.8809 Z-2.5000 I0.1149 J-1.2404 F120.00
G1 X31.8809 Y8.8809 Z-3.0000 F60.00
G2 X31.1149 Y6.7596 Z-3.0000 I-0.8809 J-0.8809 F120.00
G2 X29.7596 Y7.8851 Z-3.0000 I-0.1149 J1.2404 F120.00
G2 X30.8851 Y9.2404 Z-3.0000 I1.2404 J0.1149 F120.00
G2 X31.8809 Y8.8809 Z-3.0000 I0.1149 J-1.2404 F120.00
G1 X31.8809 Y8.8809 Z-3.5000 F60.00
G2 X31.1149 Y6.7596 Z-3.5000 I-0.8809 J-0.8809 F120.00
G2 X29.7596 Y7.8851 Z-3.5000 I-0.1149 J1.2404 F120.00
G2 X30.8851 Y9.2404 Z-3.5000 I1.2404 J0.1149 F120.00
G2 X31.8809 Y8.8809 Z-3.5000 I0.1149 J-1.2404 F120.00
G1 X31.8809 Y8.8809 Z-4.0000 F60.00
G2 X31.1149 Y6.7596 Z-4.0000 I-0.8809 J-0.8809 F120.00
G2 X29.7596 Y7.8851 Z-4.0000 I-0.1149 J1.2404 F120.00
G2 X30.8851 Y9.2404 Z-4.0000 I1.2404 J0.1149 F120.00
G2 X31.8809 Y8.8809 Z-4.0000 I0.1149 J-1.2404 F120.00
G1 X31.8809 Y8.8809 Z-4.5000 F60.00
G2 X31.1149 Y6.7596 Z-4.5000 I-0.8809 J-0.8809 F120.00
G2 X29.7596 Y7.8851 Z-4.5000 I-0.1149 J1.2404 F120.00
G2 X30.8851 Y9.2404 Z-4.5000 I1.2404 J0.1149 F120.00
G2 X31.8809 Y8.8809 Z-4.5000 I0.1149 J-1.2404 F120.00
G1 X31.8809 Y8.8809 Z-5.0000 F60.00
G2 X31.1149 Y6.7596 Z-5.0000 I-0.8809 J-0.8809 F120.00
G2 X29.7596 Y7.8851 Z-5.0000 I-0.1149 J1.2404 F120.00
G2 X30.8851 Y9.2404 Z-5.0000 I1.2404 J0.1149 F120.00
G2 X31.8809 Y8.8809 Z-5.0000 I0.1149 J-1.2404 F120.00
G1 X31.8809 Y8.8809 Z-5.5000 F60.00
G2 X31.1149 Y6.7596 Z-5.5000 I-0.8809 J-0.8809 F120.00
G2 X29.7596 Y7.8851 Z-5.5000 I-0.1149 J1.2404 F120.00
G2 X30.8851 Y9.2404 Z-5.5000 I1.2404 J0.1149 F120.00
G2 X31.8809 Y8.8809 Z-5.5000 I0.1149 J-1.2404 F120.00
G1 X31.8809 Y8.8809 Z-6.0000 F60.00
G2 X31.1149 Y6.7596 Z-6.0000 I-0.8809 J-0.8809 F120.00
G2 X29.7596 Y7.8851 Z-6.0000 I-0.1149 J1.2404 F120.00
G2 X30.8851 Y9.2404 Z-6.0000 I1.2404 J0.1149 F120.00
G2 X31.8809 Y8.8809 Z-6.0000 I0.1149 J-1.2404 F120.00
G1 X31.8809 Y8.8809 Z-6.5000 F60.00
G2 X31.1149 Y6.7596 Z-6.5000 I-0.8809 J-0.8809 F120.00
G2 X29.7596 Y7.8851 Z-6.5000 I-0.1149 J1.2404 F120.00
G2 X30.8851 Y9.2404 Z-6.5000 I1.2404 J0.1149 F120.00
G2 X31.8809 Y8.8809 Z-6.5000 I0.1149 J-1.2404 F120.00
G1 X31.8809 Y8.8809 Z-7.0000 F60.00
G2 X31.1149 Y6.7596 Z-7.0000 I-0.8809 J-0.8809 F120.00
G2 X29.7596 Y7.8851 Z-7.0000 I-0.1149 J1.2404 F120.00
G2 X30.8851 Y9.2404 Z-7.0000 I1.2404 J0.1149 F120.00
G2 X31.8809 Y8.8809 Z-7.0000 I0.1149 J-1.2404 F120.00
G1 X31.8809 Y8.8809 Z-7.5000 F60.00
G2 X31.1149 Y6.7596 Z-7.5000 I-0.8809 J-0.8809 F120.00
G2 X29.7596 Y7.8851 Z-7.5000 I-0.1149 J1.2404 F120.00
G2 X30.8851 Y9.2404 Z-7.5000 I1.2404 J0.1149 F120.00
G2 X31.8809 Y8.8809 Z-7.5000 I0.1149 J-1.2404 F120.00
G1 X31.8809 Y8.8809 Z-8.0000 F60.00
G2 X31.1149 Y6.7596 Z-8.0000 I-0.8809 J-0.8809 F120.00
G2 X29.7596 Y7.8851 Z-8.0000 I-0.1149 J1.2404 F120.00
G2 X30.8851 Y9.2404 Z-8.0000 I1.2404 J0.1149 F120.00
G2 X31.8809 Y8.8809 Z-8.0000 I0.1149 J-1.2404 F120.00
G1 X31.8809 Y8.8809 Z-8.5000 F60.00
G2 X31.1149 Y6.7596 Z-8.5000 I-0.8809 J-0.8809 F120.00
G2 X29.7596 Y7.8851 Z-8.5000 I-0.1149 J1.2404 F120.00
G2 X30.8851 Y9.2404 Z-8.5000 I1.2404 J0.1149 F120.00
G2 X31.8809 Y8.8809 Z-8.5000 I0.1149 J-1.2404 F120.00
G1 X31.8809 Y8.8809 Z-9.0000 F60.00
G2 X31.1149 Y6.7596 Z-9.0000 I-0.8809 J-0.8809 F120.00
G2 X29.7596 Y7.8851 Z-9.0000 I-0.1149 J1.2404 F120.00
G2 X30.8851 Y9.2404 Z-9.0000 I1.2404 J0.1149 F120.00
G2 X31.8809 Y8.8809 Z-9.0000 I0.1149 J-1.2404 F120.00
G1 X31.8809 Y8.8809 Z-9.5000 F60.00
G2 X31.1149 Y6.7596 Z-9.5000 I-0.8809 J-0.8809 F120.00
G2 X29.7596 Y7.8851 Z-9.5000 I-0.1149 J1.2404 F120.00
G2 X30.8851 Y9.2404 Z-9.5000 I1.2404 J0.1149 F120.00
G2 X31.8809 Y8.8809 Z-9.5000 I0.1149 J-1.2404 F120.00
G1 X31.8809 Y8.8809 Z-10.0000 F60.00
G2 X31.1149 Y6.7596 Z-10.0000 I-0.8809 J-0.8809 F120.00
G2 X29.7596 Y7.8851 Z-10.0000 I-0.1149 J1.2404 F120.00
G2 X30.8851 Y9.2404 Z-10.0000 I1.2404 J0.1149 F120.00
G2 X31.8809 Y8.8809 Z-10.0000 I0.1149 J-1.2404 F120.00
G1 X31.8809 Y8.8809 Z-10.5000 F60.00
G2 X31.1149 Y6.7596 Z-10.5000 I-0.8809 J-0.8809 F120.00
G2 X29.7596 Y7.8851 Z-10.5000 I-0.1149 J1.2404 F120.00
G2 X30.8851 Y9.2404 Z-10.5000 I1.2404 J0.1149 F120.00
G2 X31.8809 Y8.8809 Z-10.5000 I0.1149 J-1.2404 F120.00
G1 X31.8809 Y8.8809 Z-11.0000 F60.00
G2 X31.1149 Y6.7596 Z-11.0000 I-0.8809 J-0.8809 F120.00
G2 X29.7596 Y7.8851 Z-11.0000 I-0.1149 J1.2404 F120.00
G2 X30.8851 Y9.2404 Z-11.0000 I1.2404 J0.1149 F120.00
G2 X31.8809 Y8.8809 Z-11.0000 I0.1149 J-1.2404 F120.00
G1 X31.8809 Y8.8809 Z-11.5000 F60.00
G2 X31.1149 Y6.7596 Z-11.5000 I-0.8809 J-0.8809 F120.00
G2 X29.7596 Y7.8851 Z-11.5000 I-0.1149 J1.2404 F120.00
G2 X30.8851 Y9.2404 Z-11.5000 I1.2404 J0.1149 F120.00
G2 X31.8809 Y8.8809 Z-11.5000 I0.1149 J-1.2404 F120.00
G1 X31.8809 Y8.8809 Z-12.0000 F60.00
G2 X31.1149 Y6.7596 Z-12.0000 I-0.8809 J-0.8809 F120.00
G2 X29.7596 Y7.8851 Z-12.0000 I-0.1149 J1.2404 F120.00
G2 X30.8851 Y9.2404 Z-12.0000 I1.2404 J0.1149 F120.00
G2 X31.8809 Y8.8809 Z-12.0000 I0.1149 J-1.2404 F120.00
G0 Z5.0000
(finish operation: Pocket_Shape002)
(begin operation: TagDressup)
(Path: TagDressup)
G0 Z5.0000
G0 X35.2632 Y48.7629 Z5.0000
G0 X35.2632 Y48.7629 Z3.0000
G1 X35.2632 Y48.7629 Z-0.5000 F60.00
G2 X41.9996 Y32.5296 Z-0.5000 I-16.2635 J-16.2632 F120.00
G1 X42.0000 Y3.0000 Z-0.5000 F120.00
G2 X38.0785 Y-0.9969 Z-0.5000 I-4.0018 J0.0041 F120.00
G1 X0.0000 Y-1.0000 Z-0.5000 F120.00
G2 X-3.9969 Y2.9215 Z-0.5000 I0.0041 J4.0018 F120.00
G1 X-4.0000 Y32.5000 Z-0.5000 F120.00
G2 X35.2632 Y48.7629 Z-0.5000 I22.9998 J-0.0002 F120.00
G1 X35.2632 Y48.7629 Z-1.0000 F60.00
G2 X41.9996 Y32.5296 Z-1.0000 I-16.2635 J-16.2632 F120.00
G1 X42.0000 Y3.0000 Z-1.0000 F120.00
G2 X38.0785 Y-0.9969 Z-1.0000 I-4.0018 J0.0041 F120.00
G1 X0.0000 Y-1.0000 Z-1.0000 F120.00
G2 X-3.9969 Y2.9215 Z-1.0000 I0.0041 J4.0018 F120.00
G1 X-4.0000 Y32.5000 Z-1.0000 F120.00
G2 X35.2632 Y48.7629 Z-1.0000 I22.9998 J-0.0002 F120.00
G1 X35.2632 Y48.7629 Z-1.5000 F60.00
G2 X41.9996 Y32.5296 Z-1.5000 I-16.2635 J-16.2632 F120.00
G1 X42.0000 Y3.0000 Z-1.5000 F120.00
G2 X38.0785 Y-0.9969 Z-1.5000 I-4.0018 J0.0041 F120.00
G1 X0.0000 Y-1.0000 Z-1.5000 F120.00
G2 X-3.9969 Y2.9215 Z-1.5000 I0.0041 J4.0018 F120.00
G1 X-4.0000 Y32.5000 Z-1.5000 F120.00
G2 X35.2632 Y48.7629 Z-1.5000 I22.9998 J-0.0002 F120.00
G1 X35.2632 Y48.7629 Z-2.0000 F60.00
G2 X41.9996 Y32.5296 Z-2.0000 I-16.2635 J-16.2632 F120.00
G1 X42.0000 Y3.0000 Z-2.0000 F120.00
G2 X38.0785 Y-0.9969 Z-2.0000 I-4.0018 J0.0041 F120.00
G1 X0.0000 Y-1.0000 Z-2.0000 F120.00
G2 X-3.9969 Y2.9215 Z-2.0000 I0.0041 J4.0018 F120.00
G1 X-4.0000 Y32.5000 Z-2.0000 F120.00
G2 X35.2632 Y48.7629 Z-2.0000 I22.9998 J-0.0002 F120.00
G1 X35.2632 Y48.7629 Z-2.5000 F60.00
G2 X41.9996 Y32.5296 Z-2.5000 I-16.2635 J-16.2632 F120.00
G1 X42.0000 Y3.0000 Z-2.5000 F120.00
G2 X38.0785 Y-0.9969 Z-2.5000 I-4.0018 J0.0041 F120.00
G1 X0.0000 Y-1.0000 Z-2.5000 F120.00
G2 X-3.9969 Y2.9215 Z-2.5000 I0.0041 J4.0018 F120.00
G1 X-4.0000 Y32.5000 Z-2.5000 F120.00
G2 X35.2632 Y48.7629 Z-2.5000 I22.9998 J-0.0002 F120.00
G1 X35.2632 Y48.7629 Z-3.0000 F60.00
G2 X41.9996 Y32.5296 Z-3.0000 I-16.2635 J-16.2632 F120.00
G1 X42.0000 Y3.0000 Z-3.0000 F120.00
G2 X38.0785 Y-0.9969 Z-3.0000 I-4.0018 J0.0041 F120.00
G1 X0.0000 Y-1.0000 Z-3.0000 F120.00
G2 X-3.9969 Y2.9215 Z-3.0000 I0.0041 J4.0018 F120.00
G1 X-4.0000 Y32.5000 Z-3.0000 F120.00
G2 X35.2632 Y48.7629 Z-3.0000 I22.9998 J-0.0002 F120.00
G1 X35.2632 Y48.7629 Z-3.5000 F60.00
G2 X41.9996 Y32.5296 Z-3.5000 I-16.2635 J-16.2632 F120.00
G1 X42.0000 Y3.0000 Z-3.5000 F120.00
G2 X38.0785 Y-0.9969 Z-3.5000 I-4.0018 J0.0041 F120.00
G1 X0.0000 Y-1.0000 Z-3.5000 F120.00
G2 X-3.9969 Y2.9215 Z-3.5000 I0.0041 J4.0018 F120.00
G1 X-4.0000 Y32.5000 Z-3.5000 F120.00
G2 X35.2632 Y48.7629 Z-3.5000 I22.9998 J-0.0002 F120.00
G1 X35.2632 Y48.7629 Z-4.0000 F60.00
G2 X41.9996 Y32.5296 Z-4.0000 I-16.2635 J-16.2632 F120.00
G1 X42.0000 Y3.0000 Z-4.0000 F120.00
G2 X38.0785 Y-0.9969 Z-4.0000 I-4.0018 J0.0041 F120.00
G1 X0.0000 Y-1.0000 Z-4.0000 F120.00
G2 X-3.9969 Y2.9215 Z-4.0000 I0.0041 J4.0018 F120.00
G1 X-4.0000 Y32.5000 Z-4.0000 F120.00
G2 X35.2632 Y48.7629 Z-4.0000 I22.9998 J-0.0002 F120.00
G1 X35.2632 Y48.7629 Z-4.5000 F60.00
G2 X41.9996 Y32.5296 Z-4.5000 I-16.2635 J-16.2632 F120.00
G1 X42.0000 Y3.0000 Z-4.5000 F120.00
G2 X38.0785 Y-0.9969 Z-4.5000 I-4.0018 J0.0041 F120.00
G1 X0.0000 Y-1.0000 Z-4.5000 F120.00
G2 X-3.9969 Y2.9215 Z-4.5000 I0.0041 J4.0018 F120.00
G1 X-4.0000 Y32.5000 Z-4.5000 F120.00
G2 X35.2632 Y48.7629 Z-4.5000 I22.9998 J-0.0002 F120.00
G1 X35.2632 Y48.7629 Z-5.0000 F60.00
G2 X41.9996 Y32.5296 Z-5.0000 I-16.2635 J-16.2632 F120.00
G1 X42.0000 Y3.0000 Z-5.0000 F120.00
G2 X38.0785 Y-0.9969 Z-5.0000 I-4.0018 J0.0041 F120.00
G1 X0.0000 Y-1.0000 Z-5.0000 F120.00
G2 X-3.9969 Y2.9215 Z-5.0000 I0.0041 J4.0018 F120.00
G1 X-4.0000 Y32.5000 Z-5.0000 F120.00
G2 X35.2632 Y48.7629 Z-5.0000 I22.9998 J-0.0002 F120.00
G1 X35.2632 Y48.7629 Z-5.5000 F60.00
G2 X41.9996 Y32.5296 Z-5.5000 I-16.2635 J-16.2632 F120.00
G1 X42.0000 Y3.0000 Z-5.5000 F120.00
G2 X38.0785 Y-0.9969 Z-5.5000 I-4.0018 J0.0041 F120.00
G1 X0.0000 Y-1.0000 Z-5.5000 F120.00
G2 X-3.9969 Y2.9215 Z-5.5000 I0.0041 J4.0018 F120.00
G1 X-4.0000 Y32.5000 Z-5.5000 F120.00
G2 X35.2632 Y48.7629 Z-5.5000 I22.9998 J-0.0002 F120.00
G1 X35.2632 Y48.7629 Z-6.0000 F60.00
G2 X41.9996 Y32.5296 Z-6.0000 I-16.2635 J-16.2632 F120.00
G1 X42.0000 Y3.0000 Z-6.0000 F120.00
G2 X38.0785 Y-0.9969 Z-6.0000 I-4.0018 J0.0041 F120.00
G1 X0.0000 Y-1.0000 Z-6.0000 F120.00
G2 X-3.9969 Y2.9215 Z-6.0000 I0.0041 J4.0018 F120.00
G1 X-4.0000 Y32.5000 Z-6.0000 F120.00
G2 X35.2632 Y48.7629 Z-6.0000 I22.9998 J-0.0002 F120.00
G1 X35.2632 Y48.7629 Z-6.5000 F60.00
G2 X41.9996 Y32.5296 Z-6.5000 I-16.2635 J-16.2632 F120.00
G1 X41.9998 Y19.5547 Z-6.5000 F120.00
G1 X41.9998 Y19.2661 Z-6.0000 F80.00
G1 X41.9998 Y18.2636 Z-6.0000 F120.00
G1 X41.9998 Y17.9749 Z-6.5000 F80.00
G1 X42.0000 Y3.0000 Z-6.5000 F120.00
G2 X38.0785 Y-0.9969 Z-6.5000 I-4.0018 J0.0041 F120.00
G1 X19.8292 Y-0.9984 Z-6.5000 F120.00
G1 X19.5405 Y-0.9984 Z-6.0000 F80.00
G1 X18.5380 Y-0.9985 Z-6.0000 F120.00
G1 X18.2493 Y-0.9985 Z-6.5000 F80.00
G1 X0.0000 Y-1.0000 Z-6.5000 F120.00
G2 X-3.9969 Y2.9215 Z-6.5000 I0.0041 J4.0018 F120.00
G1 X-4.0000 Y32.5000 Z-6.5000 F120.00
G2 X35.2632 Y48.7629 Z-6.5000 I22.9998 J-0.0002 F120.00
G1 X35.2632 Y48.7629 Z-7.0000 F60.00
G2 X41.9996 Y32.5296 Z-7.0000 I-16.2635 J-16.2632 F120.00
G1 X41.9997 Y19.8434 Z-7.0000 F120.00
G1 X41.9998 Y19.2661 Z-6.0000 F80.00
G1 X41.9998 Y18.2636 Z-6.0000 F120.00
G1 X41.9998 Y17.6862 Z-7.0000 F80.00
G1 X42.0000 Y3.0000 Z-7.0000 F120.00
G2 X38.0785 Y-0.9969 Z-7.0000 I-4.0018 J0.0041 F120.00
G1 X20.1178 Y-0.9984 Z-7.0000 F120.00
G1 X19.5405 Y-0.9984 Z-6.0000 F80.00
G1 X18.5380 Y-0.9985 Z-6.0000 F120.00
G1 X17.9606 Y-0.9985 Z-7.0000 F80.00
G1 X0.0000 Y-1.0000 Z-7.0000 F120.00
G2 X-3.9969 Y2.9215 Z-7.0000 I0.0041 J4.0018 F120.00
G1 X-4.0000 Y32.5000 Z-7.0000 F120.00
G2 X35.2632 Y48.7629 Z-7.0000 I22.9998 J-0.0002 F120.00
G1 X35.2632 Y48.7629 Z-7.5000 F60.00
G2 X41.9996 Y32.5296 Z-7.5000 I-16.2635 J-16.2632 F120.00
G1 X41.9997 Y20.1321 Z-7.5000 F120.00
G1 X41.9998 Y19.2661 Z-6.0000 F80.00
G1 X41.9998 Y18.2636 Z-6.0000 F120.00
G1 X41.9998 Y17.3975 Z-7.5000 F80.00
G1 X42.0000 Y3.0000 Z-7.5000 F120.00
G2 X38.0785 Y-0.9969 Z-7.5000 I-4.0018 J0.0041 F120.00
G1 X20.4065 Y-0.9983 Z-7.5000 F120.00
G1 X19.5405 Y-0.9984 Z-6.0000 F80.00
G1 X18.5380 Y-0.9985 Z-6.0000 F120.00
G1 X17.6719 Y-0.9986 Z-7.5000 F80.00
G1 X0.0000 Y-1.0000 Z-7.5000 F120.00
G2 X-3.9969 Y2.9215 Z-7.5000 I0.0041 J4.0018 F120.00
G1 X-4.0000 Y32.5000 Z-7.5000 F120.00
G2 X35.2632 Y48.7629 Z-7.5000 I22.9998 J-0.0002 F120.00
G1 X35.2632 Y48.7629 Z-8.0000 F60.00
G2 X41.9996 Y32.5296 Z-8.0000 I-16.2635 J-16.2632 F120.00
G1 X41.9997 Y20.4208 Z-8.0000 F120.00
G1 X41.9998 Y19.2661 Z-6.0000 F80.00
G1 X41.9998 Y18.2636 Z-6.0000 F120.00
G1 X41.9998 Y17.1089 Z-8.0000 F80.00
G1 X42.0000 Y3.0000 Z-8.0000 F120.00
G2 X38.0785 Y-0.9969 Z-8.0000 I-4.0018 J0.0041 F120.00
G1 X20.6952 Y-0.9983 Z-8.0000 F120.00
G1 X19.5405 Y-0.9984 Z-6.0000 F80.00
G1 X18.5380 Y-0.9985 Z-6.0000 F120.00
G1 X17.3833 Y-0.9986 Z-8.0000 F80.00
G1 X0.0000 Y-1.0000 Z-8.0000 F120.00
G2 X-3.9969 Y2.9215 Z-8.0000 I0.0041 J4.0018 F120.00
G1 X-4.0000 Y32.5000 Z-8.0000 F120.00
G2 X35.2632 Y48.7629 Z-8.0000 I22.9998 J-0.0002 F120.00
G1 X35.2632 Y48.7629 Z-8.5000 F60.00
G2 X41.9996 Y32.5296 Z-8.5000 I-16.2635 J-16.2632 F120.00
G1 X41.9997 Y20.7095 Z-8.5000 F120.00
G1 X41.9998 Y19.2661 Z-6.0000 F80.00
G1 X41.9998 Y18.2636 Z-6.0000 F120.00
G1 X41.9998 Y16.8202 Z-8.5000 F80.00
G1 X42.0000 Y3.0000 Z-8.5000 F120.00
G2 X38.0785 Y-0.9969 Z-8.5000 I-4.0018 J0.0041 F120.00
G1 X20.9839 Y-0.9983 Z-8.5000 F120.00
G1 X19.5405 Y-0.9984 Z-6.0000 F80.00
G1 X18.5380 Y-0.9985 Z-6.0000 F120.00
G1 X17.0946 Y-0.9986 Z-8.5000 F80.00
G1 X0.0000 Y-1.0000 Z-8.5000 F120.00
G2 X-3.9969 Y2.9215 Z-8.5000 I0.0041 J4.0018 F120.00
G1 X-4.0000 Y32.5000 Z-8.5000 F120.00
G2 X35.2632 Y48.7629 Z-8.5000 I22.9998 J-0.0002 F120.00
G1 X35.2632 Y48.7629 Z-9.0000 F60.00
G2 X41.9996 Y32.5296 Z-9.0000 I-16.2635 J-16.2632 F120.00
G1 X41.9997 Y20.9981 Z-9.0000 F120.00
G1 X41.9998 Y19.2661 Z-6.0000 F80.00
G1 X41.9998 Y18.2636 Z-6.0000 F120.00
G1 X41.9998 Y16.5315 Z-9.0000 F80.00
G1 X42.0000 Y3.0000 Z-9.0000 F120.00
G2 X38.0785 Y-0.9969 Z-9.0000 I-4.0018 J0.0041 F120.00
G1 X21.2725 Y-0.9983 Z-9.0000 F120.00
G1 X19.5405 Y-0.9984 Z-6.0000 F80.00
G1 X18.5380 Y-0.9985 Z-6.0000 F120.00
G1 X16.8059 Y-0.9986 Z-9.0000 F80.00
G1 X0.0000 Y-1.0000 Z-9.0000 F120.00
G2 X-3.9969 Y2.9215 Z-9.0000 I0.0041 J4.0018 F120.00
G1 X-4.0000 Y32.5000 Z-9.0000 F120.00
G2 X35.2632 Y48.7629 Z-9.0000 I22.9998 J-0.0002 F120.00
G1 X35.2632 Y48.7629 Z-9.5000 F60.00
G2 X41.9996 Y32.5296 Z-9.5000 I-16.2635 J-16.2632 F120.00
G1 X41.9997 Y21.2868 Z-9.5000 F120.00
G1 X41.9998 Y19.2661 Z-6.0000 F80.00
G1 X41.9998 Y18.2636 Z-6.0000 F120.00
G1 X41.9998 Y16.2428 Z-9.5000 F80.00
G1 X42.0000 Y3.0000 Z-9.5000 F120.00
G2 X38.0785 Y-0.9969 Z-9.5000 I-4.0018 J0.0041 F120.00
G1 X21.5612 Y-0.9983 Z-9.5000 F120.00
G1 X19.5405 Y-0.9984 Z-6.0000 F80.00
G1 X18.5380 Y-0.9985 Z-6.0000 F120.00
G1 X16.5172 Y-0.9987 Z-9.5000 F80.00
G1 X0.0000 Y-1.0000 Z-9.5000 F120.00
G2 X-3.9969 Y2.9215 Z-9.5000 I0.0041 J4.0018 F120.00
G1 X-4.0000 Y32.5000 Z-9.5000 F120.00
G2 X35.2632 Y48.7629 Z-9.5000 I22.9998 J-0.0002 F120.00
G1 X35.2632 Y48.7629 Z-10.0000 F60.00
G2 X41.9996 Y32.5296 Z-10.0000 I-16.2635 J-16.2632 F120.00
G1 X41.9997 Y21.5755 Z-10.0000 F120.00
G1 X41.9998 Y19.2661 Z-6.0000 F80.00
G1 X41.9998 Y18.2636 Z-6.0000 F120.00
G1 X41.9998 Y15.9542 Z-10.0000 F80.00
G1 X42.0000 Y3.0000 Z-10.0000 F120.00
G2 X38.0785 Y-0.9969 Z-10.0000 I-4.0018 J0.0041 F120.00
G1 X21.8499 Y-0.9982 Z-10.0000 F120.00
G1 X19.5405 Y-0.9984 Z-6.0000 F80.00
G1 X18.5380 Y-0.9985 Z-6.0000 F120.00
G1 X16.2286 Y-0.9987 Z-10.0000 F80.00
G1 X0.0000 Y-1.0000 Z-10.0000 F120.00
G2 X-3.9969 Y2.9215 Z-10.0000 I0.0041 J4.0018 F120.00
G1 X-4.0000 Y32.5000 Z-10.0000 F120.00
G2 X35.2632 Y48.7629 Z-10.0000 I22.9998 J-0.0002 F120.00
G1 X35.2632 Y48.7629 Z-10.5000 F60.00
G2 X41.9996 Y32.5296 Z-10.5000 I-16.2635 J-16.2632 F120.00
G1 X41.9997 Y21.8642 Z-10.5000 F120.00
G1 X41.9998 Y19.2661 Z-6.0000 F80.00
G1 X41.9998 Y18.2636 Z-6.0000 F120.00
G1 X41.9998 Y15.6655 Z-10.5000 F80.00
G1 X42.0000 Y3.0000 Z-10.5000 F120.00
G2 X38.0785 Y-0.9969 Z-10.5000 I-4.0018 J0.0041 F120.00
G1 X22.1386 Y-0.9982 Z-10.5000 F120.00
G1 X19.5405 Y-0.9984 Z-6.0000 F80.00
G1 X18.5380 Y-0.9985 Z-6.0000 F120.00
G1 X15.9399 Y-0.9987 Z-10.5000 F80.00
G1 X0.0000 Y-1.0000 Z-10.5000 F120.00
G2 X-3.9969 Y2.9215 Z-10.5000 I0.0041 J4.0018 F120.00
G1 X-4.0000 Y32.5000 Z-10.5000 F120.00
G2 X35.2632 Y48.7629 Z-10.5000 I22.9998 J-0.0002 F120.00
G1 X35.2632 Y48.7629 Z-11.0000 F60.00
G2 X41.9996 Y32.5296 Z-11.0000 I-16.2635 J-16.2632 F120.00
G1 X41.9997 Y22.1528 Z-11.0000 F120.00
G1 X41.9998 Y19.2661 Z-6.0000 F80.00
G1 X41.9998 Y18.2636 Z-6.0000 F120.00
G1 X41.9998 Y15.3768 Z-11.0000 F80.00
G1 X42.0000 Y3.0000 Z-11.0000 F120.00
G2 X38.0785 Y-0.9969 Z-11.0000 I-4.0018 J0.0041 F120.00
G1 X22.4272 Y-0.9982 Z-11.0000 F120.00
G1 X19.5405 Y-0.9984 Z-6.0000 F80.00
G1 X18.5380 Y-0.9985 Z-6.0000 F120.00
G1 X15.6512 Y-0.9987 Z-11.0000 F80.00
G1 X0.0000 Y-1.0000 Z-11.0000 F120.00
G2 X-3.9969 Y2.9215 Z-11.0000 I0.0041 J4.0018 F120.00
G1 X-4.0000 Y32.5000 Z-11.0000 F120.00
G2 X35.2632 Y48.7629 Z-11.0000 I22.9998 J-0.0002 F120.00
G1 X35.2632 Y48.7629 Z-11.5000 F60.00
G2 X41.9996 Y32.5296 Z-11.5000 I-16.2635 J-16.2632 F120.00
G1 X41.9997 Y22.4415 Z-11.5000 F120.00
G1 X41.9998 Y19.2661 Z-6.0000 F80.00
G1 X41.9998 Y18.2636 Z-6.0000 F120.00
G1 X41.9998 Y15.0881 Z-11.5000 F80.00
G1 X42.0000 Y3.0000 Z-11.5000 F120.00
G2 X38.0785 Y-0.9969 Z-11.5000 I-4.0018 J0.0041 F120.00
G1 X22.7159 Y-0.9982 Z-11.5000 F120.00
G1 X19.5405 Y-0.9984 Z-6.0000 F80.00
G1 X18.5380 Y-0.9985 Z-6.0000 F120.00
G1 X15.3625 Y-0.9988 Z-11.5000 F80.00
G1 X0.0000 Y-1.0000 Z-11.5000 F120.00
G2 X-3.9969 Y2.9215 Z-11.5000 I0.0041 J4.0018 F120.00
G1 X-4.0000 Y32.5000 Z-11.5000 F120.00
G2 X35.2632 Y48.7629 Z-11.5000 I22.9998 J-0.0002 F120.00
G1 X35.2632 Y48.7629 Z-12.0000 F60.00
G2 X41.9996 Y32.5296 Z-12.0000 I-16.2635 J-16.2632 F120.00
G1 X41.9997 Y22.7302 Z-12.0000 F120.00
G1 X41.9998 Y19.2661 Z-6.0000 F80.00
G1 X41.9998 Y18.2636 Z-6.0000 F120.00
G1 X41.9998 Y14.7995 Z-12.0000 F80.00
G1 X42.0000 Y3.0000 Z-12.0000 F120.00
G2 X38.0785 Y-0.9969 Z-12.0000 I-4.0018 J0.0041 F120.00
G1 X23.0046 Y-0.9981 Z-12.0000 F120.00
G1 X19.5405 Y-0.9984 Z-6.0000 F80.00
G1 X18.5380 Y-0.9985 Z-6.0000 F120.00
G1 X15.0739 Y-0.9988 Z-12.0000 F80.00
G1 X0.0000 Y-1.0000 Z-12.0000 F120.00
G2 X-3.9969 Y2.9215 Z-12.0000 I0.0041 J4.0018 F120.00
G1 X-4.0000 Y32.5000 Z-12.0000 F120.00
G2 X35.2632 Y48.7629 Z-12.0000 I22.9998 J-0.0002 F120.00
G0 X35.2632 Y48.7629 Z5.0000
(finish operation: TagDressup)
(begin postamble)
M5
G17 G90
; M2
