(Exported by FreeCAD)
(Post Processor: grbl_post)
(Output Time:2019-10-13 12:21:21.598937)
(begin preamble)
G17 G90
G21
(begin operation: Default Tool)
(Path: Default Tool)
(Default Tool)
(begin toolchange)
; M6 T1
M3 S800.0000
(finish operation: Default Tool)
(begin operation: Pocket_Shape)
(Path: Pocket_Shape)
(Pocket_Shape)
G0 Z5.0000
G0 X29.2519 Y44.7533
G0 Z3.0000
G1 X29.2519 Y44.7533 Z-0.5000 F60.00
G2 X19.0000 Y20.0006 Z-0.5000 I-10.2519 J-10.2533 F120.00
G2 X19.0000 Y48.9994 Z-0.5000 I0.0000 J14.4994 F120.00
G2 X29.2519 Y44.7533 Z-0.5000 I0.0000 J-14.4994 F120.00
G0 X29.2519 Y44.7533 Z5.0000
G0 X29.2526 Y24.2474 Z5.0000
G0 X29.2526 Y24.2474 Z2.5000
G1 X29.2526 Y24.2474 Z-0.5000 F60.00
G3 X33.0218 Y30.8450 Z-0.5000 I-10.1404 J10.1686 F120.00
G1 X22.6550 Y20.4782 Z-0.5000 F120.00
G2 X19.3619 Y20.0136 Z-0.5000 I-3.4883 J12.8204 F120.00
G1 X33.4864 Y34.1381 Z-0.5000 F120.00
G3 X33.3108 Y36.7908 Z-0.5000 I-12.9292 J0.4759 F120.00
G1 X16.7092 Y20.1892 Z-0.5000 F120.00
G2 X14.4382 Y20.7467 Z-0.5000 I1.5712 J11.3056 F120.00
G1 X32.7533 Y39.0618 Z-0.5000 F120.00
G3 X31.9213 Y41.0582 Z-0.5000 I-10.8204 J-3.3379 F120.00
G1 X12.4418 Y21.5787 Z-0.5000 F120.00
G2 X10.6747 Y22.6401 Z-0.5000 I4.8319 J10.0466 F120.00
G1 X30.8599 Y42.8253 Z-0.5000 F120.00
G3 X29.5931 Y44.3869 Z-0.5000 I-9.0236 J-6.0259 F120.00
G1 X9.1131 Y23.9069 Z-0.5000 F120.00
G2 X7.7479 Y25.3701 Z-0.5000 I7.0243 J7.9228 F120.00
G1 X28.1299 Y45.7521 Z-0.5000 F120.00
G3 X26.4674 Y46.9181 Z-0.5000 I-6.8449 J-7.9918 F120.00
G1 X6.5819 Y27.0326 Z-0.5000 F120.00
G2 X5.6313 Y28.9104 Z-0.5000 I9.1060 J5.7894 F120.00
G1 X24.5896 Y47.8687 Z-0.5000 F120.00
G3 X22.4632 Y48.5707 Z-0.5000 I-4.6845 J-10.6178 F120.00
G1 X4.9293 Y31.0368 Z-0.5000 F120.00
G2 X4.5373 Y33.4732 Z-0.5000 I13.0694 J3.3523 F120.00
G1 X20.0268 Y48.9627 Z-0.5000 F120.00
G3 X17.1056 Y48.8700 Z-0.5000 I-1.0288 J-13.6486 F120.00
G1 X4.6300 Y36.3944 Z-0.5000 F120.00
G2 X5.7264 Y40.3192 Z-0.5000 I13.8330 J-1.7486 F120.00
G2 X13.1808 Y47.7736 Z-0.5000 I13.2100 J-5.7555 F120.00
G1 X5.7264 Y40.3192 Z-0.5000 F120.00
G1 X5.7264 Y40.3192 Z-1.0000 F60.00
G1 X13.1808 Y47.7736 Z-1.0000 F120.00
G3 X5.7264 Y40.3192 Z-1.0000 I5.7555 J-13.2100 F120.00
G3 X4.6300 Y36.3944 Z-1.0000 I12.7366 J-5.6733 F120.00
G1 X17.1056 Y48.8700 Z-1.0000 F120.00
G2 X20.0268 Y48.9627 Z-1.0000 I1.8924 J-13.5559 F120.00
G1 X4.5373 Y33.4732 Z-1.0000 F120.00
G3 X4.9293 Y31.0368 Z-1.0000 I13.4613 J0.9159 F120.00
G1 X22.4632 Y48.5707 Z-1.0000 F120.00
G2 X24.5896 Y47.8687 Z-1.0000 I-2.5581 J-11.3198 F120.00
G1 X5.6313 Y28.9104 Z-1.0000 F120.00
G3 X6.5819 Y27.0326 Z-1.0000 I10.0566 J3.9116 F120.00
G1 X26.4674 Y46.9181 Z-1.0000 F120.00
G2 X28.1299 Y45.7521 Z-1.0000 I-5.1824 J-9.1577 F120.00
G1 X7.7479 Y25.3701 Z-1.0000 F120.00
G3 X9.1131 Y23.9069 Z-1.0000 I8.3896 J6.4596 F120.00
G1 X29.5931 Y44.3869 Z-1.0000 F120.00
G2 X30.8599 Y42.8253 Z-1.0000 I-7.7567 J-7.5875 F120.00
G1 X10.6747 Y22.6401 Z-1.0000 F120.00
G3 X12.4418 Y21.5787 Z-1.0000 I6.5990 J8.9853 F120.00
G1 X31.9213 Y41.0582 Z-1.0000 F120.00
G2 X32.7533 Y39.0618 Z-1.0000 I-9.9883 J-5.3343 F120.00
G1 X14.4382 Y20.7467 Z-1.0000 F120.00
G3 X16.7092 Y20.1892 Z-1.0000 I3.8422 J10.7482 F120.00
G1 X33.3108 Y36.7908 Z-1.0000 F120.00
G2 X33.4864 Y34.1381 Z-1.0000 I-12.7535 J-2.1768 F120.00
G1 X19.3619 Y20.0136 Z-1.0000 F120.00
G3 X22.6550 Y20.4782 Z-1.0000 I-0.1952 J13.2851 F120.00
G1 X33.0218 Y30.8450 Z-1.0000 F120.00
G2 X29.2526 Y24.2474 Z-1.0000 I-13.9096 J3.5710 F120.00
G0 X29.2526 Y24.2474 Z5.0000
G0 X29.2526 Y24.2474 Z5.0000
G0 X29.2526 Y24.2474 Z2.0000
G1 X29.2526 Y24.2474 Z-1.0000 F60.00
G2 X19.0000 Y20.0006 Z-1.0000 I-10.2526 J10.2526 F120.00
G2 X19.0000 Y48.9994 Z-1.0000 I0.0000 J14.4994 F120.00
G2 X29.2526 Y24.2474 Z-1.0000 I0.0000 J-14.4994 F120.00
G1 X29.2526 Y24.2474 Z-1.5000 F60.00
G2 X19.0000 Y20.0006 Z-1.5000 I-10.2526 J10.2526 F120.00
G2 X19.0000 Y48.9994 Z-1.5000 I0.0000 J14.4994 F120.00
G2 X29.2526 Y24.2474 Z-1.5000 I0.0000 J-14.4994 F120.00
G0 X29.2526 Y24.2474 Z5.0000
G0 X29.2526 Y24.2474 Z5.0000
G0 X29.2526 Y24.2474 Z1.5000
G1 X29.2526 Y24.2474 Z-1.5000 F60.00
G3 X33.0218 Y30.8450 Z-1.5000 I-10.1404 J10.1686 F120.00
G1 X22.6550 Y20.4782 Z-1.5000 F120.00
G2 X19.3619 Y20.0136 Z-1.5000 I-3.4883 J12.8204 F120.00
G1 X33.4864 Y34.1381 Z-1.5000 F120.00
G3 X33.3108 Y36.7908 Z-1.5000 I-12.9292 J0.4759 F120.00
G1 X16.7092 Y20.1892 Z-1.5000 F120.00
G2 X14.4382 Y20.7467 Z-1.5000 I1.5712 J11.3056 F120.00
G1 X32.7533 Y39.0618 Z-1.5000 F120.00
G3 X31.9213 Y41.0582 Z-1.5000 I-10.8204 J-3.3379 F120.00
G1 X12.4418 Y21.5787 Z-1.5000 F120.00
G2 X10.6747 Y22.6401 Z-1.5000 I4.8319 J10.0466 F120.00
G1 X30.8599 Y42.8253 Z-1.5000 F120.00
G3 X29.5931 Y44.3869 Z-1.5000 I-9.0236 J-6.0259 F120.00
G1 X9.1131 Y23.9069 Z-1.5000 F120.00
G2 X7.7479 Y25.3701 Z-1.5000 I7.0243 J7.9228 F120.00
G1 X28.1299 Y45.7521 Z-1.5000 F120.00
G3 X26.4674 Y46.9181 Z-1.5000 I-6.8449 J-7.9918 F120.00
G1 X6.5819 Y27.0326 Z-1.5000 F120.00
G2 X5.6313 Y28.9104 Z-1.5000 I9.1060 J5.7894 F120.00
G1 X24.5896 Y47.8687 Z-1.5000 F120.00
G3 X22.4632 Y48.5707 Z-1.5000 I-4.6845 J-10.6178 F120.00
G1 X4.9293 Y31.0368 Z-1.5000 F120.00
G2 X4.5373 Y33.4732 Z-1.5000 I13.0694 J3.3523 F120.00
G1 X20.0268 Y48.9627 Z-1.5000 F120.00
G3 X17.1056 Y48.8700 Z-1.5000 I-1.0288 J-13.6486 F120.00
G1 X4.6300 Y36.3944 Z-1.5000 F120.00
G2 X5.7264 Y40.3192 Z-1.5000 I13.8330 J-1.7486 F120.00
G2 X13.1808 Y47.7736 Z-1.5000 I13.2100 J-5.7555 F120.00
G1 X5.7264 Y40.3192 Z-1.5000 F120.00
G1 X5.7264 Y40.3192 Z-2.0000 F60.00
G1 X13.1808 Y47.7736 Z-2.0000 F120.00
G3 X5.7264 Y40.3192 Z-2.0000 I5.7555 J-13.2100 F120.00
G3 X4.6300 Y36.3944 Z-2.0000 I12.7366 J-5.6733 F120.00
G1 X17.1056 Y48.8700 Z-2.0000 F120.00
G2 X20.0268 Y48.9627 Z-2.0000 I1.8924 J-13.5559 F120.00
G1 X4.5373 Y33.4732 Z-2.0000 F120.00
G3 X4.9293 Y31.0368 Z-2.0000 I13.4613 J0.9159 F120.00
G1 X22.4632 Y48.5707 Z-2.0000 F120.00
G2 X24.5896 Y47.8687 Z-2.0000 I-2.5581 J-11.3198 F120.00
G1 X5.6313 Y28.9104 Z-2.0000 F120.00
G3 X6.5819 Y27.0326 Z-2.0000 I10.0566 J3.9116 F120.00
G1 X26.4674 Y46.9181 Z-2.0000 F120.00
G2 X28.1299 Y45.7521 Z-2.0000 I-5.1824 J-9.1577 F120.00
G1 X7.7479 Y25.3701 Z-2.0000 F120.00
G3 X9.1131 Y23.9069 Z-2.0000 I8.3896 J6.4596 F120.00
G1 X29.5931 Y44.3869 Z-2.0000 F120.00
G2 X30.8599 Y42.8253 Z-2.0000 I-7.7567 J-7.5875 F120.00
G1 X10.6747 Y22.6401 Z-2.0000 F120.00
G3 X12.4418 Y21.5787 Z-2.0000 I6.5990 J8.9853 F120.00
G1 X31.9213 Y41.0582 Z-2.0000 F120.00
G2 X32.7533 Y39.0618 Z-2.0000 I-9.9883 J-5.3343 F120.00
G1 X14.4382 Y20.7467 Z-2.0000 F120.00
G3 X16.7092 Y20.1892 Z-2.0000 I3.8422 J10.7482 F120.00
G1 X33.3108 Y36.7908 Z-2.0000 F120.00
G2 X33.4864 Y34.1381 Z-2.0000 I-12.7535 J-2.1768 F120.00
G1 X19.3619 Y20.0136 Z-2.0000 F120.00
G3 X22.6550 Y20.4782 Z-2.0000 I-0.1952 J13.2851 F120.00
G1 X33.0218 Y30.8450 Z-2.0000 F120.00
G2 X29.2526 Y24.2474 Z-2.0000 I-13.9096 J3.5710 F120.00
G0 X29.2526 Y24.2474 Z5.0000
G0 X29.2526 Y24.2474 Z5.0000
G0 X29.2526 Y24.2474 Z1.0000
G1 X29.2526 Y24.2474 Z-2.0000 F60.00
G2 X19.0000 Y20.0006 Z-2.0000 I-10.2526 J10.2526 F120.00
G2 X19.0000 Y48.9994 Z-2.0000 I0.0000 J14.4994 F120.00
G2 X29.2526 Y24.2474 Z-2.0000 I0.0000 J-14.4994 F120.00
G1 X29.2526 Y24.2474 Z-2.5000 F60.00
G2 X19.0000 Y20.0006 Z-2.5000 I-10.2526 J10.2526 F120.00
G2 X19.0000 Y48.9994 Z-2.5000 I0.0000 J14.4994 F120.00
G2 X29.2526 Y24.2474 Z-2.5000 I0.0000 J-14.4994 F120.00
G0 X29.2526 Y24.2474 Z5.0000
G0 X29.2526 Y24.2474 Z5.0000
G0 X29.2526 Y24.2474 Z0.5000
G1 X29.2526 Y24.2474 Z-2.5000 F60.00
G3 X33.0218 Y30.8450 Z-2.5000 I-10.1404 J10.1686 F120.00
G1 X22.6550 Y20.4782 Z-2.5000 F120.00
G2 X19.3619 Y20.0136 Z-2.5000 I-3.4883 J12.8204 F120.00
G1 X33.4864 Y34.1381 Z-2.5000 F120.00
G3 X33.3108 Y36.7908 Z-2.5000 I-12.9292 J0.4759 F120.00
G1 X16.7092 Y20.1892 Z-2.5000 F120.00
G2 X14.4382 Y20.7467 Z-2.5000 I1.5712 J11.3056 F120.00
G1 X32.7533 Y39.0618 Z-2.5000 F120.00
G3 X31.9213 Y41.0582 Z-2.5000 I-10.8204 J-3.3379 F120.00
G1 X12.4418 Y21.5787 Z-2.5000 F120.00
G2 X10.6747 Y22.6401 Z-2.5000 I4.8319 J10.0466 F120.00
G1 X30.8599 Y42.8253 Z-2.5000 F120.00
G3 X29.5931 Y44.3869 Z-2.5000 I-9.0236 J-6.0259 F120.00
G1 X9.1131 Y23.9069 Z-2.5000 F120.00
G2 X7.7479 Y25.3701 Z-2.5000 I7.0243 J7.9228 F120.00
G1 X28.1299 Y45.7521 Z-2.5000 F120.00
G3 X26.4674 Y46.9181 Z-2.5000 I-6.8449 J-7.9918 F120.00
G1 X6.5819 Y27.0326 Z-2.5000 F120.00
G2 X5.6313 Y28.9104 Z-2.5000 I9.1060 J5.7894 F120.00
G1 X24.5896 Y47.8687 Z-2.5000 F120.00
G3 X22.4632 Y48.5707 Z-2.5000 I-4.6845 J-10.6178 F120.00
G1 X4.9293 Y31.0368 Z-2.5000 F120.00
G2 X4.5373 Y33.4732 Z-2.5000 I13.0694 J3.3523 F120.00
G1 X20.0268 Y48.9627 Z-2.5000 F120.00
G3 X17.1056 Y48.8700 Z-2.5000 I-1.0288 J-13.6486 F120.00
G1 X4.6300 Y36.3944 Z-2.5000 F120.00
G2 X5.7264 Y40.3192 Z-2.5000 I13.8330 J-1.7486 F120.00
G2 X13.1808 Y47.7736 Z-2.5000 I13.2100 J-5.7555 F120.00
G1 X5.7264 Y40.3192 Z-2.5000 F120.00
G1 X5.7264 Y40.3192 Z-3.0000 F60.00
G1 X13.1808 Y47.7736 Z-3.0000 F120.00
G3 X5.7264 Y40.3192 Z-3.0000 I5.7555 J-13.2100 F120.00
G3 X4.6300 Y36.3944 Z-3.0000 I12.7366 J-5.6733 F120.00
G1 X17.1056 Y48.8700 Z-3.0000 F120.00
G2 X20.0268 Y48.9627 Z-3.0000 I1.8924 J-13.5559 F120.00
G1 X4.5373 Y33.4732 Z-3.0000 F120.00
G3 X4.9293 Y31.0368 Z-3.0000 I13.4613 J0.9159 F120.00
G1 X22.4632 Y48.5707 Z-3.0000 F120.00
G2 X24.5896 Y47.8687 Z-3.0000 I-2.5581 J-11.3198 F120.00
G1 X5.6313 Y28.9104 Z-3.0000 F120.00
G3 X6.5819 Y27.0326 Z-3.0000 I10.0566 J3.9116 F120.00
G1 X26.4674 Y46.9181 Z-3.0000 F120.00
G2 X28.1299 Y45.7521 Z-3.0000 I-5.1824 J-9.1577 F120.00
G1 X7.7479 Y25.3701 Z-3.0000 F120.00
G3 X9.1131 Y23.9069 Z-3.0000 I8.3896 J6.4596 F120.00
G1 X29.5931 Y44.3869 Z-3.0000 F120.00
G2 X30.8599 Y42.8253 Z-3.0000 I-7.7567 J-7.5875 F120.00
G1 X10.6747 Y22.6401 Z-3.0000 F120.00
G3 X12.4418 Y21.5787 Z-3.0000 I6.5990 J8.9853 F120.00
G1 X31.9213 Y41.0582 Z-3.0000 F120.00
G2 X32.7533 Y39.0618 Z-3.0000 I-9.9883 J-5.3343 F120.00
G1 X14.4382 Y20.7467 Z-3.0000 F120.00
G3 X16.7092 Y20.1892 Z-3.0000 I3.8422 J10.7482 F120.00
G1 X33.3108 Y36.7908 Z-3.0000 F120.00
G2 X33.4864 Y34.1381 Z-3.0000 I-12.7535 J-2.1768 F120.00
G1 X19.3619 Y20.0136 Z-3.0000 F120.00
G3 X22.6550 Y20.4782 Z-3.0000 I-0.1952 J13.2851 F120.00
G1 X33.0218 Y30.8450 Z-3.0000 F120.00
G2 X29.2526 Y24.2474 Z-3.0000 I-13.9096 J3.5710 F120.00
G0 X29.2526 Y24.2474 Z5.0000
G0 X29.2526 Y24.2474 Z5.0000
G0 X29.2526 Y24.2474 Z0.0000
G1 X29.2526 Y24.2474 Z-3.0000 F60.00
G2 X19.0000 Y20.0006 Z-3.0000 I-10.2526 J10.2526 F120.00
G2 X19.0000 Y48.9994 Z-3.0000 I0.0000 J14.4994 F120.00
G2 X29.2526 Y24.2474 Z-3.0000 I0.0000 J-14.4994 F120.00
G1 X29.2526 Y24.2474 Z-3.5000 F60.00
G2 X19.0000 Y20.0006 Z-3.5000 I-10.2526 J10.2526 F120.00
G2 X19.0000 Y48.9994 Z-3.5000 I0.0000 J14.4994 F120.00
G2 X29.2526 Y24.2474 Z-3.5000 I0.0000 J-14.4994 F120.00
G0 X29.2526 Y24.2474 Z5.0000
G0 X29.2526 Y24.2474 Z5.0000
G0 X29.2526 Y24.2474 Z-0.5000
G1 X29.2526 Y24.2474 Z-3.5000 F60.00
G3 X33.0218 Y30.8450 Z-3.5000 I-10.1404 J10.1686 F120.00
G1 X22.6550 Y20.4782 Z-3.5000 F120.00
G2 X19.3619 Y20.0136 Z-3.5000 I-3.4883 J12.8204 F120.00
G1 X33.4864 Y34.1381 Z-3.5000 F120.00
G3 X33.3108 Y36.7908 Z-3.5000 I-12.9292 J0.4759 F120.00
G1 X16.7092 Y20.1892 Z-3.5000 F120.00
G2 X14.4382 Y20.7467 Z-3.5000 I1.5712 J11.3056 F120.00
G1 X32.7533 Y39.0618 Z-3.5000 F120.00
G3 X31.9213 Y41.0582 Z-3.5000 I-10.8204 J-3.3379 F120.00
G1 X12.4418 Y21.5787 Z-3.5000 F120.00
G2 X10.6747 Y22.6401 Z-3.5000 I4.8319 J10.0466 F120.00
G1 X30.8599 Y42.8253 Z-3.5000 F120.00
G3 X29.5931 Y44.3869 Z-3.5000 I-9.0236 J-6.0259 F120.00
G1 X9.1131 Y23.9069 Z-3.5000 F120.00
G2 X7.7479 Y25.3701 Z-3.5000 I7.0243 J7.9228 F120.00
G1 X28.1299 Y45.7521 Z-3.5000 F120.00
G3 X26.4674 Y46.9181 Z-3.5000 I-6.8449 J-7.9918 F120.00
G1 X6.5819 Y27.0326 Z-3.5000 F120.00
G2 X5.6313 Y28.9104 Z-3.5000 I9.1060 J5.7894 F120.00
G1 X24.5896 Y47.8687 Z-3.5000 F120.00
G3 X22.4632 Y48.5707 Z-3.5000 I-4.6845 J-10.6178 F120.00
G1 X4.9293 Y31.0368 Z-3.5000 F120.00
G2 X4.5373 Y33.4732 Z-3.5000 I13.0694 J3.3523 F120.00
G1 X20.0268 Y48.9627 Z-3.5000 F120.00
G3 X17.1056 Y48.8700 Z-3.5000 I-1.0288 J-13.6486 F120.00
G1 X4.6300 Y36.3944 Z-3.5000 F120.00
G2 X5.7264 Y40.3192 Z-3.5000 I13.8330 J-1.7486 F120.00
G2 X13.1808 Y47.7736 Z-3.5000 I13.2100 J-5.7555 F120.00
G1 X5.7264 Y40.3192 Z-3.5000 F120.00
G1 X5.7264 Y40.3192 Z-4.0000 F60.00
G1 X13.1808 Y47.7736 Z-4.0000 F120.00
G3 X5.7264 Y40.3192 Z-4.0000 I5.7555 J-13.2100 F120.00
G3 X4.6300 Y36.3944 Z-4.0000 I12.7366 J-5.6733 F120.00
G1 X17.1056 Y48.8700 Z-4.0000 F120.00
G2 X20.0268 Y48.9627 Z-4.0000 I1.8924 J-13.5559 F120.00
G1 X4.5373 Y33.4732 Z-4.0000 F120.00
G3 X4.9293 Y31.0368 Z-4.0000 I13.4613 J0.9159 F120.00
G1 X22.4632 Y48.5707 Z-4.0000 F120.00
G2 X24.5896 Y47.8687 Z-4.0000 I-2.5581 J-11.3198 F120.00
G1 X5.6313 Y28.9104 Z-4.0000 F120.00
G3 X6.5819 Y27.0326 Z-4.0000 I10.0566 J3.9116 F120.00
G1 X26.4674 Y46.9181 Z-4.0000 F120.00
G2 X28.1299 Y45.7521 Z-4.0000 I-5.1824 J-9.1577 F120.00
G1 X7.7479 Y25.3701 Z-4.0000 F120.00
G3 X9.1131 Y23.9069 Z-4.0000 I8.3896 J6.4596 F120.00
G1 X29.5931 Y44.3869 Z-4.0000 F120.00
G2 X30.8599 Y42.8253 Z-4.0000 I-7.7567 J-7.5875 F120.00
G1 X10.6747 Y22.6401 Z-4.0000 F120.00
G3 X12.4418 Y21.5787 Z-4.0000 I6.5990 J8.9853 F120.00
G1 X31.9213 Y41.0582 Z-4.0000 F120.00
G2 X32.7533 Y39.0618 Z-4.0000 I-9.9883 J-5.3343 F120.00
G1 X14.4382 Y20.7467 Z-4.0000 F120.00
G3 X16.7092 Y20.1892 Z-4.0000 I3.8422 J10.7482 F120.00
G1 X33.3108 Y36.7908 Z-4.0000 F120.00
G2 X33.4864 Y34.1381 Z-4.0000 I-12.7535 J-2.1768 F120.00
G1 X19.3619 Y20.0136 Z-4.0000 F120.00
G3 X22.6550 Y20.4782 Z-4.0000 I-0.1952 J13.2851 F120.00
G1 X33.0218 Y30.8450 Z-4.0000 F120.00
G2 X29.2526 Y24.2474 Z-4.0000 I-13.9096 J3.5710 F120.00
G0 X29.2526 Y24.2474 Z5.0000
G0 X29.2526 Y24.2474 Z5.0000
G0 X29.2526 Y24.2474 Z-1.0000
G1 X29.2526 Y24.2474 Z-4.0000 F60.00
G2 X19.0000 Y20.0006 Z-4.0000 I-10.2526 J10.2526 F120.00
G2 X19.0000 Y48.9994 Z-4.0000 I0.0000 J14.4994 F120.00
G2 X29.2526 Y24.2474 Z-4.0000 I0.0000 J-14.4994 F120.00
G1 X29.2526 Y24.2474 Z-4.5000 F60.00
G2 X19.0000 Y20.0006 Z-4.5000 I-10.2526 J10.2526 F120.00
G2 X19.0000 Y48.9994 Z-4.5000 I0.0000 J14.4994 F120.00
G2 X29.2526 Y24.2474 Z-4.5000 I0.0000 J-14.4994 F120.00
G0 X29.2526 Y24.2474 Z5.0000
G0 X29.2526 Y24.2474 Z5.0000
G0 X29.2526 Y24.2474 Z-1.5000
G1 X29.2526 Y24.2474 Z-4.5000 F60.00
G3 X33.0218 Y30.8450 Z-4.5000 I-10.1404 J10.1686 F120.00
G1 X22.6550 Y20.4782 Z-4.5000 F120.00
G2 X19.3619 Y20.0136 Z-4.5000 I-3.4883 J12.8204 F120.00
G1 X33.4864 Y34.1381 Z-4.5000 F120.00
G3 X33.3108 Y36.7908 Z-4.5000 I-12.9292 J0.4759 F120.00
G1 X16.7092 Y20.1892 Z-4.5000 F120.00
G2 X14.4382 Y20.7467 Z-4.5000 I1.5712 J11.3056 F120.00
G1 X32.7533 Y39.0618 Z-4.5000 F120.00
G3 X31.9213 Y41.0582 Z-4.5000 I-10.8204 J-3.3379 F120.00
G1 X12.4418 Y21.5787 Z-4.5000 F120.00
G2 X10.6747 Y22.6401 Z-4.5000 I4.8319 J10.0466 F120.00
G1 X30.8599 Y42.8253 Z-4.5000 F120.00
G3 X29.5931 Y44.3869 Z-4.5000 I-9.0236 J-6.0259 F120.00
G1 X9.1131 Y23.9069 Z-4.5000 F120.00
G2 X7.7479 Y25.3701 Z-4.5000 I7.0243 J7.9228 F120.00
G1 X28.1299 Y45.7521 Z-4.5000 F120.00
G3 X26.4674 Y46.9181 Z-4.5000 I-6.8449 J-7.9918 F120.00
G1 X6.5819 Y27.0326 Z-4.5000 F120.00
G2 X5.6313 Y28.9104 Z-4.5000 I9.1060 J5.7894 F120.00
G1 X24.5896 Y47.8687 Z-4.5000 F120.00
G3 X22.4632 Y48.5707 Z-4.5000 I-4.6845 J-10.6178 F120.00
G1 X4.9293 Y31.0368 Z-4.5000 F120.00
G2 X4.5373 Y33.4732 Z-4.5000 I13.0694 J3.3523 F120.00
G1 X20.0268 Y48.9627 Z-4.5000 F120.00
G3 X17.1056 Y48.8700 Z-4.5000 I-1.0288 J-13.6486 F120.00
G1 X4.6300 Y36.3944 Z-4.5000 F120.00
G2 X5.7264 Y40.3192 Z-4.5000 I13.8330 J-1.7486 F120.00
G2 X13.1808 Y47.7736 Z-4.5000 I13.2100 J-5.7555 F120.00
G1 X5.7264 Y40.3192 Z-4.5000 F120.00
G1 X5.7264 Y40.3192 Z-5.0000 F60.00
G1 X13.1808 Y47.7736 Z-5.0000 F120.00
G3 X5.7264 Y40.3192 Z-5.0000 I5.7555 J-13.2100 F120.00
G3 X4.6300 Y36.3944 Z-5.0000 I12.7366 J-5.6733 F120.00
G1 X17.1056 Y48.8700 Z-5.0000 F120.00
G2 X20.0268 Y48.9627 Z-5.0000 I1.8924 J-13.5559 F120.00
G1 X4.5373 Y33.4732 Z-5.0000 F120.00
G3 X4.9293 Y31.0368 Z-5.0000 I13.4613 J0.9159 F120.00
G1 X22.4632 Y48.5707 Z-5.0000 F120.00
G2 X24.5896 Y47.8687 Z-5.0000 I-2.5581 J-11.3198 F120.00
G1 X5.6313 Y28.9104 Z-5.0000 F120.00
G3 X6.5819 Y27.0326 Z-5.0000 I10.0566 J3.9116 F120.00
G1 X26.4674 Y46.9181 Z-5.0000 F120.00
G2 X28.1299 Y45.7521 Z-5.0000 I-5.1824 J-9.1577 F120.00
G1 X7.7479 Y25.3701 Z-5.0000 F120.00
G3 X9.1131 Y23.9069 Z-5.0000 I8.3896 J6.4596 F120.00
G1 X29.5931 Y44.3869 Z-5.0000 F120.00
G2 X30.8599 Y42.8253 Z-5.0000 I-7.7567 J-7.5875 F120.00
G1 X10.6747 Y22.6401 Z-5.0000 F120.00
G3 X12.4418 Y21.5787 Z-5.0000 I6.5990 J8.9853 F120.00
G1 X31.9213 Y41.0582 Z-5.0000 F120.00
G2 X32.7533 Y39.0618 Z-5.0000 I-9.9883 J-5.3343 F120.00
G1 X14.4382 Y20.7467 Z-5.0000 F120.00
G3 X16.7092 Y20.1892 Z-5.0000 I3.8422 J10.7482 F120.00
G1 X33.3108 Y36.7908 Z-5.0000 F120.00
G2 X33.4864 Y34.1381 Z-5.0000 I-12.7535 J-2.1768 F120.00
G1 X19.3619 Y20.0136 Z-5.0000 F120.00
G3 X22.6550 Y20.4782 Z-5.0000 I-0.1952 J13.2851 F120.00
G1 X33.0218 Y30.8450 Z-5.0000 F120.00
G2 X29.2526 Y24.2474 Z-5.0000 I-13.9096 J3.5710 F120.00
G0 X29.2526 Y24.2474 Z5.0000
G0 X29.2526 Y24.2474 Z5.0000
G0 X29.2526 Y24.2474 Z-2.0000
G1 X29.2526 Y24.2474 Z-5.0000 F60.00
G2 X19.0000 Y20.0006 Z-5.0000 I-10.2526 J10.2526 F120.00
G2 X19.0000 Y48.9994 Z-5.0000 I0.0000 J14.4994 F120.00
G2 X29.2526 Y24.2474 Z-5.0000 I0.0000 J-14.4994 F120.00
G1 X29.2526 Y24.2474 Z-5.5000 F60.00
G2 X19.0000 Y20.0006 Z-5.5000 I-10.2526 J10.2526 F120.00
G2 X19.0000 Y48.9994 Z-5.5000 I0.0000 J14.4994 F120.00
G2 X29.2526 Y24.2474 Z-5.5000 I0.0000 J-14.4994 F120.00
G0 X29.2526 Y24.2474 Z5.0000
G0 X29.2526 Y24.2474 Z5.0000
G0 X29.2526 Y24.2474 Z-2.5000
G1 X29.2526 Y24.2474 Z-5.5000 F60.00
G3 X33.0218 Y30.8450 Z-5.5000 I-10.1404 J10.1686 F120.00
G1 X22.6550 Y20.4782 Z-5.5000 F120.00
G2 X19.3619 Y20.0136 Z-5.5000 I-3.4883 J12.8204 F120.00
G1 X33.4864 Y34.1381 Z-5.5000 F120.00
G3 X33.3108 Y36.7908 Z-5.5000 I-12.9292 J0.4759 F120.00
G1 X16.7092 Y20.1892 Z-5.5000 F120.00
G2 X14.4382 Y20.7467 Z-5.5000 I1.5712 J11.3056 F120.00
G1 X32.7533 Y39.0618 Z-5.5000 F120.00
G3 X31.9213 Y41.0582 Z-5.5000 I-10.8204 J-3.3379 F120.00
G1 X12.4418 Y21.5787 Z-5.5000 F120.00
G2 X10.6747 Y22.6401 Z-5.5000 I4.8319 J10.0466 F120.00
G1 X30.8599 Y42.8253 Z-5.5000 F120.00
G3 X29.5931 Y44.3869 Z-5.5000 I-9.0236 J-6.0259 F120.00
G1 X9.1131 Y23.9069 Z-5.5000 F120.00
G2 X7.7479 Y25.3701 Z-5.5000 I7.0243 J7.9228 F120.00
G1 X28.1299 Y45.7521 Z-5.5000 F120.00
G3 X26.4674 Y46.9181 Z-5.5000 I-6.8449 J-7.9918 F120.00
G1 X6.5819 Y27.0326 Z-5.5000 F120.00
G2 X5.6313 Y28.9104 Z-5.5000 I9.1060 J5.7894 F120.00
G1 X24.5896 Y47.8687 Z-5.5000 F120.00
G3 X22.4632 Y48.5707 Z-5.5000 I-4.6845 J-10.6178 F120.00
G1 X4.9293 Y31.0368 Z-5.5000 F120.00
G2 X4.5373 Y33.4732 Z-5.5000 I13.0694 J3.3523 F120.00
G1 X20.0268 Y48.9627 Z-5.5000 F120.00
G3 X17.1056 Y48.8700 Z-5.5000 I-1.0288 J-13.6486 F120.00
G1 X4.6300 Y36.3944 Z-5.5000 F120.00
G2 X5.7264 Y40.3192 Z-5.5000 I13.8330 J-1.7486 F120.00
G2 X13.1808 Y47.7736 Z-5.5000 I13.2100 J-5.7555 F120.00
G1 X5.7264 Y40.3192 Z-5.5000 F120.00
G1 X5.7264 Y40.3192 Z-6.0000 F60.00
G1 X13.1808 Y47.7736 Z-6.0000 F120.00
G3 X5.7264 Y40.3192 Z-6.0000 I5.7555 J-13.2100 F120.00
G3 X4.6300 Y36.3944 Z-6.0000 I12.7366 J-5.6733 F120.00
G1 X17.1056 Y48.8700 Z-6.0000 F120.00
G2 X20.0268 Y48.9627 Z-6.0000 I1.8924 J-13.5559 F120.00
G1 X4.5373 Y33.4732 Z-6.0000 F120.00
G3 X4.9293 Y31.0368 Z-6.0000 I13.4613 J0.9159 F120.00
G1 X22.4632 Y48.5707 Z-6.0000 F120.00
G2 X24.5896 Y47.8687 Z-6.0000 I-2.5581 J-11.3198 F120.00
G1 X5.6313 Y28.9104 Z-6.0000 F120.00
G3 X6.5819 Y27.0326 Z-6.0000 I10.0566 J3.9116 F120.00
G1 X26.4674 Y46.9181 Z-6.0000 F120.00
G2 X28.1299 Y45.7521 Z-6.0000 I-5.1824 J-9.1577 F120.00
G1 X7.7479 Y25.3701 Z-6.0000 F120.00
G3 X9.1131 Y23.9069 Z-6.0000 I8.3896 J6.4596 F120.00
G1 X29.5931 Y44.3869 Z-6.0000 F120.00
G2 X30.8599 Y42.8253 Z-6.0000 I-7.7567 J-7.5875 F120.00
G1 X10.6747 Y22.6401 Z-6.0000 F120.00
G3 X12.4418 Y21.5787 Z-6.0000 I6.5990 J8.9853 F120.00
G1 X31.9213 Y41.0582 Z-6.0000 F120.00
G2 X32.7533 Y39.0618 Z-6.0000 I-9.9883 J-5.3343 F120.00
G1 X14.4382 Y20.7467 Z-6.0000 F120.00
G3 X16.7092 Y20.1892 Z-6.0000 I3.8422 J10.7482 F120.00
G1 X33.3108 Y36.7908 Z-6.0000 F120.00
G2 X33.4864 Y34.1381 Z-6.0000 I-12.7535 J-2.1768 F120.00
G1 X19.3619 Y20.0136 Z-6.0000 F120.00
G3 X22.6550 Y20.4782 Z-6.0000 I-0.1952 J13.2851 F120.00
G1 X33.0218 Y30.8450 Z-6.0000 F120.00
G2 X29.2526 Y24.2474 Z-6.0000 I-13.9096 J3.5710 F120.00
G0 X29.2526 Y24.2474 Z5.0000
G0 X29.2526 Y24.2474 Z5.0000
G0 X29.2526 Y24.2474 Z-3.0000
G1 X29.2526 Y24.2474 Z-6.0000 F60.00
G2 X19.0000 Y20.0006 Z-6.0000 I-10.2526 J10.2526 F120.00
G2 X19.0000 Y48.9994 Z-6.0000 I0.0000 J14.4994 F120.00
G2 X29.2526 Y24.2474 Z-6.0000 I0.0000 J-14.4994 F120.00
G0 Z5.0000
(finish operation: Pocket_Shape)
(begin operation: Pocket_Shape001)
(Path: Pocket_Shape001)
(Pocket_Shape001)
G0 Z5.0000
G0 X13.2411 Y45.8164
G0 Z3.0000
G1 X13.2411 Y45.8164 Z-5.5000 F60.00
G3 X12.0555 Y45.3253 Z-5.5000 I-0.4911 J-0.4911 F120.00
G3 X13.4445 Y45.3253 Z-5.5000 I0.6945 J0.0000 F120.00
G3 X13.2411 Y45.8164 Z-5.5000 I-0.6945 J-0.0000 F120.00
G1 X13.2411 Y45.8164 Z-6.0000 F60.00
G3 X12.0555 Y45.3253 Z-6.0000 I-0.4911 J-0.4911 F120.00
G3 X13.4445 Y45.3253 Z-6.0000 I0.6945 J0.0000 F120.00
G3 X13.2411 Y45.8164 Z-6.0000 I-0.6945 J-0.0000 F120.00
G1 X13.2411 Y45.8164 Z-6.5000 F60.00
G3 X12.0555 Y45.3253 Z-6.5000 I-0.4911 J-0.4911 F120.00
G3 X13.4445 Y45.3253 Z-6.5000 I0.6945 J0.0000 F120.00
G3 X13.2411 Y45.8164 Z-6.5000 I-0.6945 J-0.0000 F120.00
G1 X13.2411 Y45.8164 Z-7.0000 F60.00
G3 X12.0555 Y45.3253 Z-7.0000 I-0.4911 J-0.4911 F120.00
G3 X13.4445 Y45.3253 Z-7.0000 I0.6945 J0.0000 F120.00
G3 X13.2411 Y45.8164 Z-7.0000 I-0.6945 J-0.0000 F120.00
G1 X13.2411 Y45.8164 Z-7.5000 F60.00
G3 X12.0555 Y45.3253 Z-7.5000 I-0.4911 J-0.4911 F120.00
G3 X13.4445 Y45.3253 Z-7.5000 I0.6945 J0.0000 F120.00
G3 X13.2411 Y45.8164 Z-7.5000 I-0.6945 J-0.0000 F120.00
G1 X13.2411 Y45.8164 Z-8.0000 F60.00
G3 X12.0555 Y45.3253 Z-8.0000 I-0.4911 J-0.4911 F120.00
G3 X13.4445 Y45.3253 Z-8.0000 I0.6945 J0.0000 F120.00
G3 X13.2411 Y45.8164 Z-8.0000 I-0.6945 J-0.0000 F120.00
G1 X13.2411 Y45.8164 Z-8.5000 F60.00
G3 X12.0555 Y45.3253 Z-8.5000 I-0.4911 J-0.4911 F120.00
G3 X13.4445 Y45.3253 Z-8.5000 I0.6945 J0.0000 F120.00
G3 X13.2411 Y45.8164 Z-8.5000 I-0.6945 J-0.0000 F120.00
G1 X13.2411 Y45.8164 Z-9.0000 F60.00
G3 X12.0555 Y45.3253 Z-9.0000 I-0.4911 J-0.4911 F120.00
G3 X13.4445 Y45.3253 Z-9.0000 I0.6945 J0.0000 F120.00
G3 X13.2411 Y45.8164 Z-9.0000 I-0.6945 J-0.0000 F120.00
G1 X13.2411 Y45.8164 Z-9.5000 F60.00
G3 X12.0555 Y45.3253 Z-9.5000 I-0.4911 J-0.4911 F120.00
G3 X13.4445 Y45.3253 Z-9.5000 I0.6945 J0.0000 F120.00
G3 X13.2411 Y45.8164 Z-9.5000 I-0.6945 J-0.0000 F120.00
G1 X13.2411 Y45.8164 Z-10.0000 F60.00
G3 X12.0555 Y45.3253 Z-10.0000 I-0.4911 J-0.4911 F120.00
G3 X13.4445 Y45.3253 Z-10.0000 I0.6945 J0.0000 F120.00
G3 X13.2411 Y45.8164 Z-10.0000 I-0.6945 J-0.0000 F120.00
G1 X13.2411 Y45.8164 Z-10.5000 F60.00
G3 X12.0555 Y45.3253 Z-10.5000 I-0.4911 J-0.4911 F120.00
G3 X13.4445 Y45.3253 Z-10.5000 I0.6945 J0.0000 F120.00
G3 X13.2411 Y45.8164 Z-10.5000 I-0.6945 J-0.0000 F120.00
G1 X13.2411 Y45.8164 Z-11.0000 F60.00
G3 X12.0555 Y45.3253 Z-11.0000 I-0.4911 J-0.4911 F120.00
G3 X13.4445 Y45.3253 Z-11.0000 I0.6945 J0.0000 F120.00
G3 X13.2411 Y45.8164 Z-11.0000 I-0.6945 J-0.0000 F120.00
G1 X13.2411 Y45.8164 Z-11.5000 F60.00
G3 X12.0555 Y45.3253 Z-11.5000 I-0.4911 J-0.4911 F120.00
G3 X13.4445 Y45.3253 Z-11.5000 I0.6945 J0.0000 F120.00
G3 X13.2411 Y45.8164 Z-11.5000 I-0.6945 J-0.0000 F120.00
G1 X13.2411 Y45.8164 Z-12.0000 F60.00
G3 X12.0555 Y45.3253 Z-12.0000 I-0.4911 J-0.4911 F120.00
G3 X13.4445 Y45.3253 Z-12.0000 I0.6945 J0.0000 F120.00
G3 X13.2411 Y45.8164 Z-12.0000 I-0.6945 J-0.0000 F120.00
G0 Z5.0000
G0 X21.8278 Y42.8278
G0 Z3.0000
G1 X21.8278 Y42.8278 Z-5.5000 F60.00
G2 X18.8748 Y36.0099 Z-5.5000 I-2.8248 J-2.8250 F120.00
G1 X18.8748 Y38.0099 Z-5.5000 F120.00
G1 X18.8748 Y36.0099 Z-5.5000 F120.00
G1 X18.7490 Y36.0099 Z-5.5000 F120.00
G2 X15.0099 Y40.2510 Z-5.5000 I0.2510 J3.9901 F120.00
G2 X19.2510 Y43.9901 Z-5.5000 I3.9901 J-0.2510 F120.00
G2 X21.8278 Y42.8278 Z-5.5000 I-0.2480 J-3.9873 F120.00
G0 X21.8278 Y42.8278 Z5.0000
G0 X20.4100 Y41.4100 Z5.0000
G0 X20.4100 Y41.4100 Z-2.5000
G1 X20.4100 Y41.4100 Z-5.5000 F60.00
G3 X19.1252 Y41.9901 Z-5.5000 I-1.4100 J-1.4100 F120.00
G3 X17.0099 Y40.1252 Z-5.5000 I-0.1252 J-1.9901 F120.00
G3 X18.8748 Y38.0099 Z-5.5000 I1.9901 J-0.1252 F120.00
G3 X20.9901 Y39.8748 Z-5.5000 I0.1252 J1.9901 F120.00
G3 X19.1252 Y41.9901 Z-5.5000 I-1.9901 J0.1252 F120.00
G3 X17.0099 Y40.1252 Z-5.5000 I-0.1252 J-1.9901 F120.00
G3 X18.8748 Y38.0099 Z-5.5000 I1.9901 J-0.1252 F120.00
G3 X20.4100 Y41.4100 Z-5.5000 I0.1252 J1.9901 F120.00
G1 X20.4100 Y41.4100 Z-6.0000 F60.00
G3 X19.1252 Y41.9901 Z-6.0000 I-1.4100 J-1.4100 F120.00
G3 X17.0099 Y40.1252 Z-6.0000 I-0.1252 J-1.9901 F120.00
G3 X18.8748 Y38.0099 Z-6.0000 I1.9901 J-0.1252 F120.00
G3 X20.9901 Y39.8748 Z-6.0000 I0.1252 J1.9901 F120.00
G3 X19.1252 Y41.9901 Z-6.0000 I-1.9901 J0.1252 F120.00
G3 X17.0099 Y40.1252 Z-6.0000 I-0.1252 J-1.9901 F120.00
G3 X18.8748 Y38.0099 Z-6.0000 I1.9901 J-0.1252 F120.00
G3 X20.4100 Y41.4100 Z-6.0000 I0.1252 J1.9901 F120.00
G0 X20.4100 Y41.4100 Z5.0000
G0 X21.8278 Y42.8279 Z5.0000
G0 X21.8278 Y42.8279 Z-3.0000
G1 X21.8278 Y42.8279 Z-6.0000 F60.00
G2 X18.8748 Y36.0099 Z-6.0000 I-2.8247 J-2.8251 F120.00
G1 X18.8748 Y38.0099 Z-6.0000 F120.00
G1 X18.8748 Y36.0099 Z-6.0000 F120.00
G1 X18.7490 Y36.0099 Z-6.0000 F120.00
G2 X15.0099 Y40.2510 Z-6.0000 I0.2510 J3.9901 F120.00
G2 X19.2510 Y43.9901 Z-6.0000 I3.9901 J-0.2510 F120.00
G2 X21.8278 Y42.8279 Z-6.0000 I-0.2480 J-3.9873 F120.00
G1 X21.8278 Y42.8279 Z-6.5000 F60.00
G2 X18.8748 Y36.0099 Z-6.5000 I-2.8247 J-2.8251 F120.00
G1 X18.8748 Y38.0099 Z-6.5000 F120.00
G1 X18.8748 Y36.0099 Z-6.5000 F120.00
G1 X18.7490 Y36.0099 Z-6.5000 F120.00
G2 X15.0099 Y40.2510 Z-6.5000 I0.2510 J3.9901 F120.00
G2 X19.2510 Y43.9901 Z-6.5000 I3.9901 J-0.2510 F120.00
G2 X21.8278 Y42.8279 Z-6.5000 I-0.2480 J-3.9873 F120.00
G0 X21.8278 Y42.8279 Z5.0000
G0 X20.4100 Y41.4101 Z5.0000
G0 X20.4100 Y41.4101 Z-3.5000
G1 X20.4100 Y41.4101 Z-6.5000 F60.00
G3 X19.1252 Y41.9901 Z-6.5000 I-1.4100 J-1.4101 F120.00
G3 X17.0099 Y40.1252 Z-6.5000 I-0.1252 J-1.9901 F120.00
G3 X18.8748 Y38.0099 Z-6.5000 I1.9901 J-0.1252 F120.00
G3 X20.9901 Y39.8748 Z-6.5000 I0.1252 J1.9901 F120.00
G3 X19.1252 Y41.9901 Z-6.5000 I-1.9901 J0.1252 F120.00
G3 X17.0099 Y40.1252 Z-6.5000 I-0.1252 J-1.9901 F120.00
G3 X18.8748 Y38.0099 Z-6.5000 I1.9901 J-0.1252 F120.00
G3 X20.4100 Y41.4101 Z-6.5000 I0.1252 J1.9901 F120.00
G1 X20.4100 Y41.4101 Z-7.0000 F60.00
G3 X19.1252 Y41.9901 Z-7.0000 I-1.4100 J-1.4101 F120.00
G3 X17.0099 Y40.1252 Z-7.0000 I-0.1252 J-1.9901 F120.00
G3 X18.8748 Y38.0099 Z-7.0000 I1.9901 J-0.1252 F120.00
G3 X20.9901 Y39.8748 Z-7.0000 I0.1252 J1.9901 F120.00
G3 X19.1252 Y41.9901 Z-7.0000 I-1.9901 J0.1252 F120.00
G3 X17.0099 Y40.1252 Z-7.0000 I-0.1252 J-1.9901 F120.00
G3 X18.8748 Y38.0099 Z-7.0000 I1.9901 J-0.1252 F120.00
G3 X20.4100 Y41.4101 Z-7.0000 I0.1252 J1.9901 F120.00
G0 X20.4100 Y41.4101 Z5.0000
G0 X21.8277 Y42.8280 Z5.0000
G0 X21.8277 Y42.8280 Z-4.0000
G1 X21.8277 Y42.8280 Z-7.0000 F60.00
G2 X18.8748 Y36.0099 Z-7.0000 I-2.8247 J-2.8252 F120.00
G1 X18.8748 Y38.0099 Z-7.0000 F120.00
G1 X18.8748 Y36.0099 Z-7.0000 F120.00
G1 X18.7490 Y36.0099 Z-7.0000 F120.00
G2 X15.0099 Y40.2510 Z-7.0000 I0.2510 J3.9901 F120.00
G2 X19.2510 Y43.9901 Z-7.0000 I3.9901 J-0.2510 F120.00
G2 X21.8277 Y42.8280 Z-7.0000 I-0.2480 J-3.9873 F120.00
G1 X21.8277 Y42.8280 Z-7.5000 F60.00
G2 X18.8748 Y36.0099 Z-7.5000 I-2.8247 J-2.8252 F120.00
G1 X18.8748 Y38.0099 Z-7.5000 F120.00
G1 X18.8748 Y36.0099 Z-7.5000 F120.00
G1 X18.7490 Y36.0099 Z-7.5000 F120.00
G2 X15.0099 Y40.2510 Z-7.5000 I0.2510 J3.9901 F120.00
G2 X19.2510 Y43.9901 Z-7.5000 I3.9901 J-0.2510 F120.00
G2 X21.8277 Y42.8280 Z-7.5000 I-0.2480 J-3.9873 F120.00
G0 X21.8277 Y42.8280 Z5.0000
G0 X20.4099 Y41.4101 Z5.0000
G0 X20.4099 Y41.4101 Z-4.5000
G1 X20.4099 Y41.4101 Z-7.5000 F60.00
G3 X19.1252 Y41.9901 Z-7.5000 I-1.4099 J-1.4101 F120.00
G3 X17.0099 Y40.1252 Z-7.5000 I-0.1252 J-1.9901 F120.00
G3 X18.8748 Y38.0099 Z-7.5000 I1.9901 J-0.1252 F120.00
G3 X20.9901 Y39.8748 Z-7.5000 I0.1252 J1.9901 F120.00
G3 X19.1252 Y41.9901 Z-7.5000 I-1.9901 J0.1252 F120.00
G3 X17.0099 Y40.1252 Z-7.5000 I-0.1252 J-1.9901 F120.00
G3 X18.8748 Y38.0099 Z-7.5000 I1.9901 J-0.1252 F120.00
G3 X20.4099 Y41.4101 Z-7.5000 I0.1252 J1.9901 F120.00
G1 X20.4099 Y41.4101 Z-8.0000 F60.00
G3 X19.1252 Y41.9901 Z-8.0000 I-1.4099 J-1.4101 F120.00
G3 X17.0099 Y40.1252 Z-8.0000 I-0.1252 J-1.9901 F120.00
G3 X18.8748 Y38.0099 Z-8.0000 I1.9901 J-0.1252 F120.00
G3 X20.9901 Y39.8748 Z-8.0000 I0.1252 J1.9901 F120.00
G3 X19.1252 Y41.9901 Z-8.0000 I-1.9901 J0.1252 F120.00
G3 X17.0099 Y40.1252 Z-8.0000 I-0.1252 J-1.9901 F120.00
G3 X18.8748 Y38.0099 Z-8.0000 I1.9901 J-0.1252 F120.00
G3 X20.4099 Y41.4101 Z-8.0000 I0.1252 J1.9901 F120.00
G0 X20.4099 Y41.4101 Z5.0000
G0 X21.8276 Y42.8281 Z5.0000
G0 X21.8276 Y42.8281 Z-5.0000
G1 X21.8276 Y42.8281 Z-8.0000 F60.00
G2 X18.8748 Y36.0099 Z-8.0000 I-2.8246 J-2.8252 F120.00
G1 X18.8748 Y38.0099 Z-8.0000 F120.00
G1 X18.8748 Y36.0099 Z-8.0000 F120.00
G1 X18.7490 Y36.0099 Z-8.0000 F120.00
G2 X15.0099 Y40.2510 Z-8.0000 I0.2510 J3.9901 F120.00
G2 X19.2510 Y43.9901 Z-8.0000 I3.9901 J-0.2510 F120.00
G2 X21.8276 Y42.8281 Z-8.0000 I-0.2480 J-3.9873 F120.00
G1 X21.8276 Y42.8281 Z-8.5000 F60.00
G2 X18.8748 Y36.0099 Z-8.5000 I-2.8246 J-2.8252 F120.00
G1 X18.8748 Y38.0099 Z-8.5000 F120.00
G1 X18.8748 Y36.0099 Z-8.5000 F120.00
G1 X18.7490 Y36.0099 Z-8.5000 F120.00
G2 X15.0099 Y40.2510 Z-8.5000 I0.2510 J3.9901 F120.00
G2 X19.2510 Y43.9901 Z-8.5000 I3.9901 J-0.2510 F120.00
G2 X21.8276 Y42.8281 Z-8.5000 I-0.2480 J-3.9873 F120.00
G0 X21.8276 Y42.8281 Z5.0000
G0 X20.4099 Y41.4101 Z5.0000
G0 X20.4099 Y41.4101 Z-5.5000
G1 X20.4099 Y41.4101 Z-8.5000 F60.00
G3 X19.1252 Y41.9901 Z-8.5000 I-1.4099 J-1.4101 F120.00
G3 X17.0099 Y40.1252 Z-8.5000 I-0.1252 J-1.9901 F120.00
G3 X18.8748 Y38.0099 Z-8.5000 I1.9901 J-0.1252 F120.00
G3 X20.9901 Y39.8748 Z-8.5000 I0.1252 J1.9901 F120.00
G3 X19.1252 Y41.9901 Z-8.5000 I-1.9901 J0.1252 F120.00
G3 X17.0099 Y40.1252 Z-8.5000 I-0.1252 J-1.9901 F120.00
G3 X18.8748 Y38.0099 Z-8.5000 I1.9901 J-0.1252 F120.00
G3 X20.4099 Y41.4101 Z-8.5000 I0.1252 J1.9901 F120.00
G1 X20.4099 Y41.4101 Z-9.0000 F60.00
G3 X19.1252 Y41.9901 Z-9.0000 I-1.4099 J-1.4101 F120.00
G3 X17.0099 Y40.1252 Z-9.0000 I-0.1252 J-1.9901 F120.00
G3 X18.8748 Y38.0099 Z-9.0000 I1.9901 J-0.1252 F120.00
G3 X20.9901 Y39.8748 Z-9.0000 I0.1252 J1.9901 F120.00
G3 X19.1252 Y41.9901 Z-9.0000 I-1.9901 J0.1252 F120.00
G3 X17.0099 Y40.1252 Z-9.0000 I-0.1252 J-1.9901 F120.00
G3 X18.8748 Y38.0099 Z-9.0000 I1.9901 J-0.1252 F120.00
G3 X20.4099 Y41.4101 Z-9.0000 I0.1252 J1.9901 F120.00
G0 X20.4099 Y41.4101 Z5.0000
G0 X21.8275 Y42.8282 Z5.0000
G0 X21.8275 Y42.8282 Z-6.0000
G1 X21.8275 Y42.8282 Z-9.0000 F60.00
G2 X18.8748 Y36.0099 Z-9.0000 I-2.8245 J-2.8253 F120.00
G1 X18.8748 Y38.0099 Z-9.0000 F120.00
G1 X18.8748 Y36.0099 Z-9.0000 F120.00
G1 X18.7490 Y36.0099 Z-9.0000 F120.00
G2 X15.0099 Y40.2510 Z-9.0000 I0.2510 J3.9901 F120.00
G2 X19.2510 Y43.9901 Z-9.0000 I3.9901 J-0.2510 F120.00
G2 X21.8275 Y42.8282 Z-9.0000 I-0.2480 J-3.9873 F120.00
G1 X21.8275 Y42.8282 Z-9.5000 F60.00
G2 X18.8748 Y36.0099 Z-9.5000 I-2.8245 J-2.8253 F120.00
G1 X18.8748 Y38.0099 Z-9.5000 F120.00
G1 X18.8748 Y36.0099 Z-9.5000 F120.00
G1 X18.7490 Y36.0099 Z-9.5000 F120.00
G2 X15.0099 Y40.2510 Z-9.5000 I0.2510 J3.9901 F120.00
G2 X19.2510 Y43.9901 Z-9.5000 I3.9901 J-0.2510 F120.00
G2 X21.8275 Y42.8282 Z-9.5000 I-0.2480 J-3.9873 F120.00
G0 X21.8275 Y42.8282 Z5.0000
G0 X20.4098 Y41.4102 Z5.0000
G0 X20.4098 Y41.4102 Z-6.5000
G1 X20.4098 Y41.4102 Z-9.5000 F60.00
G3 X19.1252 Y41.9901 Z-9.5000 I-1.4098 J-1.4102 F120.00
G3 X17.0099 Y40.1252 Z-9.5000 I-0.1252 J-1.9901 F120.00
G3 X18.8748 Y38.0099 Z-9.5000 I1.9901 J-0.1252 F120.00
G3 X20.9901 Y39.8748 Z-9.5000 I0.1252 J1.9901 F120.00
G3 X19.1252 Y41.9901 Z-9.5000 I-1.9901 J0.1252 F120.00
G3 X17.0099 Y40.1252 Z-9.5000 I-0.1252 J-1.9901 F120.00
G3 X18.8748 Y38.0099 Z-9.5000 I1.9901 J-0.1252 F120.00
G3 X20.4098 Y41.4102 Z-9.5000 I0.1252 J1.9901 F120.00
G1 X20.4098 Y41.4102 Z-10.0000 F60.00
G3 X19.1252 Y41.9901 Z-10.0000 I-1.4098 J-1.4102 F120.00
G3 X17.0099 Y40.1252 Z-10.0000 I-0.1252 J-1.9901 F120.00
G3 X18.8748 Y38.0099 Z-10.0000 I1.9901 J-0.1252 F120.00
G3 X20.9901 Y39.8748 Z-10.0000 I0.1252 J1.9901 F120.00
G3 X19.1252 Y41.9901 Z-10.0000 I-1.9901 J0.1252 F120.00
G3 X17.0099 Y40.1252 Z-10.0000 I-0.1252 J-1.9901 F120.00
G3 X18.8748 Y38.0099 Z-10.0000 I1.9901 J-0.1252 F120.00
G3 X20.4098 Y41.4102 Z-10.0000 I0.1252 J1.9901 F120.00
G0 X20.4098 Y41.4102 Z5.0000
G0 X21.8274 Y42.8283 Z5.0000
G0 X21.8274 Y42.8283 Z-7.0000
G1 X21.8274 Y42.8283 Z-10.0000 F60.00
G2 X18.8748 Y36.0099 Z-10.0000 I-2.8244 J-2.8254 F120.00
G1 X18.8748 Y38.0099 Z-10.0000 F120.00
G1 X18.8748 Y36.0099 Z-10.0000 F120.00
G1 X18.7490 Y36.0099 Z-10.0000 F120.00
G2 X15.0099 Y40.2510 Z-10.0000 I0.2510 J3.9901 F120.00
G2 X19.2510 Y43.9901 Z-10.0000 I3.9901 J-0.2510 F120.00
G2 X21.8274 Y42.8283 Z-10.0000 I-0.2480 J-3.9873 F120.00
G1 X21.8274 Y42.8283 Z-10.5000 F60.00
G2 X18.8748 Y36.0099 Z-10.5000 I-2.8244 J-2.8254 F120.00
G1 X18.8748 Y38.0099 Z-10.5000 F120.00
G1 X18.8748 Y36.0099 Z-10.5000 F120.00
G1 X18.7490 Y36.0099 Z-10.5000 F120.00
G2 X15.0099 Y40.2510 Z-10.5000 I0.2510 J3.9901 F120.00
G2 X19.2510 Y43.9901 Z-10.5000 I3.9901 J-0.2510 F120.00
G2 X21.8274 Y42.8283 Z-10.5000 I-0.2480 J-3.9873 F120.00
G0 X21.8274 Y42.8283 Z5.0000
G0 X20.4098 Y41.4102 Z5.0000
G0 X20.4098 Y41.4102 Z-7.5000
G1 X20.4098 Y41.4102 Z-10.5000 F60.00
G3 X19.1252 Y41.9901 Z-10.5000 I-1.4098 J-1.4102 F120.00
G3 X17.0099 Y40.1252 Z-10.5000 I-0.1252 J-1.9901 F120.00
G3 X18.8748 Y38.0099 Z-10.5000 I1.9901 J-0.1252 F120.00
G3 X20.9901 Y39.8748 Z-10.5000 I0.1252 J1.9901 F120.00
G3 X19.1252 Y41.9901 Z-10.5000 I-1.9901 J0.1252 F120.00
G3 X17.0099 Y40.1252 Z-10.5000 I-0.1252 J-1.9901 F120.00
G3 X18.8748 Y38.0099 Z-10.5000 I1.9901 J-0.1252 F120.00
G3 X20.4098 Y41.4102 Z-10.5000 I0.1252 J1.9901 F120.00
G1 X20.4098 Y41.4102 Z-11.0000 F60.00
G3 X19.1252 Y41.9901 Z-11.0000 I-1.4098 J-1.4102 F120.00
G3 X17.0099 Y40.1252 Z-11.0000 I-0.1252 J-1.9901 F120.00
G3 X18.8748 Y38.0099 Z-11.0000 I1.9901 J-0.1252 F120.00
G3 X20.9901 Y39.8748 Z-11.0000 I0.1252 J1.9901 F120.00
G3 X19.1252 Y41.9901 Z-11.0000 I-1.9901 J0.1252 F120.00
G3 X17.0099 Y40.1252 Z-11.0000 I-0.1252 J-1.9901 F120.00
G3 X18.8748 Y38.0099 Z-11.0000 I1.9901 J-0.1252 F120.00
G3 X20.4098 Y41.4102 Z-11.0000 I0.1252 J1.9901 F120.00
G0 X20.4098 Y41.4102 Z5.0000
G0 X21.8273 Y42.8283 Z5.0000
G0 X21.8273 Y42.8283 Z-8.0000
G1 X21.8273 Y42.8283 Z-11.0000 F60.00
G2 X18.8748 Y36.0099 Z-11.0000 I-2.8243 J-2.8255 F120.00
G1 X18.8748 Y38.0099 Z-11.0000 F120.00
G1 X18.8748 Y36.0099 Z-11.0000 F120.00
G1 X18.7490 Y36.0099 Z-11.0000 F120.00
G2 X15.0099 Y40.2510 Z-11.0000 I0.2510 J3.9901 F120.00
G2 X19.2510 Y43.9901 Z-11.0000 I3.9901 J-0.2510 F120.00
G2 X21.8273 Y42.8283 Z-11.0000 I-0.2480 J-3.9873 F120.00
G1 X21.8273 Y42.8283 Z-11.5000 F60.00
G2 X18.8748 Y36.0099 Z-11.5000 I-2.8243 J-2.8255 F120.00
G1 X18.8748 Y38.0099 Z-11.5000 F120.00
G1 X18.8748 Y36.0099 Z-11.5000 F120.00
G1 X18.7490 Y36.0099 Z-11.5000 F120.00
G2 X15.0099 Y40.2510 Z-11.5000 I0.2510 J3.9901 F120.00
G2 X19.2510 Y43.9901 Z-11.5000 I3.9901 J-0.2510 F120.00
G2 X21.8273 Y42.8283 Z-11.5000 I-0.2480 J-3.9873 F120.00
G0 X21.8273 Y42.8283 Z5.0000
G0 X20.4098 Y41.4103 Z5.0000
G0 X20.4098 Y41.4103 Z-8.5000
G1 X20.4098 Y41.4103 Z-11.5000 F60.00
G3 X19.1252 Y41.9901 Z-11.5000 I-1.4098 J-1.4103 F120.00
G3 X17.0099 Y40.1252 Z-11.5000 I-0.1252 J-1.9901 F120.00
G3 X18.8748 Y38.0099 Z-11.5000 I1.9901 J-0.1252 F120.00
G3 X20.9901 Y39.8748 Z-11.5000 I0.1252 J1.9901 F120.00
G3 X19.1252 Y41.9901 Z-11.5000 I-1.9901 J0.1252 F120.00
G3 X17.0099 Y40.1252 Z-11.5000 I-0.1252 J-1.9901 F120.00
G3 X18.8748 Y38.0099 Z-11.5000 I1.9901 J-0.1252 F120.00
G3 X20.4098 Y41.4103 Z-11.5000 I0.1252 J1.9901 F120.00
G1 X20.4098 Y41.4103 Z-12.0000 F60.00
G3 X19.1252 Y41.9901 Z-12.0000 I-1.4098 J-1.4103 F120.00
G3 X17.0099 Y40.1252 Z-12.0000 I-0.1252 J-1.9901 F120.00
G3 X18.8748 Y38.0099 Z-12.0000 I1.9901 J-0.1252 F120.00
G3 X20.9901 Y39.8748 Z-12.0000 I0.1252 J1.9901 F120.00
G3 X19.1252 Y41.9901 Z-12.0000 I-1.9901 J0.1252 F120.00
G3 X17.0099 Y40.1252 Z-12.0000 I-0.1252 J-1.9901 F120.00
G3 X18.8748 Y38.0099 Z-12.0000 I1.9901 J-0.1252 F120.00
G3 X20.4098 Y41.4103 Z-12.0000 I0.1252 J1.9901 F120.00
G0 X20.4098 Y41.4103 Z5.0000
G0 X21.8272 Y42.8284 Z5.0000
G0 X21.8272 Y42.8284 Z-9.0000
G1 X21.8272 Y42.8284 Z-12.0000 F60.00
G2 X18.8748 Y36.0099 Z-12.0000 I-2.8242 J-2.8256 F120.00
G1 X18.8748 Y38.0099 Z-12.0000 F120.00
G1 X18.8748 Y36.0099 Z-12.0000 F120.00
G1 X18.7490 Y36.0099 Z-12.0000 F120.00
G2 X15.0099 Y40.2510 Z-12.0000 I0.2510 J3.9901 F120.00
G2 X19.2510 Y43.9901 Z-12.0000 I3.9901 J-0.2510 F120.00
G2 X21.8272 Y42.8284 Z-12.0000 I-0.2480 J-3.9873 F120.00
G0 Z5.0000
G0 X30.3164 Y41.2411
G0 Z3.0000
G1 X30.3164 Y41.2411 Z-5.5000 F60.00
G3 X29.7527 Y41.4407 Z-5.5000 I-0.4911 J-0.4911 F120.00
G3 X29.1346 Y40.6774 Z-5.5000 I0.0726 J-0.6907 F120.00
G3 X29.8979 Y40.0593 Z-5.5000 I0.6907 J0.0726 F120.00
G3 X30.3164 Y41.2411 Z-5.5000 I-0.0726 J0.6907 F120.00
G1 X30.3164 Y41.2411 Z-6.0000 F60.00
G3 X29.7527 Y41.4407 Z-6.0000 I-0.4911 J-0.4911 F120.00
G3 X29.1346 Y40.6774 Z-6.0000 I0.0726 J-0.6907 F120.00
G3 X29.8979 Y40.0593 Z-6.0000 I0.6907 J0.0726 F120.00
G3 X30.3164 Y41.2411 Z-6.0000 I-0.0726 J0.6907 F120.00
G1 X30.3164 Y41.2411 Z-6.5000 F60.00
G3 X29.7527 Y41.4407 Z-6.5000 I-0.4911 J-0.4911 F120.00
G3 X29.1346 Y40.6774 Z-6.5000 I0.0726 J-0.6907 F120.00
G3 X29.8979 Y40.0593 Z-6.5000 I0.6907 J0.0726 F120.00
G3 X30.3164 Y41.2411 Z-6.5000 I-0.0726 J0.6907 F120.00
G1 X30.3164 Y41.2411 Z-7.0000 F60.00
G3 X29.7527 Y41.4407 Z-7.0000 I-0.4911 J-0.4911 F120.00
G3 X29.1346 Y40.6774 Z-7.0000 I0.0726 J-0.6907 F120.00
G3 X29.8979 Y40.0593 Z-7.0000 I0.6907 J0.0726 F120.00
G3 X30.3164 Y41.2411 Z-7.0000 I-0.0726 J0.6907 F120.00
G1 X30.3164 Y41.2411 Z-7.5000 F60.00
G3 X29.7527 Y41.4407 Z-7.5000 I-0.4911 J-0.4911 F120.00
G3 X29.1346 Y40.6774 Z-7.5000 I0.0726 J-0.6907 F120.00
G3 X29.8979 Y40.0593 Z-7.5000 I0.6907 J0.0726 F120.00
G3 X30.3164 Y41.2411 Z-7.5000 I-0.0726 J0.6907 F120.00
G1 X30.3164 Y41.2411 Z-8.0000 F60.00
G3 X29.7527 Y41.4407 Z-8.0000 I-0.4911 J-0.4911 F120.00
G3 X29.1346 Y40.6774 Z-8.0000 I0.0726 J-0.6907 F120.00
G3 X29.8979 Y40.0593 Z-8.0000 I0.6907 J0.0726 F120.00
G3 X30.3164 Y41.2411 Z-8.0000 I-0.0726 J0.6907 F120.00
G1 X30.3164 Y41.2411 Z-8.5000 F60.00
G3 X29.7527 Y41.4407 Z-8.5000 I-0.4911 J-0.4911 F120.00
G3 X29.1346 Y40.6774 Z-8.5000 I0.0726 J-0.6907 F120.00
G3 X29.8979 Y40.0593 Z-8.5000 I0.6907 J0.0726 F120.00
G3 X30.3164 Y41.2411 Z-8.5000 I-0.0726 J0.6907 F120.00
G1 X30.3164 Y41.2411 Z-9.0000 F60.00
G3 X29.7527 Y41.4407 Z-9.0000 I-0.4911 J-0.4911 F120.00
G3 X29.1346 Y40.6774 Z-9.0000 I0.0726 J-0.6907 F120.00
G3 X29.8979 Y40.0593 Z-9.0000 I0.6907 J0.0726 F120.00
G3 X30.3164 Y41.2411 Z-9.0000 I-0.0726 J0.6907 F120.00
G1 X30.3164 Y41.2411 Z-9.5000 F60.00
G3 X29.7527 Y41.4407 Z-9.5000 I-0.4911 J-0.4911 F120.00
G3 X29.1346 Y40.6774 Z-9.5000 I0.0726 J-0.6907 F120.00
G3 X29.8979 Y40.0593 Z-9.5000 I0.6907 J0.0726 F120.00
G3 X30.3164 Y41.2411 Z-9.5000 I-0.0726 J0.6907 F120.00
G1 X30.3164 Y41.2411 Z-10.0000 F60.00
G3 X29.7527 Y41.4407 Z-10.0000 I-0.4911 J-0.4911 F120.00
G3 X29.1346 Y40.6774 Z-10.0000 I0.0726 J-0.6907 F120.00
G3 X29.8979 Y40.0593 Z-10.0000 I0.6907 J0.0726 F120.00
G3 X30.3164 Y41.2411 Z-10.0000 I-0.0726 J0.6907 F120.00
G1 X30.3164 Y41.2411 Z-10.5000 F60.00
G3 X29.7527 Y41.4407 Z-10.5000 I-0.4911 J-0.4911 F120.00
G3 X29.1346 Y40.6774 Z-10.5000 I0.0726 J-0.6907 F120.00
G3 X29.8979 Y40.0593 Z-10.5000 I0.6907 J0.0726 F120.00
G3 X30.3164 Y41.2411 Z-10.5000 I-0.0726 J0.6907 F120.00
G1 X30.3164 Y41.2411 Z-11.0000 F60.00
G3 X29.7527 Y41.4407 Z-11.0000 I-0.4911 J-0.4911 F120.00
G3 X29.1346 Y40.6774 Z-11.0000 I0.0726 J-0.6907 F120.00
G3 X29.8979 Y40.0593 Z-11.0000 I0.6907 J0.0726 F120.00
G3 X30.3164 Y41.2411 Z-11.0000 I-0.0726 J0.6907 F120.00
G1 X30.3164 Y41.2411 Z-11.5000 F60.00
G3 X29.7527 Y41.4407 Z-11.5000 I-0.4911 J-0.4911 F120.00
G3 X29.1346 Y40.6774 Z-11.5000 I0.0726 J-0.6907 F120.00
G3 X29.8979 Y40.0593 Z-11.5000 I0.6907 J0.0726 F120.00
G3 X30.3164 Y41.2411 Z-11.5000 I-0.0726 J0.6907 F120.00
G1 X30.3164 Y41.2411 Z-12.0000 F60.00
G3 X29.7527 Y41.4407 Z-12.0000 I-0.4911 J-0.4911 F120.00
G3 X29.1346 Y40.6774 Z-12.0000 I0.0726 J-0.6907 F120.00
G3 X29.8979 Y40.0593 Z-12.0000 I0.6907 J0.0726 F120.00
G3 X30.3164 Y41.2411 Z-12.0000 I-0.0726 J0.6907 F120.00
G0 Z5.0000
G0 X31.9911 Y34.9911
G0 Z3.0000
G1 X31.9911 Y34.9911 Z-5.5000 F60.00
G3 X31.4274 Y35.1907 Z-5.5000 I-0.4911 J-0.4911 F120.00
G3 X30.8093 Y34.4274 Z-5.5000 I0.0726 J-0.6907 F120.00
G3 X31.5726 Y33.8093 Z-5.5000 I0.6907 J0.0726 F120.00
G3 X31.9911 Y34.9911 Z-5.5000 I-0.0726 J0.6907 F120.00
G1 X31.9911 Y34.9911 Z-6.0000 F60.00
G3 X31.4274 Y35.1907 Z-6.0000 I-0.4911 J-0.4911 F120.00
G3 X30.8093 Y34.4274 Z-6.0000 I0.0726 J-0.6907 F120.00
G3 X31.5726 Y33.8093 Z-6.0000 I0.6907 J0.0726 F120.00
G3 X31.9911 Y34.9911 Z-6.0000 I-0.0726 J0.6907 F120.00
G1 X31.9911 Y34.9911 Z-6.5000 F60.00
G3 X31.4274 Y35.1907 Z-6.5000 I-0.4911 J-0.4911 F120.00
G3 X30.8093 Y34.4274 Z-6.5000 I0.0726 J-0.6907 F120.00
G3 X31.5726 Y33.8093 Z-6.5000 I0.6907 J0.0726 F120.00
G3 X31.9911 Y34.9911 Z-6.5000 I-0.0726 J0.6907 F120.00
G1 X31.9911 Y34.9911 Z-7.0000 F60.00
G3 X31.4274 Y35.1907 Z-7.0000 I-0.4911 J-0.4911 F120.00
G3 X30.8093 Y34.4274 Z-7.0000 I0.0726 J-0.6907 F120.00
G3 X31.5726 Y33.8093 Z-7.0000 I0.6907 J0.0726 F120.00
G3 X31.9911 Y34.9911 Z-7.0000 I-0.0726 J0.6907 F120.00
G1 X31.9911 Y34.9911 Z-7.5000 F60.00
G3 X31.4274 Y35.1907 Z-7.5000 I-0.4911 J-0.4911 F120.00
G3 X30.8093 Y34.4274 Z-7.5000 I0.0726 J-0.6907 F120.00
G3 X31.5726 Y33.8093 Z-7.5000 I0.6907 J0.0726 F120.00
G3 X31.9911 Y34.9911 Z-7.5000 I-0.0726 J0.6907 F120.00
G1 X31.9911 Y34.9911 Z-8.0000 F60.00
G3 X31.4274 Y35.1907 Z-8.0000 I-0.4911 J-0.4911 F120.00
G3 X30.8093 Y34.4274 Z-8.0000 I0.0726 J-0.6907 F120.00
G3 X31.5726 Y33.8093 Z-8.0000 I0.6907 J0.0726 F120.00
G3 X31.9911 Y34.9911 Z-8.0000 I-0.0726 J0.6907 F120.00
G1 X31.9911 Y34.9911 Z-8.5000 F60.00
G3 X31.4274 Y35.1907 Z-8.5000 I-0.4911 J-0.4911 F120.00
G3 X30.8093 Y34.4274 Z-8.5000 I0.0726 J-0.6907 F120.00
G3 X31.5726 Y33.8093 Z-8.5000 I0.6907 J0.0726 F120.00
G3 X31.9911 Y34.9911 Z-8.5000 I-0.0726 J0.6907 F120.00
G1 X31.9911 Y34.9911 Z-9.0000 F60.00
G3 X31.4274 Y35.1907 Z-9.0000 I-0.4911 J-0.4911 F120.00
G3 X30.8093 Y34.4274 Z-9.0000 I0.0726 J-0.6907 F120.00
G3 X31.5726 Y33.8093 Z-9.0000 I0.6907 J0.0726 F120.00
G3 X31.9911 Y34.9911 Z-9.0000 I-0.0726 J0.6907 F120.00
G1 X31.9911 Y34.9911 Z-9.5000 F60.00
G3 X31.4274 Y35.1907 Z-9.5000 I-0.4911 J-0.4911 F120.00
G3 X30.8093 Y34.4274 Z-9.5000 I0.0726 J-0.6907 F120.00
G3 X31.5726 Y33.8093 Z-9.5000 I0.6907 J0.0726 F120.00
G3 X31.9911 Y34.9911 Z-9.5000 I-0.0726 J0.6907 F120.00
G1 X31.9911 Y34.9911 Z-10.0000 F60.00
G3 X31.4274 Y35.1907 Z-10.0000 I-0.4911 J-0.4911 F120.00
G3 X30.8093 Y34.4274 Z-10.0000 I0.0726 J-0.6907 F120.00
G3 X31.5726 Y33.8093 Z-10.0000 I0.6907 J0.0726 F120.00
G3 X31.9911 Y34.9911 Z-10.0000 I-0.0726 J0.6907 F120.00
G1 X31.9911 Y34.9911 Z-10.5000 F60.00
G3 X31.4274 Y35.1907 Z-10.5000 I-0.4911 J-0.4911 F120.00
G3 X30.8093 Y34.4274 Z-10.5000 I0.0726 J-0.6907 F120.00
G3 X31.5726 Y33.8093 Z-10.5000 I0.6907 J0.0726 F120.00
G3 X31.9911 Y34.9911 Z-10.5000 I-0.0726 J0.6907 F120.00
G1 X31.9911 Y34.9911 Z-11.0000 F60.00
G3 X31.4274 Y35.1907 Z-11.0000 I-0.4911 J-0.4911 F120.00
G3 X30.8093 Y34.4274 Z-11.0000 I0.0726 J-0.6907 F120.00
G3 X31.5726 Y33.8093 Z-11.0000 I0.6907 J0.0726 F120.00
G3 X31.9911 Y34.9911 Z-11.0000 I-0.0726 J0.6907 F120.00
G1 X31.9911 Y34.9911 Z-11.5000 F60.00
G3 X31.4274 Y35.1907 Z-11.5000 I-0.4911 J-0.4911 F120.00
G3 X30.8093 Y34.4274 Z-11.5000 I0.0726 J-0.6907 F120.00
G3 X31.5726 Y33.8093 Z-11.5000 I0.6907 J0.0726 F120.00
G3 X31.9911 Y34.9911 Z-11.5000 I-0.0726 J0.6907 F120.00
G1 X31.9911 Y34.9911 Z-12.0000 F60.00
G3 X31.4274 Y35.1907 Z-12.0000 I-0.4911 J-0.4911 F120.00
G3 X30.8093 Y34.4274 Z-12.0000 I0.0726 J-0.6907 F120.00
G3 X31.5726 Y33.8093 Z-12.0000 I0.6907 J0.0726 F120.00
G3 X31.9911 Y34.9911 Z-12.0000 I-0.0726 J0.6907 F120.00
G0 Z5.0000
G0 X6.9911 Y34.9911
G0 Z3.0000
G1 X6.9911 Y34.9911 Z-5.5000 F60.00
G3 X6.4274 Y35.1907 Z-5.5000 I-0.4911 J-0.4911 F120.00
G3 X5.8093 Y34.4274 Z-5.5000 I0.0726 J-0.6907 F120.00
G3 X6.5726 Y33.8093 Z-5.5000 I0.6907 J0.0726 F120.00
G3 X6.9911 Y34.9911 Z-5.5000 I-0.0726 J0.6907 F120.00
G1 X6.9911 Y34.9911 Z-6.0000 F60.00
G3 X6.4274 Y35.1907 Z-6.0000 I-0.4911 J-0.4911 F120.00
G3 X5.8093 Y34.4274 Z-6.0000 I0.0726 J-0.6907 F120.00
G3 X6.5726 Y33.8093 Z-6.0000 I0.6907 J0.0726 F120.00
G3 X6.9911 Y34.9911 Z-6.0000 I-0.0726 J0.6907 F120.00
G1 X6.9911 Y34.9911 Z-6.5000 F60.00
G3 X6.4274 Y35.1907 Z-6.5000 I-0.4911 J-0.4911 F120.00
G3 X5.8093 Y34.4274 Z-6.5000 I0.0726 J-0.6907 F120.00
G3 X6.5726 Y33.8093 Z-6.5000 I0.6907 J0.0726 F120.00
G3 X6.9911 Y34.9911 Z-6.5000 I-0.0726 J0.6907 F120.00
G1 X6.9911 Y34.9911 Z-7.0000 F60.00
G3 X6.4274 Y35.1907 Z-7.0000 I-0.4911 J-0.4911 F120.00
G3 X5.8093 Y34.4274 Z-7.0000 I0.0726 J-0.6907 F120.00
G3 X6.5726 Y33.8093 Z-7.0000 I0.6907 J0.0726 F120.00
G3 X6.9911 Y34.9911 Z-7.0000 I-0.0726 J0.6907 F120.00
G1 X6.9911 Y34.9911 Z-7.5000 F60.00
G3 X6.4274 Y35.1907 Z-7.5000 I-0.4911 J-0.4911 F120.00
G3 X5.8093 Y34.4274 Z-7.5000 I0.0726 J-0.6907 F120.00
G3 X6.5726 Y33.8093 Z-7.5000 I0.6907 J0.0726 F120.00
G3 X6.9911 Y34.9911 Z-7.5000 I-0.0726 J0.6907 F120.00
G1 X6.9911 Y34.9911 Z-8.0000 F60.00
G3 X6.4274 Y35.1907 Z-8.0000 I-0.4911 J-0.4911 F120.00
G3 X5.8093 Y34.4274 Z-8.0000 I0.0726 J-0.6907 F120.00
G3 X6.5726 Y33.8093 Z-8.0000 I0.6907 J0.0726 F120.00
G3 X6.9911 Y34.9911 Z-8.0000 I-0.0726 J0.6907 F120.00
G1 X6.9911 Y34.9911 Z-8.5000 F60.00
G3 X6.4274 Y35.1907 Z-8.5000 I-0.4911 J-0.4911 F120.00
G3 X5.8093 Y34.4274 Z-8.5000 I0.0726 J-0.6907 F120.00
G3 X6.5726 Y33.8093 Z-8.5000 I0.6907 J0.0726 F120.00
G3 X6.9911 Y34.9911 Z-8.5000 I-0.0726 J0.6907 F120.00
G1 X6.9911 Y34.9911 Z-9.0000 F60.00
G3 X6.4274 Y35.1907 Z-9.0000 I-0.4911 J-0.4911 F120.00
G3 X5.8093 Y34.4274 Z-9.0000 I0.0726 J-0.6907 F120.00
G3 X6.5726 Y33.8093 Z-9.0000 I0.6907 J0.0726 F120.00
G3 X6.9911 Y34.9911 Z-9.0000 I-0.0726 J0.6907 F120.00
G1 X6.9911 Y34.9911 Z-9.5000 F60.00
G3 X6.4274 Y35.1907 Z-9.5000 I-0.4911 J-0.4911 F120.00
G3 X5.8093 Y34.4274 Z-9.5000 I0.0726 J-0.6907 F120.00
G3 X6.5726 Y33.8093 Z-9.5000 I0.6907 J0.0726 F120.00
G3 X6.9911 Y34.9911 Z-9.5000 I-0.0726 J0.6907 F120.00
G1 X6.9911 Y34.9911 Z-10.0000 F60.00
G3 X6.4274 Y35.1907 Z-10.0000 I-0.4911 J-0.4911 F120.00
G3 X5.8093 Y34.4274 Z-10.0000 I0.0726 J-0.6907 F120.00
G3 X6.5726 Y33.8093 Z-10.0000 I0.6907 J0.0726 F120.00
G3 X6.9911 Y34.9911 Z-10.0000 I-0.0726 J0.6907 F120.00
G1 X6.9911 Y34.9911 Z-10.5000 F60.00
G3 X6.4274 Y35.1907 Z-10.5000 I-0.4911 J-0.4911 F120.00
G3 X5.8093 Y34.4274 Z-10.5000 I0.0726 J-0.6907 F120.00
G3 X6.5726 Y33.8093 Z-10.5000 I0.6907 J0.0726 F120.00
G3 X6.9911 Y34.9911 Z-10.5000 I-0.0726 J0.6907 F120.00
G1 X6.9911 Y34.9911 Z-11.0000 F60.00
G3 X6.4274 Y35.1907 Z-11.0000 I-0.4911 J-0.4911 F120.00
G3 X5.8093 Y34.4274 Z-11.0000 I0.0726 J-0.6907 F120.00
G3 X6.5726 Y33.8093 Z-11.0000 I0.6907 J0.0726 F120.00
G3 X6.9911 Y34.9911 Z-11.0000 I-0.0726 J0.6907 F120.00
G1 X6.9911 Y34.9911 Z-11.5000 F60.00
G3 X6.4274 Y35.1907 Z-11.5000 I-0.4911 J-0.4911 F120.00
G3 X5.8093 Y34.4274 Z-11.5000 I0.0726 J-0.6907 F120.00
G3 X6.5726 Y33.8093 Z-11.5000 I0.6907 J0.0726 F120.00
G3 X6.9911 Y34.9911 Z-11.5000 I-0.0726 J0.6907 F120.00
G1 X6.9911 Y34.9911 Z-12.0000 F60.00
G3 X6.4274 Y35.1907 Z-12.0000 I-0.4911 J-0.4911 F120.00
G3 X5.8093 Y34.4274 Z-12.0000 I0.0726 J-0.6907 F120.00
G3 X6.5726 Y33.8093 Z-12.0000 I0.6907 J0.0726 F120.00
G3 X6.9911 Y34.9911 Z-12.0000 I-0.0726 J0.6907 F120.00
G0 Z5.0000
G0 X8.6658 Y28.7411
G0 Z3.0000
G1 X8.6658 Y28.7411 Z-5.5000 F60.00
G3 X7.4802 Y28.2500 Z-5.5000 I-0.4911 J-0.4911 F120.00
G3 X8.8692 Y28.2500 Z-5.5000 I0.6945 J0.0000 F120.00
G3 X8.6658 Y28.7411 Z-5.5000 I-0.6945 J-0.0000 F120.00
G1 X8.6658 Y28.7411 Z-6.0000 F60.00
G3 X7.4802 Y28.2500 Z-6.0000 I-0.4911 J-0.4911 F120.00
G3 X8.8692 Y28.2500 Z-6.0000 I0.6945 J0.0000 F120.00
G3 X8.6658 Y28.7411 Z-6.0000 I-0.6945 J-0.0000 F120.00
G1 X8.6658 Y28.7411 Z-6.5000 F60.00
G3 X7.4802 Y28.2500 Z-6.5000 I-0.4911 J-0.4911 F120.00
G3 X8.8692 Y28.2500 Z-6.5000 I0.6945 J0.0000 F120.00
G3 X8.6658 Y28.7411 Z-6.5000 I-0.6945 J-0.0000 F120.00
G1 X8.6658 Y28.7411 Z-7.0000 F60.00
G3 X7.4802 Y28.2500 Z-7.0000 I-0.4911 J-0.4911 F120.00
G3 X8.8692 Y28.2500 Z-7.0000 I0.6945 J0.0000 F120.00
G3 X8.6658 Y28.7411 Z-7.0000 I-0.6945 J-0.0000 F120.00
G1 X8.6658 Y28.7411 Z-7.5000 F60.00
G3 X7.4802 Y28.2500 Z-7.5000 I-0.4911 J-0.4911 F120.00
G3 X8.8692 Y28.2500 Z-7.5000 I0.6945 J0.0000 F120.00
G3 X8.6658 Y28.7411 Z-7.5000 I-0.6945 J-0.0000 F120.00
G1 X8.6658 Y28.7411 Z-8.0000 F60.00
G3 X7.4802 Y28.2500 Z-8.0000 I-0.4911 J-0.4911 F120.00
G3 X8.8692 Y28.2500 Z-8.0000 I0.6945 J0.0000 F120.00
G3 X8.6658 Y28.7411 Z-8.0000 I-0.6945 J-0.0000 F120.00
G1 X8.6658 Y28.7411 Z-8.5000 F60.00
G3 X7.4802 Y28.2500 Z-8.5000 I-0.4911 J-0.4911 F120.00
G3 X8.8692 Y28.2500 Z-8.5000 I0.6945 J0.0000 F120.00
G3 X8.6658 Y28.7411 Z-8.5000 I-0.6945 J-0.0000 F120.00
G1 X8.6658 Y28.7411 Z-9.0000 F60.00
G3 X7.4802 Y28.2500 Z-9.0000 I-0.4911 J-0.4911 F120.00
G3 X8.8692 Y28.2500 Z-9.0000 I0.6945 J0.0000 F120.00
G3 X8.6658 Y28.7411 Z-9.0000 I-0.6945 J-0.0000 F120.00
G1 X8.6658 Y28.7411 Z-9.5000 F60.00
G3 X7.4802 Y28.2500 Z-9.5000 I-0.4911 J-0.4911 F120.00
G3 X8.8692 Y28.2500 Z-9.5000 I0.6945 J0.0000 F120.00
G3 X8.6658 Y28.7411 Z-9.5000 I-0.6945 J-0.0000 F120.00
G1 X8.6658 Y28.7411 Z-10.0000 F60.00
G3 X7.4802 Y28.2500 Z-10.0000 I-0.4911 J-0.4911 F120.00
G3 X8.8692 Y28.2500 Z-10.0000 I0.6945 J0.0000 F120.00
G3 X8.6658 Y28.7411 Z-10.0000 I-0.6945 J-0.0000 F120.00
G1 X8.6658 Y28.7411 Z-10.5000 F60.00
G3 X7.4802 Y28.2500 Z-10.5000 I-0.4911 J-0.4911 F120.00
G3 X8.8692 Y28.2500 Z-10.5000 I0.6945 J0.0000 F120.00
G3 X8.6658 Y28.7411 Z-10.5000 I-0.6945 J-0.0000 F120.00
G1 X8.6658 Y28.7411 Z-11.0000 F60.00
G3 X7.4802 Y28.2500 Z-11.0000 I-0.4911 J-0.4911 F120.00
G3 X8.8692 Y28.2500 Z-11.0000 I0.6945 J0.0000 F120.00
G3 X8.6658 Y28.7411 Z-11.0000 I-0.6945 J-0.0000 F120.00
G1 X8.6658 Y28.7411 Z-11.5000 F60.00
G3 X7.4802 Y28.2500 Z-11.5000 I-0.4911 J-0.4911 F120.00
G3 X8.8692 Y28.2500 Z-11.5000 I0.6945 J0.0000 F120.00
G3 X8.6658 Y28.7411 Z-11.5000 I-0.6945 J-0.0000 F120.00
G1 X8.6658 Y28.7411 Z-12.0000 F60.00
G3 X7.4802 Y28.2500 Z-12.0000 I-0.4911 J-0.4911 F120.00
G3 X8.8692 Y28.2500 Z-12.0000 I0.6945 J0.0000 F120.00
G3 X8.6658 Y28.7411 Z-12.0000 I-0.6945 J-0.0000 F120.00
G0 Z5.0000
G0 X13.2411 Y24.1658
G0 Z3.0000
G1 X13.2411 Y24.1658 Z-5.5000 F60.00
G3 X12.6774 Y24.3654 Z-5.5000 I-0.4911 J-0.4911 F120.00
G3 X12.0593 Y23.6021 Z-5.5000 I0.0726 J-0.6907 F120.00
G3 X12.8226 Y22.9840 Z-5.5000 I0.6907 J0.0726 F120.00
G3 X13.2411 Y24.1658 Z-5.5000 I-0.0726 J0.6907 F120.00
G1 X13.2411 Y24.1658 Z-6.0000 F60.00
G3 X12.6774 Y24.3654 Z-6.0000 I-0.4911 J-0.4911 F120.00
G3 X12.0593 Y23.6021 Z-6.0000 I0.0726 J-0.6907 F120.00
G3 X12.8226 Y22.9840 Z-6.0000 I0.6907 J0.0726 F120.00
G3 X13.2411 Y24.1658 Z-6.0000 I-0.0726 J0.6907 F120.00
G1 X13.2411 Y24.1658 Z-6.5000 F60.00
G3 X12.6774 Y24.3654 Z-6.5000 I-0.4911 J-0.4911 F120.00
G3 X12.0593 Y23.6021 Z-6.5000 I0.0726 J-0.6907 F120.00
G3 X12.8226 Y22.9840 Z-6.5000 I0.6907 J0.0726 F120.00
G3 X13.2411 Y24.1658 Z-6.5000 I-0.0726 J0.6907 F120.00
G1 X13.2411 Y24.1658 Z-7.0000 F60.00
G3 X12.6774 Y24.3654 Z-7.0000 I-0.4911 J-0.4911 F120.00
G3 X12.0593 Y23.6021 Z-7.0000 I0.0726 J-0.6907 F120.00
G3 X12.8226 Y22.9840 Z-7.0000 I0.6907 J0.0726 F120.00
G3 X13.2411 Y24.1658 Z-7.0000 I-0.0726 J0.6907 F120.00
G1 X13.2411 Y24.1658 Z-7.5000 F60.00
G3 X12.6774 Y24.3654 Z-7.5000 I-0.4911 J-0.4911 F120.00
G3 X12.0593 Y23.6021 Z-7.5000 I0.0726 J-0.6907 F120.00
G3 X12.8226 Y22.9840 Z-7.5000 I0.6907 J0.0726 F120.00
G3 X13.2411 Y24.1658 Z-7.5000 I-0.0726 J0.6907 F120.00
G1 X13.2411 Y24.1658 Z-8.0000 F60.00
G3 X12.6774 Y24.3654 Z-8.0000 I-0.4911 J-0.4911 F120.00
G3 X12.0593 Y23.6021 Z-8.0000 I0.0726 J-0.6907 F120.00
G3 X12.8226 Y22.9840 Z-8.0000 I0.6907 J0.0726 F120.00
G3 X13.2411 Y24.1658 Z-8.0000 I-0.0726 J0.6907 F120.00
G1 X13.2411 Y24.1658 Z-8.5000 F60.00
G3 X12.6774 Y24.3654 Z-8.5000 I-0.4911 J-0.4911 F120.00
G3 X12.0593 Y23.6021 Z-8.5000 I0.0726 J-0.6907 F120.00
G3 X12.8226 Y22.9840 Z-8.5000 I0.6907 J0.0726 F120.00
G3 X13.2411 Y24.1658 Z-8.5000 I-0.0726 J0.6907 F120.00
G1 X13.2411 Y24.1658 Z-9.0000 F60.00
G3 X12.6774 Y24.3654 Z-9.0000 I-0.4911 J-0.4911 F120.00
G3 X12.0593 Y23.6021 Z-9.0000 I0.0726 J-0.6907 F120.00
G3 X12.8226 Y22.9840 Z-9.0000 I0.6907 J0.0726 F120.00
G3 X13.2411 Y24.1658 Z-9.0000 I-0.0726 J0.6907 F120.00
G1 X13.2411 Y24.1658 Z-9.5000 F60.00
G3 X12.6774 Y24.3654 Z-9.5000 I-0.4911 J-0.4911 F120.00
G3 X12.0593 Y23.6021 Z-9.5000 I0.0726 J-0.6907 F120.00
G3 X12.8226 Y22.9840 Z-9.5000 I0.6907 J0.0726 F120.00
G3 X13.2411 Y24.1658 Z-9.5000 I-0.0726 J0.6907 F120.00
G1 X13.2411 Y24.1658 Z-10.0000 F60.00
G3 X12.6774 Y24.3654 Z-10.0000 I-0.4911 J-0.4911 F120.00
G3 X12.0593 Y23.6021 Z-10.0000 I0.0726 J-0.6907 F120.00
G3 X12.8226 Y22.9840 Z-10.0000 I0.6907 J0.0726 F120.00
G3 X13.2411 Y24.1658 Z-10.0000 I-0.0726 J0.6907 F120.00
G1 X13.2411 Y24.1658 Z-10.5000 F60.00
G3 X12.6774 Y24.3654 Z-10.5000 I-0.4911 J-0.4911 F120.00
G3 X12.0593 Y23.6021 Z-10.5000 I0.0726 J-0.6907 F120.00
G3 X12.8226 Y22.9840 Z-10.5000 I0.6907 J0.0726 F120.00
G3 X13.2411 Y24.1658 Z-10.5000 I-0.0726 J0.6907 F120.00
G1 X13.2411 Y24.1658 Z-11.0000 F60.00
G3 X12.6774 Y24.3654 Z-11.0000 I-0.4911 J-0.4911 F120.00
G3 X12.0593 Y23.6021 Z-11.0000 I0.0726 J-0.6907 F120.00
G3 X12.8226 Y22.9840 Z-11.0000 I0.6907 J0.0726 F120.00
G3 X13.2411 Y24.1658 Z-11.0000 I-0.0726 J0.6907 F120.00
G1 X13.2411 Y24.1658 Z-11.5000 F60.00
G3 X12.6774 Y24.3654 Z-11.5000 I-0.4911 J-0.4911 F120.00
G3 X12.0593 Y23.6021 Z-11.5000 I0.0726 J-0.6907 F120.00
G3 X12.8226 Y22.9840 Z-11.5000 I0.6907 J0.0726 F120.00
G3 X13.2411 Y24.1658 Z-11.5000 I-0.0726 J0.6907 F120.00
G1 X13.2411 Y24.1658 Z-12.0000 F60.00
G3 X12.6774 Y24.3654 Z-12.0000 I-0.4911 J-0.4911 F120.00
G3 X12.0593 Y23.6021 Z-12.0000 I0.0726 J-0.6907 F120.00
G3 X12.8226 Y22.9840 Z-12.0000 I0.6907 J0.0726 F120.00
G3 X13.2411 Y24.1658 Z-12.0000 I-0.0726 J0.6907 F120.00
G0 Z5.0000
(finish operation: Pocket_Shape001)
(begin operation: Pocket_Shape002)
(Path: Pocket_Shape002)
(Pocket_Shape002)
G0 Z5.0000
G0 X7.8809 Y8.8809
G0 Z3.0000
G1 X7.8809 Y8.8809 Z-0.5000 F60.00
G2 X7.1149 Y6.7596 Z-0.5000 I-0.8809 J-0.8809 F120.00
G2 X5.7596 Y7.8851 Z-0.5000 I-0.1149 J1.2404 F120.00
G2 X6.8851 Y9.2404 Z-0.5000 I1.2404 J0.1149 F120.00
G2 X7.8809 Y8.8809 Z-0.5000 I0.1149 J-1.2404 F120.00
G1 X7.8809 Y8.8809 Z-1.0000 F60.00
G2 X7.1149 Y6.7596 Z-1.0000 I-0.8809 J-0.8809 F120.00
G2 X5.7596 Y7.8851 Z-1.0000 I-0.1149 J1.2404 F120.00
G2 X6.8851 Y9.2404 Z-1.0000 I1.2404 J0.1149 F120.00
G2 X7.8809 Y8.8809 Z-1.0000 I0.1149 J-1.2404 F120.00
G1 X7.8809 Y8.8809 Z-1.5000 F60.00
G2 X7.1149 Y6.7596 Z-1.5000 I-0.8809 J-0.8809 F120.00
G2 X5.7596 Y7.8851 Z-1.5000 I-0.1149 J1.2404 F120.00
G2 X6.8851 Y9.2404 Z-1.5000 I1.2404 J0.1149 F120.00
G2 X7.8809 Y8.8809 Z-1.5000 I0.1149 J-1.2404 F120.00
G1 X7.8809 Y8.8809 Z-2.0000 F60.00
G2 X7.1149 Y6.7596 Z-2.0000 I-0.8809 J-0.8809 F120.00
G2 X5.7596 Y7.8851 Z-2.0000 I-0.1149 J1.2404 F120.00
G2 X6.8851 Y9.2404 Z-2.0000 I1.2404 J0.1149 F120.00
G2 X7.8809 Y8.8809 Z-2.0000 I0.1149 J-1.2404 F120.00
G1 X7.8809 Y8.8809 Z-2.5000 F60.00
G2 X7.1149 Y6.7596 Z-2.5000 I-0.8809 J-0.8809 F120.00
G2 X5.7596 Y7.8851 Z-2.5000 I-0.1149 J1.2404 F120.00
G2 X6.8851 Y9.2404 Z-2.5000 I1.2404 J0.1149 F120.00
G2 X7.8809 Y8.8809 Z-2.5000 I0.1149 J-1.2404 F120.00
G1 X7.8809 Y8.8809 Z-3.0000 F60.00
G2 X7.1149 Y6.7596 Z-3.0000 I-0.8809 J-0.8809 F120.00
G2 X5.7596 Y7.8851 Z-3.0000 I-0.1149 J1.2404 F120.00
G2 X6.8851 Y9.2404 Z-3.0000 I1.2404 J0.1149 F120.00
G2 X7.8809 Y8.8809 Z-3.0000 I0.1149 J-1.2404 F120.00
G1 X7.8809 Y8.8809 Z-3.5000 F60.00
G2 X7.1149 Y6.7596 Z-3.5000 I-0.8809 J-0.8809 F120.00
G2 X5.7596 Y7.8851 Z-3.5000 I-0.1149 J1.2404 F120.00
G2 X6.8851 Y9.2404 Z-3.5000 I1.2404 J0.1149 F120.00
G2 X7.8809 Y8.8809 Z-3.5000 I0.1149 J-1.2404 F120.00
G1 X7.8809 Y8.8809 Z-4.0000 F60.00
G2 X7.1149 Y6.7596 Z-4.0000 I-0.8809 J-0.8809 F120.00
G2 X5.7596 Y7.8851 Z-4.0000 I-0.1149 J1.2404 F120.00
G2 X6.8851 Y9.2404 Z-4.0000 I1.2404 J0.1149 F120.00
G2 X7.8809 Y8.8809 Z-4.0000 I0.1149 J-1.2404 F120.00
G1 X7.8809 Y8.8809 Z-4.5000 F60.00
G2 X7.1149 Y6.7596 Z-4.5000 I-0.8809 J-0.8809 F120.00
G2 X5.7596 Y7.8851 Z-4.5000 I-0.1149 J1.2404 F120.00
G2 X6.8851 Y9.2404 Z-4.5000 I1.2404 J0.1149 F120.00
G2 X7.8809 Y8.8809 Z-4.5000 I0.1149 J-1.2404 F120.00
G1 X7.8809 Y8.8809 Z-5.0000 F60.00
G2 X7.1149 Y6.7596 Z-5.0000 I-0.8809 J-0.8809 F120.00
G2 X5.7596 Y7.8851 Z-5.0000 I-0.1149 J1.2404 F120.00
G2 X6.8851 Y9.2404 Z-5.0000 I1.2404 J0.1149 F120.00
G2 X7.8809 Y8.8809 Z-5.0000 I0.1149 J-1.2404 F120.00
G1 X7.8809 Y8.8809 Z-5.5000 F60.00
G2 X7.1149 Y6.7596 Z-5.5000 I-0.8809 J-0.8809 F120.00
G2 X5.7596 Y7.8851 Z-5.5000 I-0.1149 J1.2404 F120.00
G2 X6.8851 Y9.2404 Z-5.5000 I1.2404 J0.1149 F120.00
G2 X7.8809 Y8.8809 Z-5.5000 I0.1149 J-1.2404 F120.00
G1 X7.8809 Y8.8809 Z-6.0000 F60.00
G2 X7.1149 Y6.7596 Z-6.0000 I-0.8809 J-0.8809 F120.00
G2 X5.7596 Y7.8851 Z-6.0000 I-0.1149 J1.2404 F120.00
G2 X6.8851 Y9.2404 Z-6.0000 I1.2404 J0.1149 F120.00
G2 X7.8809 Y8.8809 Z-6.0000 I0.1149 J-1.2404 F120.00
G1 X7.8809 Y8.8809 Z-6.5000 F60.00
G2 X7.1149 Y6.7596 Z-6.5000 I-0.8809 J-0.8809 F120.00
G2 X5.7596 Y7.8851 Z-6.5000 I-0.1149 J1.2404 F120.00
G2 X6.8851 Y9.2404 Z-6.5000 I1.2404 J0.1149 F120.00
G2 X7.8809 Y8.8809 Z-6.5000 I0.1149 J-1.2404 F120.00
G1 X7.8809 Y8.8809 Z-7.0000 F60.00
G2 X7.1149 Y6.7596 Z-7.0000 I-0.8809 J-0.8809 F120.00
G2 X5.7596 Y7.8851 Z-7.0000 I-0.1149 J1.2404 F120.00
G2 X6.8851 Y9.2404 Z-7.0000 I1.2404 J0.1149 F120.00
G2 X7.8809 Y8.8809 Z-7.0000 I0.1149 J-1.2404 F120.00
G1 X7.8809 Y8.8809 Z-7.5000 F60.00
G2 X7.1149 Y6.7596 Z-7.5000 I-0.8809 J-0.8809 F120.00
G2 X5.7596 Y7.8851 Z-7.5000 I-0.1149 J1.2404 F120.00
G2 X6.8851 Y9.2404 Z-7.5000 I1.2404 J0.1149 F120.00
G2 X7.8809 Y8.8809 Z-7.5000 I0.1149 J-1.2404 F120.00
G1 X7.8809 Y8.8809 Z-8.0000 F60.00
G2 X7.1149 Y6.7596 Z-8.0000 I-0.8809 J-0.8809 F120.00
G2 X5.7596 Y7.8851 Z-8.0000 I-0.1149 J1.2404 F120.00
G2 X6.8851 Y9.2404 Z-8.0000 I1.2404 J0.1149 F120.00
G2 X7.8809 Y8.8809 Z-8.0000 I0.1149 J-1.2404 F120.00
G1 X7.8809 Y8.8809 Z-8.5000 F60.00
G2 X7.1149 Y6.7596 Z-8.5000 I-0.8809 J-0.8809 F120.00
G2 X5.7596 Y7.8851 Z-8.5000 I-0.1149 J1.2404 F120.00
G2 X6.8851 Y9.2404 Z-8.5000 I1.2404 J0.1149 F120.00
G2 X7.8809 Y8.8809 Z-8.5000 I0.1149 J-1.2404 F120.00
G1 X7.8809 Y8.8809 Z-9.0000 F60.00
G2 X7.1149 Y6.7596 Z-9.0000 I-0.8809 J-0.8809 F120.00
G2 X5.7596 Y7.8851 Z-9.0000 I-0.1149 J1.2404 F120.00
G2 X6.8851 Y9.2404 Z-9.0000 I1.2404 J0.1149 F120.00
G2 X7.8809 Y8.8809 Z-9.0000 I0.1149 J-1.2404 F120.00
G1 X7.8809 Y8.8809 Z-9.5000 F60.00
G2 X7.1149 Y6.7596 Z-9.5000 I-0.8809 J-0.8809 F120.00
G2 X5.7596 Y7.8851 Z-9.5000 I-0.1149 J1.2404 F120.00
G2 X6.8851 Y9.2404 Z-9.5000 I1.2404 J0.1149 F120.00
G2 X7.8809 Y8.8809 Z-9.5000 I0.1149 J-1.2404 F120.00
G1 X7.8809 Y8.8809 Z-10.0000 F60.00
G2 X7.1149 Y6.7596 Z-10.0000 I-0.8809 J-0.8809 F120.00
G2 X5.7596 Y7.8851 Z-10.0000 I-0.1149 J1.2404 F120.00
G2 X6.8851 Y9.2404 Z-10.0000 I1.2404 J0.1149 F120.00
G2 X7.8809 Y8.8809 Z-10.0000 I0.1149 J-1.2404 F120.00
G1 X7.8809 Y8.8809 Z-10.5000 F60.00
G2 X7.1149 Y6.7596 Z-10.5000 I-0.8809 J-0.8809 F120.00
G2 X5.7596 Y7.8851 Z-10.5000 I-0.1149 J1.2404 F120.00
G2 X6.8851 Y9.2404 Z-10.5000 I1.2404 J0.1149 F120.00
G2 X7.8809 Y8.8809 Z-10.5000 I0.1149 J-1.2404 F120.00
G1 X7.8809 Y8.8809 Z-11.0000 F60.00
G2 X7.1149 Y6.7596 Z-11.0000 I-0.8809 J-0.8809 F120.00
G2 X5.7596 Y7.8851 Z-11.0000 I-0.1149 J1.2404 F120.00
G2 X6.8851 Y9.2404 Z-11.0000 I1.2404 J0.1149 F120.00
G2 X7.8809 Y8.8809 Z-11.0000 I0.1149 J-1.2404 F120.00
G1 X7.8809 Y8.8809 Z-11.5000 F60.00
G2 X7.1149 Y6.7596 Z-11.5000 I-0.8809 J-0.8809 F120.00
G2 X5.7596 Y7.8851 Z-11.5000 I-0.1149 J1.2404 F120.00
G2 X6.8851 Y9.2404 Z-11.5000 I1.2404 J0.1149 F120.00
G2 X7.8809 Y8.8809 Z-11.5000 I0.1149 J-1.2404 F120.00
G1 X7.8809 Y8.8809 Z-12.0000 F60.00
G2 X7.1149 Y6.7596 Z-12.0000 I-0.8809 J-0.8809 F120.00
G2 X5.7596 Y7.8851 Z-12.0000 I-0.1149 J1.2404 F120.00
G2 X6.8851 Y9.2404 Z-12.0000 I1.2404 J0.1149 F120.00
G2 X7.8809 Y8.8809 Z-12.0000 I0.1149 J-1.2404 F120.00
G0 Z5.0000
G0 X31.8809 Y8.8809
G0 Z3.0000
G1 X31.8809 Y8.8809 Z-0.5000 F60.00
G2 X31.1149 Y6.7596 Z-0.5000 I-0.8809 J-0.8809 F120.00
G2 X29.7596 Y7.8851 Z-0.5000 I-0.1149 J1.2404 F120.00
G2 X30.8851 Y9.2404 Z-0.5000 I1.2404 J0.1149 F120.00
G2 X31.8809 Y8.8809 Z-0.5000 I0.1149 J-1.2404 F120.00
G1 X31.8809 Y8.8809 Z-1.0000 F60.00
G2 X31.1149 Y6.7596 Z-1.0000 I-0.8809 J-0.8809 F120.00
G2 X29.7596 Y7.8851 Z-1.0000 I-0.1149 J1.2404 F120.00
G2 X30.8851 Y9.2404 Z-1.0000 I1.2404 J0.1149 F120.00
G2 X31.8809 Y8.8809 Z-1.0000 I0.1149 J-1.2404 F120.00
G1 X31.8809 Y8.8809 Z-1.5000 F60.00
G2 X31.1149 Y6.7596 Z-1.5000 I-0.8809 J-0.8809 F120.00
G2 X29.7596 Y7.8851 Z-1.5000 I-0.1149 J1.2404 F120.00
G2 X30.8851 Y9.2404 Z-1.5000 I1.2404 J0.1149 F120.00
G2 X31.8809 Y8.8809 Z-1.5000 I0.1149 J-1.2404 F120.00
G1 X31.8809 Y8.8809 Z-2.0000 F60.00
G2 X31.1149 Y6.7596 Z-2.0000 I-0.8809 J-0.8809 F120.00
G2 X29.7596 Y7.8851 Z-2.0000 I-0.1149 J1.2404 F120.00
G2 X30.8851 Y9.2404 Z-2.0000 I1.2404 J0.1149 F120.00
G2 X31.8809 Y8.8809 Z-2.0000 I0.1149 J-1.2404 F120.00
G1 X31.8809 Y8.8809 Z-2.5000 F60.00
G2 X31.1149 Y6.7596 Z-2.5000 I-0.8809 J-0.8809 F120.00
G2 X29.7596 Y7.8851 Z-2.5000 I-0.1149 J1.2404 F120.00
G2 X30.8851 Y9.2404 Z-2.5000 I1.2404 J0.1149 F120.00
G2 X31.8809 Y8.8809 Z-2.5000 I0.1149 J-1.2404 F120.00
G1 X31.8809 Y8.8809 Z-3.0000 F60.00
G2 X31.1149 Y6.7596 Z-3.0000 I-0.8809 J-0.8809 F120.00
G2 X29.7596 Y7.8851 Z-3.0000 I-0.1149 J1.2404 F120.00
G2 X30.8851 Y9.2404 Z-3.0000 I1.2404 J0.1149 F120.00
G2 X31.8809 Y8.8809 Z-3.0000 I0.1149 J-1.2404 F120.00
G1 X31.8809 Y8.8809 Z-3.5000 F60.00
G2 X31.1149 Y6.7596 Z-3.5000 I-0.8809 J-0.8809 F120.00
G2 X29.7596 Y7.8851 Z-3.5000 I-0.1149 J1.2404 F120.00
G2 X30.8851 Y9.2404 Z-3.5000 I1.2404 J0.1149 F120.00
G2 X31.8809 Y8.8809 Z-3.5000 I0.1149 J-1.2404 F120.00
G1 X31.8809 Y8.8809 Z-4.0000 F60.00
G2 X31.1149 Y6.7596 Z-4.0000 I-0.8809 J-0.8809 F120.00
G2 X29.7596 Y7.8851 Z-4.0000 I-0.1149 J1.2404 F120.00
G2 X30.8851 Y9.2404 Z-4.0000 I1.2404 J0.1149 F120.00
G2 X31.8809 Y8.8809 Z-4.0000 I0.1149 J-1.2404 F120.00
G1 X31.8809 Y8.8809 Z-4.5000 F60.00
G2 X31.1149 Y6.7596 Z-4.5000 I-0.8809 J-0.8809 F120.00
G2 X29.7596 Y7.8851 Z-4.5000 I-0.1149 J1.2404 F120.00
G2 X30.8851 Y9.2404 Z-4.5000 I1.2404 J0.1149 F120.00
G2 X31.8809 Y8.8809 Z-4.5000 I0.1149 J-1.2404 F120.00
G1 X31.8809 Y8.8809 Z-5.0000 F60.00
G2 X31.1149 Y6.7596 Z-5.0000 I-0.8809 J-0.8809 F120.00
G2 X29.7596 Y7.8851 Z-5.0000 I-0.1149 J1.2404 F120.00
G2 X30.8851 Y9.2404 Z-5.0000 I1.2404 J0.1149 F120.00
G2 X31.8809 Y8.8809 Z-5.0000 I0.1149 J-1.2404 F120.00
G1 X31.8809 Y8.8809 Z-5.5000 F60.00
G2 X31.1149 Y6.7596 Z-5.5000 I-0.8809 J-0.8809 F120.00
G2 X29.7596 Y7.8851 Z-5.5000 I-0.1149 J1.2404 F120.00
G2 X30.8851 Y9.2404 Z-5.5000 I1.2404 J0.1149 F120.00
G2 X31.8809 Y8.8809 Z-5.5000 I0.1149 J-1.2404 F120.00
G1 X31.8809 Y8.8809 Z-6.0000 F60.00
G2 X31.1149 Y6.7596 Z-6.0000 I-0.8809 J-0.8809 F120.00
G2 X29.7596 Y7.8851 Z-6.0000 I-0.1149 J1.2404 F120.00
G2 X30.8851 Y9.2404 Z-6.0000 I1.2404 J0.1149 F120.00
G2 X31.8809 Y8.8809 Z-6.0000 I0.1149 J-1.2404 F120.00
G1 X31.8809 Y8.8809 Z-6.5000 F60.00
G2 X31.1149 Y6.7596 Z-6.5000 I-0.8809 J-0.8809 F120.00
G2 X29.7596 Y7.8851 Z-6.5000 I-0.1149 J1.2404 F120.00
G2 X30.8851 Y9.2404 Z-6.5000 I1.2404 J0.1149 F120.00
G2 X31.8809 Y8.8809 Z-6.5000 I0.1149 J-1.2404 F120.00
G1 X31.8809 Y8.8809 Z-7.0000 F60.00
G2 X31.1149 Y6.7596 Z-7.0000 I-0.8809 J-0.8809 F120.00
G2 X29.7596 Y7.8851 Z-7.0000 I-0.1149 J1.2404 F120.00
G2 X30.8851 Y9.2404 Z-7.0000 I1.2404 J0.1149 F120.00
G2 X31.8809 Y8.8809 Z-7.0000 I0.1149 J-1.2404 F120.00
G1 X31.8809 Y8.8809 Z-7.5000 F60.00
G2 X31.1149 Y6.7596 Z-7.5000 I-0.8809 J-0.8809 F120.00
G2 X29.7596 Y7.8851 Z-7.5000 I-0.1149 J1.2404 F120.00
G2 X30.8851 Y9.2404 Z-7.5000 I1.2404 J0.1149 F120.00
G2 X31.8809 Y8.8809 Z-7.5000 I0.1149 J-1.2404 F120.00
G1 X31.8809 Y8.8809 Z-8.0000 F60.00
G2 X31.1149 Y6.7596 Z-8.0000 I-0.8809 J-0.8809 F120.00
G2 X29.7596 Y7.8851 Z-8.0000 I-0.1149 J1.2404 F120.00
G2 X30.8851 Y9.2404 Z-8.0000 I1.2404 J0.1149 F120.00
G2 X31.8809 Y8.8809 Z-8.0000 I0.1149 J-1.2404 F120.00
G1 X31.8809 Y8.8809 Z-8.5000 F60.00
G2 X31.1149 Y6.7596 Z-8.5000 I-0.8809 J-0.8809 F120.00
G2 X29.7596 Y7.8851 Z-8.5000 I-0.1149 J1.2404 F120.00
G2 X30.8851 Y9.2404 Z-8.5000 I1.2404 J0.1149 F120.00
G2 X31.8809 Y8.8809 Z-8.5000 I0.1149 J-1.2404 F120.00
G1 X31.8809 Y8.8809 Z-9.0000 F60.00
G2 X31.1149 Y6.7596 Z-9.0000 I-0.8809 J-0.8809 F120.00
G2 X29.7596 Y7.8851 Z-9.0000 I-0.1149 J1.2404 F120.00
G2 X30.8851 Y9.2404 Z-9.0000 I1.2404 J0.1149 F120.00
G2 X31.8809 Y8.8809 Z-9.0000 I0.1149 J-1.2404 F120.00
G1 X31.8809 Y8.8809 Z-9.5000 F60.00
G2 X31.1149 Y6.7596 Z-9.5000 I-0.8809 J-0.8809 F120.00
G2 X29.7596 Y7.8851 Z-9.5000 I-0.1149 J1.2404 F120.00
G2 X30.8851 Y9.2404 Z-9.5000 I1.2404 J0.1149 F120.00
G2 X31.8809 Y8.8809 Z-9.5000 I0.1149 J-1.2404 F120.00
G1 X31.8809 Y8.8809 Z-10.0000 F60.00
G2 X31.1149 Y6.7596 Z-10.0000 I-0.8809 J-0.8809 F120.00
G2 X29.7596 Y7.8851 Z-10.0000 I-0.1149 J1.2404 F120.00
G2 X30.8851 Y9.2404 Z-10.0000 I1.2404 J0.1149 F120.00
G2 X31.8809 Y8.8809 Z-10.0000 I0.1149 J-1.2404 F120.00
G1 X31.8809 Y8.8809 Z-10.5000 F60.00
G2 X31.1149 Y6.7596 Z-10.5000 I-0.8809 J-0.8809 F120.00
G2 X29.7596 Y7.8851 Z-10.5000 I-0.1149 J1.2404 F120.00
G2 X30.8851 Y9.2404 Z-10.5000 I1.2404 J0.1149 F120.00
G2 X31.8809 Y8.8809 Z-10.5000 I0.1149 J-1.2404 F120.00
G1 X31.8809 Y8.8809 Z-11.0000 F60.00
G2 X31.1149 Y6.7596 Z-11.0000 I-0.8809 J-0.8809 F120.00
G2 X29.7596 Y7.8851 Z-11.0000 I-0.1149 J1.2404 F120.00
G2 X30.8851 Y9.2404 Z-11.0000 I1.2404 J0.1149 F120.00
G2 X31.8809 Y8.8809 Z-11.0000 I0.1149 J-1.2404 F120.00
G1 X31.8809 Y8.8809 Z-11.5000 F60.00
G2 X31.1149 Y6.7596 Z-11.5000 I-0.8809 J-0.8809 F120.00
G2 X29.7596 Y7.8851 Z-11.5000 I-0.1149 J1.2404 F120.00
G2 X30.8851 Y9.2404 Z-11.5000 I1.2404 J0.1149 F120.00
G2 X31.8809 Y8.8809 Z-11.5000 I0.1149 J-1.2404 F120.00
G1 X31.8809 Y8.8809 Z-12.0000 F60.00
G2 X31.1149 Y6.7596 Z-12.0000 I-0.8809 J-0.8809 F120.00
G2 X29.7596 Y7.8851 Z-12.0000 I-0.1149 J1.2404 F120.00
G2 X30.8851 Y9.2404 Z-12.0000 I1.2404 J0.1149 F120.00
G2 X31.8809 Y8.8809 Z-12.0000 I0.1149 J-1.2404 F120.00
G0 Z5.0000
(finish operation: Pocket_Shape002)
(begin operation: TagDressup)
(Path: TagDressup)
G0 Z5.0000
G0 X35.2632 Y50.7629 Z5.0000
G0 X35.2632 Y50.7629 Z3.0000
G1 X35.2632 Y50.7629 Z-0.5000 F120.00
G2 X41.9996 Y34.5296 Z-0.5000 I-16.2635 J-16.2632 F120.00
G1 X42.0000 Y3.0000 Z-0.5000 F120.00
G2 X38.0785 Y-0.9969 Z-0.5000 I-4.0018 J0.0041 F120.00
G1 X0.0000 Y-1.0000 Z-0.5000 F120.00
G2 X-3.9969 Y2.9215 Z-0.5000 I0.0041 J4.0018 F120.00
G1 X-4.0000 Y34.5000 Z-0.5000 F120.00
G2 X35.2632 Y50.7629 Z-0.5000 I22.9998 J-0.0002 F120.00
G1 X35.2632 Y50.7629 Z-1.0000 F120.00
G2 X41.9996 Y34.5296 Z-1.0000 I-16.2635 J-16.2632 F120.00
G1 X42.0000 Y3.0000 Z-1.0000 F120.00
G2 X38.0785 Y-0.9969 Z-1.0000 I-4.0018 J0.0041 F120.00
G1 X0.0000 Y-1.0000 Z-1.0000 F120.00
G2 X-3.9969 Y2.9215 Z-1.0000 I0.0041 J4.0018 F120.00
G1 X-4.0000 Y34.5000 Z-1.0000 F120.00
G2 X35.2632 Y50.7629 Z-1.0000 I22.9998 J-0.0002 F120.00
G1 X35.2632 Y50.7629 Z-1.5000 F120.00
G2 X41.9996 Y34.5296 Z-1.5000 I-16.2635 J-16.2632 F120.00
G1 X42.0000 Y3.0000 Z-1.5000 F120.00
G2 X38.0785 Y-0.9969 Z-1.5000 I-4.0018 J0.0041 F120.00
G1 X0.0000 Y-1.0000 Z-1.5000 F120.00
G2 X-3.9969 Y2.9215 Z-1.5000 I0.0041 J4.0018 F120.00
G1 X-4.0000 Y34.5000 Z-1.5000 F120.00
G2 X35.2632 Y50.7629 Z-1.5000 I22.9998 J-0.0002 F120.00
G1 X35.2632 Y50.7629 Z-2.0000 F120.00
G2 X41.9996 Y34.5296 Z-2.0000 I-16.2635 J-16.2632 F120.00
G1 X42.0000 Y3.0000 Z-2.0000 F120.00
G2 X38.0785 Y-0.9969 Z-2.0000 I-4.0018 J0.0041 F120.00
G1 X0.0000 Y-1.0000 Z-2.0000 F120.00
G2 X-3.9969 Y2.9215 Z-2.0000 I0.0041 J4.0018 F120.00
G1 X-4.0000 Y34.5000 Z-2.0000 F120.00
G2 X35.2632 Y50.7629 Z-2.0000 I22.9998 J-0.0002 F120.00
G1 X35.2632 Y50.7629 Z-2.5000 F120.00
G2 X41.9996 Y34.5296 Z-2.5000 I-16.2635 J-16.2632 F120.00
G1 X42.0000 Y3.0000 Z-2.5000 F120.00
G2 X38.0785 Y-0.9969 Z-2.5000 I-4.0018 J0.0041 F120.00
G1 X0.0000 Y-1.0000 Z-2.5000 F120.00
G2 X-3.9969 Y2.9215 Z-2.5000 I0.0041 J4.0018 F120.00
G1 X-4.0000 Y34.5000 Z-2.5000 F120.00
G2 X35.2632 Y50.7629 Z-2.5000 I22.9998 J-0.0002 F120.00
G1 X35.2632 Y50.7629 Z-3.0000 F120.00
G2 X41.9996 Y34.5296 Z-3.0000 I-16.2635 J-16.2632 F120.00
G1 X42.0000 Y3.0000 Z-3.0000 F120.00
G2 X38.0785 Y-0.9969 Z-3.0000 I-4.0018 J0.0041 F120.00
G1 X0.0000 Y-1.0000 Z-3.0000 F120.00
G2 X-3.9969 Y2.9215 Z-3.0000 I0.0041 J4.0018 F120.00
G1 X-4.0000 Y34.5000 Z-3.0000 F120.00
G2 X35.2632 Y50.7629 Z-3.0000 I22.9998 J-0.0002 F120.00
G1 X35.2632 Y50.7629 Z-3.5000 F120.00
G2 X41.9996 Y34.5296 Z-3.5000 I-16.2635 J-16.2632 F120.00
G1 X42.0000 Y3.0000 Z-3.5000 F120.00
G2 X38.0785 Y-0.9969 Z-3.5000 I-4.0018 J0.0041 F120.00
G1 X0.0000 Y-1.0000 Z-3.5000 F120.00
G2 X-3.9969 Y2.9215 Z-3.5000 I0.0041 J4.0018 F120.00
G1 X-4.0000 Y34.5000 Z-3.5000 F120.00
G2 X35.2632 Y50.7629 Z-3.5000 I22.9998 J-0.0002 F120.00
G1 X35.2632 Y50.7629 Z-4.0000 F120.00
G2 X41.9996 Y34.5296 Z-4.0000 I-16.2635 J-16.2632 F120.00
G1 X42.0000 Y3.0000 Z-4.0000 F120.00
G2 X38.0785 Y-0.9969 Z-4.0000 I-4.0018 J0.0041 F120.00
G1 X0.0000 Y-1.0000 Z-4.0000 F120.00
G2 X-3.9969 Y2.9215 Z-4.0000 I0.0041 J4.0018 F120.00
G1 X-4.0000 Y34.5000 Z-4.0000 F120.00
G2 X35.2632 Y50.7629 Z-4.0000 I22.9998 J-0.0002 F120.00
G1 X35.2632 Y50.7629 Z-4.5000 F120.00
G2 X41.9996 Y34.5296 Z-4.5000 I-16.2635 J-16.2632 F120.00
G1 X42.0000 Y3.0000 Z-4.5000 F120.00
G2 X38.0785 Y-0.9969 Z-4.5000 I-4.0018 J0.0041 F120.00
G1 X0.0000 Y-1.0000 Z-4.5000 F120.00
G2 X-3.9969 Y2.9215 Z-4.5000 I0.0041 J4.0018 F120.00
G1 X-4.0000 Y34.5000 Z-4.5000 F120.00
G2 X35.2632 Y50.7629 Z-4.5000 I22.9998 J-0.0002 F120.00
G1 X35.2632 Y50.7629 Z-5.0000 F120.00
G2 X41.9996 Y34.5296 Z-5.0000 I-16.2635 J-16.2632 F120.00
G1 X42.0000 Y3.0000 Z-5.0000 F120.00
G2 X38.0785 Y-0.9969 Z-5.0000 I-4.0018 J0.0041 F120.00
G1 X0.0000 Y-1.0000 Z-5.0000 F120.00
G2 X-3.9969 Y2.9215 Z-5.0000 I0.0041 J4.0018 F120.00
G1 X-4.0000 Y34.5000 Z-5.0000 F120.00
G2 X35.2632 Y50.7629 Z-5.0000 I22.9998 J-0.0002 F120.00
G1 X35.2632 Y50.7629 Z-5.5000 F120.00
G2 X41.9996 Y34.5296 Z-5.5000 I-16.2635 J-16.2632 F120.00
G1 X42.0000 Y3.0000 Z-5.5000 F120.00
G2 X38.0785 Y-0.9969 Z-5.5000 I-4.0018 J0.0041 F120.00
G1 X0.0000 Y-1.0000 Z-5.5000 F120.00
G2 X-3.9969 Y2.9215 Z-5.5000 I0.0041 J4.0018 F120.00
G1 X-4.0000 Y34.5000 Z-5.5000 F120.00
G2 X35.2632 Y50.7629 Z-5.5000 I22.9998 J-0.0002 F120.00
G1 X35.2632 Y50.7629 Z-6.0000 F120.00
G2 X41.9996 Y34.5296 Z-6.0000 I-16.2635 J-16.2632 F120.00
G1 X42.0000 Y3.0000 Z-6.0000 F120.00
G2 X38.0785 Y-0.9969 Z-6.0000 I-4.0018 J0.0041 F120.00
G1 X0.0000 Y-1.0000 Z-6.0000 F120.00
G2 X-3.9969 Y2.9215 Z-6.0000 I0.0041 J4.0018 F120.00
G1 X-4.0000 Y34.5000 Z-6.0000 F120.00
G2 X35.2632 Y50.7629 Z-6.0000 I22.9998 J-0.0002 F120.00
G1 X35.2632 Y50.7629 Z-6.5000 F120.00
G2 X41.9996 Y34.5296 Z-6.5000 I-16.2635 J-16.2632 F120.00
G1 X41.9997 Y21.5547 Z-6.5000 F120.00
G1 X41.9997 Y21.2661 Z-6.0000 F120.00
G1 X41.9998 Y16.2636 Z-6.0000 F120.00
G1 X41.9998 Y15.9749 Z-6.5000 F120.00
G1 X42.0000 Y3.0000 Z-6.5000 F120.00
G2 X38.0785 Y-0.9969 Z-6.5000 I-4.0018 J0.0041 F120.00
G1 X21.8292 Y-0.9982 Z-6.5000 F120.00
G1 X21.5405 Y-0.9983 Z-6.0000 F120.00
G1 X16.5380 Y-0.9987 Z-6.0000 F120.00
G1 X16.2493 Y-0.9987 Z-6.5000 F120.00
G1 X0.0000 Y-1.0000 Z-6.5000 F120.00
G2 X-3.9969 Y2.9215 Z-6.5000 I0.0041 J4.0018 F120.00
G1 X-4.0000 Y34.5000 Z-6.5000 F120.00
G2 X-1.5302 Y44.8685 Z-6.5000 I22.9998 J-0.0002 F120.00
G1 X-1.3982 Y45.1258 Z-6.0000 F120.00
G2 X1.3770 Y49.2790 Z-6.0000 I20.3980 J-10.6260 F120.00
G1 X1.5641 Y49.4994 Z-6.5000 F120.00
G2 X20.7227 Y57.4349 Z-6.5000 I17.4356 J-14.9996 F120.00
G1 X21.0109 Y57.4115 Z-6.0000 F120.00
G2 X25.9101 Y56.4369 Z-6.0000 I-2.0111 J-22.9117 F120.00
G1 X26.1853 Y56.3483 Z-6.5000 F120.00
G2 X35.2632 Y50.7629 Z-6.5000 I-7.1855 J-21.8485 F120.00
G1 X35.2632 Y50.7629 Z-7.0000 F120.00
G2 X41.9996 Y34.5296 Z-7.0000 I-16.2635 J-16.2632 F120.00
G1 X41.9997 Y21.8434 Z-7.0000 F120.00
G1 X41.9997 Y21.2661 Z-6.0000 F120.00
G1 X41.9998 Y16.2636 Z-6.0000 F120.00
G1 X41.9998 Y15.6862 Z-7.0000 F120.00
G1 X42.0000 Y3.0000 Z-7.0000 F120.00
G2 X38.0785 Y-0.9969 Z-7.0000 I-4.0018 J0.0041 F120.00
G1 X22.1178 Y-0.9982 Z-7.0000 F120.00
G1 X21.5405 Y-0.9983 Z-6.0000 F120.00
G1 X16.5380 Y-0.9987 Z-6.0000 F120.00
G1 X15.9606 Y-0.9987 Z-7.0000 F120.00
G1 X0.0000 Y-1.0000 Z-7.0000 F120.00
G2 X-3.9969 Y2.9215 Z-7.0000 I0.0041 J4.0018 F120.00
G1 X-4.0000 Y34.5000 Z-7.0000 F120.00
G2 X-1.6590 Y44.6095 Z-7.0000 I22.9998 J-0.0002 F120.00
G1 X-1.3982 Y45.1258 Z-6.0000 F120.00
G2 X1.3770 Y49.2790 Z-6.0000 I20.3980 J-10.6260 F120.00
G1 X1.7542 Y49.7175 Z-7.0000 F120.00
G2 X20.4342 Y57.4548 Z-7.0000 I17.2456 J-15.2177 F120.00
G1 X21.0109 Y57.4115 Z-6.0000 F120.00
G2 X25.9101 Y56.4369 Z-6.0000 I-2.0111 J-22.9117 F120.00
G1 X26.4595 Y56.2562 Z-7.0000 F120.00
G2 X35.2632 Y50.7629 Z-7.0000 I-7.4597 J-21.7564 F120.00
G1 X35.2632 Y50.7629 Z-7.5000 F120.00
G2 X41.9996 Y34.5296 Z-7.5000 I-16.2635 J-16.2632 F120.00
G1 X41.9997 Y22.1321 Z-7.5000 F120.00
G1 X41.9997 Y21.2661 Z-6.0000 F120.00
G1 X41.9998 Y16.2636 Z-6.0000 F120.00
G1 X41.9998 Y15.3975 Z-7.5000 F120.00
G1 X42.0000 Y3.0000 Z-7.5000 F120.00
G2 X38.0785 Y-0.9969 Z-7.5000 I-4.0018 J0.0041 F120.00
G1 X22.4065 Y-0.9982 Z-7.5000 F120.00
G1 X21.5405 Y-0.9983 Z-6.0000 F120.00
G1 X16.5380 Y-0.9987 Z-6.0000 F120.00
G1 X15.6719 Y-0.9987 Z-7.5000 F120.00
G1 X0.0000 Y-1.0000 Z-7.5000 F120.00
G2 X-3.9969 Y2.9215 Z-7.5000 I0.0041 J4.0018 F120.00
G1 X-4.0000 Y34.5000 Z-7.5000 F120.00
G2 X-1.7845 Y44.3487 Z-7.5000 I22.9998 J-0.0002 F120.00
G1 X-1.3982 Y45.1258 Z-6.0000 F120.00
G2 X1.3770 Y49.2790 Z-6.0000 I20.3980 J-10.6260 F120.00
G1 X1.9470 Y49.9333 Z-7.5000 F120.00
G2 X20.1452 Y57.4710 Z-7.5000 I17.0528 J-15.4335 F120.00
G1 X21.0109 Y57.4115 Z-6.0000 F120.00
G2 X25.9101 Y56.4369 Z-6.0000 I-2.0111 J-22.9117 F120.00
G1 X26.7327 Y56.1606 Z-7.5000 F120.00
G2 X35.2632 Y50.7629 Z-7.5000 I-7.7329 J-21.6609 F120.00
G1 X35.2632 Y50.7629 Z-8.0000 F120.00
G2 X41.9996 Y34.5296 Z-8.0000 I-16.2635 J-16.2632 F120.00
G1 X41.9997 Y22.4208 Z-8.0000 F120.00
G1 X41.9997 Y21.2661 Z-6.0000 F120.00
G1 X41.9998 Y16.2636 Z-6.0000 F120.00
G1 X41.9998 Y15.1089 Z-8.0000 F120.00
G1 X42.0000 Y3.0000 Z-8.0000 F120.00
G2 X38.0785 Y-0.9969 Z-8.0000 I-4.0018 J0.0041 F120.00
G1 X22.6952 Y-0.9982 Z-8.0000 F120.00
G1 X21.5405 Y-0.9983 Z-6.0000 F120.00
G1 X16.5380 Y-0.9987 Z-6.0000 F120.00
G1 X15.3833 Y-0.9988 Z-8.0000 F120.00
G1 X0.0000 Y-1.0000 Z-8.0000 F120.00
G2 X-3.9969 Y2.9215 Z-8.0000 I0.0041 J4.0018 F120.00
G1 X-4.0000 Y34.5000 Z-8.0000 F120.00
G2 X-1.9069 Y44.0863 Z-8.0000 I22.9998 J-0.0002 F120.00
G1 X-1.3982 Y45.1258 Z-6.0000 F120.00
G2 X1.3770 Y49.2790 Z-6.0000 I20.3980 J-10.6260 F120.00
G1 X2.1426 Y50.1467 Z-8.0000 F120.00
G2 X19.8560 Y57.4836 Z-8.0000 I16.8572 J-15.6469 F120.00
G1 X21.0109 Y57.4115 Z-6.0000 F120.00
G2 X25.9101 Y56.4369 Z-6.0000 I-2.0111 J-22.9117 F120.00
G1 X27.0047 Y56.0616 Z-8.0000 F120.00
G2 X35.2632 Y50.7629 Z-8.0000 I-8.0049 J-21.5618 F120.00
G1 X35.2632 Y50.7629 Z-8.5000 F120.00
G2 X41.9996 Y34.5296 Z-8.5000 I-16.2635 J-16.2632 F120.00
G1 X41.9997 Y22.7095 Z-8.5000 F120.00
G1 X41.9997 Y21.2661 Z-6.0000 F120.00
G1 X41.9998 Y16.2636 Z-6.0000 F120.00
G1 X41.9998 Y14.8202 Z-8.5000 F120.00
G1 X42.0000 Y3.0000 Z-8.5000 F120.00
G2 X38.0785 Y-0.9969 Z-8.5000 I-4.0018 J0.0041 F120.00
G1 X22.9839 Y-0.9981 Z-8.5000 F120.00
G1 X21.5405 Y-0.9983 Z-6.0000 F120.00
G1 X16.5380 Y-0.9987 Z-6.0000 F120.00
G1 X15.0946 Y-0.9988 Z-8.5000 F120.00
G1 X0.0000 Y-1.0000 Z-8.5000 F120.00
G2 X-3.9969 Y2.9215 Z-8.5000 I0.0041 J4.0018 F120.00
G1 X-4.0000 Y34.5000 Z-8.5000 F120.00
G2 X-2.0259 Y43.8223 Z-8.5000 I22.9998 J-0.0002 F120.00
G1 X-1.3982 Y45.1258 Z-6.0000 F120.00
G2 X1.3770 Y49.2790 Z-6.0000 I20.3980 J-10.6260 F120.00
G1 X2.3410 Y50.3578 Z-8.5000 F120.00
G2 X19.5665 Y57.4926 Z-8.5000 I16.6588 J-15.8580 F120.00
G1 X21.0109 Y57.4115 Z-6.0000 F120.00
G2 X25.9101 Y56.4369 Z-6.0000 I-2.0111 J-22.9117 F120.00
G1 X27.2756 Y55.9591 Z-8.5000 F120.00
G2 X35.2632 Y50.7629 Z-8.5000 I-8.2758 J-21.4593 F120.00
G1 X35.2632 Y50.7629 Z-9.0000 F120.00
G2 X41.9996 Y34.5296 Z-9.0000 I-16.2635 J-16.2632 F120.00
G1 X41.9997 Y22.9981 Z-9.0000 F120.00
G1 X41.9997 Y21.2661 Z-6.0000 F120.00
G1 X41.9998 Y16.2636 Z-6.0000 F120.00
G1 X41.9998 Y14.5315 Z-9.0000 F120.00
G1 X42.0000 Y3.0000 Z-9.0000 F120.00
G2 X38.0785 Y-0.9969 Z-9.0000 I-4.0018 J0.0041 F120.00
G1 X23.2725 Y-0.9981 Z-9.0000 F120.00
G1 X21.5405 Y-0.9983 Z-6.0000 F120.00
G1 X16.5380 Y-0.9987 Z-6.0000 F120.00
G1 X14.8059 Y-0.9988 Z-9.0000 F120.00
G1 X0.0000 Y-1.0000 Z-9.0000 F120.00
G2 X-3.9969 Y2.9215 Z-9.0000 I0.0041 J4.0018 F120.00
G1 X-4.0000 Y34.5000 Z-9.0000 F120.00
G2 X-2.1417 Y43.5566 Z-9.0000 I22.9998 J-0.0002 F120.00
G1 X-1.3982 Y45.1258 Z-6.0000 F120.00
G2 X1.3770 Y49.2790 Z-6.0000 I20.3980 J-10.6260 F120.00
G1 X2.5422 Y50.5664 Z-9.0000 F120.00
G2 X19.2767 Y57.4979 Z-9.0000 I16.4576 J-16.0666 F120.00
G1 X21.0109 Y57.4115 Z-6.0000 F120.00
G2 X25.9101 Y56.4369 Z-6.0000 I-2.0111 J-22.9117 F120.00
G1 X27.5454 Y55.8531 Z-9.0000 F120.00
G2 X35.2632 Y50.7629 Z-9.0000 I-8.5456 J-21.3533 F120.00
G1 X35.2632 Y50.7629 Z-9.5000 F120.00
G2 X41.9996 Y34.5296 Z-9.5000 I-16.2635 J-16.2632 F120.00
G1 X41.9997 Y23.2868 Z-9.5000 F120.00
G1 X41.9997 Y21.2661 Z-6.0000 F120.00
G1 X41.9998 Y16.2636 Z-6.0000 F120.00
G1 X41.9998 Y14.2428 Z-9.5000 F120.00
G1 X42.0000 Y3.0000 Z-9.5000 F120.00
G2 X38.0785 Y-0.9969 Z-9.5000 I-4.0018 J0.0041 F120.00
G1 X23.5612 Y-0.9981 Z-9.5000 F120.00
G1 X21.5405 Y-0.9983 Z-6.0000 F120.00
G1 X16.5380 Y-0.9987 Z-6.0000 F120.00
G1 X14.5172 Y-0.9988 Z-9.5000 F120.00
G1 X0.0000 Y-1.0000 Z-9.5000 F120.00
G2 X-3.9969 Y2.9215 Z-9.5000 I0.0041 J4.0018 F120.00
G1 X-4.0000 Y34.5000 Z-9.5000 F120.00
G2 X-2.2542 Y43.2893 Z-9.5000 I22.9998 J-0.0002 F120.00
G1 X-1.3982 Y45.1258 Z-6.0000 F120.00
G2 X1.3770 Y49.2790 Z-6.0000 I20.3980 J-10.6260 F120.00
G1 X2.7460 Y50.7726 Z-9.5000 F120.00
G2 X18.9867 Y57.4996 Z-9.5000 I16.2537 J-16.2729 F120.00
G1 X21.0109 Y57.4115 Z-6.0000 F120.00
G2 X25.9101 Y56.4369 Z-6.0000 I-2.0111 J-22.9117 F120.00
G1 X27.8139 Y55.7436 Z-9.5000 F120.00
G2 X35.2632 Y50.7629 Z-9.5000 I-8.8141 J-21.2439 F120.00
G1 X35.2632 Y50.7629 Z-10.0000 F120.00
G2 X41.9996 Y34.5296 Z-10.0000 I-16.2635 J-16.2632 F120.00
G1 X41.9997 Y23.5755 Z-10.0000 F120.00
G1 X41.9997 Y21.2661 Z-6.0000 F120.00
G1 X41.9998 Y16.2636 Z-6.0000 F120.00
G1 X41.9998 Y13.9542 Z-10.0000 F120.00
G1 X42.0000 Y3.0000 Z-10.0000 F120.00
G2 X38.0785 Y-0.9969 Z-10.0000 I-4.0018 J0.0041 F120.00
G1 X23.8499 Y-0.9981 Z-10.0000 F120.00
G1 X21.5405 Y-0.9983 Z-6.0000 F120.00
G1 X16.5380 Y-0.9987 Z-6.0000 F120.00
G1 X14.2286 Y-0.9988 Z-10.0000 F120.00
G1 X0.0000 Y-1.0000 Z-10.0000 F120.00
G2 X-3.9969 Y2.9215 Z-10.0000 I0.0041 J4.0018 F120.00
G1 X-4.0000 Y34.5000 Z-10.0000 F120.00
G2 X-2.3634 Y43.0205 Z-10.0000 I22.9998 J-0.0002 F120.00
G1 X-1.3982 Y45.1258 Z-6.0000 F120.00
G2 X1.3770 Y49.2790 Z-6.0000 I20.3980 J-10.6260 F120.00
G1 X2.9526 Y50.9764 Z-10.0000 F120.00
G2 X18.6965 Y57.4976 Z-10.0000 I16.0472 J-16.4766 F120.00
G1 X21.0109 Y57.4115 Z-6.0000 F120.00
G2 X25.9101 Y56.4369 Z-6.0000 I-2.0111 J-22.9117 F120.00
G1 X28.0812 Y55.6308 Z-10.0000 F120.00
G2 X35.2632 Y50.7629 Z-10.0000 I-9.0814 J-21.1310 F120.00
G1 X35.2632 Y50.7629 Z-10.5000 F120.00
G2 X41.9996 Y34.5296 Z-10.5000 I-16.2635 J-16.2632 F120.00
G1 X41.9997 Y23.8642 Z-10.5000 F120.00
G1 X41.9997 Y21.2661 Z-6.0000 F120.00
G1 X41.9998 Y16.2636 Z-6.0000 F120.00
G1 X41.9999 Y13.6655 Z-10.5000 F120.00
G1 X42.0000 Y3.0000 Z-10.5000 F120.00
G2 X38.0785 Y-0.9969 Z-10.5000 I-4.0018 J0.0041 F120.00
G1 X24.1386 Y-0.9980 Z-10.5000 F120.00
G1 X21.5405 Y-0.9983 Z-6.0000 F120.00
G1 X16.5380 Y-0.9987 Z-6.0000 F120.00
G1 X13.9399 Y-0.9989 Z-10.5000 F120.00
G1 X0.0000 Y-1.0000 Z-10.5000 F120.00
G2 X-3.9969 Y2.9215 Z-10.5000 I0.0041 J4.0018 F120.00
G1 X-4.0000 Y34.5000 Z-10.5000 F120.00
G2 X-2.4693 Y42.7501 Z-10.5000 I22.9998 J-0.0002 F120.00
G1 X-1.3982 Y45.1258 Z-6.0000 F120.00
G2 X1.3770 Y49.2790 Z-6.0000 I20.3980 J-10.6260 F120.00
G1 X3.1619 Y51.1777 Z-10.5000 F120.00
G2 X18.4062 Y57.4919 Z-10.5000 I15.8379 J-16.6779 F120.00
G1 X21.0109 Y57.4115 Z-6.0000 F120.00
G2 X25.9101 Y56.4369 Z-6.0000 I-2.0111 J-22.9117 F120.00
G1 X28.3473 Y55.5144 Z-10.5000 F120.00
G2 X35.2632 Y50.7629 Z-10.5000 I-9.3475 J-21.0146 F120.00
G1 X35.2632 Y50.7629 Z-11.0000 F120.00
G2 X41.9996 Y34.5296 Z-11.0000 I-16.2635 J-16.2632 F120.00
G1 X41.9997 Y24.1528 Z-11.0000 F120.00
G1 X41.9997 Y21.2661 Z-6.0000 F120.00
G1 X41.9998 Y16.2636 Z-6.0000 F120.00
G1 X41.9999 Y13.3768 Z-11.0000 F120.00
G1 X42.0000 Y3.0000 Z-11.0000 F120.00
G2 X38.0785 Y-0.9969 Z-11.0000 I-4.0018 J0.0041 F120.00
G1 X24.4272 Y-0.9980 Z-11.0000 F120.00
G1 X21.5405 Y-0.9983 Z-6.0000 F120.00
G1 X16.5380 Y-0.9987 Z-6.0000 F120.00
G1 X13.6512 Y-0.9989 Z-11.0000 F120.00
G1 X0.0000 Y-1.0000 Z-11.0000 F120.00
G2 X-3.9969 Y2.9215 Z-11.0000 I0.0041 J4.0018 F120.00
G1 X-4.0000 Y34.5000 Z-11.0000 F120.00
G2 X-2.5718 Y42.4782 Z-11.0000 I22.9998 J-0.0002 F120.00
G1 X-1.3982 Y45.1258 Z-6.0000 F120.00
G2 X1.3770 Y49.2790 Z-6.0000 I20.3980 J-10.6260 F120.00
G1 X3.3739 Y51.3764 Z-11.0000 F120.00
G2 X18.1158 Y57.4826 Z-11.0000 I15.6259 J-16.8766 F120.00
G1 X21.0109 Y57.4115 Z-6.0000 F120.00
G2 X25.9101 Y56.4369 Z-6.0000 I-2.0111 J-22.9117 F120.00
G1 X28.6120 Y55.3947 Z-11.0000 F120.00
G2 X35.2632 Y50.7629 Z-11.0000 I-9.6122 J-20.8949 F120.00
G1 X35.2632 Y50.7629 Z-11.5000 F120.00
G2 X41.9996 Y34.5296 Z-11.5000 I-16.2635 J-16.2632 F120.00
G1 X41.9997 Y24.4415 Z-11.5000 F120.00
G1 X41.9997 Y21.2661 Z-6.0000 F120.00
G1 X41.9998 Y16.2636 Z-6.0000 F120.00
G1 X41.9999 Y13.0881 Z-11.5000 F120.00
G1 X42.0000 Y3.0000 Z-11.5000 F120.00
G2 X38.0785 Y-0.9969 Z-11.5000 I-4.0018 J0.0041 F120.00
G1 X24.7159 Y-0.9980 Z-11.5000 F120.00
G1 X21.5405 Y-0.9983 Z-6.0000 F120.00
G1 X16.5380 Y-0.9987 Z-6.0000 F120.00
G1 X13.3625 Y-0.9989 Z-11.5000 F120.00
G1 X0.0000 Y-1.0000 Z-11.5000 F120.00
G2 X-3.9969 Y2.9215 Z-11.5000 I0.0041 J4.0018 F120.00
G1 X-4.0000 Y34.5000 Z-11.5000 F120.00
G2 X-2.6710 Y42.2049 Z-11.5000 I22.9998 J-0.0002 F120.00
G1 X-1.3982 Y45.1258 Z-6.0000 F120.00
G2 X1.3770 Y49.2790 Z-6.0000 I20.3980 J-10.6260 F120.00
G1 X3.5885 Y51.5726 Z-11.5000 F120.00
G2 X17.8253 Y57.4696 Z-11.5000 I15.4113 J-17.0729 F120.00
G1 X21.0109 Y57.4115 Z-6.0000 F120.00
G2 X25.9101 Y56.4369 Z-6.0000 I-2.0111 J-22.9117 F120.00
G1 X28.8754 Y55.2715 Z-11.5000 F120.00
G2 X35.2632 Y50.7629 Z-11.5000 I-9.8756 J-20.7717 F120.00
G1 X35.2632 Y50.7629 Z-12.0000 F120.00
G2 X41.9996 Y34.5296 Z-12.0000 I-16.2635 J-16.2632 F120.00
G1 X41.9997 Y24.7302 Z-12.0000 F120.00
G1 X41.9997 Y21.2661 Z-6.0000 F120.00
G1 X41.9998 Y16.2636 Z-6.0000 F120.00
G1 X41.9999 Y12.7995 Z-12.0000 F120.00
G1 X42.0000 Y3.0000 Z-12.0000 F120.00
G2 X38.0785 Y-0.9969 Z-12.0000 I-4.0018 J0.0041 F120.00
G1 X25.0046 Y-0.9980 Z-12.0000 F120.00
G1 X21.5405 Y-0.9983 Z-6.0000 F120.00
G1 X16.5380 Y-0.9987 Z-6.0000 F120.00
G1 X13.0739 Y-0.9989 Z-12.0000 F120.00
G1 X0.0000 Y-1.0000 Z-12.0000 F120.00
G2 X-3.9969 Y2.9215 Z-12.0000 I0.0041 J4.0018 F120.00
G1 X-4.0000 Y34.5000 Z-12.0000 F120.00
G2 X-2.7667 Y41.9301 Z-12.0000 I22.9998 J-0.0002 F120.00
G1 X-1.3982 Y45.1258 Z-6.0000 F120.00
G2 X1.3770 Y49.2790 Z-6.0000 I20.3980 J-10.6260 F120.00
G1 X3.8057 Y51.7663 Z-12.0000 F120.00
G2 X17.5348 Y57.4529 Z-12.0000 I15.1940 J-17.2665 F120.00
G1 X21.0109 Y57.4115 Z-6.0000 F120.00
G2 X25.9101 Y56.4369 Z-6.0000 I-2.0111 J-22.9117 F120.00
G1 X29.1374 Y55.1448 Z-12.0000 F120.00
G2 X35.2632 Y50.7629 Z-12.0000 I-10.1376 J-20.6451 F120.00
G0 X35.2632 Y50.7629 Z5.0000
(finish operation: TagDressup)
(begin postamble)
M5
G17 G90
; M2
